(prop2new)
(T1  D=3 CR=0 - ZMIN=-23.265 - flat end mill)
G90 G94
G17
G21
G28 G91 Z0
G90

(Adaptive1)
T1
S18000 M3
G54
G0 X52.655 Y0.837
Z2.01
Z0
G2 X52.553 Y3.531 Z-0.148 I-0.051 J1.347 F333.3
X52.655 Y0.837 Z-0.296 I0.051 J-1.347
X52.553 Y3.531 Z-0.444 I-0.051 J1.347
X52.655 Y0.837 Z-0.592 I0.051 J-1.347
X52.553 Y3.531 Z-0.74 I-0.051 J1.347
X52.655 Y0.837 Z-0.887 I0.051 J-1.347
X52.553 Y3.531 Z-1.035 I-0.051 J1.347
X52.655 Y0.837 Z-1.183 I0.051 J-1.347
X52.553 Y3.531 Z-1.331 I-0.051 J1.347
X52.655 Y0.837 Z-1.479 I0.051 J-1.347
X52.553 Y3.531 Z-1.627 I-0.051 J1.347
X52.655 Y0.837 Z-1.775 I0.051 J-1.347
X52.553 Y3.531 Z-1.923 I-0.051 J1.347
X52.655 Y0.837 Z-2.071 I0.051 J-1.347
X52.553 Y3.531 Z-2.219 I-0.051 J1.347
X52.655 Y0.837 Z-2.366 I0.051 J-1.347
X52.553 Y3.531 Z-2.514 I-0.051 J1.347
X52.655 Y0.837 Z-2.662 I0.051 J-1.347
X52.553 Y3.531 Z-2.81 I-0.051 J1.347
X52.655 Y0.837 Z-2.958 I0.051 J-1.347
X52.553 Y3.531 Z-3.106 I-0.051 J1.347
X52.655 Y0.837 Z-3.254 I0.051 J-1.347
X52.553 Y3.531 Z-3.402 I-0.051 J1.347
X52.655 Y0.837 Z-3.55 I0.051 J-1.347
X52.553 Y3.531 Z-3.698 I-0.051 J1.347
X52.655 Y0.837 Z-3.845 I0.051 J-1.347
X52.553 Y3.531 Z-3.993 I-0.051 J1.347
X52.655 Y0.837 Z-4.141 I0.051 J-1.347
X52.553 Y3.531 Z-4.289 I-0.051 J1.347
X52.655 Y0.837 Z-4.437 I0.051 J-1.347
X52.553 Y3.531 Z-4.585 I-0.051 J1.347
X52.655 Y0.837 Z-4.733 I0.051 J-1.347
X52.553 Y3.531 Z-4.881 I-0.051 J1.347
X52.655 Y0.837 Z-5.029 I0.051 J-1.347
X52.553 Y3.531 Z-5.177 I-0.051 J1.347
X52.655 Y0.837 Z-5.324 I0.051 J-1.347
X52.553 Y3.531 Z-5.472 I-0.051 J1.347
X52.655 Y0.837 Z-5.62 I0.051 J-1.347
X52.553 Y3.531 Z-5.768 I-0.051 J1.347
X52.655 Y0.837 Z-5.916 I0.051 J-1.347
X52.553 Y3.531 Z-6.064 I-0.051 J1.347
X52.655 Y0.837 Z-6.212 I0.051 J-1.347
X52.553 Y3.531 Z-6.36 I-0.051 J1.347
X52.655 Y0.837 Z-6.508 I0.051 J-1.347
X52.553 Y3.531 Z-6.656 I-0.051 J1.347
X52.655 Y0.837 Z-6.803 I0.051 J-1.347
X52.553 Y3.531 Z-6.951 I-0.051 J1.347
X52.655 Y0.837 Z-7.099 I0.051 J-1.347
X52.553 Y3.531 Z-7.247 I-0.051 J1.347
X52.655 Y0.837 Z-7.395 I0.051 J-1.347
X52.553 Y3.531 Z-7.543 I-0.051 J1.347
X52.655 Y0.837 Z-7.691 I0.051 J-1.347
X52.553 Y3.531 Z-7.839 I-0.051 J1.347
X52.655 Y0.837 Z-7.987 I0.051 J-1.347
X52.553 Y3.531 Z-8.135 I-0.051 J1.347
X52.655 Y0.837 Z-8.282 I0.051 J-1.347
X52.553 Y3.531 Z-8.43 I-0.051 J1.347
X52.655 Y0.837 Z-8.578 I0.051 J-1.347
X52.553 Y3.531 Z-8.726 I-0.051 J1.347
X52.655 Y0.837 Z-8.874 I0.051 J-1.347
X52.553 Y3.531 Z-9.022 I-0.051 J1.347
X52.655 Y0.837 Z-9.17 I0.051 J-1.347
X52.553 Y3.531 Z-9.318 I-0.051 J1.347
X52.655 Y0.837 Z-9.466 I0.051 J-1.347
X52.553 Y3.531 Z-9.614 I-0.051 J1.347
X52.655 Y0.837 Z-9.761 I0.051 J-1.347
X52.553 Y3.531 Z-9.909 I-0.051 J1.347
X53.952 Y2.184 Z-9.985 I0.051 J-1.347
X51.255 Y2.184 I-1.348 J0
X53.952 Y2.184 I1.348 J0
X52.604 Y2.184 I-0.674 J0
G1 X52.439 Y3.612 F30
X52.562 Y3.753
X52.892 Y3.93
X53.267 Y3.944
X53.628 Y3.842
X54.274 Y3.461
X54.662 Y2.819
X54.774 Y2.077
X54.615 Y1.344
X54.418 Y1.032
X54.286 Y0.872
X54.119 Y0.75
X53.927 Y0.672
X53.721 Y0.645
X52.003 Y0.629
X51.714 Y0.64
X51.36 Y0.764
X51.059 Y0.988
X50.59 Y1.573
X50.453 Y2.311
X50.608 Y3.044
X51.014 Y3.675
X51.569 Y4.18
X51.667 Y4.244
X51.807 Y4.318
X51.958 Y4.363
X52.115 Y4.38
X53.474 Y4.393
X53.849 Y4.377
X54.576 Y4.193
X55.123 Y3.679
X55.46 Y3.009
X55.61 Y2.274
X55.565 Y1.526
X55.439 Y1.192
X55.317 Y0.975
X55.136 Y0.804
X54.913 Y0.693
X54.668 Y0.654
X53.721 Y0.645
G2 X53.491 Y0.75 I-0.003 J0.3
G3 X53.256 Y0.855 I-0.228 J-0.195
G1 X52.998 Y0.849
X52.749 Y0.844 F1000
X52.716 Y0.843 F30
X52.664 Y0.838
X52.614 Y0.823
X52.567 Y0.8
G2 X52.003 Y0.629 I-0.616 J1.015
G1 X51.512 Y0.624
X50.763 Y0.867
X50.574 Y0.928
X50.42 Y0.978
X50.303 Y1.088
X50.244 Y1.161
X50.193 Y1.241
G2 X50.622 Y1.63 I0.267 J0.137
G1 X50.672 Y1.59 F1000
X50.712 Y1.541
X50.74 Y1.485
X50.783 Y1.373 F30
G2 X50.42 Y0.978 I-0.28 J-0.107
G1 X50.276 Y1.092
X50.021 Y1.549
X49.914 Y1.741
X49.839 Y1.875
X49.786 Y1.983
X49.727 Y2.139
X49.701 Y2.304
X49.708 Y2.471
G2 X50.285 Y2.519 I0.295 J-0.053
G1 X50.295 Y2.488 F1000
X50.387 Y2.1
X50.393 Y2.068
X50.396 Y2.037
G2 X49.839 Y1.875 I-0.3 J-0.006 F30
G1 X49.666 Y2.184
X49.714 Y2.514
X49.747 Y2.745
X49.771 Y2.905
X49.808 Y3.095
X49.846 Y3.229
X49.907 Y3.356
X49.987 Y3.47
G2 X50.504 Y3.207 I0.223 J-0.201
G1 X50.493 Y3.169 F1000
X50.351 Y2.772
X50.34 Y2.745
X50.327 Y2.72
X50.311 Y2.696
G2 X49.771 Y2.905 I-0.242 J0.177 F30
G1 X49.824 Y3.276
X50.42 Y3.985
X51.464 Y4.368
X51.512 Y4.374
X52.115 Y4.38
G2 X52.27 Y3.821 I0.003 J-0.3
X51.965 Y4.338 I-0.152 J0.258 F1000
X52.184 Y4.372 I0.152 J-0.258
G1 X52.945 Y4.2
G2 X52.813 Y3.615 I-0.066 J-0.293
X52.723 Y4.164 I0.066 J0.293
G1 X52.73 Y4.169
G2 X53.474 Y4.393 I0.814 J-1.357 F30
G1 X54.787 Y4.405
X54.975 Y4.397
X55.323 Y4.257
X55.916 Y3.799
X56.276 Y3.141
X56.449 Y2.411
X56.461 Y1.661
X56.36 Y1.281
X56.278 Y1.081
X56.147 Y0.909
X55.976 Y0.776
X55.777 Y0.692
X55.563 Y0.662
X54.668 Y0.654
G2 X54.375 Y0.966 I0.008 J0.3
G1 X54.388 Y1.275
X54.487 Y3.778 F1000
X54.501 Y4.117 F30
G2 X54.787 Y4.405 I0.3 J-0.012
G1 X55.695 Y4.414
X55.882 Y4.406
X56.561 Y4.087
X57.001 Y3.48
X57.255 Y2.774
X57.359 Y2.031
X57.27 Y1.286
X57.215 Y1.163
X57.088 Y0.963
X56.911 Y0.807
X56.696 Y0.706
X56.462 Y0.671
X55.563 Y0.662
G2 X55.271 Y0.975 I0.008 J0.3
G1 X55.284 Y1.284
X55.394 Y3.787 F1000
X55.409 Y4.127 F30
G2 X55.695 Y4.414 I0.3 J-0.013
G1 X56.44 Y4.421
X56.815 Y4.405
X57.486 Y4.071
X57.91 Y3.453
X58.152 Y2.743
X58.228 Y1.996
X58.15 Y1.251
X58.103 Y1.153
X57.975 Y0.96
X57.799 Y0.809
X57.588 Y0.713
X57.359 Y0.679
X56.462 Y0.671
G2 X56.17 Y0.969 I0.008 J0.3
G1 X56.168 Y1.292
X56.155 Y3.793 F1000
X56.153 Y4.119 F30
G2 X56.44 Y4.421 I0.3 J0.002
G1 X57.301 Y4.429
X57.676 Y4.414
X58.016 Y4.255
X58.581 Y3.761
X58.917 Y3.091
X59.083 Y2.359
X59.104 Y1.61
X59.02 Y1.302
X58.937 Y1.103
X58.806 Y0.932
X58.635 Y0.801
X58.437 Y0.717
X58.224 Y0.687
X57.359 Y0.679
G2 X57.067 Y0.974 I0.008 J0.3
G1 X57.062 Y1.301
X57.02 Y3.802 F1000
X57.015 Y4.124 F30
G2 X57.301 Y4.429 I0.3 J0.005
G1 X58.245 Y4.438
X58.619 Y4.423
X59.258 Y4.029
X59.667 Y3.401
X59.904 Y2.689
X60 Y1.945
X59.896 Y1.203
X59.866 Y1.145
X59.737 Y0.962
X59.563 Y0.82
X59.357 Y0.729
X59.135 Y0.697
X58.224 Y0.687
G2 X57.931 Y0.99 I0.007 J0.3
G1 X57.934 Y1.309
X57.955 Y3.81 F1000
X57.958 Y4.141 F30
G2 X58.245 Y4.438 I0.3 J-0.003
G1 X59.155 Y4.447
X59.53 Y4.433
X60.165 Y4.033
X60.566 Y3.4
X60.798 Y2.687
X60.868 Y1.94
X60.786 Y1.194
X60.765 Y1.154
X60.636 Y0.971
X60.462 Y0.83
X60.257 Y0.739
X60.036 Y0.707
X59.135 Y0.697
G2 X58.843 Y0.999 I0.007 J0.3
G1 X58.845 Y1.318
X58.866 Y3.819 F1000
X58.869 Y4.15 F30
G2 X59.155 Y4.447 I0.3 J-0.002
G1 X60.062 Y4.457
X60.25 Y4.45
X60.593 Y4.3
X61.18 Y3.832
X61.536 Y3.172
X61.72 Y2.445
X61.752 Y1.696
X61.679 Y1.368
X61.602 Y1.159
X61.472 Y0.978
X61.299 Y0.838
X61.096 Y0.749
X60.875 Y0.716
X60.036 Y0.707
G2 X59.743 Y1.01 I0.007 J0.3
G1 X59.746 Y1.328
X59.773 Y3.83 F1000
X59.776 Y4.161 F30
G2 X60.062 Y4.457 I0.3 J-0.003
G1 X60.807 Y4.466
X61.182 Y4.451
X61.846 Y4.102
X62.277 Y3.488
X62.531 Y2.783
X62.641 Y2.041
X62.56 Y1.295
X62.516 Y1.202
X62.389 Y1.009
X62.213 Y0.858
X62.002 Y0.762
X61.773 Y0.727
X60.875 Y0.716
G2 X60.582 Y1.011 I0.007 J0.3
G1 X60.576 Y1.337
X60.528 Y3.838 F1000
X60.522 Y4.16 F30
G2 X60.807 Y4.466 I0.3 J0.006
G1 X61.669 Y4.476
X62.044 Y4.462
X62.721 Y4.139
X63.155 Y3.528
X63.412 Y2.823
X63.508 Y2.079
X63.455 Y1.331
X63.407 Y1.226
X63.281 Y1.028
X63.104 Y0.873
X62.891 Y0.773
X62.658 Y0.737
X61.773 Y0.727
G2 X61.48 Y1.018 I0.007 J0.3
G1 X61.47 Y1.348
X61.393 Y3.848 F1000
X61.383 Y4.167 F30
G2 X61.669 Y4.476 I0.3 J0.009
G1 X62.612 Y4.487
X62.987 Y4.473
X63.649 Y4.12
X64.069 Y3.499
X64.306 Y2.788
X64.393 Y2.043
X64.326 Y1.296
X64.289 Y1.219
X64.161 Y1.027
X63.986 Y0.878
X63.776 Y0.782
X63.549 Y0.748
X62.658 Y0.737
G2 X62.365 Y1.034 I0.007 J0.3
G1 X62.361 Y1.358
X62.33 Y3.859 F1000
X62.326 Y4.184 F30
G2 X62.612 Y4.487 I0.3 J0.004
G1 X63.522 Y4.498
X63.897 Y4.484
X64.553 Y4.12
X64.963 Y3.492
X65.193 Y2.778
X65.275 Y2.033
X65.208 Y1.286
X65.176 Y1.223
X65.048 Y1.034
X64.873 Y0.887
X64.665 Y0.793
X64.439 Y0.759
X63.549 Y0.748
G2 X63.256 Y1.046 I0.007 J0.3
G1 X63.254 Y1.369
X63.238 Y3.87 F1000
X63.236 Y4.196 F30
G2 X63.522 Y4.498 I0.3 J0.002
G1 X64.43 Y4.509
X64.805 Y4.494
X65.453 Y4.117
X65.856 Y3.484
X66.08 Y2.769
X66.159 Y2.023
X66.09 Y1.276
X66.065 Y1.226
X65.936 Y1.04
X65.762 Y0.895
X65.555 Y0.803
X65.331 Y0.769
X64.439 Y0.759
G2 X64.146 Y1.058 I0.007 J0.3
G1 Y1.38
X64.144 Y3.881 F1000
Y4.209 F30
G2 X64.43 Y4.509 I0.3 J0
G1 X65.364 Y4.52
X65.551 Y4.513
X65.895 Y4.363
X66.478 Y3.892
X66.827 Y3.228
X67.01 Y2.5
X67.048 Y1.751
X66.974 Y1.427
X66.896 Y1.219
X66.767 Y1.039
X66.594 Y0.9
X66.391 Y0.811
X66.172 Y0.779
X65.331 Y0.769
G2 X65.038 Y1.073 I0.007 J0.3
G1 X65.042 Y1.39
X65.073 Y3.892 F1000
X65.078 Y4.224 F30
G2 X65.364 Y4.52 I0.3 J-0.004
G1 X66.037 Y4.528
X66.411 Y4.513
X67.097 Y4.21
X67.542 Y3.606
X67.81 Y2.905
X67.936 Y2.166
X67.869 Y1.419
X67.815 Y1.293
X67.69 Y1.089
X67.512 Y0.929
X67.296 Y0.827
X67.06 Y0.79
X66.172 Y0.779
G2 X65.879 Y1.067 I0.007 J0.3
G1 X65.865 Y1.4
X65.764 Y3.9 F1000
X65.751 Y4.216 F30
G2 X66.037 Y4.528 I0.3 J0.012
G1 X66.98 Y4.539
X67.354 Y4.525
X68.028 Y4.194
X68.459 Y3.58
X68.716 Y2.876
X68.808 Y2.131
X68.743 Y1.384
X68.696 Y1.282
X68.569 Y1.087
X68.392 Y0.934
X68.18 Y0.836
X67.95 Y0.8
X67.06 Y0.79
G2 X66.767 Y1.083 I0.007 J0.3
G1 X66.759 Y1.411
X66.701 Y3.911 F1000
X66.694 Y4.232 F30
G2 X66.98 Y4.539 I0.3 J0.007
G1 X67.89 Y4.55
X68.265 Y4.535
X68.933 Y4.196
X69.36 Y3.579
X69.6 Y2.869
X69.687 Y2.124
X69.624 Y1.376
X69.582 Y1.288
X69.455 Y1.094
X69.279 Y0.943
X69.068 Y0.846
X68.839 Y0.811
X67.95 Y0.8
G2 X67.657 Y1.095 I0.007 J0.3
G1 X67.651 Y1.421
X67.609 Y3.922 F1000
X67.604 Y4.245 F30
G2 X67.89 Y4.55 I0.3 J0.005
G1 X68.798 Y4.561
X69.172 Y4.546
X69.837 Y4.198
X70.253 Y3.574
X70.485 Y2.861
X70.569 Y2.116
X70.505 Y1.369
X70.468 Y1.292
X70.34 Y1.101
X70.165 Y0.951
X69.955 Y0.856
X69.728 Y0.821
X68.839 Y0.811
G2 X68.546 Y1.107 I0.007 J0.3
G1 X68.542 Y1.432
X68.515 Y3.933 F1000
X68.512 Y4.258 F30
G2 X68.798 Y4.561 I0.3 J0.003
G1 X69.731 Y4.572
X70.106 Y4.557
X70.753 Y4.179
X71.155 Y3.545
X71.378 Y2.829
X71.455 Y2.083
X71.381 Y1.337
X71.355 Y1.287
X71.226 Y1.102
X71.052 Y0.958
X70.846 Y0.865
X70.623 Y0.832
X69.728 Y0.821
G2 X69.435 Y1.122 I0.007 J0.3
G1 X69.436 Y1.442
X69.444 Y3.944 F1000
X69.445 Y4.273 F30
G2 X69.731 Y4.572 I0.3 J-0.001
G1 X70.634 Y4.582
X71.009 Y4.568
X71.649 Y4.176
X72.045 Y3.54
X72.265 Y2.823
X72.338 Y2.076
X72.265 Y1.33
X72.247 Y1.293
X72.118 Y1.11
X71.944 Y0.967
X71.739 Y0.876
X71.517 Y0.843
X70.623 Y0.832
G2 X70.329 Y1.134 I0.007 J0.3
G1 X70.331 Y1.453
X70.347 Y3.955 F1000
X70.349 Y4.285 F30
G2 X70.634 Y4.582 I0.3 J-0.002
G1 X71.499 Y4.593
X71.873 Y4.579
X72.519 Y4.197
X72.919 Y3.563
X73.142 Y2.847
X73.221 Y2.101
X73.159 Y1.354
X73.138 Y1.312
X73.01 Y1.126
X72.836 Y0.981
X72.63 Y0.889
X72.406 Y0.855
X71.517 Y0.843
G2 X71.224 Y1.142 I0.007 J0.3
G1 X71.223 Y1.464
X71.214 Y3.965 F1000
X71.213 Y4.293 F30
G2 X71.499 Y4.593 I0.3 J0.001
G1 X72.439 Y4.606
X72.627 Y4.599
X72.968 Y4.444
X73.546 Y3.966
X73.891 Y3.3
X74.074 Y2.573
X74.115 Y1.824
X74.043 Y1.513
X73.966 Y1.306
X73.836 Y1.127
X73.664 Y0.988
X73.461 Y0.899
X73.243 Y0.866
X72.406 Y0.855
G2 X72.112 Y1.159 I0.006 J0.3
G1 X72.117 Y1.475
X72.149 Y3.977 F1000
X72.154 Y4.31 F30
G2 X72.439 Y4.606 I0.3 J-0.004
G1 X73.196 Y4.616
X73.571 Y4.603
X74.221 Y4.229
X74.642 Y3.608
X74.891 Y2.901
X75.001 Y2.159
X74.916 Y1.414
X74.88 Y1.342
X74.752 Y1.154
X74.578 Y1.007
X74.37 Y0.913
X74.145 Y0.879
X73.243 Y0.866
G2 X72.949 Y1.163 I0.006 J0.3
G1 X72.945 Y1.487
X72.914 Y3.988 F1000
X72.91 Y4.313 F30
G2 X73.196 Y4.616 I0.3 J0.004
G1 X74.099 Y4.629
X74.473 Y4.615
X75.124 Y4.241
X75.54 Y3.618
X75.785 Y2.909
X75.87 Y2.164
X75.803 Y1.417
X75.772 Y1.355
X75.644 Y1.167
X75.47 Y1.02
X75.262 Y0.926
X75.037 Y0.891
X74.145 Y0.879
G2 X73.851 Y1.175 I0.006 J0.3
G1 X73.847 Y1.499
X73.817 Y4 F1000
X73.813 Y4.325 F30
G2 X74.099 Y4.629 I0.3 J0.004
G1 X75.002 Y4.641
X75.377 Y4.628
X76.025 Y4.25
X76.438 Y3.624
X76.669 Y2.91
X76.752 Y2.165
X76.687 Y1.418
X76.661 Y1.365
X76.533 Y1.177
X76.359 Y1.031
X76.151 Y0.938
X75.927 Y0.904
X75.037 Y0.891
G2 X74.743 Y1.189 I0.006 J0.3
G1 X74.741 Y1.512
X74.719 Y4.013 F1000
X74.717 Y4.339 F30
G2 X75.002 Y4.641 I0.3 J0.003
G1 X75.866 Y4.653
X76.241 Y4.64
X76.899 Y4.28
X77.312 Y3.654
X77.546 Y2.941
X77.634 Y2.196
X77.579 Y1.448
X77.549 Y1.386
X77.421 Y1.195
X77.247 Y1.046
X77.038 Y0.951
X76.811 Y0.916
X75.927 Y0.904
G2 X75.633 Y1.199 I0.006 J0.3
G1 X75.628 Y1.524
X75.586 Y4.025 F1000
X75.581 Y4.349 F30
G2 X75.866 Y4.653 I0.3 J0.005
G1 X76.807 Y4.666
X77.181 Y4.653
X77.82 Y4.259
X78.219 Y3.624
X78.442 Y2.908
X78.523 Y2.162
X78.452 Y1.416
X78.434 Y1.38
X78.305 Y1.196
X78.132 Y1.053
X77.926 Y0.962
X77.704 Y0.929
X76.811 Y0.916
G2 X76.517 Y1.216 I0.006 J0.3
G1 X76.518 Y1.536
X76.521 Y4.038 F1000
Y4.367 F30
G2 X76.807 Y4.666 I0.3 J0
G1 X77.717 Y4.679
X77.904 Y4.672
X78.248 Y4.522
X78.833 Y4.053
X79.184 Y3.39
X79.372 Y2.664
X79.411 Y1.915
X79.341 Y1.595
X79.265 Y1.386
X79.136 Y1.204
X78.963 Y1.063
X78.759 Y0.973
X78.539 Y0.94
X77.704 Y0.929
G2 X77.411 Y1.23 I0.006 J0.3
G1 X77.413 Y1.549
X77.429 Y4.051 F1000
X77.432 Y4.381 F30
G2 X77.717 Y4.679 I0.3 J-0.002
G1 X78.399 Y4.689
X78.774 Y4.675
X79.457 Y4.366
X79.902 Y3.762
X80.171 Y3.062
X80.298 Y2.323
X80.233 Y1.575
X80.18 Y1.454
X80.055 Y1.251
X79.878 Y1.092
X79.662 Y0.99
X79.427 Y0.952
X78.539 Y0.94
G2 X78.245 Y1.228 I0.006 J0.3
G1 X78.231 Y1.56
X78.127 Y4.06 F1000
X78.114 Y4.376 F30
G2 X78.399 Y4.689 I0.3 J0.012
G1 X79.369 Y4.702
X79.744 Y4.688
X80.406 Y4.336
X80.831 Y3.718
X81.084 Y3.012
X81.172 Y2.267
X81.101 Y1.52
X81.061 Y1.437
X80.933 Y1.245
X80.758 Y1.096
X80.549 Y1
X80.321 Y0.965
X79.427 Y0.952
G2 X79.134 Y1.248 I0.006 J0.3
G1 X79.128 Y1.573
X79.089 Y4.074 F1000
X79.084 Y4.398 F30
G2 X79.369 Y4.702 I0.3 J0.005
G1 X80.231 Y4.714
X80.606 Y4.7
X81.279 Y4.369
X81.711 Y3.756
X81.956 Y3.047
X82.048 Y2.303
X81.995 Y1.555
X81.952 Y1.462
X81.825 Y1.265
X81.649 Y1.112
X81.437 Y1.013
X81.206 Y0.977
X80.321 Y0.965
G2 X80.028 Y1.257 I0.006 J0.3
G1 X80.019 Y1.585
X79.954 Y4.086 F1000
X79.946 Y4.407 F30
G2 X80.231 Y4.714 I0.3 J0.008
G1 X81.174 Y4.727
X81.549 Y4.713
X82.207 Y4.353
X82.619 Y3.726
X82.85 Y3.013
X82.935 Y2.267
X82.867 Y1.521
X82.834 Y1.455
X82.706 Y1.265
X82.531 Y1.117
X82.322 Y1.023
X82.095 Y0.989
X81.206 Y0.977
G2 X80.912 Y1.275 I0.006 J0.3
G1 X80.91 Y1.598
X80.891 Y4.099 F1000
X80.889 Y4.425 F30
G2 X81.174 Y4.727 I0.3 J0.002
G1 X82.084 Y4.739
X82.459 Y4.724
X83.108 Y4.349
X83.513 Y3.717
X83.739 Y3.002
X83.817 Y2.256
X83.748 Y1.509
X83.722 Y1.456
X83.593 Y1.27
X83.418 Y1.124
X83.211 Y1.032
X82.986 Y0.998
X82.095 Y0.989
G2 X81.803 Y1.289 I0.007 J0.3
G1 X81.802 Y1.61
X81.799 Y4.111 F1000
Y4.44 F30
G2 X82.084 Y4.739 I0.3 J0
G1 X82.992 Y4.749
X83.367 Y4.734
X84.007 Y4.344
X84.405 Y3.708
X84.626 Y2.991
X84.702 Y2.245
X84.631 Y1.499
X84.609 Y1.457
X84.48 Y1.272
X84.305 Y1.129
X84.099 Y1.038
X83.875 Y1.006
X82.986 Y0.998
G2 X82.694 Y1.299 I0.007 J0.3
G1 X82.695 Y1.62
X82.704 Y4.121 F1000
X82.706 Y4.45 F30
G2 X82.992 Y4.749 I0.3 J-0.001
G1 X83.926 Y4.756
X84.113 Y4.748
X84.454 Y4.593
X85.031 Y4.114
X85.375 Y3.448
X85.556 Y2.72
X85.591 Y1.97
X85.517 Y1.655
X85.438 Y1.448
X85.308 Y1.269
X85.135 Y1.131
X84.931 Y1.043
X84.711 Y1.012
X83.875 Y1.006
G2 X83.583 Y1.311 I0.008 J0.3
G1 X83.589 Y1.628
X83.633 Y4.13 F1000
X83.638 Y4.462 F30
G2 X83.926 Y4.756 I0.3 J-0.005
G1 X84.599 Y4.761
X84.973 Y4.745
X85.654 Y4.43
X86.094 Y3.822
X86.358 Y3.12
X86.48 Y2.38
X86.409 Y1.634
X86.356 Y1.513
X86.229 Y1.312
X86.051 Y1.154
X85.835 Y1.053
X85.6 Y1.018
X84.711 Y1.012
G2 X84.42 Y1.301 I0.008 J0.3
G1 X84.409 Y1.634
X84.322 Y4.135 F1000
X84.311 Y4.451 F30
G2 X84.599 Y4.761 I0.3 J0.01
G1 X85.542 Y4.768
X85.916 Y4.751
X86.584 Y4.41
X87.011 Y3.794
X87.264 Y3.088
X87.352 Y2.343
X87.283 Y1.596
X87.237 Y1.499
X87.109 Y1.305
X86.932 Y1.154
X86.72 Y1.058
X86.49 Y1.024
X85.6 Y1.018
G2 X85.308 Y1.313 I0.009 J0.3
G1 X85.303 Y1.64
X85.26 Y4.141 F1000
X85.254 Y4.463 F30
G2 X85.542 Y4.768 I0.3 J0.005
G1 X86.452 Y4.773
X86.827 Y4.757
X87.491 Y4.408
X87.913 Y3.789
X88.148 Y3.077
X88.231 Y2.331
X88.164 Y1.584
X88.124 Y1.501
X87.995 Y1.309
X87.819 Y1.159
X87.608 Y1.064
X87.379 Y1.03
X86.49 Y1.024
G2 X86.199 Y1.32 I0.008 J0.3
G1 X86.195 Y1.646
X86.168 Y4.147 F1000
X86.165 Y4.47 F30
G2 X86.452 Y4.773 I0.3 J0.003
G1 X87.36 Y4.78
X87.734 Y4.764
X88.394 Y4.407
X88.805 Y3.78
X89.034 Y3.066
X89.114 Y2.32
X89.045 Y1.573
X89.011 Y1.504
X88.883 Y1.314
X88.708 Y1.167
X88.499 Y1.072
X88.272 Y1.038
X87.379 Y1.03
G2 X87.088 Y1.328 I0.008 J0.3
G1 X87.086 Y1.652
X87.074 Y4.153 F1000
X87.072 Y4.479 F30
G2 X87.36 Y4.78 I0.3 J0.001
G1 X88.293 Y4.789
X88.668 Y4.774
X89.31 Y4.386
X89.707 Y3.75
X89.926 Y3.033
X89.999 Y2.286
X89.922 Y1.54
X89.901 Y1.5
X89.772 Y1.316
X89.598 Y1.174
X89.394 Y1.083
X89.172 Y1.049
X88.272 Y1.038
G2 X87.98 Y1.341 I0.007 J0.3
G1 X87.982 Y1.66
X88.004 Y4.161 F1000
X88.007 Y4.492 F30
G2 X88.293 Y4.789 I0.3 J-0.003
G1 X89.196 Y4.8
X89.384 Y4.793
X89.729 Y4.647
X90.318 Y4.183
X90.668 Y3.519
X90.852 Y2.792
X90.886 Y2.043
X90.814 Y1.716
X90.737 Y1.507
X90.609 Y1.326
X90.437 Y1.186
X90.234 Y1.095
X90.014 Y1.062
X89.172 Y1.049
G2 X88.878 Y1.352 I0.006 J0.3
G1 X88.881 Y1.67
X88.908 Y4.172 F1000
X88.911 Y4.504 F30
G2 X89.196 Y4.8 I0.3 J-0.003
G1 X89.909 Y4.811
X90.284 Y4.798
X90.96 Y4.473
X91.397 Y3.864
X91.657 Y3.16
X91.775 Y2.42
X91.702 Y1.673
X91.654 Y1.567
X91.529 Y1.37
X91.353 Y1.215
X91.141 Y1.115
X90.91 Y1.078
X90.014 Y1.062
G2 X89.72 Y1.353 I0.005 J0.3
G1 X89.71 Y1.681
X89.635 Y4.181 F1000
X89.625 Y4.502 F30
G2 X89.909 Y4.811 I0.3 J0.009
G1 X90.82 Y4.827
X91.194 Y4.815
X91.866 Y4.482
X92.297 Y3.868
X92.552 Y3.163
X92.645 Y2.418
X92.585 Y1.671
X92.541 Y1.578
X92.415 Y1.382
X92.24 Y1.23
X92.03 Y1.131
X91.801 Y1.094
X90.91 Y1.078
G2 X90.615 Y1.37 I0.005 J0.3
G1 X90.607 Y1.697
X90.544 Y4.197 F1000
X90.536 Y4.52 F30
G2 X90.82 Y4.827 I0.3 J0.008
G1 X91.727 Y4.844
X92.102 Y4.832
X92.769 Y4.49
X93.195 Y3.872
X93.436 Y3.162
X93.525 Y2.417
X93.466 Y1.67
X93.428 Y1.589
X93.302 Y1.396
X93.127 Y1.245
X92.918 Y1.147
X92.69 Y1.111
X91.801 Y1.094
G2 X91.506 Y1.388 I0.005 J0.3
G1 X91.499 Y1.713
X91.45 Y4.214 F1000
X91.443 Y4.538 F30
G2 X91.727 Y4.844 I0.3 J0.006
G1 X92.661 Y4.861
X93.035 Y4.849
X93.688 Y4.48
X94.098 Y3.852
X94.328 Y3.138
X94.41 Y2.393
X94.342 Y1.646
X94.315 Y1.591
X94.187 Y1.403
X94.014 Y1.257
X93.808 Y1.163
X93.584 Y1.127
X92.69 Y1.111
G2 X92.395 Y1.409 I0.005 J0.3
G1 X92.393 Y1.73
X92.379 Y4.231 F1000
X92.377 Y4.56 F30
G2 X92.661 Y4.861 I0.3 J0.002
G1 X93.564 Y4.878
X93.939 Y4.866
X94.585 Y4.485
X94.988 Y3.852
X95.214 Y3.137
X95.293 Y2.391
X95.227 Y1.644
X95.205 Y1.602
X95.078 Y1.416
X94.905 Y1.272
X94.699 Y1.179
X94.477 Y1.144
X93.584 Y1.127
G2 X93.289 Y1.427 I0.005 J0.3
G1 X93.288 Y1.746
X93.281 Y4.248 F1000
X93.28 Y4.578 F30
G2 X93.564 Y4.878 I0.3 J0
G1 X94.428 Y4.894
X94.803 Y4.882
X95.455 Y4.51
X95.862 Y3.881
X96.091 Y3.167
X96.176 Y2.421
X96.12 Y1.673
X96.096 Y1.625
X95.968 Y1.437
X95.795 Y1.29
X95.588 Y1.196
X95.364 Y1.161
X94.477 Y1.144
G2 X94.182 Y1.44 I0.005 J0.3
G1 X94.178 Y1.763
X94.148 Y4.264 F1000
X94.144 Y4.591 F30
G2 X94.428 Y4.894 I0.3 J0.004
G1 X95.369 Y4.911
X95.556 Y4.905
X95.9 Y4.756
X96.485 Y4.286
X96.836 Y3.624
X97.025 Y2.898
X97.071 Y2.149
X97.001 Y1.829
X96.924 Y1.621
X96.796 Y1.44
X96.624 Y1.3
X96.422 Y1.21
X96.202 Y1.176
X95.364 Y1.161
G2 X95.069 Y1.462 I0.005 J0.3
G1 X95.07 Y1.78
X95.083 Y4.282 F1000
X95.085 Y4.613 F30
G2 X95.369 Y4.911 I0.3 J-0.002
G1 X96.125 Y4.925
X96.5 Y4.914
X97.157 Y4.551
X97.584 Y3.935
X97.839 Y3.229
X97.955 Y2.488
X97.876 Y1.743
X97.838 Y1.664
X97.711 Y1.473
X97.537 Y1.325
X97.329 Y1.229
X97.103 Y1.193
X96.202 Y1.176
G2 X95.907 Y1.47 I0.005 J0.3
G1 X95.901 Y1.795
X95.848 Y4.296 F1000
X95.841 Y4.62 F30
G2 X96.125 Y4.925 I0.3 J0.006
G1 X97.028 Y4.942
X97.403 Y4.93
X98.06 Y4.568
X98.482 Y3.948
X98.733 Y3.242
X98.824 Y2.497
X98.762 Y1.75
X98.729 Y1.681
X98.602 Y1.49
X98.428 Y1.341
X98.22 Y1.245
X97.994 Y1.209
X97.103 Y1.193
G2 X96.808 Y1.487 I0.005 J0.3
G1 X96.801 Y1.812
X96.751 Y4.312 F1000
X96.744 Y4.637 F30
G2 X97.028 Y4.942 I0.3 J0.006
G1 X97.931 Y4.959
X98.306 Y4.947
X98.961 Y4.581
X99.38 Y3.959
X99.617 Y3.247
X99.705 Y2.502
X99.646 Y1.755
X99.616 Y1.695
X99.489 Y1.505
X99.315 Y1.357
X99.108 Y1.261
X98.882 Y1.226
X97.994 Y1.209
G2 X97.699 Y1.505 I0.005 J0.3
G1 X97.693 Y1.828
X97.653 Y4.329 F1000
X97.648 Y4.655 F30
G2 X97.931 Y4.959 I0.3 J0.005
G1 X98.796 Y4.975
X99.171 Y4.963
X99.835 Y4.615
X100.254 Y3.993
X100.493 Y3.282
X100.586 Y2.538
X100.537 Y1.789
X100.504 Y1.719
X100.377 Y1.527
X100.203 Y1.376
X99.994 Y1.279
X99.766 Y1.242
X98.882 Y1.226
G2 X98.587 Y1.519 I0.005 J0.3
G1 X98.58 Y1.845
X98.52 Y4.345 F1000
X98.512 Y4.668 F30
G2 X98.796 Y4.975 I0.3 J0.007
G1 X99.736 Y4.993
X100.111 Y4.981
X100.756 Y4.598
X101.161 Y3.967
X101.39 Y3.253
X101.475 Y2.507
X101.409 Y1.76
X101.388 Y1.718
X101.26 Y1.532
X101.087 Y1.387
X100.882 Y1.294
X100.659 Y1.259
X99.766 Y1.242
G2 X99.471 Y1.541 I0.005 J0.3
G1 X99.469 Y1.861
X99.454 Y4.363 F1000
X99.452 Y4.691 F30
G2 X99.736 Y4.993 I0.3 J0.002
G1 X100.646 Y5.009
X100.834 Y5.004
X101.18 Y4.859
X101.771 Y4.398
X102.128 Y3.738
X102.321 Y3.013
X102.365 Y2.265
X102.296 Y1.935
X102.221 Y1.725
X102.092 Y1.542
X101.92 Y1.4
X101.716 Y1.309
X101.496 Y1.275
X100.659 Y1.259
G2 X100.364 Y1.559 I0.005 J0.3
G1 Y1.878
X100.363 Y4.38 F1000
Y4.71 F30
G2 X100.646 Y5.009 I0.3 J0
G1 X101.554 Y5.026
X101.741 Y5.02
X102.416 Y4.692
X102.857 Y4.086
X103.124 Y3.385
X103.249 Y2.645
X103.183 Y1.898
X103.134 Y1.787
X103.009 Y1.587
X102.833 Y1.43
X102.62 Y1.329
X102.388 Y1.291
X101.496 Y1.275
G2 X101.201 Y1.581 I0.005 J0.3
G1 X101.208 Y1.894
X101.263 Y4.397 F1000
X101.27 Y4.733 F30
G2 X101.554 Y5.026 I0.3 J-0.007
G1 X102.299 Y5.04
X102.674 Y5.028
X103.341 Y4.686
X103.771 Y4.072
X104.028 Y3.367
X104.121 Y2.623
X104.059 Y1.875
X104.018 Y1.788
X103.892 Y1.594
X103.717 Y1.442
X103.507 Y1.344
X103.279 Y1.308
X102.388 Y1.291
G2 X102.093 Y1.584 I0.005 J0.3
G1 X102.085 Y1.91
X102.023 Y4.411 F1000
X102.015 Y4.733 F30
G2 X102.299 Y5.04 I0.3 J0.007
G1 X103.161 Y5.056
X103.535 Y5.044
X104.213 Y4.723
X104.65 Y4.114
X104.9 Y3.407
X104.998 Y2.663
X104.951 Y1.914
X104.907 Y1.816
X104.781 Y1.617
X104.606 Y1.462
X104.394 Y1.362
X104.162 Y1.324
X103.279 Y1.308
G2 X102.984 Y1.598 I0.005 J0.3
G1 X102.973 Y1.927
X102.888 Y4.427 F1000
X102.877 Y4.746 F30
G2 X103.161 Y5.056 I0.3 J0.01
G1 X104.104 Y5.074
X104.479 Y5.062
X105.141 Y4.71
X105.558 Y4.087
X105.795 Y3.375
X105.885 Y2.631
X105.823 Y1.883
X105.789 Y1.813
X105.662 Y1.622
X105.488 Y1.473
X105.28 Y1.377
X105.054 Y1.341
X104.162 Y1.324
G2 X103.867 Y1.62 I0.005 J0.3
G1 X103.862 Y1.943
X103.825 Y4.444 F1000
X103.82 Y4.77 F30
G2 X104.104 Y5.074 I0.3 J0.004
G1 X105.014 Y5.091
X105.389 Y5.079
X106.042 Y4.711
X106.452 Y4.083
X106.684 Y3.37
X106.768 Y2.625
X106.704 Y1.877
X106.677 Y1.823
X106.55 Y1.635
X106.376 Y1.488
X106.17 Y1.393
X105.946 Y1.358
X105.054 Y1.341
G2 X104.758 Y1.638 I0.005 J0.3
G1 X104.756 Y1.96
X104.733 Y4.461 F1000
X104.73 Y4.788 F30
G2 X105.014 Y5.091 I0.3 J0.003
G1 X105.922 Y5.108
X106.296 Y5.097
X106.941 Y4.714
X107.345 Y4.082
X107.571 Y3.367
X107.652 Y2.621
X107.587 Y1.874
X107.567 Y1.835
X107.44 Y1.65
X107.268 Y1.505
X107.063 Y1.412
X106.841 Y1.377
X105.946 Y1.358
G2 X105.65 Y1.657 I0.005 J0.3
G1 X105.649 Y1.977
X105.639 Y4.478 F1000
X105.638 Y4.808 F30
G2 X105.922 Y5.108 I0.3 J0.001
G1 X106.706 Y5.125
X107.081 Y5.115
X107.756 Y4.787
X108.183 Y4.171
X108.429 Y3.462
X108.53 Y2.719
X108.496 Y1.97
X108.46 Y1.889
X108.335 Y1.691
X108.161 Y1.536
X107.95 Y1.435
X107.719 Y1.397
X106.841 Y1.377
G2 X106.545 Y1.665 I0.004 J0.3
G1 X106.532 Y1.995
X106.436 Y4.495 F1000
X106.424 Y4.814 F30
G2 X106.706 Y5.125 I0.3 J0.012
G1 X107.758 Y5.149
X107.946 Y5.144
X108.624 Y4.824
X109.055 Y4.21
X109.306 Y3.503
X109.416 Y2.761
X109.382 Y2.012
X109.34 Y1.916
X109.216 Y1.717
X109.041 Y1.56
X108.83 Y1.457
X108.598 Y1.418
X107.719 Y1.397
G2 X107.423 Y1.702 I0.003 J0.3
G1 X107.428 Y2.015
X107.47 Y4.518 F1000
X107.476 Y4.855 F30
G2 X107.758 Y5.149 I0.3 J-0.005
G1 X108.471 Y5.166
X108.846 Y5.157
X109.521 Y4.83
X109.948 Y4.213
X110.198 Y3.506
X110.303 Y2.763
X110.258 Y2.015
X110.219 Y1.929
X110.094 Y1.733
X109.92 Y1.579
X109.71 Y1.479
X109.481 Y1.441
X108.598 Y1.418
G2 X108.301 Y1.708 I0.003 J0.3
G1 X108.289 Y2.035
X108.201 Y4.535 F1000
X108.19 Y4.856 F30
G2 X108.471 Y5.166 I0.3 J0.011
G1 X109.382 Y5.189
X109.756 Y5.18
X110.422 Y4.835
X110.844 Y4.215
X111.089 Y3.506
X111.187 Y2.762
X111.135 Y2.014
X111.102 Y1.943
X110.977 Y1.75
X110.803 Y1.599
X110.595 Y1.5
X110.368 Y1.463
X109.481 Y1.441
G2 X109.184 Y1.733 I0.003 J0.3
G1 X109.175 Y2.057
X109.108 Y4.558 F1000
X109.1 Y4.882 F30
G2 X109.382 Y5.189 I0.3 J0.008
G1 X110.289 Y5.212
X110.664 Y5.203
X111.322 Y4.843
X111.739 Y4.219
X111.978 Y3.508
X112.071 Y2.764
X112.016 Y2.016
X111.988 Y1.958
X111.862 Y1.768
X111.689 Y1.619
X111.482 Y1.522
X111.257 Y1.485
X110.368 Y1.463
G2 X110.071 Y1.757 I0.003 J0.3
G1 X110.065 Y2.08
X110.014 Y4.581 F1000
X110.007 Y4.907 F30
G2 X110.289 Y5.212 I0.3 J0.006
G1 X111.223 Y5.236
X111.597 Y5.227
X112.238 Y4.837
X112.642 Y4.205
X112.872 Y3.491
X112.957 Y2.746
X112.892 Y1.999
X112.875 Y1.966
X112.748 Y1.781
X112.577 Y1.637
X112.373 Y1.544
X112.152 Y1.508
X111.257 Y1.485
G2 X110.96 Y1.784 I0.003 J0.3
G1 X110.958 Y2.102
X110.943 Y4.604 F1000
X110.941 Y4.934 F30
G2 X111.223 Y5.236 I0.3 J0.002
G1 X112.126 Y5.259
X112.313 Y5.254
X112.659 Y5.108
X113.25 Y4.646
X113.608 Y3.987
X113.802 Y3.263
X113.848 Y2.514
X113.781 Y2.193
X113.707 Y1.983
X113.58 Y1.799
X113.409 Y1.656
X113.206 Y1.564
X112.986 Y1.529
X112.152 Y1.508
G2 X111.855 Y1.807 I0.003 J0.3
G1 X111.854 Y2.125
X111.845 Y4.627 F1000
X111.844 Y4.958 F30
G2 X112.126 Y5.259 I0.3 J0.001
G1 X112.839 Y5.276
X113.214 Y5.267
X113.891 Y4.944
X114.335 Y4.339
X114.604 Y3.639
X114.731 Y2.9
X114.667 Y2.153
X114.62 Y2.046
X114.496 Y1.847
X114.321 Y1.69
X114.109 Y1.589
X113.877 Y1.55
X112.986 Y1.529
G2 X112.689 Y1.816 I0.003 J0.3
G1 X112.675 Y2.146
X112.57 Y4.645 F1000
X112.557 Y4.964 F30
G2 X112.839 Y5.276 I0.3 J0.013
G1 X113.749 Y5.299
X114.124 Y5.288
X114.799 Y4.961
X115.236 Y4.352
X115.5 Y3.65
X115.601 Y2.907
X115.549 Y2.158
X115.505 Y2.061
X115.38 Y1.864
X115.206 Y1.709
X114.995 Y1.609
X114.765 Y1.571
X113.877 Y1.55
G2 X113.581 Y1.84 I0.004 J0.3
G1 X113.569 Y2.168
X113.479 Y4.667 F1000
X113.467 Y4.988 F30
G2 X113.749 Y5.299 I0.3 J0.011
G1 X114.657 Y5.319
X115.031 Y5.309
X115.703 Y4.975
X116.136 Y4.363
X116.384 Y3.655
X116.482 Y2.911
X116.43 Y2.163
X116.388 Y2.072
X116.262 Y1.876
X116.087 Y1.723
X115.876 Y1.624
X115.645 Y1.587
X114.765 Y1.571
G2 X114.468 Y1.862 I0.004 J0.3
G1 X114.459 Y2.188
X114.384 Y4.688 F1000
X114.374 Y5.011 F30
G2 X114.657 Y5.319 I0.3 J0.009
G1 X115.59 Y5.336
X115.965 Y5.324
X116.625 Y4.968
X117.041 Y4.344
X117.278 Y3.632
X117.367 Y2.888
X117.304 Y2.14
X117.271 Y2.072
X117.143 Y1.881
X116.969 Y1.732
X116.76 Y1.636
X116.533 Y1.601
X115.645 Y1.587
G2 X115.351 Y1.883 I0.005 J0.3
G1 X115.346 Y2.206
X115.311 Y4.707 F1000
X115.306 Y5.033 F30
G2 X115.59 Y5.336 I0.3 J0.004
G1 X116.494 Y5.351
X116.868 Y5.338
X117.523 Y4.972
X117.933 Y4.344
X118.165 Y3.631
X118.249 Y2.885
X118.186 Y2.138
X118.158 Y2.08
X118.03 Y1.891
X117.855 Y1.744
X117.648 Y1.649
X117.422 Y1.615
X116.533 Y1.601
G2 X116.239 Y1.898 I0.006 J0.3
G1 X116.236 Y2.221
X116.212 Y4.722 F1000
X116.209 Y5.049 F30
G2 X116.494 Y5.351 I0.3 J0.003
G1 X117.358 Y5.364
X117.733 Y5.351
X118.393 Y4.996
X118.808 Y4.371
X119.042 Y3.659
X119.131 Y2.914
X119.077 Y2.166
X119.045 Y2.1
X118.918 Y1.908
X118.743 Y1.759
X118.534 Y1.663
X118.307 Y1.628
X117.422 Y1.615
G2 X117.128 Y1.909 I0.006 J0.3
G1 X117.123 Y2.235
X117.079 Y4.736 F1000
X117.073 Y5.059 F30
G2 X117.358 Y5.364 I0.3 J0.005
G1 X118.298 Y5.378
X118.673 Y5.365
X119.314 Y4.976
X119.714 Y4.341
X119.939 Y3.626
X120.02 Y2.88
X119.95 Y2.133
X119.93 Y2.095
X119.801 Y1.91
X119.628 Y1.767
X119.423 Y1.675
X119.2 Y1.641
X118.307 Y1.628
G2 X118.013 Y1.928 I0.006 J0.3
G1 Y2.248
Y4.75 F1000
Y5.079 F30
G2 X118.298 Y5.378 I0.3 J0
G1 X119.208 Y5.392
X119.396 Y5.385
X119.74 Y5.237
X120.327 Y4.77
X120.68 Y4.108
X120.869 Y3.382
X120.909 Y2.633
X120.838 Y2.31
X120.762 Y2.1
X120.633 Y1.918
X120.461 Y1.777
X120.257 Y1.687
X120.036 Y1.654
X119.2 Y1.641
G2 X118.906 Y1.943 I0.006 J0.3
G1 X118.908 Y2.261
X118.922 Y4.763 F1000
X118.923 Y5.094 F30
G2 X119.208 Y5.392 I0.3 J-0.002
G1 X119.891 Y5.402
X120.266 Y5.389
X120.951 Y5.083
X121.397 Y4.481
X121.667 Y3.781
X121.795 Y3.042
X121.731 Y2.295
X121.677 Y2.17
X121.553 Y1.967
X121.375 Y1.807
X121.16 Y1.704
X120.924 Y1.667
X120.036 Y1.654
G2 X119.743 Y1.941 I0.006 J0.3
G1 X119.728 Y2.273
X119.62 Y4.773 F1000
X119.606 Y5.089 F30
G2 X119.891 Y5.402 I0.3 J0.013
G1 X120.861 Y5.416
X121.236 Y5.403
X121.9 Y5.054
X122.326 Y4.437
X122.58 Y3.731
X122.669 Y2.987
X122.599 Y2.24
X122.558 Y2.154
X122.431 Y1.962
X122.256 Y1.811
X122.046 Y1.715
X121.818 Y1.68
X120.924 Y1.667
G2 X120.63 Y1.961 I0.006 J0.3
G1 X120.625 Y2.287
X120.582 Y4.788 F1000
X120.576 Y5.111 F30
G2 X120.861 Y5.416 I0.3 J0.005
G1 X121.723 Y5.429
X122.097 Y5.416
X122.772 Y5.088
X123.206 Y4.476
X123.452 Y3.768
X123.545 Y3.023
X123.493 Y2.275
X123.448 Y2.179
X123.322 Y1.982
X123.146 Y1.828
X122.933 Y1.728
X122.702 Y1.692
X121.818 Y1.68
G2 X121.524 Y1.972 I0.006 J0.3
G1 X121.515 Y2.3
X121.446 Y4.8 F1000
X121.437 Y5.121 F30
G2 X121.723 Y5.429 I0.3 J0.008
G1 X122.666 Y5.442
X123.041 Y5.429
X123.7 Y5.071
X124.114 Y4.446
X124.346 Y3.733
X124.431 Y2.988
X124.364 Y2.241
X124.331 Y2.172
X124.203 Y1.982
X124.028 Y1.834
X123.819 Y1.739
X123.592 Y1.704
X122.702 Y1.692
G2 X122.408 Y1.99 I0.006 J0.3
G1 X122.406 Y2.313
X122.383 Y4.814 F1000
X122.38 Y5.14 F30
G2 X122.666 Y5.442 I0.3 J0.003
G1 X123.576 Y5.455
X123.951 Y5.44
X124.602 Y5.068
X125.007 Y4.437
X125.235 Y3.722
X125.314 Y2.976
X125.246 Y2.23
X125.218 Y2.175
X125.09 Y1.988
X124.915 Y1.842
X124.708 Y1.749
X124.483 Y1.715
X123.592 Y1.704
G2 X123.299 Y2.004 I0.007 J0.3
G1 X123.298 Y2.325
X123.291 Y4.826 F1000
Y5.155 F30
G2 X123.576 Y5.455 I0.3 J0
G1 X124.535 Y5.466
X124.723 Y5.459
X125.064 Y5.304
X125.641 Y4.824
X125.986 Y4.158
X126.167 Y3.43
X126.203 Y2.681
X126.127 Y2.365
X126.048 Y2.159
X125.918 Y1.981
X125.746 Y1.843
X125.544 Y1.756
X125.325 Y1.724
X124.483 Y1.715
G2 X124.19 Y2.021 I0.007 J0.3
G1 X124.196 Y2.336
X124.243 Y4.838 F1000
X124.25 Y5.172 F30
G2 X124.535 Y5.466 I0.3 J-0.006
G1 X125.229 Y5.474
X125.603 Y5.459
X126.276 Y5.127
X126.712 Y4.517
X126.972 Y3.813
X127.092 Y3.073
X127.016 Y2.327
X126.968 Y2.221
X126.841 Y2.023
X126.664 Y1.868
X126.451 Y1.769
X126.218 Y1.734
X125.325 Y1.724
G2 X125.033 Y2.016 I0.007 J0.3
G1 X125.023 Y2.346
X124.951 Y4.846 F1000
X124.942 Y5.165 F30
G2 X125.229 Y5.474 I0.3 J0.009
G1 X126.09 Y5.483
X126.465 Y5.468
X127.15 Y5.162
X127.591 Y4.556
X127.855 Y3.854
X127.958 Y3.111
X127.908 Y2.363
X127.855 Y2.241
X127.729 Y2.039
X127.551 Y1.881
X127.336 Y1.78
X127.101 Y1.743
X126.218 Y1.734
G2 X125.926 Y2.022 I0.007 J0.3
G1 X125.913 Y2.355
X125.816 Y4.855 F1000
X125.804 Y5.171 F30
G2 X126.09 Y5.483 I0.3 J0.012
G1 X127.033 Y5.493
X127.408 Y5.478
X128.079 Y5.143
X128.507 Y4.528
X128.75 Y3.818
X128.842 Y3.074
X128.779 Y2.326
X128.735 Y2.232
X128.607 Y2.037
X128.431 Y1.885
X128.22 Y1.788
X127.989 Y1.753
X127.101 Y1.743
G2 X126.808 Y2.037 I0.007 J0.3
G1 X126.802 Y2.364
X126.753 Y4.865 F1000
X126.747 Y5.187 F30
G2 X127.033 Y5.493 I0.3 J0.006
G1 X127.944 Y5.503
X128.318 Y5.488
X128.984 Y5.143
X129.402 Y4.52
X129.638 Y3.808
X129.723 Y3.063
X129.659 Y2.316
X129.62 Y2.235
X129.492 Y2.043
X129.317 Y1.893
X129.107 Y1.797
X128.878 Y1.763
X127.989 Y1.753
G2 X127.697 Y2.049 I0.007 J0.3
G1 X127.693 Y2.374
X127.661 Y4.875 F1000
X127.657 Y5.199 F30
G2 X127.944 Y5.503 I0.3 J0.004
G1 X128.851 Y5.512
X129.226 Y5.498
X129.884 Y5.139
X130.295 Y4.512
X130.525 Y3.797
X130.606 Y3.052
X130.54 Y2.305
X130.507 Y2.238
X130.378 Y2.048
X130.203 Y1.901
X129.994 Y1.806
X129.768 Y1.772
X128.878 Y1.763
G2 X128.585 Y2.06 I0.007 J0.3
G1 X128.583 Y2.384
X128.567 Y4.885 F1000
X128.565 Y5.211 F30
G2 X128.851 Y5.512 I0.3 J0.002
G1 X129.785 Y5.523
X130.159 Y5.508
X130.8 Y5.118
X131.198 Y4.482
X131.418 Y3.765
X131.492 Y3.019
X131.416 Y2.273
X131.395 Y2.232
X131.265 Y2.048
X131.091 Y1.906
X130.886 Y1.815
X130.663 Y1.782
X129.768 Y1.772
G2 X129.475 Y2.074 I0.007 J0.3
G1 X129.478 Y2.393
X129.496 Y4.895 F1000
X129.498 Y5.225 F30
G2 X129.785 Y5.523 I0.3 J-0.002
G1 X130.688 Y5.532
X130.875 Y5.525
X131.221 Y5.379
X131.809 Y4.914
X132.16 Y4.251
X132.344 Y3.524
X132.379 Y2.775
X132.306 Y2.445
X132.229 Y2.235
X132.1 Y2.054
X131.927 Y1.913
X131.722 Y1.823
X131.501 Y1.791
X130.663 Y1.782
G2 X130.371 Y2.085 I0.007 J0.3
G1 X130.374 Y2.403
X130.398 Y4.905 F1000
X130.402 Y5.236 F30
G2 X130.688 Y5.532 I0.3 J-0.003
G1 X131.401 Y5.54
X131.776 Y5.526
X132.452 Y5.202
X132.89 Y4.592
X133.15 Y3.889
X133.267 Y3.148
X133.194 Y2.402
X133.144 Y2.291
X133.018 Y2.092
X132.84 Y1.936
X132.627 Y1.837
X132.394 Y1.801
X131.501 Y1.791
G2 X131.209 Y2.082 I0.007 J0.3
G1 X131.199 Y2.412
X131.124 Y4.913 F1000
X131.115 Y5.232 F30
G2 X131.401 Y5.54 I0.3 J0.009
G1 X132.311 Y5.55
X132.686 Y5.535
X133.36 Y5.206
X133.791 Y4.593
X134.045 Y3.887
X134.138 Y3.143
X134.076 Y2.395
X134.029 Y2.294
X133.902 Y2.097
X133.725 Y1.944
X133.513 Y1.846
X133.282 Y1.81
X132.394 Y1.801
G2 X132.101 Y2.093 I0.007 J0.3
G1 X132.093 Y2.422
X132.033 Y4.923 F1000
X132.025 Y5.243 F30
G2 X132.311 Y5.55 I0.3 J0.007
G1 X133.219 Y5.56
X133.593 Y5.545
X134.263 Y5.208
X134.69 Y4.591
X134.93 Y3.881
X135.018 Y3.136
X134.956 Y2.388
X134.914 Y2.298
X134.787 Y2.104
X134.61 Y1.952
X134.399 Y1.855
X134.169 Y1.82
X133.282 Y1.81
G2 X132.989 Y2.105 I0.007 J0.3
G1 X132.983 Y2.432
X132.938 Y4.932 F1000
X132.932 Y5.255 F30
G2 X133.219 Y5.56 I0.3 J0.005
G1 X134.152 Y5.57
X134.527 Y5.555
X135.183 Y5.193
X135.593 Y4.565
X135.822 Y3.851
X135.902 Y3.105
X135.831 Y2.358
X135.799 Y2.293
X135.671 Y2.104
X135.496 Y1.957
X135.287 Y1.864
X135.062 Y1.83
X134.169 Y1.82
G2 X133.876 Y2.119 I0.007 J0.3
G1 X133.875 Y2.441
X133.867 Y4.943 F1000
X133.866 Y5.27 F30
G2 X134.152 Y5.57 I0.3 J0
G1 X135.056 Y5.58
X135.43 Y5.565
X136.08 Y5.191
X136.484 Y4.559
X136.708 Y3.843
X136.785 Y3.097
X136.715 Y2.35
X136.688 Y2.297
X136.559 Y2.111
X136.385 Y1.966
X136.178 Y1.873
X135.953 Y1.84
X135.062 Y1.83
G2 X134.769 Y2.13 I0.007 J0.3
G1 Y2.451
Y4.952 F1000
Y5.28 F30
G2 X135.056 Y5.58 I0.3 J0
G1 X135.92 Y5.589
X136.295 Y5.575
X136.95 Y5.21
X137.358 Y4.581
X137.585 Y3.866
X137.667 Y3.12
X137.607 Y2.373
X137.578 Y2.314
X137.449 Y2.124
X137.274 Y1.977
X137.066 Y1.883
X136.84 Y1.849
X135.953 Y1.84
G2 X135.661 Y2.137 I0.007 J0.3
G1 X135.658 Y2.461
X135.636 Y4.962 F1000
X135.634 Y5.287 F30
G2 X135.92 Y5.589 I0.3 J0.003
G1 X136.86 Y5.6
X137.235 Y5.585
X137.869 Y5.185
X138.263 Y4.547
X138.481 Y3.829
X138.556 Y3.083
X138.48 Y2.336
X138.464 Y2.305
X138.334 Y2.123
X138.161 Y1.982
X137.956 Y1.891
X137.735 Y1.859
X136.84 Y1.849
G2 X136.547 Y2.152 I0.007 J0.3
G1 X136.55 Y2.47
X136.571 Y4.972 F1000
X136.574 Y5.303 F30
G2 X136.86 Y5.6 I0.3 J-0.003
G1 X137.77 Y5.61
X137.958 Y5.602
X138.3 Y5.448
X138.88 Y4.973
X139.226 Y4.308
X139.409 Y3.58
X139.443 Y2.831
X139.372 Y2.518
X139.295 Y2.31
X139.165 Y2.129
X138.993 Y1.99
X138.789 Y1.901
X138.569 Y1.869
X137.735 Y1.859
G2 X137.442 Y2.163 I0.007 J0.3
G1 X137.446 Y2.48
X137.48 Y4.982 F1000
X137.484 Y5.314 F30
G2 X137.77 Y5.61 I0.3 J-0.004
G1 X138.453 Y5.617
X138.827 Y5.603
X139.507 Y5.285
X139.947 Y4.677
X140.211 Y3.975
X140.332 Y3.235
X140.263 Y2.489
X140.212 Y2.374
X140.086 Y2.174
X139.909 Y2.017
X139.695 Y1.916
X139.461 Y1.88
X138.569 Y1.869
G2 X138.276 Y2.158 I0.007 J0.3
G1 X138.265 Y2.489
X138.178 Y4.99 F1000
X138.167 Y5.307 F30
G2 X138.453 Y5.617 I0.3 J0.01
G1 X139.423 Y5.63
X139.798 Y5.616
X140.454 Y5.253
X140.874 Y4.632
X141.123 Y3.924
X141.206 Y3.179
X141.131 Y2.433
X141.095 Y2.358
X140.967 Y2.169
X140.793 Y2.021
X140.584 Y1.926
X140.358 Y1.892
X139.461 Y1.88
G2 X139.168 Y2.177 I0.007 J0.3
G1 X139.165 Y2.5
X139.141 Y5.001 F1000
X139.137 Y5.327 F30
G2 X139.423 Y5.63 I0.3 J0.003
G1 X140.287 Y5.641
X140.662 Y5.628
X141.329 Y5.284
X141.755 Y4.667
X141.995 Y3.956
X142.083 Y3.211
X142.026 Y2.464
X141.987 Y2.382
X141.86 Y2.188
X141.685 Y2.037
X141.475 Y1.94
X141.246 Y1.905
X140.358 Y1.892
G2 X140.065 Y2.186 I0.006 J0.3
G1 X140.058 Y2.512
X140.009 Y5.013 F1000
X140.002 Y5.336 F30
G2 X140.287 Y5.641 I0.3 J0.006
G1 X141.228 Y5.655
X141.603 Y5.641
X142.254 Y5.269
X142.661 Y4.639
X142.888 Y3.924
X142.969 Y3.179
X142.899 Y2.432
X142.872 Y2.378
X142.744 Y2.191
X142.57 Y2.045
X142.364 Y1.952
X142.139 Y1.918
X141.246 Y1.905
G2 X140.952 Y2.204 I0.006 J0.3
G1 X140.951 Y2.525
X140.944 Y5.026 F1000
X140.943 Y5.355 F30
G2 X141.228 Y5.655 I0.3 J0
G1 X142.138 Y5.668
X142.513 Y5.655
X143.154 Y5.267
X143.554 Y4.632
X143.776 Y3.916
X143.853 Y3.169
X143.782 Y2.423
X143.762 Y2.384
X143.634 Y2.2
X143.461 Y2.056
X143.255 Y1.964
X143.033 Y1.931
X142.139 Y1.918
G2 X141.845 Y2.218 I0.006 J0.3
G1 X141.846 Y2.538
X141.852 Y5.039 F1000
X141.853 Y5.369 F30
G2 X142.138 Y5.668 I0.3 J-0.001
G1 X143.046 Y5.681
X143.233 Y5.675
X143.578 Y5.528
X144.166 Y5.062
X144.518 Y4.4
X144.704 Y3.673
X144.742 Y2.924
X144.672 Y2.599
X144.595 Y2.39
X144.466 Y2.208
X144.294 Y2.067
X144.09 Y1.976
X143.87 Y1.943
X143.033 Y1.931
G2 X142.739 Y2.233 I0.006 J0.3
G1 X142.741 Y2.551
X142.758 Y5.053 F1000
X142.76 Y5.384 F30
G2 X143.046 Y5.681 I0.3 J-0.002
G1 X143.791 Y5.692
X144.165 Y5.679
X144.83 Y5.331
X145.26 Y4.717
X145.515 Y4.012
X145.629 Y3.27
X145.551 Y2.524
X145.508 Y2.433
X145.381 Y2.24
X145.206 Y2.089
X144.996 Y1.992
X144.768 Y1.957
X143.87 Y1.943
G2 X143.576 Y2.236 I0.006 J0.3
G1 X143.568 Y2.563
X143.513 Y5.064 F1000
X143.506 Y5.386 F30
G2 X143.791 Y5.692 I0.3 J0.007
G1 X144.652 Y5.705
X145.027 Y5.692
X145.703 Y5.369
X146.139 Y4.758
X146.397 Y4.054
X146.496 Y3.31
X146.445 Y2.562
X146.399 Y2.461
X146.274 Y2.263
X146.098 Y2.108
X145.886 Y2.008
X145.655 Y1.971
X144.768 Y1.957
G2 X144.474 Y2.246 I0.006 J0.3
G1 X144.462 Y2.576
X144.378 Y5.077 F1000
X144.367 Y5.396 F30
G2 X144.652 Y5.705 I0.3 J0.01
G1 X145.595 Y5.72
X145.97 Y5.708
X146.631 Y5.354
X147.053 Y4.734
X147.292 Y4.023
X147.381 Y3.278
X147.317 Y2.531
X147.283 Y2.459
X147.156 Y2.268
X146.982 Y2.119
X146.775 Y2.023
X146.549 Y1.987
X145.655 Y1.971
G2 X145.36 Y2.266 I0.005 J0.3
G1 X145.355 Y2.59
X145.316 Y5.091 F1000
X145.311 Y5.416 F30
G2 X145.595 Y5.72 I0.3 J0.005
G1 X146.506 Y5.737
X146.88 Y5.726
X147.535 Y5.36
X147.946 Y4.733
X148.179 Y4.02
X148.263 Y3.274
X148.199 Y2.527
X148.172 Y2.471
X148.045 Y2.283
X147.872 Y2.136
X147.666 Y2.041
X147.441 Y2.006
X146.549 Y1.987
G2 X146.253 Y2.284 I0.004 J0.3
G1 X146.25 Y2.605
X146.226 Y5.106 F1000
X146.222 Y5.434 F30
G2 X146.506 Y5.737 I0.3 J0.003
G1 X147.413 Y5.756
X147.788 Y5.745
X148.434 Y5.364
X148.839 Y4.732
X149.066 Y4.017
X149.147 Y3.272
X149.082 Y2.525
X149.061 Y2.483
X148.934 Y2.297
X148.761 Y2.152
X148.556 Y2.058
X148.333 Y2.023
X147.441 Y2.006
G2 X147.146 Y2.304 I0.004 J0.3
G1 X147.144 Y2.624
X147.132 Y5.125 F1000
X147.13 Y5.455 F30
G2 X147.413 Y5.756 I0.3 J0.001
G1 X148.347 Y5.774
X148.534 Y5.769
X148.877 Y5.617
X149.46 Y5.145
X149.81 Y4.482
X149.997 Y3.755
X150.039 Y3.007
X149.968 Y2.69
X149.891 Y2.482
X149.763 Y2.302
X149.591 Y2.162
X149.388 Y2.072
X149.169 Y2.039
X148.333 Y2.023
G2 X148.038 Y2.326 I0.005 J0.3
G1 X148.04 Y2.642
X148.06 Y5.144 F1000
X148.063 Y5.477 F30
G2 X148.347 Y5.774 I0.3 J-0.002
G1 X149.02 Y5.787
X149.394 Y5.775
X150.078 Y5.467
X150.524 Y4.864
X150.795 Y4.164
X150.924 Y3.426
X150.861 Y2.678
X150.808 Y2.556
X150.683 Y2.353
X150.505 Y2.193
X150.289 Y2.09
X150.053 Y2.053
X149.169 Y2.039
G2 X148.875 Y2.326 I0.005 J0.3
G1 X148.86 Y2.658
X148.75 Y5.158 F1000
X148.736 Y5.474 F30
G2 X149.02 Y5.787 I0.3 J0.013
G1 X149.963 Y5.802
X150.338 Y5.788
X151.01 Y5.455
X151.442 Y4.843
X151.702 Y4.139
X151.797 Y3.395
X151.734 Y2.648
X151.688 Y2.547
X151.561 Y2.351
X151.385 Y2.198
X151.173 Y2.1
X150.942 Y2.064
X150.053 Y2.053
G2 X149.76 Y2.345 I0.007 J0.3
G1 X149.752 Y2.674
X149.686 Y5.174 F1000
X149.677 Y5.495 F30
G2 X149.963 Y5.802 I0.3 J0.008
G1 X150.873 Y5.814
X151.248 Y5.8
X151.916 Y5.459
X152.345 Y4.844
X152.587 Y4.134
X152.676 Y3.389
X152.615 Y2.642
X152.573 Y2.554
X152.446 Y2.36
X152.27 Y2.208
X152.06 Y2.111
X151.83 Y2.076
X150.942 Y2.064
G2 X150.649 Y2.358 I0.007 J0.3
G1 X150.643 Y2.685
X150.594 Y5.186 F1000
X150.587 Y5.508 F30
G2 X150.873 Y5.814 I0.3 J0.006
G1 X151.781 Y5.825
X152.155 Y5.811
X152.82 Y5.464
X153.237 Y4.841
X153.472 Y4.129
X153.558 Y3.384
X153.496 Y2.636
X153.46 Y2.561
X153.332 Y2.369
X153.157 Y2.219
X152.948 Y2.123
X152.721 Y2.088
X151.83 Y2.076
G2 X151.537 Y2.372 I0.007 J0.3
G1 X151.533 Y2.696
X151.499 Y5.197 F1000
X151.495 Y5.522 F30
G2 X151.781 Y5.825 I0.3 J0.004
G1 X152.714 Y5.839
X153.089 Y5.825
X153.737 Y5.447
X154.14 Y4.815
X154.365 Y4.1
X154.443 Y3.354
X154.371 Y2.607
X154.348 Y2.56
X154.22 Y2.375
X154.047 Y2.23
X153.841 Y2.138
X153.619 Y2.103
X152.721 Y2.088
G2 X152.427 Y2.389 I0.006 J0.3
G1 Y2.709
X152.429 Y5.21 F1000
Y5.539 F30
G2 X152.714 Y5.839 I0.3 J0
G1 X153.618 Y5.854
X153.992 Y5.842
X154.632 Y5.45
X155.03 Y4.814
X155.251 Y4.097
X155.327 Y3.351
X155.257 Y2.605
X155.24 Y2.572
X155.112 Y2.388
X154.94 Y2.246
X154.736 Y2.154
X154.515 Y2.12
X153.619 Y2.103
G2 X153.324 Y2.404 I0.005 J0.3
G1 X153.325 Y2.722
X153.332 Y5.224 F1000
X153.333 Y5.555 F30
G2 X153.618 Y5.854 I0.3 J-0.001
G1 X154.482 Y5.87
X154.857 Y5.858
X155.501 Y5.475
X155.903 Y4.842
X156.129 Y4.126
X156.21 Y3.381
X156.151 Y2.633
X156.132 Y2.595
X156.005 Y2.409
X155.832 Y2.265
X155.627 Y2.171
X155.404 Y2.137
X154.515 Y2.12
G2 X154.22 Y2.417 I0.005 J0.3
G1 X154.217 Y2.738
X154.2 Y5.24 F1000
X154.198 Y5.568 F30
G2 X154.482 Y5.87 I0.3 J0.002
G1 X155.422 Y5.888
X155.61 Y5.882
X155.951 Y5.726
X156.529 Y5.249
X156.876 Y4.584
X157.061 Y3.857
X157.105 Y3.108
X157.036 Y2.802
X156.959 Y2.595
X156.83 Y2.415
X156.659 Y2.276
X156.457 Y2.186
X156.239 Y2.153
X155.404 Y2.137
G2 X155.108 Y2.439 I0.005 J0.3
G1 X155.111 Y2.755
X155.135 Y5.258 F1000
X155.139 Y5.591 F30
G2 X155.422 Y5.888 I0.3 J-0.003
G1 X156.179 Y5.902
X156.554 Y5.891
X157.203 Y5.516
X157.625 Y4.896
X157.877 Y4.189
X157.991 Y3.448
X157.907 Y2.703
X157.873 Y2.634
X157.746 Y2.446
X157.573 Y2.3
X157.366 Y2.205
X157.142 Y2.17
X156.239 Y2.153
G2 X155.944 Y2.448 I0.005 J0.3
G1 X155.939 Y2.771
X155.9 Y5.272 F1000
X155.895 Y5.598 F30
G2 X156.179 Y5.902 I0.3 J0.005
G1 X157.082 Y5.919
X157.456 Y5.908
X158.106 Y5.533
X158.524 Y4.91
X158.772 Y4.202
X158.86 Y3.457
X158.795 Y2.71
X158.767 Y2.652
X158.639 Y2.464
X158.466 Y2.317
X158.259 Y2.222
X158.035 Y2.187
X157.142 Y2.17
G2 X156.847 Y2.465 I0.005 J0.3
G1 X156.842 Y2.789
X156.803 Y5.289 F1000
X156.798 Y5.615 F30
G2 X157.082 Y5.919 I0.3 J0.005
G1 X157.985 Y5.937
X158.36 Y5.925
X159.007 Y5.546
X159.422 Y4.921
X159.655 Y4.208
X159.741 Y3.463
X159.68 Y2.716
X159.655 Y2.667
X159.528 Y2.48
X159.355 Y2.333
X159.149 Y2.239
X158.925 Y2.204
X158.035 Y2.187
G2 X157.739 Y2.483 I0.005 J0.3
G1 X157.735 Y2.806
X157.705 Y5.307 F1000
X157.701 Y5.633 F30
G2 X157.985 Y5.937 I0.3 J0.004
G1 X158.849 Y5.953
X159.224 Y5.942
X159.881 Y5.58
X160.296 Y4.955
X160.532 Y4.243
X160.623 Y3.499
X160.572 Y2.751
X160.544 Y2.692
X160.417 Y2.502
X160.243 Y2.353
X160.035 Y2.257
X159.809 Y2.221
X158.925 Y2.204
G2 X158.63 Y2.498 I0.005 J0.3
G1 X158.623 Y2.823
X158.572 Y5.323 F1000
X158.566 Y5.648 F30
G2 X158.849 Y5.953 I0.3 J0.006
G1 X159.79 Y5.971
X160.165 Y5.96
X160.802 Y5.565
X161.203 Y4.931
X161.429 Y4.216
X161.512 Y3.47
X161.445 Y2.723
X161.429 Y2.692
X161.301 Y2.508
X161.128 Y2.364
X160.924 Y2.272
X160.703 Y2.238
X159.809 Y2.221
G2 X159.514 Y2.52 I0.005 J0.3
G1 X159.513 Y2.84
X159.507 Y5.341 F1000
X159.506 Y5.672 F30
G2 X159.79 Y5.971 I0.3 J0
G1 X160.7 Y5.989
X160.887 Y5.983
X161.231 Y5.832
X161.816 Y5.363
X162.169 Y4.701
X162.36 Y3.976
X162.402 Y3.227
X162.334 Y2.912
X162.259 Y2.702
X162.131 Y2.52
X161.959 Y2.379
X161.756 Y2.288
X161.536 Y2.254
X160.703 Y2.238
G2 X160.407 Y2.539 I0.005 J0.3
G1 X160.408 Y2.857
X160.415 Y5.359 F1000
X160.416 Y5.69 F30
G2 X160.7 Y5.989 I0.3 J-0.001
G1 X161.382 Y6.002
X161.757 Y5.99
X162.44 Y5.679
X162.886 Y5.077
X163.158 Y4.378
X163.287 Y3.639
X163.225 Y2.891
X163.174 Y2.773
X163.049 Y2.571
X162.873 Y2.412
X162.659 Y2.309
X162.425 Y2.271
X161.536 Y2.254
G2 X161.241 Y2.54 I0.005 J0.3
G1 X161.226 Y2.872
X161.113 Y5.372 F1000
X161.099 Y5.689 F30
G2 X161.382 Y6.002 I0.3 J0.014
G1 X162.353 Y6.02
X162.727 Y6.009
X163.389 Y5.655
X163.815 Y5.038
X164.071 Y4.333
X164.162 Y3.588
X164.093 Y2.841
X164.055 Y2.762
X163.929 Y2.57
X163.754 Y2.42
X163.546 Y2.324
X163.319 Y2.288
X162.425 Y2.271
G2 X162.13 Y2.565 I0.005 J0.3
G1 X162.123 Y2.89
X162.075 Y5.39 F1000
X162.069 Y5.715 F30
G2 X162.353 Y6.02 I0.3 J0.006
G1 X163.214 Y6.037
X163.589 Y6.025
X164.261 Y5.692
X164.695 Y5.081
X164.942 Y4.373
X165.037 Y3.629
X164.987 Y2.88
X164.946 Y2.79
X164.819 Y2.593
X164.643 Y2.439
X164.432 Y2.34
X164.201 Y2.304
X163.319 Y2.288
G2 X163.024 Y2.579 I0.005 J0.3
G1 X163.014 Y2.907
X162.94 Y5.407 F1000
X162.93 Y5.728 F30
G2 X163.214 Y6.037 I0.3 J0.009
G1 X164.157 Y6.053
X164.532 Y6.04
X165.189 Y5.679
X165.603 Y5.054
X165.837 Y4.341
X165.924 Y3.596
X165.859 Y2.849
X165.827 Y2.784
X165.699 Y2.594
X165.524 Y2.446
X165.315 Y2.351
X165.089 Y2.317
X164.201 Y2.304
G2 X163.907 Y2.6 I0.006 J0.3
G1 X163.903 Y2.924
X163.876 Y5.425 F1000
X163.872 Y5.75 F30
G2 X164.157 Y6.053 I0.3 J0.003
G1 X165.068 Y6.067
X165.442 Y6.053
X166.092 Y5.677
X166.498 Y5.047
X166.726 Y4.332
X166.807 Y3.587
X166.74 Y2.84
X166.714 Y2.787
X166.585 Y2.6
X166.411 Y2.454
X166.203 Y2.361
X165.979 Y2.327
X165.089 Y2.317
G2 X164.795 Y2.616 I0.007 J0.3
G1 X164.794 Y2.938
X164.784 Y5.438 F1000
X164.783 Y5.766 F30
G2 X165.068 Y6.067 I0.3 J0.001
G1 X165.975 Y6.077
X166.35 Y6.063
X166.991 Y5.674
X167.391 Y5.04
X167.614 Y4.324
X167.692 Y3.578
X167.623 Y2.831
X167.601 Y2.788
X167.471 Y2.603
X167.296 Y2.459
X167.09 Y2.368
X166.866 Y2.335
X165.979 Y2.327
G2 X165.686 Y2.628 I0.007 J0.3
G1 Y2.948
X165.689 Y5.45 F1000
Y5.778 F30
G2 X165.975 Y6.077 I0.3 J0
G1 X166.909 Y6.086
X167.096 Y6.078
X167.438 Y5.923
X168.016 Y5.446
X168.362 Y4.781
X168.545 Y4.053
X168.581 Y3.304
X168.508 Y2.987
X168.429 Y2.779
X168.299 Y2.6
X168.126 Y2.461
X167.922 Y2.373
X167.702 Y2.342
X166.866 Y2.335
G2 X166.574 Y2.64 I0.008 J0.3
G1 X166.579 Y2.957
X166.616 Y5.459 F1000
X166.621 Y5.79 F30
G2 X166.909 Y6.086 I0.3 J-0.005
G1 X167.582 Y6.091
X167.956 Y6.075
X168.638 Y5.762
X169.08 Y5.156
X169.346 Y4.455
X169.47 Y3.715
X169.4 Y2.968
X169.347 Y2.846
X169.22 Y2.643
X169.042 Y2.485
X168.826 Y2.384
X168.59 Y2.348
X167.702 Y2.342
G2 X167.411 Y2.63 I0.008 J0.3
G1 X167.398 Y2.964
X167.306 Y5.464 F1000
X167.294 Y5.78 F30
G2 X167.582 Y6.091 I0.3 J0.011
G1 X168.525 Y6.098
X168.9 Y6.082
X169.569 Y5.744
X169.998 Y5.128
X170.252 Y4.423
X170.342 Y3.678
X170.274 Y2.931
X170.227 Y2.832
X170.099 Y2.637
X169.922 Y2.486
X169.71 Y2.389
X169.48 Y2.355
X168.59 Y2.348
G2 X168.298 Y2.642 I0.008 J0.3
G1 X168.292 Y2.97
X168.244 Y5.471 F1000
X168.238 Y5.792 F30
G2 X168.525 Y6.098 I0.3 J0.006
G1 X169.435 Y6.104
X169.81 Y6.088
X170.475 Y5.743
X170.899 Y5.124
X171.137 Y4.413
X171.221 Y3.667
X171.155 Y2.92
X171.113 Y2.834
X170.985 Y2.641
X170.809 Y2.491
X170.597 Y2.395
X170.368 Y2.361
X169.48 Y2.355
G2 X169.188 Y2.651 I0.008 J0.3
G1 X169.184 Y2.977
X169.152 Y5.478 F1000
X169.148 Y5.801 F30
G2 X169.435 Y6.104 I0.3 J0.004
G1 X170.343 Y6.111
X170.717 Y6.095
X171.379 Y5.742
X171.792 Y5.116
X172.022 Y4.402
X172.103 Y3.657
X172.036 Y2.91
X171.999 Y2.835
X171.871 Y2.644
X171.695 Y2.496
X171.485 Y2.401
X171.257 Y2.368
X170.368 Y2.361
G2 X170.076 Y2.659 I0.008 J0.3
G1 X170.074 Y2.983
X170.058 Y5.484 F1000
X170.055 Y5.809 F30
G2 X170.343 Y6.111 I0.3 J0.002
G1 X171.276 Y6.118
X171.651 Y6.102
X172.296 Y5.719
X172.695 Y5.084
X172.915 Y4.367
X172.988 Y3.621
X172.911 Y2.875
X172.886 Y2.826
X172.757 Y2.641
X172.582 Y2.498
X172.375 Y2.406
X172.151 Y2.374
X171.257 Y2.368
G2 X170.965 Y2.67 I0.008 J0.3
G1 X170.968 Y2.99
X170.986 Y5.491 F1000
X170.989 Y5.82 F30
G2 X171.276 Y6.118 I0.3 J-0.002
G1 X172.18 Y6.125
X172.554 Y6.109
X173.191 Y5.713
X173.585 Y5.075
X173.801 Y4.356
X173.872 Y3.61
X173.796 Y2.864
X173.777 Y2.828
X173.647 Y2.644
X173.473 Y2.503
X173.267 Y2.413
X173.045 Y2.381
X172.151 Y2.374
G2 X171.86 Y2.677 I0.008 J0.3
G1 X171.863 Y2.996
X171.889 Y5.498 F1000
X171.892 Y5.828 F30
G2 X172.18 Y6.125 I0.3 J-0.003
G1 X173.044 Y6.131
X173.419 Y6.115
X174.062 Y5.729
X174.46 Y5.093
X174.679 Y4.376
X174.755 Y3.63
X174.69 Y2.883
X174.668 Y2.841
X174.538 Y2.655
X174.364 Y2.511
X174.157 Y2.42
X173.932 Y2.387
X173.045 Y2.381
G2 X172.753 Y2.681 I0.008 J0.3
G1 X172.754 Y3.003
X172.756 Y5.504 F1000
X172.757 Y5.831 F30
G2 X173.044 Y6.131 I0.3 J0
G1 X173.984 Y6.138
X174.172 Y6.13
X174.512 Y5.973
X175.088 Y5.493
X175.43 Y4.825
X175.61 Y4.097
X175.647 Y3.348
X175.574 Y3.036
X175.495 Y2.829
X175.365 Y2.65
X175.191 Y2.512
X174.988 Y2.424
X174.769 Y2.393
X173.932 Y2.387
G2 X173.641 Y2.693 I0.008 J0.3
G1 X173.646 Y3.01
X173.691 Y5.511 F1000
X173.697 Y5.843 F30
G2 X173.984 Y6.138 I0.3 J-0.005
G1 X174.741 Y6.143
X175.116 Y6.127
X175.765 Y5.752
X176.182 Y5.129
X176.428 Y4.42
X176.535 Y3.678
X176.446 Y2.933
X176.409 Y2.86
X176.28 Y2.672
X176.104 Y2.526
X175.896 Y2.433
X175.67 Y2.4
X174.769 Y2.393
G2 X174.477 Y2.691 I0.008 J0.3
G1 X174.475 Y3.016
X174.456 Y5.517 F1000
X174.454 Y5.841 F30
G2 X174.741 Y6.143 I0.3 J0.002
G1 X175.644 Y6.15
X176.018 Y6.134
X176.668 Y5.758
X177.081 Y5.133
X177.323 Y4.423
X177.404 Y3.677
X177.333 Y2.931
X177.301 Y2.867
X177.172 Y2.679
X176.996 Y2.533
X176.788 Y2.44
X176.562 Y2.407
X175.67 Y2.4
G2 X175.379 Y2.698 I0.008 J0.3
G1 X175.376 Y3.022
X175.359 Y5.523 F1000
X175.356 Y5.848 F30
G2 X175.644 Y6.15 I0.3 J0.002
G1 X176.547 Y6.157
X176.922 Y6.141
X177.569 Y5.761
X177.979 Y5.133
X178.207 Y4.419
X178.286 Y3.673
X178.217 Y2.926
X178.189 Y2.871
X178.06 Y2.684
X177.885 Y2.538
X177.677 Y2.446
X177.451 Y2.413
X176.562 Y2.407
G2 X176.27 Y2.706 I0.008 J0.3
G1 X176.269 Y3.029
X176.261 Y5.53 F1000
X176.26 Y5.857 F30
G2 X176.547 Y6.157 I0.3 J0
G1 X177.411 Y6.163
X177.786 Y6.147
X178.443 Y5.786
X178.854 Y5.158
X179.083 Y4.444
X179.167 Y3.699
X179.109 Y2.951
X179.077 Y2.886
X178.948 Y2.695
X178.772 Y2.547
X178.563 Y2.453
X178.335 Y2.42
X177.451 Y2.413
G2 X177.16 Y2.71 I0.008 J0.3
G1 X177.156 Y3.035
X177.128 Y5.536 F1000
X177.124 Y5.86 F30
G2 X177.411 Y6.163 I0.3 J0.003
G1 X178.352 Y6.17
X178.726 Y6.154
X179.364 Y5.759
X179.76 Y5.122
X179.98 Y4.405
X180.056 Y3.659
X179.981 Y2.913
X179.961 Y2.875
X179.831 Y2.691
X179.657 Y2.549
X179.451 Y2.458
X179.228 Y2.426
X178.335 Y2.42
G2 X178.043 Y2.722 I0.008 J0.3
G1 X178.046 Y3.042
X178.062 Y5.543 F1000
X178.064 Y5.872 F30
G2 X178.352 Y6.17 I0.3 J-0.002
G1 X179.262 Y6.177
X179.449 Y6.169
X179.793 Y6.018
X180.376 Y5.547
X180.724 Y4.882
X180.908 Y4.155
X180.943 Y3.406
X180.871 Y3.083
X180.793 Y2.874
X180.663 Y2.693
X180.489 Y2.553
X180.285 Y2.464
X180.064 Y2.432
X179.228 Y2.426
G2 X178.937 Y2.73 I0.008 J0.3
G1 X178.94 Y3.048
X178.971 Y5.55 F1000
X178.975 Y5.88 F30
G2 X179.262 Y6.177 I0.3 J-0.004
G1 X179.944 Y6.182
X180.319 Y6.166
X181.002 Y5.855
X181.444 Y5.25
X181.71 Y4.548
X181.832 Y3.808
X181.763 Y3.061
X181.709 Y2.937
X181.582 Y2.735
X181.404 Y2.576
X181.188 Y2.475
X180.952 Y2.439
X180.064 Y2.432
G2 X179.772 Y2.721 I0.008 J0.3
G1 X179.76 Y3.054
X179.669 Y5.555 F1000
X179.657 Y5.871 F30
G2 X179.944 Y6.182 I0.3 J0.011
G1 X180.915 Y6.189
X181.289 Y6.173
X181.951 Y5.819
X182.373 Y5.199
X182.622 Y4.492
X182.706 Y3.747
X182.631 Y3
X182.589 Y2.914
X182.46 Y2.723
X182.284 Y2.574
X182.074 Y2.479
X181.846 Y2.445
X180.952 Y2.439
G2 X180.66 Y2.736 I0.008 J0.3
G1 X180.657 Y3.061
X180.631 Y5.562 F1000
X180.627 Y5.886 F30
G2 X180.915 Y6.189 I0.3 J0.003
G1 X181.776 Y6.195
X182.151 Y6.179
X182.823 Y5.847
X183.253 Y5.232
X183.494 Y4.522
X183.582 Y3.777
X183.524 Y3.029
X183.48 Y2.933
X183.352 Y2.737
X183.175 Y2.584
X182.962 Y2.487
X182.731 Y2.452
X181.846 Y2.445
G2 X181.554 Y2.739 I0.008 J0.3
G1 X181.547 Y3.068
X181.495 Y5.569 F1000
X181.489 Y5.889 F30
G2 X181.776 Y6.195 I0.3 J0.006
G1 X182.719 Y6.202
X183.094 Y6.186
X183.751 Y5.824
X184.161 Y5.196
X184.388 Y4.481
X184.468 Y3.736
X184.396 Y2.989
X184.362 Y2.921
X184.233 Y2.732
X184.058 Y2.585
X183.849 Y2.492
X183.622 Y2.459
X182.731 Y2.452
G2 X182.439 Y2.751 I0.008 J0.3
G1 X182.438 Y3.074
X182.433 Y5.575 F1000
X182.432 Y5.902 F30
G2 X182.719 Y6.202 I0.3 J0
G1 X183.63 Y6.209
X184.004 Y6.193
X184.652 Y5.816
X185.054 Y5.182
X185.276 Y4.466
X185.351 Y3.72
X185.278 Y2.973
X185.251 Y2.922
X185.122 Y2.736
X184.947 Y2.591
X184.74 Y2.499
X184.516 Y2.467
X183.622 Y2.459
G2 X183.33 Y2.76 I0.008 J0.3
G1 X183.332 Y3.081
X183.341 Y5.582 F1000
X183.343 Y5.91 F30
G2 X183.63 Y6.209 I0.3 J-0.001
G1 X184.537 Y6.217
X184.912 Y6.201
X185.551 Y5.808
X185.946 Y5.171
X186.163 Y4.453
X186.235 Y3.707
X186.161 Y2.96
X186.142 Y2.924
X186.012 Y2.741
X185.839 Y2.599
X185.634 Y2.508
X185.411 Y2.476
X184.516 Y2.467
G2 X184.224 Y2.769 I0.008 J0.3
G1 X184.227 Y3.088
X184.248 Y5.59 F1000
X184.25 Y5.92 F30
G2 X184.537 Y6.217 I0.3 J-0.003
G1 X185.322 Y6.225
X185.697 Y6.21
X186.366 Y5.872
X186.785 Y5.25
X187.023 Y4.539
X187.114 Y3.795
X187.072 Y3.046
X187.035 Y2.968
X186.908 Y2.772
X186.732 Y2.619
X186.52 Y2.521
X186.29 Y2.486
X185.411 Y2.476
G2 X185.119 Y2.768 I0.007 J0.3
G1 X185.11 Y3.097
X185.044 Y5.598 F1000
X185.036 Y5.917 F30
G2 X185.322 Y6.225 I0.3 J0.008
G1 X186.374 Y6.237
X186.561 Y6.23
X187.235 Y5.899
X187.658 Y5.28
X187.9 Y4.57
X188 Y3.827
X187.958 Y3.078
X187.915 Y2.985
X187.789 Y2.787
X187.612 Y2.632
X187.399 Y2.532
X187.167 Y2.496
X186.29 Y2.486
G2 X185.997 Y2.794 I0.007 J0.3
G1 X186.006 Y3.106
X186.078 Y5.609 F1000
X186.088 Y5.946 F30
G2 X186.374 Y6.237 I0.3 J-0.009
G1 X187.087 Y6.245
X187.462 Y6.231
X188.132 Y5.894
X188.551 Y5.272
X188.791 Y4.562
X188.888 Y3.818
X188.834 Y3.07
X188.794 Y2.986
X188.667 Y2.792
X188.491 Y2.64
X188.28 Y2.543
X188.05 Y2.507
X187.167 Y2.496
G2 X186.874 Y2.789 I0.007 J0.3
G1 X186.866 Y3.117
X186.809 Y5.617 F1000
X186.801 Y5.939 F30
G2 X187.087 Y6.245 I0.3 J0.007
G1 X187.997 Y6.257
X188.372 Y6.243
X189.033 Y5.888
X189.447 Y5.263
X189.683 Y4.551
X189.772 Y3.806
X189.711 Y3.059
X189.677 Y2.989
X189.549 Y2.797
X189.374 Y2.648
X189.165 Y2.553
X188.937 Y2.518
X188.05 Y2.507
G2 X187.757 Y2.803 I0.007 J0.3
G1 X187.752 Y3.128
X187.716 Y5.629 F1000
X187.711 Y5.953 F30
G2 X187.997 Y6.257 I0.3 J0.004
G1 X188.905 Y6.268
X189.279 Y6.254
X189.932 Y5.885
X190.341 Y5.257
X190.572 Y4.543
X190.656 Y3.798
X190.591 Y3.05
X190.563 Y2.993
X190.435 Y2.805
X190.26 Y2.658
X190.052 Y2.564
X189.827 Y2.53
X188.937 Y2.518
G2 X188.644 Y2.816 I0.007 J0.3
G1 X188.642 Y3.139
X188.622 Y5.64 F1000
X188.619 Y5.966 F30
G2 X188.905 Y6.268 I0.3 J0.002
G1 X189.838 Y6.28
X190.213 Y6.267
X190.848 Y5.868
X191.245 Y5.232
X191.466 Y4.515
X191.542 Y3.769
X191.467 Y3.023
X191.451 Y2.99
X191.322 Y2.808
X191.149 Y2.666
X190.944 Y2.575
X190.723 Y2.542
X189.827 Y2.53
G2 X189.534 Y2.832 I0.007 J0.3
G1 X189.536 Y3.151
X189.551 Y5.652 F1000
X189.553 Y5.983 F30
G2 X189.838 Y6.28 I0.3 J-0.002
G1 X190.742 Y6.292
X190.929 Y6.286
X191.272 Y6.135
X191.858 Y5.666
X192.208 Y5.003
X192.393 Y4.276
X192.43 Y3.527
X192.36 Y3.208
X192.283 Y2.998
X192.154 Y2.817
X191.981 Y2.676
X191.777 Y2.586
X191.557 Y2.553
X190.723 Y2.542
G2 X190.429 Y2.844 I0.006 J0.3
G1 X190.432 Y3.162
X190.453 Y5.664 F1000
X190.456 Y5.995 F30
G2 X190.742 Y6.292 I0.3 J-0.003
G1 X191.454 Y6.302
X191.829 Y6.288
X192.502 Y5.957
X192.938 Y5.347
X193.199 Y4.644
X193.317 Y3.903
X193.245 Y3.156
X193.197 Y3.052
X193.071 Y2.855
X192.894 Y2.701
X192.682 Y2.601
X192.451 Y2.565
X191.557 Y2.553
G2 X191.264 Y2.844 I0.006 J0.3
G1 X191.254 Y3.174
X191.179 Y5.674 F1000
X191.169 Y5.993 F30
G2 X191.454 Y6.302 I0.3 J0.009
G1 X192.365 Y6.315
X192.739 Y6.301
X193.41 Y5.964
X193.84 Y5.35
X194.095 Y4.645
X194.188 Y3.9
X194.127 Y3.153
X194.083 Y3.059
X193.956 Y2.864
X193.78 Y2.711
X193.569 Y2.613
X193.339 Y2.577
X192.451 Y2.565
G2 X192.157 Y2.858 I0.006 J0.3
G1 X192.149 Y3.186
X192.087 Y5.686 F1000
X192.079 Y6.007 F30
G2 X192.365 Y6.315 I0.3 J0.007
G1 X193.272 Y6.327
X193.647 Y6.313
X194.314 Y5.97
X194.739 Y5.352
X194.979 Y4.641
X195.068 Y3.897
X195.008 Y3.149
X194.968 Y3.066
X194.841 Y2.873
X194.666 Y2.722
X194.456 Y2.625
X194.227 Y2.59
X193.339 Y2.577
G2 X193.045 Y2.872 I0.006 J0.3
G1 X193.039 Y3.198
X192.993 Y5.699 F1000
X192.987 Y6.022 F30
G2 X193.272 Y6.327 I0.3 J0.006
G1 X194.206 Y6.34
X194.58 Y6.326
X195.234 Y5.957
X195.643 Y5.329
X195.871 Y4.615
X195.953 Y3.869
X195.883 Y3.122
X195.854 Y3.064
X195.726 Y2.876
X195.552 Y2.73
X195.344 Y2.636
X195.119 Y2.602
X194.227 Y2.59
G2 X193.933 Y2.888 I0.006 J0.3
G1 X193.932 Y3.21
X193.922 Y5.711 F1000
X193.92 Y6.039 F30
G2 X194.206 Y6.34 I0.3 J0.001
G1 X195.109 Y6.352
X195.484 Y6.338
X196.13 Y5.958
X196.533 Y5.326
X196.758 Y4.61
X196.836 Y3.864
X196.767 Y3.117
X196.744 Y3.071
X196.615 Y2.885
X196.441 Y2.74
X196.235 Y2.648
X196.012 Y2.614
X195.119 Y2.602
G2 X194.826 Y2.902 I0.006 J0.3
G1 Y3.222
X194.824 Y5.724 F1000
Y6.052 F30
G2 X195.109 Y6.352 I0.3 J0
G1 X195.973 Y6.364
X196.348 Y6.35
X197.001 Y5.98
X197.407 Y5.35
X197.635 Y4.636
X197.718 Y3.89
X197.66 Y3.143
X197.633 Y3.09
X197.505 Y2.901
X197.331 Y2.754
X197.123 Y2.66
X196.898 Y2.626
X196.012 Y2.614
G2 X195.718 Y2.911 I0.006 J0.3
G1 X195.715 Y3.234
X195.691 Y5.735 F1000
X195.688 Y6.061 F30
G2 X195.973 Y6.364 I0.3 J0.003
G1 X196.914 Y6.377
X197.101 Y6.37
X197.446 Y6.222
X198.031 Y5.753
X198.381 Y5.089
X198.568 Y4.363
X198.612 Y3.614
X198.54 Y3.289
X198.463 Y3.08
X198.333 Y2.9
X198.161 Y2.76
X197.958 Y2.67
X197.738 Y2.638
X196.898 Y2.626
G2 X196.604 Y2.928 I0.006 J0.3
G1 X196.607 Y3.247
X196.626 Y5.748 F1000
X196.628 Y6.079 F30
G2 X196.914 Y6.377 I0.3 J-0.002
G1 X197.67 Y6.387
X198.045 Y6.373
X198.703 Y6.014
X199.13 Y5.396
X199.383 Y4.691
X199.497 Y3.949
X199.416 Y3.204
X199.376 Y3.121
X199.248 Y2.929
X199.073 Y2.78
X198.864 Y2.685
X198.637 Y2.65
X197.738 Y2.638
G2 X197.444 Y2.932 I0.006 J0.3
G1 X197.438 Y3.258
X197.391 Y5.759 F1000
X197.385 Y6.082 F30
G2 X197.67 Y6.387 I0.3 J0.006
G1 X198.573 Y6.399
X198.948 Y6.386
X199.606 Y6.026
X200.028 Y5.406
X200.278 Y4.699
X200.366 Y3.954
X200.302 Y3.207
X200.266 Y3.133
X200.138 Y2.941
X199.963 Y2.792
X199.754 Y2.697
X199.527 Y2.662
X198.637 Y2.65
G2 X198.343 Y2.944 I0.006 J0.3
G1 X198.338 Y3.27
X198.294 Y5.771 F1000
X198.288 Y6.094 F30
G2 X198.573 Y6.399 I0.3 J0.005
G1 X199.477 Y6.412
X199.851 Y6.398
X200.507 Y6.034
X200.926 Y5.412
X201.161 Y4.7
X201.247 Y3.955
X201.185 Y3.207
X201.153 Y3.142
X201.025 Y2.952
X200.85 Y2.804
X200.642 Y2.709
X200.415 Y2.674
X199.527 Y2.662
G2 X199.233 Y2.958 I0.006 J0.3
G1 X199.229 Y3.282
X199.196 Y5.783 F1000
X199.191 Y6.108 F30
G2 X199.477 Y6.412 I0.3 J0.004
G1 X200.341 Y6.423
X200.716 Y6.41
X201.381 Y6.064
X201.8 Y5.442
X202.037 Y4.73
X202.128 Y3.986
X202.076 Y3.238
X202.04 Y3.162
X201.913 Y2.969
X201.737 Y2.818
X201.527 Y2.721
X201.298 Y2.686
X200.415 Y2.674
G2 X200.122 Y2.968 I0.006 J0.3
G1 X200.115 Y3.294
X200.062 Y5.795 F1000
X200.055 Y6.117 F30
G2 X200.341 Y6.423 I0.3 J0.006
G1 X201.281 Y6.436
X201.656 Y6.422
X202.303 Y6.043
X202.707 Y5.411
X202.934 Y4.696
X203.017 Y3.95
X202.948 Y3.204
X202.923 Y3.155
X202.795 Y2.969
X202.621 Y2.824
X202.414 Y2.731
X202.19 Y2.698
X201.298 Y2.686
G2 X201.005 Y2.985 I0.006 J0.3
G1 X201.004 Y3.307
X200.997 Y5.808 F1000
X200.996 Y6.136 F30
G2 X201.281 Y6.436 I0.3 J0
G1 X202.192 Y6.448
X202.566 Y6.434
X203.204 Y6.039
X203.601 Y5.403
X203.824 Y4.687
X203.9 Y3.941
X203.83 Y3.194
X203.812 Y3.16
X203.683 Y2.976
X203.51 Y2.833
X203.305 Y2.742
X203.083 Y2.709
X202.19 Y2.698
G2 X201.897 Y2.999 I0.006 J0.3
G1 X201.898 Y3.318
X201.905 Y5.82 F1000
X201.906 Y6.149 F30
G2 X202.192 Y6.448 I0.3 J-0.001
G1 X203.099 Y6.46
X203.287 Y6.453
X203.63 Y6.302
X204.215 Y5.833
X204.566 Y5.17
X204.751 Y4.443
X204.79 Y3.694
X204.72 Y3.375
X204.643 Y3.165
X204.514 Y2.983
X204.341 Y2.843
X204.137 Y2.753
X203.917 Y2.72
X203.083 Y2.709
G2 X202.79 Y3.011 I0.007 J0.3
G1 X202.792 Y3.33
X202.811 Y5.832 F1000
X202.813 Y6.162 F30
G2 X203.099 Y6.46 I0.3 J-0.002
G1 X203.844 Y6.469
X204.219 Y6.455
X204.88 Y6.102
X205.309 Y5.487
X205.564 Y4.781
X205.677 Y4.04
X205.598 Y3.294
X205.555 Y3.205
X205.428 Y3.012
X205.252 Y2.862
X205.042 Y2.766
X204.813 Y2.731
X203.917 Y2.72
G2 X203.623 Y3.014 I0.007 J0.3
G1 X203.617 Y3.341
X203.565 Y5.841 F1000
X203.558 Y6.163 F30
G2 X203.844 Y6.469 I0.3 J0.006
G1 X204.706 Y6.48
X205.08 Y6.466
X205.755 Y6.138
X206.189 Y5.526
X206.446 Y4.822
X206.544 Y4.078
X206.492 Y3.33
X206.445 Y3.227
X206.317 Y3.028
X206.139 Y2.873
X205.924 Y2.774
X205.69 Y2.74
X204.813 Y2.731
G2 X204.52 Y3.021 I0.007 J0.3
G1 X204.51 Y3.352
X204.43 Y5.852 F1000
X204.42 Y6.171 F30
G2 X204.706 Y6.48 I0.3 J0.01
G1 X205.649 Y6.49
X206.023 Y6.472
X206.684 Y6.117
X207.104 Y5.496
X207.342 Y4.785
X207.429 Y4.04
X207.362 Y3.293
X207.323 Y3.212
X207.193 Y3.018
X207.014 Y2.869
X206.801 Y2.774
X206.57 Y2.743
X205.69 Y2.74
G2 X205.399 Y3.036 I0.009 J0.3
G1 X205.395 Y3.363
X205.364 Y5.864 F1000
X205.36 Y6.186 F30
G2 X205.649 Y6.49 I0.3 J0.004
G1 X206.559 Y6.493
X206.934 Y6.473
X207.591 Y6.111
X208.001 Y5.483
X208.231 Y4.769
X208.311 Y4.023
X208.242 Y3.277
X208.204 Y3.201
X208.074 Y3.011
X207.896 Y2.863
X207.684 Y2.77
X207.455 Y2.739
X206.57 Y2.743
G2 X206.282 Y3.041 I0.012 J0.3
G1 X206.281 Y3.368
X206.272 Y5.867 F1000
X206.271 Y6.192 F30
G2 X206.559 Y6.493 I0.3 J0.001
G1 X207.467 Y6.489
X207.841 Y6.469
X208.493 Y6.097
X208.896 Y5.465
X209.119 Y4.749
X209.195 Y4.003
X209.121 Y3.256
X209.088 Y3.191
X208.957 Y3.002
X208.779 Y2.857
X208.568 Y2.765
X208.341 Y2.735
X207.455 Y2.739
G2 X207.167 Y3.04 I0.012 J0.3
G1 X207.168 Y3.365
X207.175 Y5.866 F1000
X207.176 Y6.19 F30
G2 X207.467 Y6.489 I0.3 J-0.001
G1 X208.4 Y6.484
X208.775 Y6.464
X209.41 Y6.065
X209.8 Y5.425
X210.013 Y4.705
X210.08 Y3.958
X209.996 Y3.213
X209.973 Y3.171
X209.841 Y2.988
X209.664 Y2.847
X209.457 Y2.759
X209.233 Y2.73
X208.341 Y2.735
G2 X208.053 Y3.04 I0.012 J0.3
G1 X208.058 Y3.361
X208.103 Y5.862 F1000
X208.109 Y6.19 F30
G2 X208.4 Y6.484 I0.3 J-0.005
G1 X209.304 Y6.479
X209.678 Y6.459
X210.307 Y6.05
X210.692 Y5.406
X210.901 Y4.686
X210.963 Y3.938
X210.88 Y3.193
X210.863 Y3.161
X210.73 Y2.98
X210.554 Y2.841
X210.348 Y2.754
X210.125 Y2.725
X209.233 Y2.73
G2 X208.945 Y3.036 I0.012 J0.3
G1 X208.952 Y3.356
X209.005 Y5.857 F1000
X209.012 Y6.186 F30
G2 X209.304 Y6.479 I0.3 J-0.006
G1 X210.168 Y6.475
X210.542 Y6.454
X211.178 Y6.056
X211.568 Y5.415
X211.779 Y4.696
X211.847 Y3.949
X211.774 Y3.203
X211.753 Y3.163
X211.621 Y2.979
X211.444 Y2.838
X211.236 Y2.749
X211.012 Y2.72
X210.125 Y2.725
G2 X209.837 Y3.028 I0.012 J0.3
G1 X209.841 Y3.351
X209.873 Y5.852 F1000
X209.877 Y6.178 F30
G2 X210.168 Y6.475 I0.3 J-0.004
G1 X211.108 Y6.469
X211.296 Y6.459
X211.634 Y6.297
X212.202 Y5.808
X212.536 Y5.136
X212.707 Y4.406
X212.736 Y3.656
X212.66 Y3.348
X212.578 Y3.142
X212.446 Y2.964
X212.271 Y2.828
X212.066 Y2.743
X211.846 Y2.715
X211.012 Y2.72
G2 X210.724 Y3.028 I0.012 J0.3
G1 X210.733 Y3.346
X210.807 Y5.847 F1000
X210.817 Y6.178 F30
G2 X211.108 Y6.469 I0.3 J-0.009
G1 X211.865 Y6.465
X212.239 Y6.444
X212.883 Y6.058
X213.292 Y5.43
X213.53 Y4.719
X213.628 Y3.975
X213.529 Y3.232
X213.492 Y3.159
X213.36 Y2.973
X213.183 Y2.83
X212.974 Y2.74
X212.747 Y2.71
X211.846 Y2.715
G2 X211.558 Y3.016 I0.012 J0.3
G1 X211.56 Y3.341
X211.572 Y5.842 F1000
X211.574 Y6.166 F30
G2 X211.865 Y6.465 I0.3 J-0.001
G1 X212.768 Y6.46
X213.142 Y6.439
X213.786 Y6.054
X214.191 Y5.423
X214.425 Y4.71
X214.497 Y3.964
X214.416 Y3.218
X214.384 Y3.155
X214.252 Y2.969
X214.075 Y2.825
X213.865 Y2.735
X213.639 Y2.705
X212.747 Y2.71
G2 X212.46 Y3.011 I0.012 J0.3
G1 X212.461 Y3.336
X212.475 Y5.837 F1000
X212.476 Y6.161 F30
G2 X212.768 Y6.46 I0.3 J-0.002
G1 X213.671 Y6.454
X214.046 Y6.434
X214.687 Y6.046
X215.09 Y5.413
X215.308 Y4.695
X215.378 Y3.948
X215.3 Y3.202
X215.272 Y3.148
X215.14 Y2.962
X214.963 Y2.819
X214.753 Y2.729
X214.528 Y2.7
X213.639 Y2.705
G2 X213.351 Y3.007 I0.012 J0.3
G1 X213.354 Y3.331
X213.377 Y5.832 F1000
X213.38 Y6.157 F30
G2 X213.671 Y6.454 I0.3 J-0.003
G1 X214.535 Y6.45
X214.91 Y6.429
X215.562 Y6.059
X215.965 Y5.426
X216.186 Y4.709
X216.26 Y3.963
X216.192 Y3.216
X216.16 Y3.151
X216.028 Y2.962
X215.85 Y2.817
X215.639 Y2.725
X215.411 Y2.694
X214.528 Y2.7
G2 X214.24 Y3 I0.012 J0.3
G1 Y3.326
X214.244 Y5.827 F1000
Y6.15 F30
G2 X214.535 Y6.45 I0.3 J0
G1 X215.476 Y6.444
X215.85 Y6.423
X216.483 Y6.02
X216.871 Y5.378
X217.081 Y4.659
X217.148 Y3.912
X217.064 Y3.166
X217.043 Y3.128
X216.911 Y2.946
X216.735 Y2.806
X216.528 Y2.718
X216.304 Y2.689
X215.411 Y2.694
G2 X215.124 Y3 I0.012 J0.3
G1 X215.13 Y3.321
X215.178 Y5.821 F1000
X215.185 Y6.15 F30
G2 X215.476 Y6.444 I0.3 J-0.006
G1 X216.386 Y6.439
X216.573 Y6.429
X216.915 Y6.273
X217.492 Y5.795
X217.832 Y5.126
X218.007 Y4.397
X218.032 Y3.647
X217.955 Y3.325
X217.875 Y3.117
X217.742 Y2.937
X217.567 Y2.799
X217.361 Y2.713
X217.14 Y2.685
X216.304 Y2.689
G2 X216.017 Y2.997 I0.012 J0.3
G1 X216.025 Y3.315
X216.087 Y5.816 F1000
X216.095 Y6.147 F30
G2 X216.386 Y6.439 I0.3 J-0.007
G1 X217.068 Y6.435
X217.443 Y6.414
X218.122 Y6.096
X218.556 Y5.484
X218.813 Y4.779
X218.926 Y4.038
X218.847 Y3.292
X218.791 Y3.168
X218.662 Y2.967
X218.482 Y2.811
X218.264 Y2.712
X218.028 Y2.679
X217.14 Y2.685
G2 X216.852 Y2.977 I0.012 J0.3
G1 X216.844 Y3.311
X216.785 Y5.812 F1000
X216.777 Y6.128 F30
G2 X217.068 Y6.435 I0.3 J0.007
G1 X218.039 Y6.429
X218.413 Y6.409
X219.07 Y6.047
X219.484 Y5.422
X219.725 Y4.711
X219.799 Y3.965
X219.714 Y3.22
X219.671 Y3.134
X219.54 Y2.944
X219.362 Y2.797
X219.15 Y2.705
X218.921 Y2.674
X218.028 Y2.679
G2 X217.74 Y2.98 I0.012 J0.3
G1 X217.741 Y3.306
X217.747 Y5.807 F1000
Y6.13 F30
G2 X218.039 Y6.429 I0.3 J-0.001
G1 X218.9 Y6.425
X219.275 Y6.404
X219.943 Y6.064
X220.365 Y5.443
X220.597 Y4.73
X220.675 Y3.984
X220.608 Y3.237
X220.562 Y3.141
X220.432 Y2.946
X220.252 Y2.796
X220.038 Y2.701
X219.806 Y2.669
X218.921 Y2.674
G2 X218.634 Y2.972 I0.012 J0.3
G1 X218.631 Y3.3
X218.611 Y5.802 F1000
X218.609 Y6.122 F30
G2 X218.9 Y6.425 I0.3 J0.002
G1 X219.843 Y6.419
X220.218 Y6.398
X220.87 Y6.029
X221.272 Y5.395
X221.49 Y4.678
X221.561 Y3.931
X221.479 Y3.186
X221.444 Y3.117
X221.313 Y2.93
X221.135 Y2.785
X220.925 Y2.694
X220.698 Y2.664
X219.806 Y2.669
G2 X219.518 Y2.972 I0.012 J0.3
G1 X219.522 Y3.295
X219.549 Y5.796 F1000
X219.552 Y6.123 F30
G2 X219.843 Y6.419 I0.3 J-0.003
G1 X220.754 Y6.414
X221.128 Y6.393
X221.772 Y6.008
X222.165 Y5.369
X222.378 Y4.65
X222.443 Y3.903
X222.36 Y3.158
X222.332 Y3.105
X222.201 Y2.92
X222.024 Y2.778
X221.815 Y2.689
X221.59 Y2.659
X220.698 Y2.664
G2 X220.41 Y2.969 I0.012 J0.3
G1 X220.415 Y3.29
X220.457 Y5.791 F1000
X220.462 Y6.119 F30
G2 X220.754 Y6.414 I0.3 J-0.005
G1 X221.661 Y6.409
X222.036 Y6.388
X222.67 Y5.988
X223.057 Y5.345
X223.265 Y4.625
X223.327 Y3.877
X223.243 Y3.132
X223.222 Y3.094
X223.09 Y2.912
X222.914 Y2.772
X222.707 Y2.684
X222.484 Y2.655
X221.59 Y2.659
G2 X221.302 Y2.965 I0.012 J0.3
G1 X221.309 Y3.285
X221.363 Y5.786 F1000
X221.37 Y6.115 F30
G2 X221.661 Y6.409 I0.3 J-0.006
G1 X222.446 Y6.405
X222.82 Y6.384
X223.487 Y6.04
X223.898 Y5.412
X224.126 Y4.698
X224.207 Y3.952
X224.154 Y3.204
X224.115 Y3.123
X223.985 Y2.929
X223.806 Y2.778
X223.593 Y2.683
X223.361 Y2.651
X222.484 Y2.655
G2 X222.196 Y2.951 I0.012 J0.3
G1 X222.192 Y3.281
X222.159 Y5.782 F1000
X222.155 Y6.101 F30
G2 X222.446 Y6.405 I0.3 J0.004
G1 X223.498 Y6.4
X223.685 Y6.39
X224.355 Y6.053
X224.771 Y5.429
X225.004 Y4.716
X225.094 Y3.971
X225.041 Y3.223
X224.995 Y3.126
X224.866 Y2.929
X224.686 Y2.776
X224.471 Y2.68
X224.238 Y2.647
X223.361 Y2.651
G2 X223.073 Y2.963 I0.012 J0.3
G1 X223.086 Y3.276
X223.193 Y5.777 F1000
X223.208 Y6.113 F30
G2 X223.498 Y6.4 I0.3 J-0.013
G1 X224.211 Y6.398
X224.585 Y6.378
X225.252 Y6.035
X225.664 Y5.408
X225.895 Y4.694
X225.98 Y3.949
X225.916 Y3.202
X225.873 Y3.114
X225.743 Y2.921
X225.565 Y2.771
X225.352 Y2.676
X225.121 Y2.644
X224.238 Y2.647
G2 X223.949 Y2.944 I0.011 J0.3
G1 X223.946 Y3.273
X223.923 Y5.774 F1000
X223.92 Y6.095 F30
G2 X224.211 Y6.398 I0.3 J0.003
G1 X225.121 Y6.394
X225.496 Y6.375
X226.153 Y6.014
X226.56 Y5.384
X226.786 Y4.669
X226.864 Y3.923
X226.793 Y3.176
X226.756 Y3.103
X226.625 Y2.913
X226.447 Y2.766
X226.236 Y2.673
X226.008 Y2.642
X225.121 Y2.644
G2 X224.832 Y2.944 I0.011 J0.3
G1 Y3.27
X224.831 Y5.771 F1000
Y6.095 F30
G2 X225.121 Y6.394 I0.3 J0
G1 X226.029 Y6.392
X226.403 Y6.372
X227.053 Y5.998
X227.454 Y5.364
X227.675 Y4.647
X227.748 Y3.9
X227.672 Y3.154
X227.641 Y3.093
X227.51 Y2.905
X227.333 Y2.761
X227.123 Y2.67
X226.896 Y2.639
X226.008 Y2.642
G2 X225.719 Y2.943 I0.011 J0.3
G1 X225.721 Y3.267
X225.736 Y5.768 F1000
X225.738 Y6.094 F30
G2 X226.029 Y6.392 I0.3 J-0.002
G1 X226.962 Y6.389
X227.337 Y6.369
X227.969 Y5.966
X228.357 Y5.324
X228.568 Y4.604
X228.633 Y3.857
X228.548 Y3.112
X228.528 Y3.075
X228.396 Y2.894
X228.22 Y2.754
X228.014 Y2.666
X227.791 Y2.636
X226.896 Y2.639
G2 X226.608 Y2.945 I0.011 J0.3
G1 X226.614 Y3.264
X226.665 Y5.765 F1000
X226.672 Y6.095 F30
G2 X226.962 Y6.389 I0.3 J-0.006
G1 X227.866 Y6.386
X228.053 Y6.376
X228.395 Y6.223
X228.975 Y5.748
X229.317 Y5.08
X229.491 Y4.35
X229.517 Y3.601
X229.441 Y3.277
X229.361 Y3.068
X229.229 Y2.888
X229.054 Y2.75
X228.848 Y2.663
X228.627 Y2.634
X227.791 Y2.636
G2 X227.503 Y2.943 I0.011 J0.3
G1 X227.51 Y3.262
X227.568 Y5.763 F1000
X227.575 Y6.093 F30
G2 X227.866 Y6.386 I0.3 J-0.007
G1 X228.578 Y6.384
X228.953 Y6.364
X229.623 Y6.027
X230.052 Y5.412
X230.303 Y4.705
X230.41 Y3.963
X230.327 Y3.217
X230.276 Y3.109
X230.146 Y2.912
X229.967 Y2.76
X229.753 Y2.664
X229.52 Y2.631
X228.627 Y2.634
G2 X228.338 Y2.929 I0.011 J0.3
G1 X228.333 Y3.259
X228.293 Y5.76 F1000
X228.288 Y6.079 F30
G2 X228.578 Y6.384 I0.3 J0.005
G1 X229.489 Y6.381
X229.863 Y6.361
X230.531 Y6.02
X230.953 Y5.4
X231.198 Y4.691
X231.28 Y3.946
X231.208 Y3.199
X231.161 Y3.1
X231.031 Y2.906
X230.852 Y2.755
X230.639 Y2.66
X230.407 Y2.628
X229.52 Y2.631
G2 X229.231 Y2.928 I0.011 J0.3
G1 X229.228 Y3.256
X229.202 Y5.758 F1000
X229.198 Y6.078 F30
G2 X229.489 Y6.381 I0.3 J0.003
G1 X230.396 Y6.378
X230.771 Y6.358
X231.435 Y6.01
X231.852 Y5.387
X232.082 Y4.673
X232.16 Y3.927
X232.089 Y3.181
X232.046 Y3.093
X231.915 Y2.9
X231.737 Y2.751
X231.525 Y2.657
X231.295 Y2.626
X230.407 Y2.628
G2 X230.119 Y2.927 I0.011 J0.3
G1 X230.117 Y3.254
X230.107 Y5.755 F1000
X230.106 Y6.077 F30
G2 X230.396 Y6.378 I0.3 J0.001
G1 X231.33 Y6.375
X231.704 Y6.356
X232.355 Y5.982
X232.756 Y5.349
X232.974 Y4.631
X233.044 Y3.884
X232.963 Y3.139
X232.931 Y3.075
X232.8 Y2.889
X232.623 Y2.745
X232.414 Y2.654
X232.187 Y2.623
X231.295 Y2.626
G2 X231.006 Y2.929 I0.011 J0.3
G1 X231.009 Y3.251
X231.036 Y5.752 F1000
X231.039 Y6.079 F30
G2 X231.33 Y6.375 I0.3 J-0.003
G1 X232.233 Y6.373
X232.608 Y6.353
X233.251 Y5.968
X233.646 Y5.331
X233.86 Y4.612
X233.927 Y3.865
X233.847 Y3.119
X233.82 Y3.069
X233.689 Y2.884
X233.514 Y2.742
X233.306 Y2.652
X233.082 Y2.622
X232.187 Y2.623
G2 X231.899 Y2.927 I0.011 J0.3
G1 X231.903 Y3.248
X231.938 Y5.749 F1000
X231.943 Y6.077 F30
G2 X232.233 Y6.373 I0.3 J-0.004
G1 X233.097 Y6.372
X233.472 Y6.353
X234.121 Y5.977
X234.52 Y5.342
X234.737 Y4.624
X234.809 Y3.878
X234.74 Y3.131
X234.711 Y3.076
X234.581 Y2.89
X234.406 Y2.745
X234.197 Y2.654
X233.972 Y2.622
X233.082
G2 X232.792 Y2.923 I0.01 J0.3
G1 X232.794 Y3.246
X232.806 Y5.747 F1000
X232.808 Y6.073 F30
G2 X233.097 Y6.372 I0.3 J-0.001
G1 X234.038
X234.225 Y6.364
X234.568 Y6.212
X235.148 Y5.736
X235.489 Y5.068
X235.666 Y4.339
X235.699 Y3.59
X235.622 Y3.265
X235.543 Y3.059
X235.411 Y2.88
X235.238 Y2.742
X235.034 Y2.655
X234.814 Y2.625
X233.972 Y2.622
G2 X233.682 Y2.928 I0.009 J0.3
G1 X233.689 Y3.245
X233.742 Y5.747 F1000
X233.749 Y6.079 F30
G2 X234.038 Y6.372 I0.3 J-0.006
G1 X234.794 Y6.375
X235.169 Y6.358
X235.823 Y5.99
X236.241 Y5.367
X236.485 Y4.658
X236.589 Y3.915
X236.498 Y3.171
X236.459 Y3.093
X236.33 Y2.904
X236.155 Y2.758
X235.946 Y2.664
X235.72 Y2.631
X234.814 Y2.625
G2 X234.524 Y2.923 I0.009 J0.3
G1 X234.522 Y3.248
X234.508 Y5.749 F1000
X234.506 Y6.073 F30
G2 X234.794 Y6.375 I0.3 J0.002
G1 X235.697 Y6.381
X236.072 Y6.365
X236.724 Y5.995
X237.138 Y5.369
X237.378 Y4.659
X237.458 Y3.913
X237.385 Y3.167
X237.352 Y3.1
X237.223 Y2.912
X237.048 Y2.766
X236.84 Y2.672
X236.614 Y2.639
X235.72 Y2.631
G2 X235.428 Y2.929 I0.008 J0.3
G1 X235.426 Y3.254
X235.412 Y5.755 F1000
X235.41 Y6.08 F30
G2 X235.697 Y6.381 I0.3 J0.002
G1 X236.601 Y6.389
X236.975 Y6.373
X237.624 Y5.997
X238.034 Y5.369
X238.261 Y4.654
X238.339 Y3.908
X238.27 Y3.162
X238.241 Y3.106
X238.112 Y2.918
X237.937 Y2.773
X237.729 Y2.68
X237.504 Y2.647
X236.614 Y2.639
G2 X236.321 Y2.938 I0.008 J0.3
G1 Y3.261
X236.315 Y5.762 F1000
X236.314 Y6.089 F30
G2 X236.601 Y6.389 I0.3 J0
G1 X237.465 Y6.397
X237.84 Y6.381
X238.498 Y6.021
X238.908 Y5.394
X239.137 Y4.679
X239.221 Y3.934
X239.162 Y3.186
X239.13 Y3.122
X239.002 Y2.931
X238.826 Y2.783
X238.617 Y2.689
X238.389 Y2.655
X237.504 Y2.647
G2 X237.212 Y2.944 I0.008 J0.3
G1 X237.209 Y3.269
X237.182 Y5.77 F1000
X237.178 Y6.094 F30
G2 X237.465 Y6.397 I0.3 J0.003
G1 X238.405 Y6.405
X238.78 Y6.39
X239.418 Y5.995
X239.814 Y5.358
X240.033 Y4.641
X240.109 Y3.895
X240.034 Y3.149
X240.015 Y3.111
X239.885 Y2.928
X239.711 Y2.786
X239.506 Y2.695
X239.283 Y2.663
X238.389 Y2.655
G2 X238.097 Y2.957 I0.008 J0.3
G1 X238.099 Y3.277
X238.116 Y5.778 F1000
X238.119 Y6.107 F30
G2 X238.405 Y6.405 I0.3 J-0.002
G1 X239.316 Y6.413
X239.503 Y6.406
X239.846 Y6.254
X240.43 Y5.784
X240.778 Y5.119
X240.962 Y4.392
X240.997 Y3.643
X240.924 Y3.321
X240.847 Y3.112
X240.717 Y2.931
X240.544 Y2.791
X240.339 Y2.702
X240.119 Y2.67
X239.283 Y2.663
G2 X238.991 Y2.966 I0.008 J0.3
G1 X238.995 Y3.285
X239.025 Y5.786 F1000
X239.029 Y6.117 F30
G2 X239.316 Y6.413 I0.3 J-0.004
G1 X239.998 Y6.419
X240.373 Y6.404
X241.055 Y6.093
X241.497 Y5.487
X241.763 Y4.786
X241.885 Y4.046
X241.817 Y3.299
X241.763 Y3.176
X241.637 Y2.974
X241.459 Y2.816
X241.243 Y2.714
X241.007 Y2.678
X240.119 Y2.67
G2 X239.827 Y2.959 I0.008 J0.3
G1 X239.815 Y3.292
X239.723 Y5.793 F1000
X239.711 Y6.109 F30
G2 X239.998 Y6.419 I0.3 J0.011
G1 X240.968 Y6.428
X241.343 Y6.413
X242.004 Y6.058
X242.426 Y5.438
X242.676 Y4.731
X242.759 Y3.986
X242.685 Y3.239
X242.644 Y3.155
X242.515 Y2.964
X242.339 Y2.815
X242.13 Y2.72
X241.902 Y2.686
X241.007 Y2.678
G2 X240.715 Y2.975 I0.008 J0.3
G1 X240.712 Y3.3
X240.685 Y5.801 F1000
X240.681 Y6.125 F30
G2 X240.968 Y6.428 I0.3 J0.003
G1 X241.83 Y6.436
X242.204 Y6.42
X242.876 Y6.087
X243.306 Y5.472
X243.547 Y4.762
X243.635 Y4.017
X243.578 Y3.269
X243.535 Y3.175
X243.407 Y2.98
X243.23 Y2.827
X243.018 Y2.729
X242.787 Y2.694
X241.902 Y2.686
G2 X241.609 Y2.98 I0.008 J0.3
G1 X241.603 Y3.308
X241.55 Y5.809 F1000
X241.543 Y6.13 F30
G2 X241.83 Y6.436 I0.3 J0.006
G1 X242.773 Y6.444
X243.148 Y6.429
X243.804 Y6.066
X244.213 Y5.437
X244.441 Y4.723
X244.522 Y3.977
X244.45 Y3.231
X244.417 Y3.165
X244.289 Y2.976
X244.113 Y2.829
X243.905 Y2.736
X243.679 Y2.702
X242.787 Y2.694
G2 X242.494 Y2.993 I0.008 J0.3
G1 Y3.316
X242.487 Y5.817 F1000
X242.486 Y6.145 F30
G2 X242.773 Y6.444 I0.3 J0
G1 X243.683 Y6.452
X244.058 Y6.437
X244.705 Y6.058
X245.107 Y5.425
X245.329 Y4.709
X245.405 Y3.962
X245.332 Y3.216
X245.306 Y3.165
X245.177 Y2.979
X245.002 Y2.835
X244.795 Y2.743
X244.571 Y2.71
X243.679 Y2.702
G2 X243.386 Y3.003 I0.008 J0.3
G1 X243.387 Y3.324
X243.395 Y5.825 F1000
X243.396 Y6.154 F30
G2 X243.683 Y6.452 I0.3 J-0.001
G1 X244.591 Y6.461
X244.965 Y6.445
X245.604 Y6.051
X245.999 Y5.414
X246.216 Y4.696
X246.289 Y3.95
X246.215 Y3.203
X246.196 Y3.166
X246.066 Y2.982
X245.891 Y2.84
X245.685 Y2.749
X245.463 Y2.717
X244.571 Y2.71
G2 X244.279 Y3.012 I0.008 J0.3
G1 X244.281 Y3.332
X244.301 Y5.834 F1000
X244.304 Y6.163 F30
G2 X244.591 Y6.461 I0.3 J-0.002
G1 X245.376 Y6.467
X245.75 Y6.451
X246.42 Y6.114
X246.839 Y5.492
X247.077 Y4.78
X247.168 Y4.036
X247.125 Y3.287
X247.087 Y3.204
X246.958 Y3.007
X246.78 Y2.854
X246.566 Y2.756
X246.334 Y2.722
X245.463 Y2.717
G2 X245.171 Y3.009 I0.008 J0.3
G1 X245.162 Y3.339
X245.097 Y5.84 F1000
X245.088 Y6.159 F30
G2 X245.376 Y6.467 I0.3 J0.008
G1 X246.428 Y6.472
X246.615 Y6.464
X247.29 Y6.136
X247.713 Y5.517
X247.955 Y4.807
X248.054 Y4.064
X248.01 Y3.315
X247.963 Y3.211
X247.834 Y3.01
X247.653 Y2.854
X247.436 Y2.756
X247.2 Y2.723
X246.334 Y2.722
G2 X246.043 Y3.031 I0.009 J0.3
G1 X246.053 Y3.345
X246.129 Y5.847 F1000
X246.139 Y6.182 F30
G2 X246.428 Y6.472 I0.3 J-0.009
G1 X247.14 Y6.473
X247.515 Y6.452
X248.188 Y6.122
X248.608 Y5.501
X248.847 Y4.79
X248.942 Y4.046
X248.884 Y3.298
X248.836 Y3.196
X248.705 Y2.997
X248.523 Y2.843
X248.304 Y2.748
X248.068 Y2.717
X247.2 Y2.723
G2 X246.912 Y3.017 I0.012 J0.3
G1 X246.905 Y3.349
X246.856 Y5.85 F1000
X246.849 Y6.167 F30
G2 X247.14 Y6.473 I0.3 J0.006
G1 X248.051 Y6.468
X248.425 Y6.443
X249.092 Y6.101
X249.507 Y5.476
X249.741 Y4.763
X249.826 Y4.018
X249.758 Y3.271
X249.71 Y3.171
X249.578 Y2.976
X249.396 Y2.826
X249.18 Y2.732
X248.947 Y2.703
X248.068 Y2.717
G2 X247.784 Y3.015 I0.015 J0.3
G1 X247.781 Y3.347
X247.762 Y5.845 F1000
X247.759 Y6.166 F30
G2 X248.051 Y6.468 I0.3 J0.002
G1 X248.958 Y6.453
X249.332 Y6.428
X249.995 Y6.077
X250.404 Y5.449
X250.631 Y4.734
X250.708 Y3.988
X250.634 Y3.242
X250.586 Y3.144
X250.452 Y2.95
X250.27 Y2.801
X250.053 Y2.709
X249.818 Y2.682
X248.947 Y2.703
G2 X248.662 Y3.003 I0.015 J0.3
G1 Y3.332
X248.664 Y5.834 F1000
Y6.154 F30
G2 X248.958 Y6.453 I0.3 J0
G1 X249.892 Y6.432
X250.266 Y6.404
X250.915 Y6.029
X251.312 Y5.393
X251.527 Y4.674
X251.592 Y3.927
X251.504 Y3.182
X251.46 Y3.098
X251.323 Y2.908
X251.138 Y2.763
X250.921 Y2.676
X250.687 Y2.653
X250.006 Y2.677
X249.818 Y2.682
G2 X249.537 Y2.987 I0.018 J0.299
G1 X249.543 Y3.314
X249.589 Y5.815 F1000
X249.595 Y6.138 F30
G2 X249.892 Y6.432 I0.3 J-0.006
G1 X250.234 Y6.424
X250.795 Y6.4
X251.111 Y6.371
X251.778 Y6.027
X252.183 Y5.396
X252.403 Y4.679
X252.472 Y3.932
X252.43 Y3.525
X252.374 Y3.297
X252.257 Y3.094
X252.088 Y2.932
X251.881 Y2.823
G2 X251.506 Y3.014 I-0.091 J0.286
G1 X251.405 Y3.317
X250.576 Y5.801 F1000
X250.508 Y6.005 F30
G2 X250.795 Y6.4 I0.285 J0.095
G1 X251.326 Y6.378
X252.075 Y6.11
X252.264 Y6.043
X252.418 Y5.987
X252.901 Y5.413
X252.954 Y5.284
X252.967 Y5.239
G2 X252.454 Y4.97 I-0.293 J-0.066
G1 X252.424 Y5.008 F1000
X252.102 Y5.497
X252.076 Y5.537 F30
G2 X252.418 Y5.987 I0.251 J0.165
G1 X252.909 Y5.46
X253.138 Y4.589
X253.196 Y4.368
X252.695 Y3.276
X252.418 Y3.015
X251.326 Y2.626
X250.687 Y2.653
X250.68 Y2.465
X250.101 Y1.988
X249.368 Y1.832
G2 X241.056 Y1.686 I-6.743 J147.684
G1 X238.653 Y1.661
X236.251 Y1.633
X233.848 Y1.619
X221.834 Y1.657
X207.417 Y1.74
X205.014 Y1.741
X202.612 Y1.698
X200.209 Y1.675
X194.603 Y1.593
X188.997 Y1.52
X183.39 Y1.455
X171.377 Y1.369
X166.571 Y1.333
X164.168 Y1.307
X161.766 Y1.256
X152.156 Y1.076
X149.754 Y1.051
X144.949 Y0.956
X142.546 Y0.926
X140.144 Y0.887
X123.325 Y0.703
X116.117 Y0.595
X111.313 Y0.487
X106.509 Y0.366
X99.301 Y0.234
X89.692 Y0.055
X87.289 Y0.027
X84.886 Y0.015
X82.483 Y-0.006
X70.47 Y-0.171
X58.457 Y-0.311
X52.426 Y-0.367
G2 X49.648 Y0.549 I-0.277 J3.829
G1 X49.202 Y1.157
G2 X51.154 Y5.162 I2.314 J1.351
G1 X51.893 Y5.293
G2 X60.692 Y5.451 I7.244 J-157.97
G1 X63.895 Y5.501
X67.099 Y5.543
X70.302 Y5.577
X82.315 Y5.743
X84.718 Y5.763
X87.121 Y5.777
X89.524 Y5.801
X96.731 Y5.937
X106.341 Y6.116
X110.344 Y6.217
X114.348 Y6.305
X118.352 Y6.38
X122.356 Y6.443
X126.36 Y6.493
X130.365 Y6.53
X139.976 Y6.636
X144.781 Y6.707
X147.183 Y6.748
X149.586 Y6.801
X151.988 Y6.825
X154.391 Y6.867
X164 Y7.052
X166.403 Y7.085
X168.806 Y7.098
X171.209 Y7.119
X183.222 Y7.205
X185.625 Y7.226
X195.236 Y7.354
X197.638 Y7.387
X204.846 Y7.482
X211.254 Y7.466
X217.661 Y7.437
X224.068 Y7.397
X233.68 Y7.369
X236.083 Y7.382
X238.485 Y7.407
X245.694 Y7.47
X248.096 Y7.476
X250.388 Y7.42
G2 X253.181 Y6.483 I0.043 J-4.5
X252.418 Y2.062 I-1.903 J-1.948
G1 X250.611 Y1.283
X249.906 Y1.029
G2 X243.36 Y0.735 I-4.469 J26.5
X219.332 Y0.673 I-14.25 J868.411
G1 X212.124 Y0.713
X206.918 Y0.701
X201.712 Y0.674
X196.506 Y0.631
X191.3 Y0.573
X186.095 Y0.499
X180.89 Y0.409
X178.486 Y0.419
X166.473 Y0.333
X164.07 Y0.305
X161.668 Y0.254
X140.045 Y-0.115
X123.226 Y-0.299
X116.019 Y-0.407
X113.616 Y-0.451
X111.214 Y-0.52
X107.211 Y-0.613
X103.207 Y-0.696
X99.203 Y-0.767
X89.593 Y-0.946
X87.191 Y-0.974
X84.788 Y-0.985
X82.385 Y-1.007
X70.372 Y-1.172
X60.761 Y-1.286
G2 X51.876 Y-1.319 I-5.159 J190.067
X48.015 Y1.729 I0.158 J4.17
X51.155 Y6.09 I3.634 J0.694
X57.921 Y6.402 I4.707 J-28.487
G1 X65.93 Y6.523
X73.939 Y6.633
X81.948 Y6.732
X84.35 Y6.762
X86.753 Y6.774
X89.156 Y6.797
X105.973 Y7.109
X109.336 Y7.197
X112.699 Y7.275
X116.062 Y7.342
X119.426 Y7.399
X122.789 Y7.447
X129.997 Y7.523
X132.4 Y7.553
X139.127 Y7.636
X145.855 Y7.731
X152.582 Y7.836
X159.309 Y7.953
X166.035 Y8.081
X182.855 Y8.204
X185.257 Y8.222
X197.271 Y8.381
X204.478 Y8.478
X218.895 Y8.428
X233.312 Y8.371
X235.715 Y8.377
X238.118 Y8.404
X245.326 Y8.467
G2 X251.516 Y8.272 I1.853 J-39.399
X254.075 Y6.791 I-0.947 J-4.59
X252.508 Y1.115 I-2.845 J-2.269
X248.458 Y-0.164 I-4.772 J8.058
G1 X246.541 Y-0.303
X244.138 Y-0.306
X241.735 Y-0.284
X239.334 Y-0.377
X236.932 Y-0.318
X234.531 Y-0.416
X232.129 Y-0.349
X229.727 Y-0.394
X224.682 Y-0.345
X219.636 Y-0.312
X214.59 Y-0.295
X209.545 Y-0.294
X204.499 Y-0.309
X199.453 Y-0.339
X194.408 Y-0.385
X189.363 Y-0.446
X184.317 Y-0.524
X179.273 Y-0.617
X173.566 Y-0.651
X167.86 Y-0.697
X162.153 Y-0.755
X156.447 Y-0.827
X150.741 Y-0.91
X145.035 Y-1.007
X139.329 Y-1.115
X133.624 Y-1.237
X128.817 Y-1.239
X120.649 Y-1.363
X112.48 Y-1.501
X104.312 Y-1.651
X96.145 Y-1.815
X87.977 Y-1.993
X85.574 Y-1.985
X83.171 Y-1.995
X78.366 Y-2.062
X71.158 Y-2.163
X59.144 Y-2.305
X54.339 Y-2.349
G2 X49.278 Y-1.456 I-0.995 J9.149
X47.499 Y4.474 I2.463 J3.971
X51.866 Y7.175 I4.68 J-2.684
G1 X52.832 Y7.32
X55.08 Y7.445
X57.483 Y7.413
X59.885 Y7.46
X62.288 Y7.486
X71.097 Y7.599
X79.907 Y7.7
X88.717 Y7.788
X105.534 Y8.102
X107.936 Y8.151
X112.74 Y8.275
X116.744 Y8.354
X120.748 Y8.419
X124.753 Y8.469
X136.766 Y8.598
X145.575 Y8.73
X154.385 Y8.877
X163.193 Y9.039
X167.198 Y9.085
X171.202 Y9.12
X175.207 Y9.146
X184.818 Y9.22
X187.221 Y9.245
X204.039 Y9.472
G2 X213.65 Y9.452 I3.807 J-478.924
G1 X218.456 Y9.415
X223.261 Y9.392
X228.067 Y9.382
X232.873 Y9.386
X237.678 Y9.403
X242.484 Y9.434
X247.289 Y9.478
G2 X252.016 Y9.11 I1.063 J-16.867
X255.66 Y3.4 I-1.06 J-4.694
X252.688 Y0.131 I-5.046 J1.602
X248.862 Y-1.091 I-5.052 J9.218
G1 X246.178 Y-1.243
X243.775 Y-1.259
X241.373 Y-1.312
X238.971 Y-1.383
X236.57 Y-1.3
X235.371 Y-1.378
X221.558 Y-1.318
X207.745 Y-1.249
X202.939 Y-1.28
X200.537 Y-1.345
X198.135 Y-1.331
X195.733 Y-1.42
X193.331 Y-1.392
X189.007 Y-1.473
X184.683 Y-1.539
X180.359 Y-1.59
X176.035 Y-1.624
X171.711 Y-1.644
X166.425 Y-1.696
X161.14 Y-1.762
X155.854 Y-1.843
X150.569 Y-1.938
X145.284 Y-2.048
X140.479 Y-2.112
X135.674 Y-2.165
X123.661 Y-2.295
X114.051 Y-2.469
X104.443 Y-2.659
X94.834 Y-2.865
X79.789 Y-3.048
X64.744 Y-3.238
X58.461 Y-3.039
X50.821 Y-2.765
G2 X46.442 Y0.782 I0.368 J4.931
X50.168 Y7.724 I5.116 J1.725
G1 X63.372 Y8.443
X65.775 Y8.455
X66.974 Y8.537
X74.181 Y8.628
X83.792 Y8.757
X93.402 Y8.877
X105.415 Y9.099
X107.817 Y9.15
X112.621 Y9.273
X115.023 Y9.328
X124.633 Y9.468
X136.647 Y9.597
X143.855 Y9.695
X151.062 Y9.808
X158.27 Y9.933
X165.477 Y10.073
X167.88 Y10.096
X170.282 Y10.108
X172.685 Y10.13
X182.296 Y10.198
X187.102 Y10.244
X203.92 Y10.47
X207.925 Y10.472
X211.929 Y10.462
X215.934 Y10.442
X220.15 Y10.409
X224.366 Y10.388
X228.582 Y10.38
X232.798 Y10.383
X237.015 Y10.398
X241.231 Y10.426
X245.447 Y10.466
G2 X251.635 Y10.021 I-3.037 J-85.478
X253.649 Y-0.395 I-0.479 J-5.495
G1 X253.013 Y-0.798
X252.657 Y-0.97
X252.532 Y-1.019
X252.4 Y-1.047
X252.265 Y-1.053
G3 X248.862 Y-1.092 I-1.382 J-27.818
G1 X248.8 Y-1.087
X248.741 Y-1.069
X248.687 Y-1.04
X248.639 Y-1
X248.601 Y-0.952
X248.574 Y-0.897
X248.558 Y-0.837
X248.555 Y-0.776
X248.565 Y-0.715
X248.624 Y-0.492
X251.233 Y9.435 F1000
X251.329 Y9.798 F30
G2 X251.635 Y10.021 I0.29 J-0.076
G1 X253.818 Y9.828
G2 X256.315 Y8.357 I-0.262 J-3.301
X254.235 Y-1.121 I-5.103 J-3.847
G1 X254.052 Y-1.114
X252.265 Y-1.053
G2 X251.989 Y-0.71 I0.021 J0.299
G1 X252.032 Y-0.422
X253.455 Y9.234 F1000
X253.505 Y9.572 F30
G2 X253.818 Y9.828 I0.297 J-0.044
G1 X255.455 Y9.683
G2 X257.491 Y8.195 I-0.362 J-2.634
X255.791 Y-1.144 I-6.052 J-3.723
G1 X255.57 Y-1.14
X255.455 Y-1.143
X254.909 Y-1.142
X254.052 Y-1.114
G2 X253.775 Y-0.775 I0.021 J0.299
G1 X253.814 Y-0.483
X255.097 Y9.088 F1000
X255.141 Y9.423 F30
G2 X255.455 Y9.683 I0.297 J-0.04
G1 X256.711 Y9.572
X257.083 Y9.52
G2 X258.961 Y7.295 I-1.583 J-3.243
X257.351 Y-0.961 I-7.431 J-2.836
G1 X257.133 Y-1.059
X256.902 Y-1.099
X255.57 Y-1.14
G2 X255.273 Y-0.806 I0.002 J0.3
G1 X255.304 Y-0.526
X256.36 Y8.976 F1000
X256.397 Y9.305 F30
G2 X256.711 Y9.572 I0.298 J-0.033
G1 X257.803 Y9.475
X258.174 Y9.424
X258.835 Y9.069
G2 X260.423 Y4.958 I-4.903 J-4.257
X258.603 Y-0.922 I-8.918 J-0.46
G1 X258.37 Y-1.011
X258.137 Y-1.054
X256.902 Y-1.099
G2 X256.604 Y-0.773 I0.001 J0.3
G1 X256.629 Y-0.485
X257.459 Y8.879 F1000
X257.488 Y9.202 F30
G2 X257.803 Y9.475 I0.299 J-0.026
G1 X258.894 Y9.379
X259.265 Y9.327
X259.915 Y8.952
G2 X261.381 Y4.792 I-5.156 J-4.156
X259.86 Y-0.759 I-9.786 J-0.303
G1 X259.689 Y-0.879
X259.503 Y-0.964
X259.302 Y-1
X258.729 Y-1.029
X258.137 Y-1.054
X258.136
G2 X257.836 Y-0.731 I0 J0.3
G1 X257.858 Y-0.441
X258.555 Y8.782 F1000
X258.579 Y9.102 F30
G2 X258.894 Y9.379 I0.299 J-0.023
G1 X259.82 Y9.297
X260.192 Y9.245
X260.875 Y8.936
G2 X262.33 Y4.78 I-4.929 J-4.058
X260.984 Y-0.704 I-10.464 J-0.34
G1 X260.805 Y-0.816
X260.622 Y-0.899
X260.425 Y-0.936
X259.302 Y-1
G2 X258.996 Y-0.684 I-0.007 J0.3
G1 X259.011 Y-0.393
X259.488 Y8.7 F1000
X259.505 Y9.013 F30
G2 X259.82 Y9.297 I0.3 J-0.016
G1 X260.912 Y9.2
X261.283 Y9.149
X261.941 Y8.789
G2 X263.288 Y4.592 I-5.206 J-3.985
X262.11 Y-0.59 I-10.965 J-0.233
G1 X261.928 Y-0.724
X261.734 Y-0.82
X261.522 Y-0.863
X260.425 Y-0.936
G2 X260.117 Y-0.621 I-0.008 J0.3
G1 X260.131 Y-0.331
X260.58 Y8.603 F1000
X260.596 Y8.916 F30
G2 X260.912 Y9.2 I0.3 J-0.015
G1 X262.003 Y9.104
X262.374 Y9.052
X263.001 Y8.64
G2 X264.245 Y4.403 I-5.572 J-3.937
X263.136 Y-0.551 I-10.233 J-0.31
G1 X262.981 Y-0.671
X262.802 Y-0.751
X262.609 Y-0.788
X261.522 Y-0.863
G2 X261.212 Y-0.548 I-0.01 J0.3
G1 X261.226 Y-0.26
X261.672 Y8.507 F1000
X261.687 Y8.82 F30
G2 X262.003 Y9.104 I0.3 J-0.015
G1 X262.849 Y9.029
X263.22 Y8.977
X263.898 Y8.655
G2 X265.069 Y5.941 I-3.815 J-3.256
X264.277 Y-0.403 I-11.644 J-1.769
G1 X264.089 Y-0.557
X263.883 Y-0.667
X263.655 Y-0.716
X262.609 Y-0.788
G2 X262.299 Y-0.48 I-0.01 J0.3
G1 X262.306 Y-0.184
X262.525 Y8.431 F1000
X262.533 Y8.737 F30
G2 X262.849 Y9.029 I0.3 J-0.008
G1 X264.015 Y8.926
X264.386 Y8.874
X265 Y8.443
G2 X266.16 Y4.119 I-5.89 J-3.898
X265.373 Y-0.206 I-11.573 J-0.129
G1 X265.252 Y-0.377
X265.091 Y-0.512
X264.902 Y-0.603
X264.696 Y-0.644
X263.655 Y-0.716
G2 X263.345 Y-0.404 I-0.01 J0.3
G1 X263.357 Y-0.112
X263.687 Y8.328 F1000
X263.699 Y8.638 F30
G2 X264.015 Y8.926 I0.3 J-0.012
G1 X264.897 Y8.848
X265.268 Y8.796
X265.919 Y8.425
G2 X267.088 Y4.916 I-5.145 J-3.663
X266.403 Y-0.171 I-11.914 J-0.985
G1 X266.281 Y-0.328
X266.124 Y-0.451
X265.943 Y-0.534
X265.748 Y-0.571
X264.696 Y-0.644
G2 X264.386 Y-0.337 I-0.01 J0.3
G1 X264.393 Y-0.04
X264.574 Y8.25 F1000
X264.581 Y8.555 F30
G2 X264.897 Y8.848 I0.3 J-0.007
G1 X265.823 Y8.766
X266.194 Y8.714
X266.863 Y8.376
G2 X267.966 Y5.632 I-3.975 J-3.192
X267.396 Y-0.168 I-12.09 J-1.738
G1 X267.2 Y-0.332
X266.988 Y-0.45
X266.751 Y-0.501
X265.748 Y-0.571
G2 X265.438 Y-0.269 I-0.01 J0.3
G1 X265.44 Y0.033
X265.505 Y8.168 F1000
X265.507 Y8.469 F30
G2 X265.823 Y8.766 I0.3 J-0.002
G1 X266.914 Y8.67
X267.286 Y8.618
X267.91 Y8.202
G2 X269.019 Y4.651 I-5.513 J-3.671
X268.46 Y0.059 I-11.539 J-0.925
G1 X268.338 Y-0.139
X268.167 Y-0.296
X267.959 Y-0.399
X267.731 Y-0.441
X267.46 Y-0.453
X266.751 Y-0.501
G2 X266.44 Y-0.196 I-0.01 J0.3
G1 X266.446 Y0.102
X266.593 Y8.072 F1000
X266.598 Y8.375 F30
G2 X266.914 Y8.67 I0.3 J-0.006
G1 X267.76 Y8.593
X268.131 Y8.54
X268.8 Y8.201
G2 X269.891 Y5.453 I-3.956 J-3.161
X269.442 Y0.072 I-11.203 J-1.774
G1 X269.314 Y-0.132
X269.133 Y-0.292
X268.914 Y-0.393
X268.675 Y-0.426
X268.006 Y-0.43
X267.731 Y-0.441
G2 X267.429 Y-0.141 I-0.002 J0.3
G1 Y0.171
X267.442 Y7.997 F1000
X267.443 Y8.294 F30
G2 X267.76 Y8.593 I0.3 J0
G1 X268.926 Y8.476
X269.296 Y8.419
X269.894 Y7.965
G2 X270.951 Y4.372 I-5.928 J-3.697
X270.392 Y0 I-10.167 J-0.921
G1 X270.26 Y-0.178
X270.087 Y-0.314
X269.883 Y-0.4
X269.664 Y-0.43
X268.675 Y-0.426
G2 X268.387 Y-0.119 I0.012 J0.3
G1 X268.395 Y0.2
X268.597 Y7.884 F1000
X268.605 Y8.185 F30
G2 X268.926 Y8.476 I0.3 J-0.008
G1 X269.808 Y8.382
X270.178 Y8.324
X270.813 Y7.924
G2 X271.835 Y5.144 I-4.385 J-3.19
X271.383 Y0.012 I-10.461 J-1.664
G1 X271.252 Y-0.168
X271.079 Y-0.307
X270.875 Y-0.395
X270.655 Y-0.426
X269.664 Y-0.43
G2 X269.374 Y-0.126 I0.01 J0.3
G1 X269.379 Y0.193
X269.482 Y7.79 F1000
X269.486 Y8.087 F30
G2 X269.808 Y8.382 I0.3 J-0.004
G1 X270.734 Y8.283
X271.104 Y8.225
X271.756 Y7.853
G2 X272.796 Y5.081 I-4.242 J-3.172
X272.364 Y0.011 I-10.359 J-1.672
G1 X272.233 Y-0.166
X272.061 Y-0.303
X271.858 Y-0.389
X271.64 Y-0.42
X270.655 Y-0.426
G2 X270.363 Y-0.124 I0.009 J0.3
G1 X270.365 Y0.197
X270.411 Y7.691 F1000
X270.413 Y7.986 F30
G2 X270.734 Y8.283 I0.3 J-0.002
G1 X271.825 Y8.168
X272.196 Y8.111
X272.797 Y7.662
G2 X273.849 Y4.03 I-5.984 J-3.701
X273.339 Y-0.024 I-9.945 J-0.809
G1 X273.207 Y-0.185
X273.039 Y-0.308
X272.846 Y-0.386
X272.639 Y-0.413
X271.64 Y-0.42
G2 X271.349 Y-0.114 I0.009 J0.3
G1 X271.355 Y0.203
X271.5 Y7.574 F1000
X271.505 Y7.874 F30
G2 X271.825 Y8.168 I0.3 J-0.006
G1 X272.746 Y8.074
X273.116 Y8.017
X273.737 Y7.597
G2 X274.811 Y3.968 I-5.755 J-3.675
X274.33 Y-0.021 I-10.229 J-0.79
G1 X274.197 Y-0.181
X274.03 Y-0.303
X273.838 Y-0.38
X273.632 Y-0.407
X272.639 Y-0.413
G2 X272.348 Y-0.11 I0.009 J0.3
G1 X272.351 Y0.209
X272.423 Y7.48 F1000
X272.426 Y7.777 F30
G2 X272.746 Y8.074 I0.3 J-0.003
G1 X272.917 Y8.056
X273.463 Y8.02
X273.628 Y8.017
X274.002 Y7.992
X274.641 Y7.599
G2 X275.685 Y4.829 I-4.233 J-3.177
X275.318 Y-0.003 I-10.605 J-1.625
G1 X275.186 Y-0.167
X275.017 Y-0.293
X274.821 Y-0.372
X274.612 Y-0.4
X273.632 Y-0.407
G2 X273.341 Y-0.107 I0.009 J0.3
G1 X273.34 Y0.216
X273.333 Y7.398 F1000
Y7.717 F30
G2 X273.628 Y8.017 I0.3 J0
G1 X274.008 Y8.01
X274.554
X274.928 Y7.991
X275.568 Y7.6
G2 X276.636 Y4.839 I-4.17 J-3.201
X276.296 Y0.002 I-10.558 J-1.688
G1 X276.164 Y-0.162
X275.995 Y-0.288
X275.799 Y-0.368
X275.589 Y-0.395
X274.612 Y-0.4
G2 X274.321 Y-0.103 I0.009 J0.3
G1 X274.319 Y0.222
X274.267 Y7.386 F1000
X274.264 Y7.708 F30
G2 X274.554 Y8.01 I0.3 J0.002
G1 X275.474
X275.849 Y7.991
X276.494 Y7.609
G2 X277.587 Y4.859 I-4.103 J-3.223
X277.273 Y0.012 I-10.476 J-1.755
G1 X277.141 Y-0.155
X276.97 Y-0.284
X276.773 Y-0.365
X276.561 Y-0.393
X275.589 Y-0.395
G2 X275.299 Y-0.1 I0.009 J0.3
G1 X275.294 Y0.228
X275.189 Y7.386 F1000
X275.184 Y7.706 F30
G2 X275.474 Y8.01 I0.3 J0.004
G1 X276.356
X276.731 Y7.991
X277.396 Y7.644
G2 X278.532 Y4.914 I-3.901 J-3.225
X278.249 Y0.033 I-10.346 J-1.85
G1 X278.117 Y-0.142
X277.944 Y-0.277
X277.742 Y-0.361
X277.525 Y-0.39
X276.561 Y-0.393
G2 X276.271 Y-0.101 I0.01 J0.3
G1 X276.262 Y0.231
X276.075 Y7.385 F1000
X276.067 Y7.702 F30
G2 X276.356 Y8.01 I0.3 J0.008
G1 X277.282 Y8.009
X277.657 Y7.991
X278.327 Y7.655
X278.787 Y7.062
X279.108 Y6.384
G2 X278.653 Y6.024 I-0.275 J-0.119
G1 X278.627 Y6.046 F1000
X277.145 Y7.436
X277.087 Y7.491 F30
G2 X277.282 Y8.009 I0.205 J0.219
G1 X278.374
X280.011
G2 X280.295 Y7.765 I-0.01 J-0.3
G1 X280.366 Y7.391
X281.717 Y0.236 F1000
X281.767 Y-0.028 F30
G2 X281.483 Y-0.384 I-0.295 J-0.056
G1 X281.273
X281.102
X277.525 Y-0.39
G2 X277.394 Y0.174 I0.01 J0.3
G1 X277.453 Y0.205 Z-9.978
X277.509 Y0.235 Z-9.955
X277.559 Y0.262 Z-9.92
X277.601 Y0.284 Z-9.872
X277.632 Y0.301 Z-9.815
X277.652 Y0.312 Z-9.752
X277.659 Y0.315 Z-9.685
G0 Z2.01
X62.383 Y8.014
Z-9.385
G1 Z-9.685 F30
X62.389 Y8.018 Z-9.752
X62.407 Y8.03 Z-9.815
X62.437 Y8.05 Z-9.872
X62.477 Y8.077 Z-9.92
X62.524 Y8.108 Z-9.955
X62.576 Y8.144 Z-9.978
X62.632 Y8.181 Z-9.985
G2 X63.372 Y8.443 I0.882 J-1.314
G1 X81.926 Y9.461
X83.563 Y9.535
X89.565 Y9.776
X91.968 Y9.752
G2 X100.371 Y9.998 I8.123 J-134.221
G1 X106.377 Y10.138
X112.383 Y10.263
X118.389 Y10.373
X124.395 Y10.467
X138.811 Y10.622
X140.013 Y10.638
X144.422 Y10.759
X148.831 Y10.866
X153.241 Y10.961
X157.65 Y11.042
X162.061 Y11.11
X166.471 Y11.165
X170.881 Y11.207
X175.292 Y11.236
X184.903 Y11.311
X187.306 Y11.336
X189.708 Y11.371
X192.111 Y11.4
X194.513 Y11.436
X204.124 Y11.563
X208.86 Y11.56
X213.596 Y11.544
X218.332 Y11.516
X245.447 Y10.466
G2 X245.724 Y10.186 I-0.022 J-0.299
G1 X245.747 Y9.831
X246.429 Y-0.604 F1000
X246.45 Y-0.925 F30
G2 X246.178 Y-1.243 I-0.299 J-0.02
G1 X235.264 Y-1.861
X233.627 Y-1.933
X225.442 Y-2.203
X222.168 Y-2.304
X219.766 Y-2.249
X218.566 Y-2.31
X216.163 Y-2.288
X213.761 Y-2.341
X211.36 Y-2.228
X195.146 Y-2.407
X178.93 Y-2.575
X176.528 Y-2.612
X174.125 Y-2.595
X171.723 Y-2.644
X166.437 Y-2.695
X161.152 Y-2.762
X155.866 Y-2.843
X150.581 Y-2.938
X145.296 Y-3.048
X140.491 Y-3.112
X135.686 Y-3.165
X123.673 Y-3.295
X121.27 Y-3.325
X115.241 Y-3.465
X109.211 Y-3.595
X103.181 Y-3.714
X97.151 Y-3.822
X91.121 Y-3.919
X89.565 Y-3.913
X87.928 Y-3.889
X82.471 Y-3.744
X71.012 Y-3.433
X64.744 Y-3.238
X63.959 Y-3.213
X59.007 Y-3.058
X58.461 Y-3.039
X51.606 Y-2.793
X50.821 Y-2.765
X48.81 Y-2.692
X48.063 Y-2.628
G2 X46.696 Y6.494 I3.177 J5.139
G1 X47.19 Y7.057
X47.605 Y7.409
X47.754 Y7.509
X47.92 Y7.575
X48.098 Y7.605
X50.17 Y7.718
G2 X50.473 Y7.377 I0.006 J-0.3
G1 X50.436 Y7.113
X49.156 Y-2.082 F1000
X49.107 Y-2.434 F30
G2 X48.81 Y-2.692 I-0.297 J0.041
G1 X47.547 Y-2.647
X46.8 Y-2.582
G2 X44.618 Y0.353 I2.71 J4.293
X46.219 Y7.385 I6.78 J2.154
G1 X46.433 Y7.481
X46.659 Y7.526
X48.098 Y7.605
G2 X48.403 Y7.287 I0.006 J-0.3
G1 X48.386 Y6.997
X47.866 Y-2.033 F1000
X47.847 Y-2.364 F30
G2 X47.547 Y-2.647 I-0.3 J0.017
G1 X46.291 Y-2.601
X45.917 Y-2.569
X45.225 Y-2.281
G2 X43.393 Y1.709 I4.115 J4.304
X45.02 Y7.379 I7.694 J0.861
G1 X45.232 Y7.425
X45.42 Y7.458
X46.659 Y7.526
G2 X46.965 Y7.214 I0.006 J-0.3
G1 X46.953 Y6.918
X46.604 Y-1.988 F1000
X46.591 Y-2.313 F30
G2 X46.291 Y-2.601 I-0.3 J0.012
G1 X45.199 Y-2.562
X44.826 Y-2.53
X44.138 Y-2.231
G2 X42.425 Y1.819 I4.435 J4.263
X43.863 Y7.309 I7.94 J0.854
G1 X44.077 Y7.361
X44.269 Y7.394
X45.42 Y7.458
G2 X45.726 Y7.15 I0.006 J-0.3
G1 X45.719 Y6.85
X45.507 Y-1.948 F1000
X45.5 Y-2.269 F30
G2 X45.199 Y-2.562 I-0.3 J0.007
G1 X44.108 Y-2.523
X43.734 Y-2.491
X43.06 Y-2.162
G2 X41.466 Y1.941 I4.745 J4.204
X42.564 Y7.047 I9.728 J0.58
G1 X42.744 Y7.191
X42.945 Y7.291
X43.166 Y7.334
X44.269 Y7.394
G2 X44.575 Y7.089 I0.006 J-0.3
G1 X44.57 Y6.786
X44.414 Y-1.909 F1000
X44.408 Y-2.228 F30
G2 X44.108 Y-2.523 I-0.3 J0.005
G1 X43.017 Y-2.484
X42.643 Y-2.451
X41.991 Y-2.081
G2 X40.507 Y2.071 I5.087 J4.159
X41.502 Y7.001 I10.183 J0.51
G1 X41.69 Y7.136
X41.889 Y7.233
X42.106 Y7.275
X43.166 Y7.334
G2 X43.472 Y7.029 I0.006 J-0.3
G1 X43.467 Y6.726
X43.322 Y-1.87 F1000
X43.317 Y-2.189 F30
G2 X43.017 Y-2.484 I-0.3 J0.005
G1 X42.09 Y-2.45
X41.717 Y-2.418
X41.038 Y-2.098
G2 X39.557 Y2.05 I4.928 J4.099
X40.472 Y6.964 I9.892 J0.699
G1 X40.657 Y7.085
X40.846 Y7.174
X41.052 Y7.212
X42.106 Y7.275
G2 X42.412 Y6.974 I0.007 J-0.3
G1 X42.411 Y6.667
X42.391 Y-1.836 F1000
Y-2.151 F30
G2 X42.09 Y-2.45 I-0.3 J0.001
G1 X40.999 Y-2.411
X40.625 Y-2.379
X39.98 Y-1.996
G2 X38.617 Y2.192 I5.005 J3.944
X39.414 Y6.832 I9.295 J0.792
G1 X39.582 Y6.993
X39.788 Y7.101
X40.016 Y7.148
X41.052 Y7.212
G2 X41.359 Y6.91 I0.007 J-0.3
G1 X41.357 Y6.606
X41.301 Y-1.797 F1000
X41.299 Y-2.113 F30
G2 X40.999 Y-2.411 I-0.3 J0.002
G1 X40.153 Y-2.38
X39.779 Y-2.348
X39.089 Y-2.054
G2 X37.67 Y2.139 I4.627 J3.903
X38.369 Y6.778 I10.01 J0.864
G1 X38.562 Y6.928
X38.767 Y7.035
X38.993 Y7.082
X40.016 Y7.148
G2 X40.325 Y6.853 I0.009 J-0.3
G1 X40.329 Y6.543
X40.449 Y-1.767 F1000
X40.453 Y-2.076 F30
G2 X40.153 Y-2.38 I-0.3 J-0.004
G1 X38.987 Y-2.338
X38.614 Y-2.306
X37.985 Y-1.897
G2 X36.697 Y2.375 I5.364 J3.947
X37.374 Y6.772 I9.735 J0.752
G1 X37.572 Y6.888
X37.76 Y6.976
X37.963 Y7.015
X38.993 Y7.082
G2 X39.302 Y6.782 I0.009 J-0.3
G1 Y6.477
X39.288 Y-1.725 F1000
Y-2.039 F30
G2 X38.987 Y-2.338 I-0.3 J0
G1 X38.105 Y-2.304
X37.732 Y-2.271
X37.068 Y-1.921
G2 X35.773 Y1.542 I4.983 J3.837
X36.347 Y6.718 I11.195 J1.378
G1 X36.551 Y6.827
X36.734 Y6.911
X36.932 Y6.948
X37.963 Y7.015
G2 X38.272 Y6.72 I0.009 J-0.3
G1 X38.277 Y6.41
X38.402 Y-1.692 F1000
X38.407 Y-2 F30
G2 X38.105 Y-2.304 I-0.3 J-0.005
G1 X37.179 Y-2.267
X36.806 Y-2.233
X36.126 Y-1.915
G2 X34.923 Y0.786 I3.843 J3.33
X35.287 Y6.532 I11.652 J2.146
G1 X35.486 Y6.707
X35.704 Y6.831
X35.949 Y6.884
X36.932 Y6.948
G2 X37.241 Y6.657 I0.009 J-0.3
G1 X37.25 Y6.343
X37.472 Y-1.655 F1000
X37.481 Y-1.959 F30
G2 X37.179 Y-2.267 I-0.3 J-0.008
G1 X36.088 Y-2.221
X35.714 Y-2.186
X35.077 Y-1.79
G2 X33.853 Y1.72 I4.789 J3.64
X34.318 Y6.505 I10.359 J1.407
G1 X34.521 Y6.659
X34.73 Y6.771
X34.962 Y6.82
X35.949 Y6.884
G2 X36.258 Y6.589 I0.009 J-0.3
G1 X36.263 Y6.279
X36.385 Y-1.609 F1000
X36.39 Y-1.916 F30
G2 X36.088 Y-2.221 I-0.3 J-0.005
G1 X35.242 Y-2.184
X34.868 Y-2.149
X34.19 Y-1.83
G2 X32.9 Y1.686 I4.392 J3.606
X33.327 Y6.44 I10.054 J1.493
G1 X33.531 Y6.595
X33.739 Y6.707
X33.971 Y6.756
X34.962 Y6.82
G2 X35.27 Y6.53 I0.009 J-0.3
G1 X35.281 Y6.215
X35.534 Y-1.573 F1000
X35.544 Y-1.874 F30
G2 X35.242 Y-2.184 I-0.3 J-0.01
G1 X34.286 Y-2.143
X33.912 Y-2.109
X33.228 Y-1.8
G2 X31.935 Y1.722 I4.418 J3.622
X32.345 Y6.39 I9.744 J1.494
G1 X32.552 Y6.537
X32.757 Y6.644
X32.984 Y6.691
X33.971 Y6.756
G2 X34.28 Y6.467 I0.009 J-0.3
G1 X34.292 Y6.151
X34.576 Y-1.532 F1000
X34.588 Y-1.832 F30
G2 X34.286 Y-2.143 I-0.3 J-0.011
G1 X33.194 Y-2.097
X32.821 Y-2.063
X32.181 Y-1.671
G2 X30.955 Y1.875 I4.882 J3.674
X31.371 Y6.358 I9.39 J1.389
G1 X31.579 Y6.487
X31.775 Y6.584
X31.989 Y6.627
X32.984 Y6.691
G2 X33.292 Y6.399 I0.009 J-0.3
G1 X33.3 Y6.087
X33.489 Y-1.485 F1000
X33.496 Y-1.79 F30
G2 X33.194 Y-2.097 I-0.3 J-0.007
G1 X32.268 Y-2.059
X31.894 Y-2.025
X31.24 Y-1.658
G2 X29.991 Y1.901 I4.764 J3.67
X30.381 Y6.298 I9.302 J1.391
G1 X30.589 Y6.425
X30.784 Y6.52
X30.997 Y6.562
X31.989 Y6.627
G2 X32.298 Y6.337 I0.009 J-0.3
G1 X32.309 Y6.022
X32.559 Y-1.447 F1000
X32.57 Y-1.749 F30
G2 X32.268 Y-2.059 I-0.3 J-0.01
G1 X31.176 Y-2.014
X30.99 Y-1.997
X30.317 Y-1.666
G2 X29.034 Y1.876 I4.537 J3.647
X29.393 Y6.234 I9.236 J1.433
G1 X29.601 Y6.361
X29.796 Y6.456
X30.008 Y6.498
X30.997 Y6.562
G2 X31.305 Y6.269 I0.009 J-0.3
G1 X31.312 Y5.957
X31.471 Y-1.402 F1000
X31.478 Y-1.708 F30
G2 X31.176 Y-2.014 I-0.3 J-0.006
G1 X30.256 Y-1.977
X29.883 Y-1.944
X29.26 Y-1.526
G2 X28.005 Y2.911 I5.866 J4.054
G1 X27.984 Y3.788
X28.04 Y4.557
X28.147 Y5.299
X28.281 Y5.814
X28.359 Y6.007
X28.481 Y6.175
X28.641 Y6.307
X28.83 Y6.396
X29.034 Y6.435
X30.008 Y6.498
G2 X30.317 Y6.207 I0.009 J-0.3
G1 X30.326 Y5.893
X30.548 Y-1.365 F1000
X30.558 Y-1.668 F30
G2 X30.256 Y-1.977 I-0.3 J-0.009
G1 X29.374 Y-1.942
X29.001 Y-1.909
X28.347 Y-1.542
G2 X27.096 Y2.003 I4.755 J3.67
X27.457 Y6.131 I8.183 J1.364
G1 X27.643 Y6.248
X27.827 Y6.332
X28.025 Y6.369
X29.034 Y6.435
G2 X29.342 Y6.148 I0.009 J-0.3
G1 X29.356 Y5.83
X29.662 Y-1.33 F1000
X29.675 Y-1.63 F30
G2 X29.374 Y-1.942 I-0.3 J-0.013
G1 X28.448 Y-1.907
X28.074 Y-1.873
X27.407 Y-1.532
G2 X26.136 Y1.999 I4.607 J3.652
X26.472 Y6.057 I8.313 J1.354
G1 X26.679 Y6.177
X26.869 Y6.267
X27.076 Y6.308
X28.025 Y6.369
G2 X28.334 Y6.086 I0.009 J-0.3
G1 X28.351 Y5.765
X28.733 Y-1.294 F1000
X28.749 Y-1.59 F30
G2 X28.448 Y-1.907 I-0.3 J-0.016
G1 X27.357 Y-1.865
X26.983 Y-1.832
X26.363 Y-1.41
G2 X25.113 Y2.984 I5.816 J4.03
X25.468 Y5.897 I6.573 J0.677
G1 X25.658 Y6.07
X25.875 Y6.192
X26.117 Y6.245
X27.076 Y6.308
G2 X27.385 Y6.019 I0.009 J-0.3
G1 X27.396 Y5.703
X27.646 Y-1.252 F1000
X27.657 Y-1.554 F30
G2 X27.357 Y-1.865 I-0.3 J-0.011
G1 X26.437 Y-1.831
X26.063 Y-1.798
X25.425 Y-1.404
G2 X24.153 Y2.979 I5.625 J4.009
X24.508 Y5.844 I6.176 J0.688
G1 X24.699 Y6.012
X24.913 Y6.131
X25.152 Y6.183
X26.117 Y6.245
G2 X26.426 Y5.958 I0.009 J-0.3
G1 X26.439 Y5.641
X26.724 Y-1.218 F1000
X26.737 Y-1.518 F30
G2 X26.437 Y-1.831 I-0.3 J-0.012
G1 X25.554 Y-1.799
X25.181 Y-1.767
X24.514 Y-1.423
G2 X23.245 Y2.086 I4.545 J3.627
X23.53 Y5.779 I7.721 J1.262
G1 X23.729 Y5.947
X23.944 Y6.068
X24.185 Y6.12
X25.152 Y6.183
G2 X25.461 Y5.899 I0.009 J-0.3
G1 X25.478 Y5.578
X25.838 Y-1.185 F1000
X25.854 Y-1.483 F30
G2 X25.554 Y-1.799 I-0.3 J-0.016
G1 X24.628 Y-1.766
X24.255 Y-1.734
X23.575 Y-1.416
G2 X22.288 Y2.074 I4.399 J3.606
X22.566 Y5.718 I7.525 J1.257
G1 X22.765 Y5.886
X22.98 Y6.005
X23.22 Y6.057
X24.185 Y6.12
