(prop2)
(T1  D=3 CR=0 - ZMIN=-24.748 - flat end mill)
G90 G94
G17
G21
G28 G91 Z0
G90

(Adaptive1)
T1
S18000 M3
G54
G0 X253.473 Y-5.508
Z2.01
Z-9.385
G1 Z-9.685 F100
X253.466 Y-5.512 Z-9.752
X253.447 Y-5.524 Z-9.815
X253.417 Y-5.542 Z-9.872
X253.377 Y-5.567 Z-9.92
X253.328 Y-5.597 Z-9.955
X253.274 Y-5.63 Z-9.978
X253.217 Y-5.665 Z-9.985
G2 X251.641 Y-6.153 I-1.741 J2.832
G1 X251.25 Y-6.159
X251.063 Y-6.153
X250.726 Y-5.482
X250.591 Y-4.745
X250.493 Y-3.533
X250.49 Y-3.251
X250.516 Y-3.035
X250.596 Y-2.834
X250.726 Y-2.66
X250.897 Y-2.525
X251.096 Y-2.439
X251.311 Y-2.408
G2 X251.605 Y-2.714 I-0.006 J-0.3
G1 X251.598 Y-3.028
X251.543 Y-5.531 F1200
X251.535 Y-5.866 F100
G2 X251.25 Y-6.159 I-0.3 J0.007
G1 X250.88 Y-6.165
X250.692 Y-6.158
X250.387 Y-5.941
X249.934 Y-5.343
X249.712 Y-4.627
X249.591 Y-3.886
X249.612 Y-3.137
X249.674 Y-2.967
X249.794 Y-2.748
X249.974 Y-2.575
X250.197 Y-2.462
X250.444 Y-2.421
G2 X250.735 Y-2.681 I-0.006 J-0.3
G1 X250.784 Y-3.038
X251.123 Y-5.539 F1200
X251.162 Y-5.825 F100
G2 X250.88 Y-6.165 I-0.297 J-0.04
G1 X250.423 Y-6.172
X250.048 Y-6.159
X249.715 Y-5.986
X249.185 Y-5.455
X248.878 Y-4.771
X248.726 Y-4.036
X248.712 Y-3.287
X248.79 Y-3.027
X248.876 Y-2.835
X249.006 Y-2.671
X249.174 Y-2.544
X249.368 Y-2.464
X249.576 Y-2.434
X250.444 Y-2.421
G2 X250.738 Y-2.724 I-0.006 J-0.3
G1 X250.735 Y-3.041
X250.711 Y-5.543 F1200
X250.708 Y-5.875 F100
G2 X250.423 Y-6.172 I-0.3 J0.003
G1 X249.606 Y-6.184
X249.232 Y-6.171
X248.575 Y-5.808
X248.159 Y-5.184
X247.914 Y-4.475
X247.808 Y-3.733
X247.9 Y-2.988
X247.936 Y-2.915
X248.064 Y-2.725
X248.239 Y-2.577
X248.447 Y-2.482
X248.674 Y-2.447
X249.576 Y-2.434
G2 X249.87 Y-2.732 I-0.006 J-0.3
G1 X249.872 Y-3.054
X249.889 Y-5.555 F1200
X249.891 Y-5.882 F100
G2 X249.606 Y-6.184 I-0.3 J-0.002
G1 X248.696 Y-6.197
X248.321 Y-6.184
X247.672 Y-5.809
X247.259 Y-5.182
X247.018 Y-4.472
X246.94 Y-3.726
X247.014 Y-2.98
X247.044 Y-2.92
X247.172 Y-2.732
X247.347 Y-2.587
X247.554 Y-2.493
X247.778 Y-2.459
X248.674 Y-2.447
G2 X248.968 Y-2.746 I-0.006 J-0.3
G1 X248.969 Y-3.068
X248.98 Y-5.569 F1200
X248.981 Y-5.896 F100
G2 X248.696 Y-6.197 I-0.3 J-0.001
G1 X247.789 Y-6.209
X247.414 Y-6.196
X246.77 Y-5.812
X246.361 Y-5.183
X246.135 Y-4.468
X246.059 Y-3.722
X246.129 Y-2.975
X246.154 Y-2.927
X246.282 Y-2.741
X246.456 Y-2.596
X246.663 Y-2.504
X246.887 Y-2.47
X247.778 Y-2.459
G2 X248.072 Y-2.759 I-0.006 J-0.3
G1 Y-3.08
X248.074 Y-5.581 F1200
Y-5.91 F100
G2 X247.789 Y-6.209 I-0.3 J0
G1 X246.855 Y-6.221
X246.668 Y-6.214
X246.324 Y-6.064
X245.74 Y-5.593
X245.391 Y-4.93
X245.207 Y-4.203
X245.17 Y-3.454
X245.244 Y-3.129
X245.321 Y-2.921
X245.451 Y-2.741
X245.623 Y-2.602
X245.827 Y-2.513
X246.046 Y-2.48
X246.887 Y-2.47
G2 X247.18 Y-2.774 I-0.007 J-0.3
G1 X247.176 Y-3.091
X247.145 Y-5.593 F1200
X247.141 Y-5.925 F100
G2 X246.855 Y-6.221 I-0.3 J0.004
G1 X246.182 Y-6.229
X245.808 Y-6.215
X245.122 Y-5.912
X244.676 Y-5.309
X244.408 Y-4.608
X244.282 Y-3.869
X244.348 Y-3.122
X244.403 Y-2.995
X244.528 Y-2.791
X244.706 Y-2.631
X244.922 Y-2.528
X245.158 Y-2.491
X246.046 Y-2.48
G2 X246.339 Y-2.768 I-0.007 J-0.3
G1 X246.353 Y-3.101
X246.455 Y-5.601 F1200
X246.468 Y-5.917 F100
G2 X246.182 Y-6.229 I-0.3 J-0.012
G1 X245.239 Y-6.24
X244.865 Y-6.226
X244.191 Y-5.897
X243.759 Y-5.284
X243.502 Y-4.579
X243.41 Y-3.835
X243.474 Y-3.088
X243.522 Y-2.985
X243.649 Y-2.789
X243.825 Y-2.636
X244.037 Y-2.537
X244.268 Y-2.502
X245.158 Y-2.491
G2 X245.451 Y-2.784 I-0.007 J-0.3
G1 X245.459 Y-3.112
X245.518 Y-5.613 F1200
X245.525 Y-5.934 F100
G2 X245.239 Y-6.24 I-0.3 J-0.007
G1 X244.329 Y-6.252
X243.954 Y-6.237
X243.285 Y-5.899
X242.858 Y-5.283
X242.618 Y-4.572
X242.531 Y-3.827
X242.593 Y-3.08
X242.636 Y-2.991
X242.763 Y-2.796
X242.939 Y-2.645
X243.15 Y-2.548
X243.379 Y-2.513
X244.268 Y-2.502
G2 X244.561 Y-2.797 I-0.007 J-0.3
G1 X244.567 Y-3.123
X244.61 Y-5.624 F1200
X244.615 Y-5.947 F100
G2 X244.329 Y-6.252 I-0.3 J-0.005
G1 X243.422 Y-6.263
X243.047 Y-6.248
X242.382 Y-5.902
X241.966 Y-5.278
X241.733 Y-4.565
X241.648 Y-3.82
X241.712 Y-3.072
X241.749 Y-2.996
X241.876 Y-2.805
X242.052 Y-2.655
X242.261 Y-2.559
X242.489 Y-2.525
X243.379 Y-2.513
G2 X243.672 Y-2.809 I-0.007 J-0.3
G1 X243.676 Y-3.134
X243.704 Y-5.635 F1200
X243.708 Y-5.96 F100
G2 X243.422 Y-6.263 I-0.3 J-0.003
G1 X242.488 Y-6.275
X242.114 Y-6.261
X241.466 Y-5.883
X241.063 Y-5.25
X240.84 Y-4.534
X240.763 Y-3.788
X240.837 Y-3.042
X240.861 Y-2.994
X240.989 Y-2.808
X241.163 Y-2.664
X241.369 Y-2.571
X241.592 Y-2.537
X242.489 Y-2.525
G2 X242.782 Y-2.825 I-0.006 J-0.3
G1 X242.781 Y-3.145
X242.775 Y-5.647 F1200
X242.774 Y-5.976 F100
G2 X242.488 Y-6.275 I-0.3 J0.001
G1 X241.585 Y-6.288
X241.21 Y-6.275
X240.571 Y-5.883
X240.174 Y-5.247
X239.954 Y-4.53
X239.88 Y-3.783
X239.951 Y-3.037
X239.969 Y-3.003
X240.097 Y-2.82
X240.27 Y-2.677
X240.474 Y-2.586
X240.695 Y-2.552
X241.592 Y-2.537
G2 X241.886 Y-2.839 I-0.006 J-0.3
G1 X241.884 Y-3.158
X241.872 Y-5.659 F1200
X241.87 Y-5.99 F100
G2 X241.585 Y-6.288 I-0.3 J0.001
G1 X240.721 Y-6.302
X240.346 Y-6.29
X239.701 Y-5.906
X239.3 Y-5.273
X239.077 Y-4.557
X238.996 Y-3.811
X239.057 Y-3.064
X239.076 Y-3.025
X239.204 Y-2.839
X239.377 Y-2.695
X239.583 Y-2.602
X239.805 Y-2.567
X240.695 Y-2.552
G2 X240.99 Y-2.85 I-0.005 J-0.3
G1 X240.991 Y-3.171
X241.004 Y-5.672 F1200
X241.005 Y-6.001 F100
G2 X240.721 Y-6.302 I-0.3 J-0.001
G1 X239.781 Y-6.318
X239.593 Y-6.312
X239.252 Y-6.156
X238.674 Y-5.678
X238.328 Y-5.013
X238.145 Y-4.286
X238.102 Y-3.537
X238.172 Y-3.231
X238.249 Y-3.024
X238.378 Y-2.844
X238.549 Y-2.705
X238.751 Y-2.615
X238.97 Y-2.582
X239.805 Y-2.567
G2 X240.1 Y-2.871 I-0.005 J-0.3
G1 X240.097 Y-3.186
X240.069 Y-5.689 F1200
X240.065 Y-6.022 F100
G2 X239.781 Y-6.318 I-0.3 J0.003
G1 X239.024 Y-6.332
X238.649 Y-6.32
X238 Y-5.945
X237.579 Y-5.324
X237.328 Y-4.617
X237.216 Y-3.876
X237.3 Y-3.131
X237.334 Y-3.062
X237.462 Y-2.874
X237.636 Y-2.727
X237.842 Y-2.633
X238.067 Y-2.598
X238.97 Y-2.582
G2 X239.265 Y-2.878 I-0.005 J-0.3
G1 X239.269 Y-3.201
X239.304 Y-5.702 F1200
X239.308 Y-6.028 F100
G2 X239.024 Y-6.332 I-0.3 J-0.004
G1 X238.121 Y-6.348
X237.747 Y-6.336
X237.097 Y-5.96
X236.681 Y-5.337
X236.434 Y-4.629
X236.347 Y-3.884
X236.413 Y-3.136
X236.442 Y-3.078
X236.569 Y-2.889
X236.743 Y-2.742
X236.95 Y-2.648
X237.175 Y-2.613
X238.067 Y-2.598
G2 X238.361 Y-2.894 I-0.005 J-0.3
G1 X238.366 Y-3.217
X238.401 Y-5.718 F1200
X238.406 Y-6.044 F100
G2 X238.121 Y-6.348 I-0.3 J-0.004
G1 X237.218 Y-6.363
X236.843 Y-6.351
X236.196 Y-5.971
X235.783 Y-5.346
X235.55 Y-4.633
X235.466 Y-3.888
X235.528 Y-3.14
X235.553 Y-3.09
X235.681 Y-2.902
X235.855 Y-2.756
X236.062 Y-2.662
X236.286 Y-2.628
X237.175 Y-2.613
G2 X237.47 Y-2.91 I-0.005 J-0.3
G1 X237.473 Y-3.233
X237.499 Y-5.734 F1200
X237.503 Y-6.06 F100
G2 X237.218 Y-6.363 I-0.3 J-0.003
G1 X236.354 Y-6.377
X235.979 Y-6.364
X235.322 Y-6.003
X234.908 Y-5.378
X234.673 Y-4.665
X234.584 Y-3.921
X234.636 Y-3.173
X234.665 Y-3.112
X234.793 Y-2.921
X234.967 Y-2.772
X235.176 Y-2.677
X235.402 Y-2.642
X236.286 Y-2.628
G2 X236.581 Y-2.922 I-0.006 J-0.3
G1 X236.587 Y-3.247
X236.633 Y-5.748 F1200
X236.639 Y-6.072 F100
G2 X236.354 Y-6.377 I-0.3 J-0.006
G1 X235.414 Y-6.392
X235.039 Y-6.379
X234.401 Y-5.985
X234.001 Y-5.35
X233.777 Y-4.635
X233.694 Y-3.889
X233.764 Y-3.142
X233.781 Y-3.108
X233.91 Y-2.924
X234.082 Y-2.781
X234.287 Y-2.689
X234.509 Y-2.656
X235.402 Y-2.642
G2 X235.697 Y-2.941 I-0.006 J-0.3
G1 Y-3.262
X235.698 Y-5.763 F1200
X235.699 Y-6.092 F100
G2 X235.414 Y-6.392 I-0.3 J0
G1 X234.504 Y-6.406
X234.316 Y-6.4
X233.973 Y-6.249
X233.387 Y-5.78
X233.035 Y-5.118
X232.846 Y-4.393
X232.805 Y-3.644
X232.874 Y-3.325
X232.95 Y-3.116
X233.079 Y-2.934
X233.251 Y-2.793
X233.455 Y-2.702
X233.675 Y-2.669
X234.509 Y-2.656
G2 X234.803 Y-2.957 I-0.006 J-0.3
G1 X234.802 Y-3.276
X234.79 Y-5.777 F1200
X234.788 Y-6.108 F100
G2 X234.504 Y-6.406 I-0.3 J0.001
G1 X233.821 Y-6.417
X233.447 Y-6.404
X232.763 Y-6.095
X232.318 Y-5.492
X232.047 Y-4.792
X231.919 Y-4.053
X231.983 Y-3.306
X232.035 Y-3.185
X232.16 Y-2.982
X232.337 Y-2.823
X232.552 Y-2.721
X232.787 Y-2.683
X233.675 Y-2.669
G2 X233.969 Y-2.956 I-0.006 J-0.3
G1 X233.984 Y-3.288
X234.092 Y-5.788 F1200
X234.106 Y-6.104 F100
G2 X233.821 Y-6.417 I-0.3 J-0.013
G1 X232.851 Y-6.432
X232.476 Y-6.42
X231.815 Y-6.067
X231.389 Y-5.45
X231.134 Y-4.744
X231.045 Y-3.999
X231.115 Y-3.253
X231.154 Y-3.17
X231.281 Y-2.978
X231.456 Y-2.829
X231.665 Y-2.732
X231.893 Y-2.697
X232.787 Y-2.683
G2 X233.081 Y-2.978 I-0.006 J-0.3
G1 X233.087 Y-3.303
X233.13 Y-5.803 F1200
X233.136 Y-6.128 F100
G2 X232.851 Y-6.432 I-0.3 J-0.005
G1 X231.99 Y-6.446
X231.615 Y-6.433
X230.942 Y-6.102
X230.509 Y-5.49
X230.263 Y-4.782
X230.169 Y-4.037
X230.221 Y-3.289
X230.264 Y-3.197
X230.39 Y-3
X230.566 Y-2.846
X230.777 Y-2.747
X231.008 Y-2.711
X231.893 Y-2.697
G2 X232.187 Y-2.989 I-0.006 J-0.3
G1 X232.196 Y-3.317
X232.266 Y-5.817 F1200
X232.275 Y-6.138 F100
G2 X231.99 Y-6.446 I-0.3 J-0.008
G1 X231.047 Y-6.461
X230.672 Y-6.448
X230.014 Y-6.088
X229.601 Y-5.462
X229.368 Y-4.749
X229.283 Y-4.004
X229.349 Y-3.257
X229.381 Y-3.192
X229.508 Y-3.003
X229.682 Y-2.855
X229.89 Y-2.76
X230.116 Y-2.725
X231.008 Y-2.711
G2 X231.302 Y-3.008 I-0.006 J-0.3
G1 X231.305 Y-3.331
X231.328 Y-5.832 F1200
X231.332 Y-6.158 F100
G2 X231.047 Y-6.461 I-0.3 J-0.003
G1 X230.137 Y-6.475
X229.762 Y-6.462
X229.113 Y-6.087
X228.707 Y-5.456
X228.48 Y-4.741
X228.4 Y-3.995
X228.467 Y-3.248
X228.492 Y-3.199
X228.62 Y-3.012
X228.794 Y-2.867
X229 Y-2.774
X229.224 Y-2.739
X230.116 Y-2.725
G2 X230.41 Y-3.024 I-0.006 J-0.3
G1 X230.411 Y-3.345
X230.42 Y-5.846 F1200
X230.421 Y-6.175 F100
G2 X230.137 Y-6.475 I-0.3 J-0.001
G1 X229.229 Y-6.49
X228.854 Y-6.477
X228.214 Y-6.086
X227.815 Y-5.451
X227.593 Y-4.735
X227.515 Y-3.989
X227.584 Y-3.242
X227.602 Y-3.206
X227.731 Y-3.022
X227.904 Y-2.879
X228.109 Y-2.787
X228.331 Y-2.753
X229.224 Y-2.739
G2 X229.518 Y-3.04 I-0.006 J-0.3
G1 Y-3.359
X229.514 Y-5.861 F1200
Y-6.19 F100
G2 X229.229 Y-6.49 I-0.3 J0
G1 X228.444 Y-6.502
X228.07 Y-6.489
X227.398 Y-6.155
X226.975 Y-5.535
X226.733 Y-4.826
X226.636 Y-4.082
X226.674 Y-3.333
X226.71 Y-3.254
X226.836 Y-3.057
X227.012 Y-2.903
X227.224 Y-2.804
X227.455 Y-2.767
X228.331 Y-2.753
G2 X228.625 Y-3.043 I-0.006 J-0.3
G1 X228.636 Y-3.373
X228.719 Y-5.873 F1200
X228.729 Y-6.192 F100
G2 X228.444 Y-6.502 I-0.3 J-0.01
G1 X227.393 Y-6.519
X227.205 Y-6.512
X226.53 Y-6.186
X226.102 Y-5.57
X225.856 Y-4.861
X225.75 Y-4.119
X225.788 Y-3.37
X225.831 Y-3.274
X225.957 Y-3.075
X226.133 Y-2.919
X226.346 Y-2.818
X226.579 Y-2.781
X227.455 Y-2.767
G2 X227.749 Y-3.074 I-0.006 J-0.3
G1 X227.742 Y-3.387
X227.685 Y-5.89 F1200
X227.677 Y-6.226 F100
G2 X227.393 Y-6.519 I-0.3 J0.007
G1 X226.68 Y-6.53
X226.305 Y-6.517
X225.632 Y-6.185
X225.209 Y-5.566
X224.964 Y-4.857
X224.863 Y-4.114
X224.913 Y-3.366
X224.953 Y-3.279
X225.08 Y-3.083
X225.255 Y-2.93
X225.467 Y-2.831
X225.697 Y-2.795
X226.579 Y-2.781
G2 X226.873 Y-3.072 I-0.006 J-0.3
G1 X226.883 Y-3.401
X226.955 Y-5.901 F1200
X226.964 Y-6.222 F100
G2 X226.68 Y-6.53 I-0.3 J-0.009
G1 X225.77 Y-6.544
X225.395 Y-6.531
X224.731 Y-6.183
X224.312 Y-5.56
X224.072 Y-4.85
X223.979 Y-4.106
X224.036 Y-3.358
X224.071 Y-3.284
X224.198 Y-3.091
X224.373 Y-2.941
X224.583 Y-2.844
X224.811 Y-2.809
X225.697 Y-2.795
G2 X225.991 Y-3.089 I-0.006 J-0.3
G1 X225.998 Y-3.415
X226.048 Y-5.915 F1200
X226.054 Y-6.239 F100
G2 X225.77 Y-6.544 I-0.3 J-0.006
G1 X224.801 Y-6.559
X224.614 Y-6.553
X224.268 Y-6.409
X223.681 Y-5.941
X223.326 Y-5.281
X223.134 Y-4.556
X223.087 Y-3.807
X223.163 Y-3.472
X223.24 Y-3.264
X223.369 Y-3.084
X223.541 Y-2.945
X223.744 Y-2.855
X223.963 Y-2.822
X224.811 Y-2.809
G2 X225.105 Y-3.111 I-0.006 J-0.3
G1 X225.103 Y-3.429
X225.088 Y-5.931 F1200
X225.086 Y-6.262 F100
G2 X224.801 Y-6.559 I-0.3 J0.002
G1 X224.077 Y-6.571
X223.703 Y-6.558
X223.031 Y-6.225
X222.592 Y-5.617
X222.328 Y-4.915
X222.204 Y-4.175
X222.276 Y-3.429
X222.324 Y-3.325
X222.449 Y-3.127
X222.625 Y-2.973
X222.838 Y-2.873
X223.069 Y-2.836
X223.963 Y-2.822
G2 X224.257 Y-3.112 I-0.006 J-0.3
G1 X224.268 Y-3.442
X224.351 Y-5.942 F1200
X224.362 Y-6.261 F100
G2 X224.077 Y-6.571 I-0.3 J-0.01
G1 X223.026 Y-6.588
X222.838 Y-6.581
X222.156 Y-6.27
X221.713 Y-5.665
X221.445 Y-4.964
X221.339 Y-4.222
X221.383 Y-3.473
X221.435 Y-3.352
X221.56 Y-3.15
X221.737 Y-2.991
X221.952 Y-2.888
X222.187 Y-2.85
X223.069 Y-2.836
G2 X223.363 Y-3.141 I-0.006 J-0.3
G1 X223.358 Y-3.456
X223.316 Y-5.959 F1200
X223.31 Y-6.293 F100
G2 X223.026 Y-6.588 I-0.3 J0.005
G1 X222.313 Y-6.599
X221.938 Y-6.586
X221.254 Y-6.279
X220.813 Y-5.672
X220.56 Y-4.966
X220.457 Y-4.223
X220.505 Y-3.475
X220.555 Y-3.361
X220.681 Y-3.16
X220.857 Y-3.003
X221.071 Y-2.902
X221.305 Y-2.864
X222.187 Y-2.85
G2 X222.481 Y-3.139 I-0.006 J-0.3
G1 X222.493 Y-3.47
X222.586 Y-5.97 F1200
X222.597 Y-6.288 F100
G2 X222.313 Y-6.599 I-0.3 J-0.011
G1 X221.403 Y-6.613
X221.028 Y-6.6
X220.688 Y-6.442
X220.125 Y-5.947
X219.785 Y-5.278
X219.609 Y-4.549
X219.571 Y-3.8
X219.651 Y-3.499
X219.732 Y-3.299
X219.862 Y-3.127
X220.032 Y-2.994
X220.23 Y-2.909
X220.443 Y-2.878
X221.305 Y-2.864
G2 X221.599 Y-3.156 I-0.006 J-0.3
G1 X221.608 Y-3.484
X221.678 Y-5.984 F1200
X221.687 Y-6.305 F100
G2 X221.403 Y-6.613 I-0.3 J-0.008
G1 X220.495 Y-6.627
X220.121 Y-6.615
X219.47 Y-6.242
X219.047 Y-5.622
X218.796 Y-4.916
X218.681 Y-4.174
X218.77 Y-3.43
X218.805 Y-3.358
X218.933 Y-3.169
X219.107 Y-3.021
X219.315 Y-2.927
X219.54 Y-2.892
X220.443 Y-2.878
G2 X220.737 Y-3.174 I-0.006 J-0.3
G1 X220.742 Y-3.498
X220.776 Y-5.999 F1200
X220.78 Y-6.324 F100
G2 X220.495 Y-6.627 I-0.3 J-0.004
G1 X219.562 Y-6.642
X219.187 Y-6.629
X218.547 Y-6.239
X218.136 Y-5.611
X217.892 Y-4.902
X217.813 Y-4.156
X217.888 Y-3.41
X217.913 Y-3.362
X218.041 Y-3.177
X218.214 Y-3.033
X218.42 Y-2.94
X218.642 Y-2.906
X219.54 Y-2.892
G2 X219.834 Y-3.191 I-0.006 J-0.3
G1 X219.836 Y-3.512
X219.845 Y-6.013 F1200
X219.847 Y-6.341 F100
G2 X219.562 Y-6.642 I-0.3 J-0.001
G1 X218.659 Y-6.656
X218.284 Y-6.644
X217.646 Y-6.25
X217.237 Y-5.621
X217.01 Y-4.906
X216.933 Y-4.16
X217.001 Y-3.413
X217.021 Y-3.375
X217.149 Y-3.19
X217.322 Y-3.046
X217.527 Y-2.954
X217.75 Y-2.92
X218.642 Y-2.906
G2 X218.937 Y-3.206 I-0.006 J-0.3
G1 Y-3.526
X218.943 Y-6.027 F1200
Y-6.357 F100
G2 X218.659 Y-6.656 I-0.3 J0
G1 X217.794 Y-6.67
X217.42 Y-6.657
X216.77 Y-6.282
X216.363 Y-5.652
X216.134 Y-4.938
X216.05 Y-4.193
X216.107 Y-3.445
X216.13 Y-3.397
X216.258 Y-3.209
X216.432 Y-3.063
X216.639 Y-2.969
X216.864 Y-2.934
X217.75 Y-2.92
G2 X218.044 Y-3.217 I-0.006 J-0.3
G1 X218.047 Y-3.54
X218.076 Y-6.041 F1200
X218.079 Y-6.367 F100
G2 X217.794 Y-6.67 I-0.3 J-0.003
G1 X216.854 Y-6.685
X216.667 Y-6.678
X216.323 Y-6.528
X215.74 Y-6.057
X215.389 Y-5.394
X215.201 Y-4.668
X215.155 Y-3.919
X215.226 Y-3.6
X215.303 Y-3.391
X215.432 Y-3.211
X215.604 Y-3.07
X215.807 Y-2.98
X216.026 Y-2.947
X216.864 Y-2.934
G2 X217.158 Y-3.236 I-0.006 J-0.3
G1 X217.156 Y-3.554
X217.141 Y-6.056 F1200
X217.139 Y-6.387 F100
G2 X216.854 Y-6.685 I-0.3 J0.002
G1 X216.098 Y-6.697
X215.723 Y-6.684
X215.067 Y-6.321
X214.641 Y-5.703
X214.386 Y-4.998
X214.271 Y-4.257
X214.351 Y-3.511
X214.391 Y-3.428
X214.519 Y-3.237
X214.695 Y-3.088
X214.904 Y-2.992
X215.132 Y-2.958
X216.026 Y-2.947
G2 X216.321 Y-3.241 I-0.006 J-0.3
G1 X216.327 Y-3.567
X216.376 Y-6.068 F1200
X216.383 Y-6.391 F100
G2 X216.098 Y-6.697 I-0.3 J-0.006
G1 X215.195 Y-6.708
X214.82 Y-6.693
X214.163 Y-6.332
X213.741 Y-5.712
X213.491 Y-5.005
X213.402 Y-4.26
X213.466 Y-3.513
X213.503 Y-3.436
X213.632 Y-3.244
X213.808 Y-3.094
X214.019 Y-2.999
X214.247 Y-2.966
X215.132 Y-2.958
G2 X215.425 Y-3.253 I-0.007 J-0.3
G1 X215.431 Y-3.579
X215.475 Y-6.08 F1200
X215.481 Y-6.402 F100
G2 X215.195 Y-6.708 I-0.3 J-0.005
G1 X214.292 Y-6.715
X213.917 Y-6.699
X213.26 Y-6.337
X212.842 Y-5.715
X212.606 Y-5.003
X212.521 Y-4.258
X212.584 Y-3.51
X212.619 Y-3.439
X212.748 Y-3.248
X212.924 Y-3.099
X213.134 Y-3.005
X213.362 Y-2.972
X214.247 Y-2.966
G2 X214.539 Y-3.262 I-0.008 J-0.3
G1 X214.543 Y-3.588
X214.575 Y-6.089 F1200
X214.579 Y-6.412 F100
G2 X214.292 Y-6.715 I-0.3 J-0.004
G1 X213.43 Y-6.721
X213.056 Y-6.705
X212.387 Y-6.364
X211.968 Y-5.743
X211.73 Y-5.031
X211.64 Y-4.287
X211.693 Y-3.539
X211.733 Y-3.454
X211.861 Y-3.26
X212.038 Y-3.108
X212.25 Y-3.011
X212.48 Y-2.977
X213.362 Y-2.972
G2 X213.654 Y-3.265 I-0.009 J-0.3
G1 X213.66 Y-3.594
X213.711 Y-6.095 F1200
X213.718 Y-6.415 F100
G2 X213.43 Y-6.721 I-0.3 J-0.006
G1 X212.487 Y-6.727
X212.113 Y-6.711
X211.463 Y-6.336
X211.059 Y-5.704
X210.833 Y-4.989
X210.751 Y-4.244
X210.823 Y-3.497
X210.852 Y-3.441
X210.981 Y-3.254
X211.156 Y-3.109
X211.364 Y-3.016
X211.589 Y-2.984
X212.48 Y-2.977
G2 X212.772 Y-3.277 I-0.008 J-0.3
G1 Y-3.6
X212.774 Y-6.101 F1200
X212.775 Y-6.428 F100
G2 X212.487 Y-6.727 I-0.3 J0
G1 X211.577 Y-6.734
X211.202 Y-6.719
X210.562 Y-6.328
X210.165 Y-5.692
X209.943 Y-4.976
X209.868 Y-4.229
X209.941 Y-3.483
X209.962 Y-3.443
X210.092 Y-3.258
X210.266 Y-3.116
X210.472 Y-3.025
X210.695 Y-2.992
X211.589 Y-2.984
G2 X211.881 Y-3.285 I-0.008 J-0.3
G1 X211.879 Y-3.606
X211.866 Y-6.107 F1200
X211.864 Y-6.436 F100
G2 X211.577 Y-6.734 I-0.3 J0.002
G1 X210.67 Y-6.742
X210.482 Y-6.735
X210.138 Y-6.587
X209.551 Y-6.12
X209.201 Y-5.457
X209.016 Y-4.73
X208.98 Y-3.98
X209.052 Y-3.653
X209.129 Y-3.443
X209.259 Y-3.261
X209.433 Y-3.121
X209.638 Y-3.031
X209.859 Y-2.999
X210.695 Y-2.992
G2 X210.987 Y-3.295 I-0.008 J-0.3
G1 X210.984 Y-3.614
X210.96 Y-6.115 F1200
X210.956 Y-6.446 F100
G2 X210.67 Y-6.742 I-0.3 J0.003
G1 X209.925 Y-6.749
X209.55 Y-6.734
X208.886 Y-6.385
X208.457 Y-5.77
X208.204 Y-5.064
X208.092 Y-4.322
X208.172 Y-3.577
X208.217 Y-3.482
X208.346 Y-3.288
X208.522 Y-3.137
X208.733 Y-3.041
X208.963 Y-3.007
X209.859 Y-2.999
G2 X210.151 Y-3.294 I-0.008 J-0.3
G1 X210.157 Y-3.621
X210.205 Y-6.122 F1200
X210.212 Y-6.444 F100
G2 X209.925 Y-6.749 I-0.3 J-0.006
G1 X209.063 Y-6.756
X208.689 Y-6.741
X208.012 Y-6.418
X207.578 Y-5.806
X207.321 Y-5.101
X207.225 Y-4.358
X207.279 Y-3.609
X207.328 Y-3.502
X207.455 Y-3.304
X207.632 Y-3.148
X207.846 Y-3.049
X208.08 Y-3.014
X208.963 Y-3.007
G2 X209.255 Y-3.298 I-0.008 J-0.3
G1 X209.265 Y-3.629
X209.341 Y-6.13 F1200
X209.35 Y-6.447 F100
G2 X209.063 Y-6.756 I-0.3 J-0.009
G1 X208.12 Y-6.764
X207.746 Y-6.748
X207.083 Y-6.396
X206.663 Y-5.775
X206.427 Y-5.063
X206.34 Y-4.318
X206.408 Y-3.571
X206.447 Y-3.491
X206.575 Y-3.299
X206.751 Y-3.15
X206.962 Y-3.055
X207.19 Y-3.021
X208.08 Y-3.014
G2 X208.371 Y-3.31 I-0.008 J-0.3
G1 X208.375 Y-3.636
X208.404 Y-6.137 F1200
X208.407 Y-6.461 F100
G2 X208.12 Y-6.764 I-0.3 J-0.003
G1 X207.21 Y-6.771
X206.835 Y-6.755
X206.179 Y-6.393
X205.768 Y-5.765
X205.539 Y-5.051
X205.459 Y-4.306
X205.527 Y-3.559
X205.56 Y-3.492
X205.689 Y-3.302
X205.865 Y-3.155
X206.074 Y-3.062
X206.3 Y-3.028
X207.19 Y-3.021
G2 X207.482 Y-3.32 I-0.008 J-0.3
G1 X207.484 Y-3.643
X207.496 Y-6.144 F1200
X207.497 Y-6.47 F100
G2 X207.21 Y-6.771 I-0.3 J-0.001
G1 X206.303 Y-6.778
X205.928 Y-6.763
X205.279 Y-6.387
X204.875 Y-5.755
X204.652 Y-5.039
X204.575 Y-4.293
X204.646 Y-3.546
X204.673 Y-3.492
X204.802 Y-3.305
X204.977 Y-3.16
X205.185 Y-3.068
X205.41 Y-3.035
X206.3 Y-3.028
G2 X206.592 Y-3.328 I-0.008 J-0.3
G1 Y-3.65
X206.59 Y-6.152 F1200
Y-6.479 F100
G2 X206.303 Y-6.778 I-0.3 J0
G1 X205.369 Y-6.786
X205.182 Y-6.778
X204.838 Y-6.63
X204.253 Y-6.16
X203.905 Y-5.495
X203.722 Y-4.768
X203.686 Y-4.019
X203.762 Y-3.689
X203.84 Y-3.481
X203.971 Y-3.301
X204.144 Y-3.162
X204.348 Y-3.073
X204.568 Y-3.042
X205.41 Y-3.035
G2 X205.702 Y-3.34 I-0.008 J-0.3
G1 X205.697 Y-3.657
X205.661 Y-6.159 F1200
X205.656 Y-6.49 F100
G2 X205.369 Y-6.786 I-0.3 J0.004
G1 X204.466 Y-6.793
X204.279 Y-6.785
X203.608 Y-6.45
X203.174 Y-5.838
X202.915 Y-5.134
X202.798 Y-4.393
X202.873 Y-3.647
X202.924 Y-3.537
X203.051 Y-3.338
X203.228 Y-3.183
X203.442 Y-3.084
X203.675 Y-3.049
X204.568 Y-3.042
G2 X204.859 Y-3.352 I-0.008 J-0.3
G1 X204.849 Y-3.664
X204.764 Y-6.166 F1200
X204.753 Y-6.503 F100
G2 X204.466 Y-6.793 I-0.3 J0.01
G1 X203.753 Y-6.799
X203.379 Y-6.783
X202.705 Y-6.454
X202.274 Y-5.84
X202.02 Y-5.134
X201.928 Y-4.39
X201.991 Y-3.642
X202.039 Y-3.539
X202.166 Y-3.342
X202.344 Y-3.189
X202.556 Y-3.091
X202.788 Y-3.056
X203.675 Y-3.049
G2 X203.967 Y-3.342 I-0.008 J-0.3
G1 X203.975 Y-3.671
X204.033 Y-6.172 F1200
X204.04 Y-6.492 F100
G2 X203.753 Y-6.799 I-0.3 J-0.007
G1 X202.843 Y-6.806
X202.469 Y-6.79
X201.799 Y-6.452
X201.374 Y-5.834
X201.135 Y-5.123
X201.048 Y-4.378
X201.111 Y-3.631
X201.154 Y-3.54
X201.282 Y-3.345
X201.459 Y-3.194
X201.671 Y-3.097
X201.901 Y-3.063
X202.788 Y-3.056
G2 X203.08 Y-3.351 I-0.008 J-0.3
G1 X203.085 Y-3.678
X203.125 Y-6.179 F1200
X203.13 Y-6.501 F100
G2 X202.843 Y-6.806 I-0.3 J-0.005
G1 X201.936 Y-6.813
X201.561 Y-6.797
X200.896 Y-6.45
X200.481 Y-5.826
X200.249 Y-5.113
X200.165 Y-4.367
X200.231 Y-3.62
X200.269 Y-3.54
X200.398 Y-3.348
X200.574 Y-3.199
X200.785 Y-3.104
X201.013 Y-3.07
X201.901 Y-3.063
G2 X202.193 Y-3.36 I-0.008 J-0.3
G1 X202.196 Y-3.685
X202.22 Y-6.186 F1200
X202.223 Y-6.51 F100
G2 X201.936 Y-6.813 I-0.3 J-0.003
G1 X201.002 Y-6.82
X200.628 Y-6.804
X199.979 Y-6.427
X199.578 Y-5.794
X199.355 Y-5.077
X199.28 Y-4.331
X199.356 Y-3.585
X199.384 Y-3.531
X199.513 Y-3.345
X199.688 Y-3.201
X199.895 Y-3.109
X200.12 Y-3.076
X201.013 Y-3.07
G2 X201.305 Y-3.371 I-0.008 J-0.3
G1 X201.304 Y-3.692
X201.291 Y-6.193 F1200
X201.29 Y-6.522 F100
G2 X201.002 Y-6.82 I-0.3 J0.001
G1 X200.099 Y-6.827
X199.724 Y-6.811
X199.084 Y-6.421
X198.687 Y-5.784
X198.469 Y-5.067
X198.397 Y-4.32
X198.472 Y-3.574
X198.493 Y-3.532
X198.623 Y-3.348
X198.798 Y-3.205
X199.004 Y-3.115
X199.227 Y-3.083
X200.12 Y-3.076
G2 X200.412 Y-3.379 I-0.008 J-0.3
G1 X200.409 Y-3.699
X200.389 Y-6.2 F1200
X200.387 Y-6.529 F100
G2 X200.099 Y-6.827 I-0.3 J0.002
G1 X199.235 Y-6.833
X198.86 Y-6.817
X198.213 Y-6.437
X197.813 Y-5.803
X197.591 Y-5.087
X197.514 Y-4.341
X197.579 Y-3.593
X197.603 Y-3.545
X197.733 Y-3.359
X197.908 Y-3.214
X198.115 Y-3.122
X198.34 Y-3.089
X199.227 Y-3.083
G2 X199.519 Y-3.382 I-0.008 J-0.3
G1 Y-3.705
X199.522 Y-6.206 F1200
Y-6.533 F100
G2 X199.235 Y-6.833 I-0.3 J0
G1 X198.295 Y-6.839
X198.107 Y-6.831
X197.765 Y-6.678
X197.186 Y-6.202
X196.841 Y-5.536
X196.661 Y-4.808
X196.622 Y-4.059
X196.696 Y-3.74
X196.775 Y-3.532
X196.905 Y-3.353
X197.079 Y-3.214
X197.282 Y-3.126
X197.502 Y-3.095
X198.34 Y-3.089
G2 X198.632 Y-3.394 I-0.008 J-0.3
G1 X198.627 Y-3.711
X198.587 Y-6.213 F1200
X198.582 Y-6.544 F100
G2 X198.295 Y-6.839 I-0.3 J0.005
G1 X197.538 Y-6.845
X197.164 Y-6.829
X196.511 Y-6.46
X196.09 Y-5.838
X195.843 Y-5.13
X195.735 Y-4.388
X195.822 Y-3.643
X195.861 Y-3.565
X195.99 Y-3.375
X196.166 Y-3.228
X196.375 Y-3.135
X196.602 Y-3.101
X197.502 Y-3.095
G2 X197.794 Y-3.392 I-0.008 J-0.3
G1 X197.797 Y-3.717
X197.822 Y-6.218 F1200
X197.826 Y-6.542 F100
G2 X197.538 Y-6.845 I-0.3 J-0.003
G1 X196.635 Y-6.851
X196.261 Y-6.835
X195.608 Y-6.466
X195.192 Y-5.842
X194.948 Y-5.133
X194.866 Y-4.387
X194.936 Y-3.641
X194.97 Y-3.571
X195.099 Y-3.382
X195.275 Y-3.235
X195.484 Y-3.141
X195.711 Y-3.108
X196.602 Y-3.101
G2 X196.893 Y-3.399 I-0.008 J-0.3
G1 X196.897 Y-3.724
X196.92 Y-6.225 F1200
X196.923 Y-6.549 F100
G2 X196.635 Y-6.851 I-0.3 J-0.003
G1 X195.732 Y-6.858
X195.358 Y-6.842
X194.707 Y-6.469
X194.294 Y-5.843
X194.065 Y-5.129
X193.985 Y-4.383
X194.052 Y-3.636
X194.083 Y-3.575
X194.212 Y-3.387
X194.387 Y-3.24
X194.596 Y-3.147
X194.822 Y-3.114
X195.711 Y-3.108
G2 X196.003 Y-3.406 I-0.008 J-0.3
G1 X196.004 Y-3.73
X196.018 Y-6.231 F1200
X196.02 Y-6.556 F100
G2 X195.732 Y-6.858 I-0.3 J-0.002
G1 X194.868 Y-6.864
X194.493 Y-6.848
X193.833 Y-6.493
X193.42 Y-5.867
X193.188 Y-5.154
X193.103 Y-4.408
X193.161 Y-3.661
X193.195 Y-3.59
X193.324 Y-3.398
X193.5 Y-3.249
X193.71 Y-3.154
X193.939 Y-3.12
X194.822 Y-3.114
G2 X195.114 Y-3.41 I-0.008 J-0.3
G1 X195.118 Y-3.736
X195.151 Y-6.237 F1200
X195.155 Y-6.56 F100
G2 X194.868 Y-6.864 I-0.3 J-0.004
G1 X193.928 Y-6.871
X193.553 Y-6.855
X192.911 Y-6.466
X192.513 Y-5.831
X192.292 Y-5.114
X192.214 Y-4.368
X192.289 Y-3.622
X192.312 Y-3.578
X192.441 Y-3.393
X192.616 Y-3.25
X192.823 Y-3.159
X193.046 Y-3.127
X193.939 Y-3.12
G2 X194.23 Y-3.422 I-0.008 J-0.3
G1 X194.229 Y-3.743
X194.217 Y-6.244 F1200
X194.215 Y-6.572 F100
G2 X193.928 Y-6.871 I-0.3 J0.001
G1 X193.018 Y-6.877
X192.83 Y-6.869
X192.485 Y-6.722
X191.899 Y-6.255
X191.549 Y-5.591
X191.363 Y-4.865
X191.327 Y-4.115
X191.401 Y-3.785
X191.478 Y-3.575
X191.609 Y-3.394
X191.782 Y-3.253
X191.987 Y-3.164
X192.208 Y-3.133
X193.046 Y-3.127
G2 X193.338 Y-3.43 I-0.008 J-0.3
G1 X193.334 Y-3.749
X193.308 Y-6.251 F1200
X193.305 Y-6.58 F100
G2 X193.018 Y-6.877 I-0.3 J0.003
G1 X192.11 Y-6.884
X191.923 Y-6.876
X191.251 Y-6.541
X190.816 Y-5.931
X190.556 Y-5.227
X190.439 Y-4.486
X190.513 Y-3.74
X190.564 Y-3.627
X190.691 Y-3.429
X190.869 Y-3.273
X191.084 Y-3.174
X191.317 Y-3.139
X192.208 Y-3.133
G2 X192.5 Y-3.442 I-0.008 J-0.3
G1 X192.49 Y-3.755
X192.408 Y-6.257 F1200
X192.397 Y-6.594 F100
G2 X192.11 Y-6.884 I-0.3 J0.01
G1 X191.365 Y-6.889
X190.991 Y-6.873
X190.326 Y-6.525
X189.902 Y-5.906
X189.653 Y-5.199
X189.567 Y-4.454
X189.638 Y-3.707
X189.681 Y-3.618
X189.809 Y-3.425
X189.986 Y-3.275
X190.197 Y-3.179
X190.426 Y-3.145
X191.317 Y-3.139
G2 X191.609 Y-3.435 I-0.008 J-0.3
G1 X191.613 Y-3.761
X191.648 Y-6.262 F1200
X191.653 Y-6.585 F100
G2 X191.365 Y-6.889 I-0.3 J-0.004
G1 X190.504 Y-6.895
X190.129 Y-6.879
X189.454 Y-6.553
X189.023 Y-5.939
X188.781 Y-5.229
X188.691 Y-4.484
X188.746 Y-3.736
X188.792 Y-3.636
X188.919 Y-3.439
X189.097 Y-3.285
X189.31 Y-3.187
X189.543 Y-3.152
X190.426 Y-3.145
G2 X190.718 Y-3.438 I-0.008 J-0.3
G1 X190.725 Y-3.768
X190.784 Y-6.269 F1200
X190.791 Y-6.588 F100
G2 X190.504 Y-6.895 I-0.3 J-0.007
G1 X189.561 Y-6.902
X189.186 Y-6.886
X188.526 Y-6.529
X188.115 Y-5.902
X187.886 Y-5.188
X187.804 Y-4.442
X187.875 Y-3.695
X187.91 Y-3.623
X188.039 Y-3.433
X188.215 Y-3.285
X188.425 Y-3.191
X188.652 Y-3.158
X189.543 Y-3.152
G2 X189.834 Y-3.45 I-0.008 J-0.3
G1 X189.836 Y-3.774
X189.847 Y-6.275 F1200
X189.848 Y-6.601 F100
G2 X189.561 Y-6.902 I-0.3 J-0.001
G1 X188.651 Y-6.908
X188.276 Y-6.892
X187.625 Y-6.52
X187.222 Y-5.887
X186.997 Y-5.172
X186.921 Y-4.425
X186.994 Y-3.679
X187.023 Y-3.622
X187.152 Y-3.435
X187.327 Y-3.289
X187.535 Y-3.197
X187.76 Y-3.164
X188.652 Y-3.158
G2 X188.943 Y-3.459 I-0.008 J-0.3
G1 Y-3.78
X188.939 Y-6.282 F1200
X188.938 Y-6.609 F100
G2 X188.651 Y-6.908 I-0.3 J0.001
G1 X187.743 Y-6.915
X187.369 Y-6.899
X186.726 Y-6.511
X186.329 Y-5.875
X186.11 Y-5.158
X186.037 Y-4.411
X186.111 Y-3.665
X186.134 Y-3.621
X186.263 Y-3.437
X186.438 Y-3.294
X186.645 Y-3.203
X186.868 Y-3.171
X187.76 Y-3.164
G2 X188.052 Y-3.466 I-0.008 J-0.3
G1 X188.05 Y-3.787
X188.033 Y-6.288 F1200
X188.031 Y-6.617 F100
G2 X187.743 Y-6.915 I-0.3 J0.002
G1 X186.81 Y-6.921
X186.622 Y-6.913
X186.281 Y-6.758
X185.703 Y-6.28
X185.361 Y-5.613
X185.182 Y-4.885
X185.149 Y-4.135
X185.224 Y-3.819
X185.303 Y-3.612
X185.434 Y-3.433
X185.607 Y-3.295
X185.81 Y-3.208
X186.029 Y-3.177
X186.868 Y-3.171
G2 X187.16 Y-3.477 I-0.008 J-0.3
G1 X187.153 Y-3.793
X187.104 Y-6.295 F1200
X187.097 Y-6.628 F100
G2 X186.81 Y-6.921 I-0.3 J0.006
G1 X186.137 Y-6.926
X185.762 Y-6.91
X185.081 Y-6.595
X184.642 Y-5.987
X184.379 Y-5.285
X184.259 Y-4.545
X184.331 Y-3.798
X184.384 Y-3.678
X184.511 Y-3.477
X184.689 Y-3.32
X184.904 Y-3.219
X185.139 Y-3.183
X186.029 Y-3.177
G2 X186.321 Y-3.467 I-0.008 J-0.3
G1 X186.332 Y-3.799
X186.414 Y-6.3 F1200
X186.424 Y-6.617 F100
G2 X186.137 Y-6.926 I-0.3 J-0.01
G1 X185.194 Y-6.933
X184.819 Y-6.917
X184.151 Y-6.576
X183.725 Y-5.958
X183.474 Y-5.252
X183.387 Y-4.507
X183.457 Y-3.76
X183.502 Y-3.665
X183.63 Y-3.472
X183.807 Y-3.321
X184.018 Y-3.224
X184.248 Y-3.19
X185.139 Y-3.183
G2 X185.431 Y-3.478 I-0.008 J-0.3
G1 X185.436 Y-3.805
X185.476 Y-6.306 F1200
X185.481 Y-6.629 F100
G2 X185.194 Y-6.933 I-0.3 J-0.005
G1 X184.284 Y-6.94
X183.909 Y-6.924
X183.246 Y-6.574
X182.824 Y-5.954
X182.59 Y-5.241
X182.508 Y-4.496
X182.575 Y-3.749
X182.615 Y-3.668
X182.743 Y-3.476
X182.919 Y-3.327
X183.129 Y-3.232
X183.358 Y-3.198
X184.248 Y-3.19
G2 X184.54 Y-3.487 I-0.008 J-0.3
G1 X184.543 Y-3.812
X184.567 Y-6.313 F1200
X184.571 Y-6.637 F100
G2 X184.284 Y-6.94 I-0.3 J-0.003
G1 X183.376 Y-6.948
X183.002 Y-6.932
X182.343 Y-6.573
X181.932 Y-5.946
X181.705 Y-5.231
X181.625 Y-4.485
X181.694 Y-3.738
X181.727 Y-3.67
X181.856 Y-3.48
X182.032 Y-3.333
X182.241 Y-3.239
X182.468 Y-3.205
X183.358 Y-3.198
G2 X183.65 Y-3.496 I-0.008 J-0.3
G1 X183.651 Y-3.82
X183.662 Y-6.321 F1200
X183.663 Y-6.647 F100
G2 X183.376 Y-6.948 I-0.3 J-0.001
G1 X182.443 Y-6.956
X182.068 Y-6.94
X181.427 Y-6.551
X181.03 Y-5.915
X180.812 Y-5.197
X180.74 Y-4.451
X180.818 Y-3.705
X180.84 Y-3.663
X180.969 Y-3.479
X181.143 Y-3.336
X181.349 Y-3.245
X181.572 Y-3.213
X182.468 Y-3.205
G2 X182.76 Y-3.508 I-0.008 J-0.3
G1 X182.757 Y-3.827
X182.733 Y-6.329 F1200
X182.73 Y-6.659 F100
G2 X182.443 Y-6.956 I-0.3 J0.003
G1 X181.54 Y-6.964
X181.352 Y-6.956
X181.007 Y-6.81
X180.419 Y-6.345
X180.069 Y-5.681
X179.887 Y-4.953
X179.853 Y-4.204
X179.927 Y-3.873
X180.004 Y-3.664
X180.134 Y-3.482
X180.308 Y-3.342
X180.512 Y-3.252
X180.733 Y-3.221
X181.572 Y-3.213
G2 X181.864 Y-3.517 I-0.008 J-0.3
G1 X181.86 Y-3.835
X181.83 Y-6.337 F1200
X181.826 Y-6.667 F100
G2 X181.54 Y-6.964 I-0.3 J0.004
G1 X180.827 Y-6.97
X180.452 Y-6.954
X179.776 Y-6.631
X179.339 Y-6.021
X179.08 Y-5.317
X178.964 Y-4.576
X179.038 Y-3.83
X179.089 Y-3.717
X179.216 Y-3.519
X179.394 Y-3.363
X179.608 Y-3.264
X179.841 Y-3.228
X180.733 Y-3.221
G2 X181.025 Y-3.512 I-0.008 J-0.3
G1 X181.034 Y-3.842
X181.105 Y-6.343 F1200
X181.114 Y-6.662 F100
G2 X180.827 Y-6.97 I-0.3 J-0.008
G1 X179.917 Y-6.978
X179.542 Y-6.962
X178.868 Y-6.633
X178.438 Y-6.019
X178.185 Y-5.313
X178.094 Y-4.569
X178.157 Y-3.821
X178.204 Y-3.719
X178.332 Y-3.522
X178.509 Y-3.369
X178.721 Y-3.271
X178.953 Y-3.236
X179.841 Y-3.228
G2 X180.133 Y-3.522 I-0.008 J-0.3
G1 X180.14 Y-3.85
X180.196 Y-6.351 F1200
X180.204 Y-6.671 F100
G2 X179.917 Y-6.978 I-0.3 J-0.007
G1 X179.009 Y-6.986
X178.635 Y-6.97
X177.964 Y-6.634
X177.539 Y-6.016
X177.3 Y-5.305
X177.214 Y-4.56
X177.276 Y-3.813
X177.319 Y-3.721
X177.447 Y-3.527
X177.624 Y-3.375
X177.835 Y-3.279
X178.066 Y-3.244
X178.953 Y-3.236
G2 X179.245 Y-3.531 I-0.008 J-0.3
G1 X179.25 Y-3.858
X179.291 Y-6.359 F1200
X179.296 Y-6.681 F100
G2 X179.009 Y-6.986 I-0.3 J-0.005
G1 X178.076 Y-6.994
X177.701 Y-6.979
X177.045 Y-6.616
X176.636 Y-5.988
X176.408 Y-5.273
X176.329 Y-4.527
X176.401 Y-3.781
X176.434 Y-3.714
X176.563 Y-3.525
X176.739 Y-3.379
X176.947 Y-3.285
X177.173 Y-3.252
X178.066 Y-3.244
G2 X178.358 Y-3.544 I-0.008 J-0.3
G1 Y-3.866
X178.362 Y-6.367 F1200
X178.363 Y-6.694 F100
G2 X178.076 Y-6.994 I-0.3 J0
G1 X177.173 Y-7.002
X176.798 Y-6.987
X176.148 Y-6.612
X175.745 Y-5.98
X175.522 Y-5.263
X175.447 Y-4.517
X175.518 Y-3.771
X175.545 Y-3.717
X175.675 Y-3.53
X175.849 Y-3.385
X176.057 Y-3.293
X176.282 Y-3.26
X177.173 Y-3.252
G2 X177.465 Y-3.552 I-0.008 J-0.3
G1 Y-3.874
X177.46 Y-6.375 F1200
Y-6.703 F100
G2 X177.173 Y-7.002 I-0.3 J0.001
G1 X176.308 Y-7.01
X175.934 Y-6.994
X175.278 Y-6.63
X174.872 Y-6
X174.645 Y-5.285
X174.564 Y-4.539
X174.626 Y-3.792
X174.656 Y-3.731
X174.785 Y-3.542
X174.961 Y-3.394
X175.17 Y-3.301
X175.396 Y-3.267
X176.282 Y-3.26
G2 X176.574 Y-3.558 I-0.008 J-0.3
G1 X176.576 Y-3.882
X176.593 Y-6.383 F1200
X176.595 Y-6.708 F100
G2 X176.308 Y-7.01 I-0.3 J-0.002
G1 X175.368 Y-7.018
X174.993 Y-7.002
X174.359 Y-6.602
X173.966 Y-5.963
X173.749 Y-5.245
X173.676 Y-4.499
X173.753 Y-3.753
X173.771 Y-3.72
X173.901 Y-3.537
X174.075 Y-3.396
X174.28 Y-3.306
X174.502 Y-3.274
X175.396 Y-3.267
G2 X175.688 Y-3.57 I-0.008 J-0.3
G1 X175.685 Y-3.89
X175.659 Y-6.391 F1200
X175.655 Y-6.721 F100
G2 X175.368 Y-7.018 I-0.3 J0.003
G1 X174.458 Y-7.025
X174.271 Y-7.015
X173.929 Y-6.862
X173.348 Y-6.387
X173.003 Y-5.721
X172.822 Y-4.993
X172.789 Y-4.244
X172.863 Y-3.923
X172.941 Y-3.714
X173.073 Y-3.533
X173.247 Y-3.393
X173.453 Y-3.305
X173.674 Y-3.275
X174.502 Y-3.274
G2 X174.794 Y-3.579 I-0.008 J-0.3
G1 X174.789 Y-3.896
X174.75 Y-6.398 F1200
X174.745 Y-6.729 F100
G2 X174.458 Y-7.025 I-0.3 J0.005
G1 X173.776
X173.401 Y-7.007
X172.72 Y-6.692
X172.281 Y-6.084
X172.019 Y-5.382
X171.899 Y-4.641
X171.971 Y-3.895
X172.029 Y-3.765
X172.158 Y-3.562
X172.339 Y-3.403
X172.558 Y-3.304
X172.797 Y-3.271
X173.674 Y-3.275
G2 X173.964 Y-3.565 I-0.01 J-0.3
G1 X173.975 Y-3.899
X174.055 Y-6.401 F1200
X174.065 Y-6.716 F100
G2 X173.776 Y-7.025 I-0.3 J-0.01
G1 X172.806 Y-7.021
X172.431 Y-6.999
X171.77 Y-6.645
X171.351 Y-6.023
X171.105 Y-5.315
X171.025 Y-4.569
X171.106 Y-3.824
X171.153 Y-3.728
X171.284 Y-3.536
X171.463 Y-3.388
X171.676 Y-3.294
X171.907 Y-3.264
X172.797 Y-3.271
G2 X173.084 Y-3.569 I-0.013 J-0.3
G1 X173.085 Y-3.898
X173.096 Y-6.399 F1200
X173.098 Y-6.72 F100
G2 X172.806 Y-7.021 I-0.3 J-0.001
G1 X171.944 Y-7.014
X171.57 Y-6.992
X170.896 Y-6.663
X170.469 Y-6.046
X170.232 Y-5.335
X170.15 Y-4.589
X170.213 Y-3.842
X170.264 Y-3.734
X170.394 Y-3.537
X170.574 Y-3.385
X170.79 Y-3.289
X171.024 Y-3.257
X171.907 Y-3.264
G2 X172.194 Y-3.559 I-0.013 J-0.3
G1 X172.198 Y-3.89
X172.232 Y-6.392 F1200
X172.236 Y-6.71 F100
G2 X171.944 Y-7.014 I-0.3 J-0.004
G1 X171.001 Y-7.007
X170.627 Y-6.985
X169.967 Y-6.628
X169.561 Y-5.998
X169.338 Y-5.282
X169.264 Y-4.535
X169.343 Y-3.79
X169.384 Y-3.709
X169.515 Y-3.519
X169.693 Y-3.373
X169.905 Y-3.281
X170.134 Y-3.25
X171.024 Y-3.257
G2 X171.311 Y-3.558 I-0.013 J-0.3
G1 X171.309 Y-3.883
X171.295 Y-6.384 F1200
X171.293 Y-6.709 F100
G2 X171.001 Y-7.007 I-0.3 J0.002
G1 X170.091 Y-7
X169.717 Y-6.979
X169.066 Y-6.606
X168.667 Y-5.971
X168.45 Y-5.253
X168.382 Y-4.506
X168.463 Y-3.761
X168.497 Y-3.695
X168.629 Y-3.508
X168.806 Y-3.364
X169.017 Y-3.274
X169.244 Y-3.244
X170.134 Y-3.25
G2 X170.421 Y-3.554 I-0.013 J-0.3
G1 X170.417 Y-3.877
X170.387 Y-6.378 F1200
X170.383 Y-6.704 F100
G2 X170.091 Y-7 I-0.3 J0.004
G1 X169.184 Y-6.994
X168.809 Y-6.972
X168.167 Y-6.585
X167.775 Y-5.946
X167.563 Y-5.226
X167.499 Y-4.479
X167.582 Y-3.734
X167.609 Y-3.682
X167.741 Y-3.498
X167.918 Y-3.356
X168.127 Y-3.267
X168.352 Y-3.237
X169.244 Y-3.244
G2 X169.531 Y-3.549 I-0.013 J-0.3
G1 X169.525 Y-3.87
X169.481 Y-6.371 F1200
X169.475 Y-6.699 F100
G2 X169.184 Y-6.994 I-0.3 J0.005
G1 X168.25 Y-6.987
X168.063 Y-6.976
X167.721 Y-6.821
X167.145 Y-6.341
X166.809 Y-5.671
X166.638 Y-4.941
X166.615 Y-4.191
X166.695 Y-3.865
X166.777 Y-3.658
X166.91 Y-3.481
X167.085 Y-3.345
X167.29 Y-3.26
X167.51 Y-3.232
X168.352 Y-3.237
G2 X168.639 Y-3.547 I-0.013 J-0.3
G1 X168.63 Y-3.864
X168.552 Y-6.365 F1200
X168.542 Y-6.696 F100
G2 X168.25 Y-6.987 I-0.3 J0.009
G1 X167.577 Y-6.982
X167.203 Y-6.961
X166.522 Y-6.647
X166.087 Y-6.036
X165.832 Y-5.331
X165.72 Y-4.589
X165.799 Y-3.843
X165.857 Y-3.716
X165.986 Y-3.514
X166.167 Y-3.357
X166.384 Y-3.258
X166.621 Y-3.225
X167.51 Y-3.232
G2 X167.797 Y-3.524 I-0.013 J-0.3
G1 X167.805 Y-3.858
X167.862 Y-6.36 F1200
X167.869 Y-6.675 F100
G2 X167.577 Y-6.982 I-0.3 J-0.007
G1 X166.634 Y-6.976
X166.26 Y-6.955
X165.592 Y-6.614
X165.171 Y-5.993
X164.927 Y-5.284
X164.848 Y-4.538
X164.927 Y-3.792
X164.976 Y-3.69
X165.107 Y-3.496
X165.286 Y-3.346
X165.5 Y-3.252
X165.731 Y-3.22
X166.621 Y-3.225
G2 X166.909 Y-3.524 I-0.012 J-0.3
G1 X166.911 Y-3.852
X166.924 Y-6.353 F1200
X166.926 Y-6.674 F100
G2 X166.634 Y-6.976 I-0.3 J-0.002
G1 X165.724 Y-6.97
X165.35 Y-6.95
X164.686 Y-6.6
X164.27 Y-5.976
X164.043 Y-5.261
X163.969 Y-4.515
X164.046 Y-3.769
X164.089 Y-3.681
X164.22 Y-3.489
X164.398 Y-3.341
X164.611 Y-3.247
X164.841 Y-3.216
X165.731 Y-3.22
G2 X166.019 Y-3.52 I-0.012 J-0.3
G1 X166.018 Y-3.846
X166.015 Y-6.347 F1200
Y-6.671 F100
G2 X165.724 Y-6.97 I-0.3 J0
G1 X164.817 Y-6.966
X164.442 Y-6.945
X163.784 Y-6.587
X163.378 Y-5.956
X163.158 Y-5.239
X163.087 Y-4.492
X163.165 Y-3.746
X163.202 Y-3.671
X163.333 Y-3.482
X163.511 Y-3.336
X163.722 Y-3.244
X163.95 Y-3.213
X164.841 Y-3.216
G2 X165.129 Y-3.518 I-0.012 J-0.3
G1 X165.126 Y-3.842
X165.11 Y-6.343 F1200
X165.108 Y-6.668 F100
G2 X164.817 Y-6.966 I-0.3 J0.002
G1 X163.883 Y-6.963
X163.509 Y-6.942
X162.868 Y-6.553
X162.477 Y-5.913
X162.266 Y-5.193
X162.203 Y-4.446
X162.289 Y-3.701
X162.315 Y-3.652
X162.447 Y-3.468
X162.624 Y-3.327
X162.832 Y-3.238
X163.056 Y-3.209
X163.95 Y-3.213
G2 X164.238 Y-3.519 I-0.012 J-0.3
G1 X164.231 Y-3.838
X164.181 Y-6.339 F1200
X164.174 Y-6.669 F100
G2 X163.883 Y-6.963 I-0.3 J0.006
G1 X162.98 Y-6.958
X162.606 Y-6.938
X161.973 Y-6.535
X161.587 Y-5.892
X161.38 Y-5.171
X161.32 Y-4.423
X161.405 Y-3.678
X161.425 Y-3.641
X161.558 Y-3.459
X161.735 Y-3.319
X161.942 Y-3.231
X162.166 Y-3.203
X163.056 Y-3.209
G2 X163.344 Y-3.515 I-0.012 J-0.3
G1 X163.337 Y-3.835
X163.279 Y-6.336 F1200
X163.271 Y-6.665 F100
G2 X162.98 Y-6.958 I-0.3 J0.007
G1 X162.116 Y-6.953
X161.742 Y-6.931
X161.102 Y-6.538
X160.712 Y-5.898
X160.502 Y-5.178
X160.436 Y-4.431
X160.511 Y-3.684
X160.536 Y-3.639
X160.668 Y-3.454
X160.846 Y-3.312
X161.056 Y-3.224
X161.281 Y-3.195
X162.166 Y-3.203
G2 X162.453 Y-3.507 I-0.013 J-0.3
G1 X162.448 Y-3.83
X162.413 Y-6.331 F1200
X162.408 Y-6.657 F100
G2 X162.116 Y-6.953 I-0.3 J0.004
G1 X161.176 Y-6.944
X160.988 Y-6.933
X160.649 Y-6.773
X160.078 Y-6.286
X159.745 Y-5.615
X159.575 Y-4.884
X159.548 Y-4.135
X159.627 Y-3.818
X159.709 Y-3.611
X159.843 Y-3.434
X160.019 Y-3.298
X160.224 Y-3.213
X160.445 Y-3.186
X161.281 Y-3.195
G2 X161.568 Y-3.504 I-0.014 J-0.3
G1 X161.557 Y-3.822
X161.479 Y-6.323 F1200
X161.468 Y-6.654 F100
G2 X161.176 Y-6.944 I-0.3 J0.009
G1 X160.419 Y-6.936
X160.045 Y-6.913
X159.399 Y-6.533
X158.989 Y-5.904
X158.752 Y-5.193
X158.656 Y-4.449
X158.755 Y-3.706
X158.796 Y-3.627
X158.929 Y-3.439
X159.107 Y-3.295
X159.318 Y-3.205
X159.546 Y-3.176
X160.445 Y-3.186
G2 X160.731 Y-3.487 I-0.014 J-0.3
G1 X160.729 Y-3.813
X160.714 Y-6.315 F1200
X160.712 Y-6.638 F100
G2 X160.419 Y-6.936 I-0.3 J0.002
G1 X159.516 Y-6.926
X159.142 Y-6.903
X158.495 Y-6.523
X158.09 Y-5.893
X157.857 Y-5.18
X157.787 Y-4.433
X157.87 Y-3.687
X157.905 Y-3.619
X158.037 Y-3.432
X158.215 Y-3.288
X158.425 Y-3.198
X158.652 Y-3.168
X159.546 Y-3.176
G2 X159.832 Y-3.478 I-0.014 J-0.3
G1 X159.829 Y-3.804
X159.812 Y-6.305 F1200
X159.809 Y-6.628 F100
G2 X159.516 Y-6.926 I-0.3 J0.002
G1 X158.613 Y-6.918
X158.239 Y-6.896
X157.594 Y-6.512
X157.192 Y-5.88
X156.974 Y-5.162
X156.906 Y-4.415
X156.986 Y-3.669
X157.016 Y-3.611
X157.148 Y-3.425
X157.325 Y-3.282
X157.535 Y-3.192
X157.76 Y-3.162
X158.652 Y-3.168
G2 X158.939 Y-3.471 I-0.013 J-0.3
G1 X158.935 Y-3.795
X158.908 Y-6.296 F1200
X158.905 Y-6.621 F100
G2 X158.613 Y-6.918 I-0.3 J0.003
G1 X157.749 Y-6.912
X157.375 Y-6.891
X156.72 Y-6.524
X156.318 Y-5.891
X156.098 Y-5.174
X156.024 Y-4.428
X156.094 Y-3.681
X156.127 Y-3.614
X156.258 Y-3.425
X156.436 Y-3.28
X156.647 Y-3.188
X156.875 Y-3.157
X157.76 Y-3.162
G2 X158.048 Y-3.463 I-0.012 J-0.3
G1 X158.047 Y-3.788
X158.041 Y-6.289 F1200
X158.04 Y-6.613 F100
G2 X157.749 Y-6.912 I-0.3 J0.001
G1 X156.809 Y-6.907
X156.434 Y-6.886
X155.8 Y-6.485
X155.413 Y-5.843
X155.203 Y-5.123
X155.136 Y-4.376
X155.222 Y-3.631
X155.243 Y-3.592
X155.375 Y-3.41
X155.551 Y-3.27
X155.758 Y-3.182
X155.981 Y-3.153
X156.875 Y-3.157
G2 X157.163 Y-3.463 I-0.012 J-0.3
G1 X157.156 Y-3.783
X157.106 Y-6.284 F1200
X157.099 Y-6.613 F100
G2 X156.809 Y-6.907 I-0.3 J0.006
G1 X155.899 Y-6.903
X155.711 Y-6.892
X155.37 Y-6.738
X154.791 Y-6.26
X154.452 Y-5.591
X154.278 Y-4.862
X154.253 Y-4.112
X154.33 Y-3.789
X154.41 Y-3.582
X154.542 Y-3.402
X154.718 Y-3.265
X154.923 Y-3.178
X155.144 Y-3.149
X155.981 Y-3.153
G2 X156.269 Y-3.46 I-0.012 J-0.3
G1 X156.261 Y-3.779
X156.198 Y-6.28 F1200
X156.189 Y-6.61 F100
G2 X155.899 Y-6.903 I-0.3 J0.008
G1 X155.216 Y-6.9
X154.842 Y-6.879
X154.163 Y-6.561
X153.728 Y-5.95
X153.472 Y-5.245
X153.359 Y-4.504
X153.437 Y-3.758
X153.493 Y-3.635
X153.622 Y-3.434
X153.802 Y-3.277
X154.019 Y-3.179
X154.256 Y-3.146
X155.144 Y-3.149
G2 X155.432 Y-3.442 I-0.012 J-0.3
G1 X155.44 Y-3.775
X155.5 Y-6.277 F1200
X155.507 Y-6.593 F100
G2 X155.216 Y-6.9 I-0.3 J-0.007
G1 X154.246 Y-6.896
X153.872 Y-6.875
X153.215 Y-6.514
X152.8 Y-5.888
X152.56 Y-5.178
X152.486 Y-4.432
X152.57 Y-3.687
X152.613 Y-3.602
X152.744 Y-3.412
X152.922 Y-3.265
X153.133 Y-3.173
X153.361 Y-3.142
X154.256 Y-3.146
G2 X154.544 Y-3.446 I-0.012 J-0.3
G1 X154.543 Y-3.771
X154.538 Y-6.272 F1200
X154.537 Y-6.596 F100
G2 X154.246 Y-6.896 I-0.3 J0.001
G1 X153.385 Y-6.892
X153.01 Y-6.871
X152.342 Y-6.531
X151.92 Y-5.911
X151.688 Y-5.198
X151.61 Y-4.452
X151.676 Y-3.705
X151.722 Y-3.61
X151.852 Y-3.415
X152.031 Y-3.265
X152.245 Y-3.17
X152.476 Y-3.138
X153.361 Y-3.142
G2 X153.65 Y-3.439 I-0.012 J-0.3
G1 X153.652 Y-3.767
X153.673 Y-6.269 F1200
X153.676 Y-6.589 F100
G2 X153.385 Y-6.892 I-0.3 J-0.002
G1 X152.442 Y-6.888
X152.067 Y-6.867
X151.415 Y-6.497
X151.013 Y-5.864
X150.795 Y-5.146
X150.724 Y-4.4
X150.805 Y-3.654
X150.839 Y-3.587
X150.971 Y-3.4
X151.148 Y-3.255
X151.358 Y-3.164
X151.584 Y-3.134
X152.476 Y-3.138
G2 X152.765 Y-3.441 I-0.012 J-0.3
G1 X152.761 Y-3.764
X152.736 Y-6.265 F1200
X152.732 Y-6.591 F100
G2 X152.442 Y-6.888 I-0.3 J0.003
G1 X151.532 Y-6.884
X151.157 Y-6.863
X150.514 Y-6.478
X150.12 Y-5.839
X149.907 Y-5.12
X149.841 Y-4.373
X149.924 Y-3.628
X149.951 Y-3.576
X150.082 Y-3.392
X150.259 Y-3.249
X150.467 Y-3.16
X150.692 Y-3.13
X151.584 Y-3.134
G2 X151.873 Y-3.439 I-0.012 J-0.3
G1 X151.868 Y-3.76
X151.828 Y-6.261 F1200
X151.822 Y-6.589 F100
G2 X151.532 Y-6.884 I-0.3 J0.005
G1 X150.624 Y-6.88
X150.25 Y-6.859
X149.616 Y-6.459
X149.228 Y-5.816
X149.02 Y-5.096
X148.957 Y-4.349
X149.041 Y-3.603
X149.061 Y-3.566
X149.193 Y-3.384
X149.369 Y-3.244
X149.576 Y-3.156
X149.799 Y-3.126
X150.692 Y-3.13
G2 X150.98 Y-3.436 I-0.012 J-0.3
G1 X150.974 Y-3.756
X150.922 Y-6.257 F1200
X150.915 Y-6.586 F100
G2 X150.624 Y-6.88 I-0.3 J0.006
G1 X149.839 Y-6.876
X149.465 Y-6.856
X148.799 Y-6.511
X148.388 Y-5.884
X148.159 Y-5.17
X148.077 Y-4.424
X148.129 Y-3.676
X148.168 Y-3.595
X148.298 Y-3.4
X148.477 Y-3.249
X148.691 Y-3.154
X148.923 Y-3.122
X149.799 Y-3.126
G2 X150.087 Y-3.422 I-0.012 J-0.3
G1 X150.092 Y-3.752
X150.126 Y-6.253 F1200
X150.13 Y-6.572 F100
G2 X149.839 Y-6.876 I-0.3 J-0.004
G1 X148.787 Y-6.872
X148.6 Y-6.862
X147.93 Y-6.525
X147.514 Y-5.901
X147.281 Y-5.188
X147.191 Y-4.443
X147.243 Y-3.695
X147.289 Y-3.598
X147.419 Y-3.401
X147.598 Y-3.248
X147.813 Y-3.151
X148.047 Y-3.119
X148.923 Y-3.122
G2 X149.211 Y-3.435 I-0.012 J-0.3
G1 X149.198 Y-3.748
X149.092 Y-6.249 F1200
X149.078 Y-6.585 F100
G2 X148.787 Y-6.872 I-0.3 J0.013
G1 X148.075 Y-6.869
X147.7 Y-6.848
X147.033 Y-6.506
X146.621 Y-5.879
X146.39 Y-5.166
X146.304 Y-4.421
X146.368 Y-3.674
X146.411 Y-3.585
X146.541 Y-3.391
X146.72 Y-3.241
X146.934 Y-3.147
X147.165 Y-3.115
X148.047 Y-3.119
G2 X148.335 Y-3.416 I-0.012 J-0.3
G1 X148.338 Y-3.744
X148.362 Y-6.246 F1200
X148.366 Y-6.566 F100
G2 X148.075 Y-6.869 I-0.3 J-0.003
G1 X147.165 Y-6.865
X146.79 Y-6.844
X146.132 Y-6.485
X145.725 Y-5.855
X145.498 Y-5.14
X145.42 Y-4.394
X145.492 Y-3.648
X145.529 Y-3.572
X145.66 Y-3.382
X145.838 Y-3.235
X146.05 Y-3.142
X146.279 Y-3.111
X147.165 Y-3.115
G2 X147.453 Y-3.414 I-0.012 J-0.3
G1 Y-3.741
X147.455 Y-6.242 F1200
Y-6.565 F100
G2 X147.165 Y-6.865 I-0.3 J0
G1 X146.257 Y-6.861
X145.883 Y-6.841
X145.232 Y-6.468
X144.831 Y-5.834
X144.61 Y-5.117
X144.537 Y-4.371
X144.612 Y-3.625
X144.645 Y-3.561
X144.776 Y-3.374
X144.953 Y-3.229
X145.163 Y-3.138
X145.39 Y-3.107
X146.279 Y-3.111
G2 X146.567 Y-3.413 I-0.012 J-0.3
G1 X146.565 Y-3.737
X146.55 Y-6.238 F1200
X146.548 Y-6.563 F100
G2 X146.257 Y-6.861 I-0.3 J0.002
G1 X145.324 Y-6.857
X144.949 Y-6.837
X144.316 Y-6.435
X143.927 Y-5.793
X143.716 Y-5.074
X143.651 Y-4.327
X143.737 Y-3.581
X143.758 Y-3.543
X143.89 Y-3.361
X144.066 Y-3.221
X144.273 Y-3.133
X144.496 Y-3.103
X145.39 Y-3.107
G2 X145.678 Y-3.413 I-0.012 J-0.3
G1 X145.672 Y-3.733
X145.621 Y-6.234 F1200
X145.615 Y-6.563 F100
G2 X145.324 Y-6.857 I-0.3 J0.006
G1 X144.421 Y-6.853
X144.233 Y-6.843
X143.891 Y-6.69
X143.309 Y-6.216
X142.968 Y-5.549
X142.793 Y-4.819
X142.768 Y-4.07
X142.844 Y-3.743
X142.924 Y-3.534
X143.057 Y-3.354
X143.232 Y-3.215
X143.438 Y-3.129
X143.659 Y-3.1
X144.496 Y-3.103
G2 X144.784 Y-3.41 I-0.012 J-0.3
G1 X144.777 Y-3.729
X144.719 Y-6.23 F1200
X144.711 Y-6.56 F100
G2 X144.421 Y-6.853 I-0.3 J0.007
G1 X143.708 Y-6.85
X143.333 Y-6.829
X142.662 Y-6.495
X142.233 Y-5.88
X141.982 Y-5.173
X141.875 Y-4.431
X141.958 Y-3.686
X142.01 Y-3.575
X142.139 Y-3.377
X142.319 Y-3.225
X142.534 Y-3.128
X142.768 Y-3.096
X143.659 Y-3.1
G2 X143.948 Y-3.395 I-0.012 J-0.3
G1 X143.953 Y-3.725
X143.993 Y-6.227 F1200
X143.999 Y-6.545 F100
G2 X143.708 Y-6.85 I-0.3 J-0.005
G1 X142.798 Y-6.846
X142.423 Y-6.825
X141.754 Y-6.487
X141.331 Y-5.867
X141.086 Y-5.158
X141.004 Y-4.413
X141.076 Y-3.666
X141.125 Y-3.564
X141.255 Y-3.37
X141.434 Y-3.219
X141.648 Y-3.124
X141.88 Y-3.092
X142.768 Y-3.096
G2 X143.056 Y-3.392 I-0.012 J-0.3
G1 X143.059 Y-3.721
X143.085 Y-6.223 F1200
X143.089 Y-6.543 F100
G2 X142.798 Y-6.846 I-0.3 J-0.003
G1 X141.89 Y-6.842
X141.516 Y-6.821
X140.85 Y-6.476
X140.432 Y-5.853
X140.202 Y-5.139
X140.124 Y-4.393
X140.196 Y-3.647
X140.241 Y-3.555
X140.371 Y-3.362
X140.55 Y-3.213
X140.763 Y-3.119
X140.994 Y-3.087
X141.88 Y-3.092
G2 X142.169 Y-3.39 I-0.012 J-0.3
G1 X142.17 Y-3.717
X142.18 Y-6.219 F1200
X142.181 Y-6.541 F100
G2 X141.89 Y-6.842 I-0.3 J-0.001
G1 X140.957 Y-6.837
X140.582 Y-6.817
X139.93 Y-6.446
X139.529 Y-5.813
X139.31 Y-5.095
X139.241 Y-4.349
X139.322 Y-3.603
X139.357 Y-3.536
X139.488 Y-3.348
X139.666 Y-3.204
X139.876 Y-3.113
X140.103 Y-3.083
X140.994 Y-3.087
G2 X141.282 Y-3.39 I-0.012 J-0.3
G1 X141.278 Y-3.713
X141.251 Y-6.214 F1200
X141.248 Y-6.541 F100
G2 X140.957 Y-6.837 I-0.3 J0.003
G1 X140.054 Y-6.833
X139.679 Y-6.812
X139.034 Y-6.43
X138.638 Y-5.793
X138.424 Y-5.074
X138.358 Y-4.327
X138.439 Y-3.581
X138.468 Y-3.526
X138.6 Y-3.34
X138.777 Y-3.197
X138.986 Y-3.108
X139.212 Y-3.078
X140.103 Y-3.083
G2 X140.39 Y-3.387 I-0.012 J-0.3
G1 X140.386 Y-3.709
X140.349 Y-6.21 F1200
X140.345 Y-6.537 F100
G2 X140.054 Y-6.833 I-0.3 J0.004
G1 X139.189 Y-6.828
X138.815 Y-6.807
X138.163 Y-6.436
X137.764 Y-5.801
X137.547 Y-5.083
X137.476 Y-4.336
X137.547 Y-3.59
X137.579 Y-3.527
X137.711 Y-3.339
X137.888 Y-3.194
X138.099 Y-3.103
X138.326 Y-3.073
X139.212 Y-3.078
G2 X139.5 Y-3.38 I-0.012 J-0.3
G1 X139.498 Y-3.704
X139.483 Y-6.205 F1200
X139.481 Y-6.53 F100
G2 X139.189 Y-6.828 I-0.3 J0.002
G1 X138.249 Y-6.822
X137.875 Y-6.801
X137.244 Y-6.395
X136.859 Y-5.751
X136.652 Y-5.031
X136.588 Y-4.283
X136.675 Y-3.539
X136.694 Y-3.504
X136.827 Y-3.323
X137.003 Y-3.183
X137.209 Y-3.096
X137.432 Y-3.067
X138.326 Y-3.073
G2 X138.614 Y-3.38 I-0.012 J-0.3
G1 X138.607 Y-3.699
X138.548 Y-6.2 F1200
X138.54 Y-6.53 F100
G2 X138.249 Y-6.822 I-0.3 J0.007
G1 X137.339 Y-6.817
X137.152 Y-6.806
X136.811 Y-6.649
X136.236 Y-6.167
X135.9 Y-5.497
X135.728 Y-4.767
X135.705 Y-4.018
X135.782 Y-3.699
X135.863 Y-3.492
X135.995 Y-3.313
X136.171 Y-3.176
X136.376 Y-3.09
X136.597 Y-3.062
X137.432 Y-3.067
G2 X137.72 Y-3.376 I-0.012 J-0.3
G1 X137.711 Y-3.693
X137.64 Y-6.194 F1200
X137.63 Y-6.525 F100
G2 X137.339 Y-6.817 I-0.3 J0.009
G1 X136.657 Y-6.812
X136.282 Y-6.791
X135.606 Y-6.467
X135.174 Y-5.854
X134.92 Y-5.149
X134.81 Y-4.407
X134.891 Y-3.661
X134.946 Y-3.541
X135.075 Y-3.341
X135.256 Y-3.186
X135.473 Y-3.088
X135.709 Y-3.056
X136.597 Y-3.062
G2 X136.885 Y-3.356 I-0.012 J-0.3
G1 X136.891 Y-3.688
X136.942 Y-6.19 F1200
X136.948 Y-6.506 F100
G2 X136.657 Y-6.812 I-0.3 J-0.006
G1 X135.687 Y-6.806
X135.312 Y-6.784
X134.658 Y-6.418
X134.247 Y-5.791
X134.008 Y-5.079
X133.937 Y-4.333
X134.024 Y-3.588
X134.065 Y-3.506
X134.197 Y-3.317
X134.376 Y-3.171
X134.587 Y-3.079
X134.816 Y-3.049
X135.709 Y-3.056
G2 X135.996 Y-3.357 I-0.013 J-0.3
G1 X135.994 Y-3.682
X135.98 Y-6.183 F1200
X135.978 Y-6.508 F100
G2 X135.687 Y-6.806 I-0.3 J0.002
G1 X134.825 Y-6.799
X134.451 Y-6.778
X133.785 Y-6.432
X133.366 Y-5.81
X133.136 Y-5.096
X133.06 Y-4.35
X133.13 Y-3.603
X133.175 Y-3.51
X133.307 Y-3.315
X133.487 Y-3.165
X133.702 Y-3.071
X133.935 Y-3.041
X134.816 Y-3.049
G2 X135.103 Y-3.348 I-0.013 J-0.3
G1 X135.104 Y-3.676
X135.116 Y-6.177 F1200
X135.117 Y-6.498 F100
G2 X134.825 Y-6.799 I-0.3 J-0.001
G1 X133.882 Y-6.791
X133.508 Y-6.767
X132.857 Y-6.394
X132.459 Y-5.759
X132.243 Y-5.041
X132.175 Y-4.294
X132.259 Y-3.548
X132.295 Y-3.479
X132.428 Y-3.292
X132.607 Y-3.148
X132.818 Y-3.058
X133.046 Y-3.03
X133.935 Y-3.041
G2 X134.221 Y-3.345 I-0.014 J-0.3
G1 X134.216 Y-3.67
X134.18 Y-6.17 F1200
X134.175 Y-6.495 F100
G2 X133.882 Y-6.791 I-0.3 J0.004
G1 X132.972 Y-6.779
X132.598 Y-6.753
X131.955 Y-6.366
X131.564 Y-5.726
X131.354 Y-5.006
X131.292 Y-4.259
X131.379 Y-3.514
X131.411 Y-3.453
X131.546 Y-3.268
X131.725 Y-3.126
X131.937 Y-3.038
X132.164 Y-3.012
X133.046 Y-3.03
G2 X133.331 Y-3.336 I-0.014 J-0.3
G1 X133.324 Y-3.658
X133.272 Y-6.159 F1200
X133.265 Y-6.486 F100
G2 X132.972 Y-6.779 I-0.3 J0.006
G1 X132.065 Y-6.76
X131.691 Y-6.734
X131.055 Y-6.335
X130.671 Y-5.691
X130.466 Y-4.97
X130.409 Y-4.222
X130.499 Y-3.477
X130.526 Y-3.427
X130.661 Y-3.244
X130.84 Y-3.105
X131.051 Y-3.019
X131.276 Y-2.993
X132.164 Y-3.012
G2 X132.448 Y-3.32 I-0.017 J-0.3
G1 X132.439 Y-3.642
X132.369 Y-6.142 F1200
X132.36 Y-6.469 F100
G2 X132.065 Y-6.76 I-0.3 J0.008
G1 X131.131 Y-6.74
X130.944 Y-6.727
X130.605 Y-6.567
X130.036 Y-6.078
X129.707 Y-5.404
X129.544 Y-4.672
X129.528 Y-3.922
X129.612 Y-3.598
X129.696 Y-3.392
X129.831 Y-3.216
X130.009 Y-3.082
X130.215 Y-2.999
X130.436 Y-2.974
X131.276 Y-2.993
G2 X131.559 Y-3.305 I-0.017 J-0.3
G1 X131.546 Y-3.623
X131.441 Y-6.122 F1200
X131.427 Y-6.453 F100
G2 X131.131 Y-6.74 I-0.3 J0.013
G1 X130.458 Y-6.726
X130.084 Y-6.699
X129.407 Y-6.376
X128.98 Y-5.759
X128.733 Y-5.051
X128.629 Y-4.309
X128.717 Y-3.564
X128.777 Y-3.436
X128.909 Y-3.236
X129.092 Y-3.081
X129.312 Y-2.985
X129.55 Y-2.956
X130.436 Y-2.974
G2 X130.719 Y-3.271 I-0.017 J-0.3
G1 X130.723 Y-3.605
X130.751 Y-6.107 F1200
X130.754 Y-6.422 F100
G2 X130.458 Y-6.726 I-0.3 J-0.003
G1 X129.515 Y-6.706
X129.141 Y-6.679
X128.477 Y-6.33
X128.064 Y-5.705
X127.827 Y-4.993
X127.758 Y-4.246
X127.846 Y-3.501
X127.881 Y-3.431
X128.004 Y-3.249
X128.171 Y-3.106
X128.369 Y-3.012
G2 X128.735 Y-3.203 I0.082 J-0.288
G1 X128.842 Y-3.515
X129.724 Y-6.101 F1200
X129.795 Y-6.309 F100
G2 X129.515 Y-6.706 I-0.284 J-0.097
G1 X128.605 Y-6.686
X127.907 Y-6.411
X127.352 Y-5.906
X127.038 Y-5.225
X126.899 Y-4.488
X126.9 Y-4.456
X126.917 Y-4.293
X126.965 Y-4.137
X127.044 Y-3.993
G2 X127.544 Y-4.017 I0.242 J-0.177
G1 X127.642 Y-4.183
X128.779 Y-6.097 F1200
X128.859 Y-6.233 F100
G2 X128.605 Y-6.686 I-0.258 J-0.153
G1 X128.208 Y-6.552
X127.513 Y-6.297
X126.86 Y-5.46
X126.789 Y-4.368
X127.513 Y-3.301
X127.553 Y-3.276
X128.605 Y-2.935
X129.55 Y-2.956
G2 X129.668 Y-3.523 I-0.017 J-0.3
G1 X129.608 Y-3.553 Z-9.978
X129.552 Y-3.582 Z-9.955
X129.501 Y-3.607 Z-9.92
X129.459 Y-3.629 Z-9.872
X129.427 Y-3.645 Z-9.815
X129.407 Y-3.655 Z-9.752
X129.4 Y-3.658 Z-9.685
G0 Z2.01
X23.277 Y4.288
Z0
G2 X22.136 Y2.264 Z-0.127 I-0.571 J-1.012 F333.3
X23.277 Y4.288 Z-0.255 I0.571 J1.012
X22.136 Y2.264 Z-0.382 I-0.571 J-1.012
X23.277 Y4.288 Z-0.51 I0.571 J1.012
X22.136 Y2.264 Z-0.637 I-0.571 J-1.012
X23.277 Y4.288 Z-0.765 I0.571 J1.012
X22.136 Y2.264 Z-0.892 I-0.571 J-1.012
X23.277 Y4.288 Z-1.02 I0.571 J1.012
X22.136 Y2.264 Z-1.147 I-0.571 J-1.012
X23.277 Y4.288 Z-1.275 I0.571 J1.012
X22.136 Y2.264 Z-1.402 I-0.571 J-1.012
X23.277 Y4.288 Z-1.53 I0.571 J1.012
X22.136 Y2.264 Z-1.657 I-0.571 J-1.012
X23.277 Y4.288 Z-1.785 I0.571 J1.012
X22.136 Y2.264 Z-1.912 I-0.571 J-1.012
X23.277 Y4.288 Z-2.039 I0.571 J1.012
X22.136 Y2.264 Z-2.167 I-0.571 J-1.012
X23.277 Y4.288 Z-2.294 I0.571 J1.012
X22.136 Y2.264 Z-2.422 I-0.571 J-1.012
X23.277 Y4.288 Z-2.549 I0.571 J1.012
X22.136 Y2.264 Z-2.677 I-0.571 J-1.012
X23.277 Y4.288 Z-2.804 I0.571 J1.012
X22.136 Y2.264 Z-2.932 I-0.571 J-1.012
X23.277 Y4.288 Z-3.059 I0.571 J1.012
X22.136 Y2.264 Z-3.187 I-0.571 J-1.012
X23.277 Y4.288 Z-3.314 I0.571 J1.012
X22.136 Y2.264 Z-3.442 I-0.571 J-1.012
X23.277 Y4.288 Z-3.569 I0.571 J1.012
X22.136 Y2.264 Z-3.696 I-0.571 J-1.012
X23.277 Y4.288 Z-3.824 I0.571 J1.012
X22.136 Y2.264 Z-3.951 I-0.571 J-1.012
X23.277 Y4.288 Z-4.079 I0.571 J1.012
X22.136 Y2.264 Z-4.206 I-0.571 J-1.012
X23.277 Y4.288 Z-4.334 I0.571 J1.012
X22.136 Y2.264 Z-4.461 I-0.571 J-1.012
X23.277 Y4.288 Z-4.589 I0.571 J1.012
X22.136 Y2.264 Z-4.716 I-0.571 J-1.012
X23.277 Y4.288 Z-4.844 I0.571 J1.012
X22.136 Y2.264 Z-4.971 I-0.571 J-1.012
X23.277 Y4.288 Z-5.099 I0.571 J1.012
X22.136 Y2.264 Z-5.226 I-0.571 J-1.012
X23.277 Y4.288 Z-5.354 I0.571 J1.012
X22.136 Y2.264 Z-5.481 I-0.571 J-1.012
X23.277 Y4.288 Z-5.608 I0.571 J1.012
X22.136 Y2.264 Z-5.736 I-0.571 J-1.012
X23.277 Y4.288 Z-5.863 I0.571 J1.012
X22.136 Y2.264 Z-5.991 I-0.571 J-1.012
X23.277 Y4.288 Z-6.118 I0.571 J1.012
X22.136 Y2.264 Z-6.246 I-0.571 J-1.012
X23.277 Y4.288 Z-6.373 I0.571 J1.012
X22.136 Y2.264 Z-6.501 I-0.571 J-1.012
X23.277 Y4.288 Z-6.628 I0.571 J1.012
X22.136 Y2.264 Z-6.756 I-0.571 J-1.012
X23.277 Y4.288 Z-6.883 I0.571 J1.012
X22.136 Y2.264 Z-7.011 I-0.571 J-1.012
X23.277 Y4.288 Z-7.138 I0.571 J1.012
X22.136 Y2.264 Z-7.265 I-0.571 J-1.012
X23.277 Y4.288 Z-7.393 I0.571 J1.012
X22.136 Y2.264 Z-7.52 I-0.571 J-1.012
X23.277 Y4.288 Z-7.648 I0.571 J1.012
X22.136 Y2.264 Z-7.775 I-0.571 J-1.012
X23.277 Y4.288 Z-7.903 I0.571 J1.012
X22.136 Y2.264 Z-8.03 I-0.571 J-1.012
X23.277 Y4.288 Z-8.158 I0.571 J1.012
X22.136 Y2.264 Z-8.285 I-0.571 J-1.012
X23.277 Y4.288 Z-8.413 I0.571 J1.012
X22.136 Y2.264 Z-8.54 I-0.571 J-1.012
X23.277 Y4.288 Z-8.668 I0.571 J1.012
X22.136 Y2.264 Z-8.795 I-0.571 J-1.012
X23.277 Y4.288 Z-8.923 I0.571 J1.012
X22.136 Y2.264 Z-9.05 I-0.571 J-1.012
X23.277 Y4.288 Z-9.177 I0.571 J1.012
X22.136 Y2.264 Z-9.305 I-0.571 J-1.012
X23.277 Y4.288 Z-9.432 I0.571 J1.012
X22.136 Y2.264 Z-9.56 I-0.571 J-1.012
X23.277 Y4.288 Z-9.687 I0.571 J1.012
X22.136 Y2.264 Z-9.815 I-0.571 J-1.012
X23.277 Y4.288 Z-9.942 I0.571 J1.012
X23.868 Y3.276 Z-9.985 I-0.571 J-1.012
X21.545 Y3.276 I-1.162 J0
X23.868 Y3.276 I1.162 J0
X22.707 Y3.276 I-0.581 J0
G1 X22.63 Y3.864 F100
X22.636 Y4.059
X22.7 Y4.242
X22.818 Y4.397
X22.977 Y4.509
X23.163 Y4.566
X23.358 Y4.564
X23.6 Y4.523
X23.783 Y4.482
X24.094 Y4.273
X24.326 Y3.978
X24.472 Y3.633
X24.59 Y2.892
X24.339 Y2.185
X23.821 Y1.642
X23.135 Y1.34
X22.386 Y1.317
X21.681 Y1.575
X21.124 Y2.076
X21.014 Y2.299
X20.97 Y2.406
X20.941 Y2.518
X20.928 Y2.632
X20.906 Y3.146
X20.9 Y3.276
X21.615 Y4.305
X21.72 Y4.368
X22.707 Y4.674
X23.358 Y4.564
G2 X23.412 Y3.987 I-0.05 J-0.296
G1 X23.397 Y3.982 F1200
X23.017 Y3.864
G2 X22.82 Y4.431 I-0.089 J0.287
G1 X22.828 Y4.434
G2 X23.6 Y4.523 I0.562 J-1.479 F100
G1 X24.154 Y4.423
X24.315 Y4.392
X24.497 Y4.349
X24.803 Y4.132
X25.249 Y3.529
X25.35 Y2.786
X25.196 Y2.052
X24.804 Y1.412
X24.237 Y0.921
X24.009 Y0.807
X23.838 Y0.744
X23.657 Y0.719
X23.475 Y0.734
X22.707 Y0.885
X22.141 Y1.092
X21.615 Y1.31
X20.948 Y2.184
X20.928 Y2.632
G2 X21.098 Y2.905 I0.3 J0.003
G1 X21.5 Y3.098
X23.594 Y4.104 F1200
X24.14 Y4.366 F100
X24.196 Y4.387
X24.255 Y4.395
X24.315 Y4.392
X24.89 Y4.285
X25.072 Y4.261
X25.256 Y4.226
X25.569 Y4.019
X26.014 Y3.415
X26.137 Y2.675
X26.033 Y1.933
X25.741 Y1.242
X25.424 Y0.84
X25.265 Y0.686
X25.072 Y0.579
X24.856 Y0.527
X24.635 Y0.533
X23.798 Y0.671
X23.475 Y0.734
G2 X23.276 Y1.163 I0.068 J0.292
G1 X23.385 Y1.378
X24.581 Y3.719 F1200
X24.775 Y4.098 F100
G2 X25.072 Y4.261 I0.267 J-0.136
G1 X25.64 Y4.184
X26.009 Y4.115
X26.325 Y3.913
X26.784 Y3.32
X26.937 Y2.586
X26.879 Y1.838
X26.657 Y1.121
X26.462 Y0.797
X26.31 Y0.613
X26.114 Y0.479
X25.887 Y0.406
X25.649 Y0.4
X24.89 Y0.492
X24.635 Y0.533
G2 X24.406 Y0.914 I0.059 J0.294
G1 X24.489 Y1.188
X25.216 Y3.615 F1200
X25.323 Y3.971 F100
G2 X25.64 Y4.184 I0.287 J-0.086
G1 X26.542 Y4.064
X26.727 Y4.031
X27.056 Y3.852
X27.547 Y3.285
X27.744 Y2.561
X27.739 Y1.811
X27.58 Y1.078
X27.411 Y0.735
X27.296 Y0.56
X27.141 Y0.419
X26.955 Y0.321
X26.751 Y0.273
X26.541 Y0.277
X25.982 Y0.36
X25.649 Y0.4
G2 X25.405 Y0.774 I0.046 J0.296
G1 X25.478 Y1.047
X26.13 Y3.491 F1200
X26.224 Y3.843 F100
G2 X26.542 Y4.064 I0.29 J-0.077
G1 X27.074 Y3.996
X27.255 Y3.967
X27.622 Y3.891
X27.924 Y3.668
X28.399 Y3.088
X28.588 Y2.362
X28.587 Y1.612
X28.431 Y0.878
X28.285 Y0.588
X28.167 Y0.413
X28.008 Y0.274
X27.819 Y0.179
X27.613 Y0.134
X27.402 Y0.143
X27.074 Y0.199
X26.541 Y0.277
G2 X26.301 Y0.632 I0.054 J0.295
G1 X26.362 Y0.935
X26.858 Y3.398 F1200
X26.925 Y3.728 F100
G2 X27.255 Y3.967 I0.294 J-0.059
G1 X28.165 Y3.825
X28.53 Y3.736
X29.095 Y3.243
X29.375 Y2.548
X29.461 Y1.803
X29.395 Y1.055
X29.146 Y0.348
X29.101 Y0.291
X28.933 Y0.129
X28.727 Y0.021
X28.499 Y-0.027
X28.267 Y-0.009
X28.165 Y0.013
X27.402 Y0.143
G2 X27.169 Y0.5 I0.061 J0.294
G1 X27.235 Y0.804
X27.764 Y3.256 F1200
X27.836 Y3.59 F100
G2 X28.165 Y3.825 I0.293 J-0.063
G1 X29.073 Y3.652
X29.437 Y3.564
X29.988 Y3.055
X30.254 Y2.353
X30.331 Y1.607
X30.244 Y0.862
X30.011 Y0.149
X29.962 Y0.089
X29.794 Y-0.068
X29.59 Y-0.173
X29.365 Y-0.218
X29.136 Y-0.2
X28.267 Y-0.009
G2 X28.048 Y0.347 I0.075 J0.291
G1 X28.119 Y0.663
X28.661 Y3.095 F1200
X28.734 Y3.421 F100
G2 X29.073 Y3.652 I0.293 J-0.065
G1 X29.257 Y3.617
X30.006 Y3.447
X30.367 Y3.345
X30.893 Y2.811
X31.14 Y2.102
X31.193 Y1.354
X31.095 Y0.611
X30.847 Y-0.097
X30.8 Y-0.151
X30.626 Y-0.304
X30.416 Y-0.402
X30.187 Y-0.439
X29.956 Y-0.412
X29.257 Y-0.226
X29.136 Y-0.2
G2 X28.919 Y0.161 I0.075 J0.291
G1 X28.994 Y0.471
X29.581 Y2.903 F1200
X29.658 Y3.222 F100
G2 X30.006 Y3.447 I0.292 J-0.07
G1 X30.349 Y3.368
X30.918 Y3.214
X31.275 Y3.097
X31.789 Y2.551
X32.015 Y1.836
X32.053 Y1.087
X31.94 Y0.345
X31.679 Y-0.357
X31.634 Y-0.406
X31.455 Y-0.555
X31.242 Y-0.648
X31.011 Y-0.678
X30.78 Y-0.644
X30.349 Y-0.516
X29.956 Y-0.412
G2 X29.753 Y-0.048 I0.087 J0.287
G1 X29.836 Y0.266
X30.477 Y2.687 F1200
X30.559 Y2.999 F100
G2 X30.918 Y3.214 I0.29 J-0.077
G1 X31.622 Y3.018
X31.774 Y2.973
X32.128 Y2.85
X32.652 Y2.314
X32.877 Y1.598
X32.909 Y0.849
X32.79 Y0.108
X32.529 Y-0.595
X32.464 Y-0.666
X32.27 Y-0.823
X32.039 Y-0.916
X31.79 Y-0.936
X31.546 Y-0.881
X31.44 Y-0.84
X30.78 Y-0.644
G2 X30.586 Y-0.281 I0.096 J0.284
G1 X30.673 Y0.039
X31.327 Y2.454 F1200
X31.41 Y2.761 F100
G2 X31.774 Y2.973 I0.29 J-0.078
G1 X32.532 Y2.751
X32.714 Y2.682
X33.057 Y2.532
X33.55 Y1.967
X33.747 Y1.243
X33.757 Y0.493
X33.616 Y-0.243
X33.317 Y-0.931
X33.238 Y-1.01
X33.046 Y-1.152
X32.821 Y-1.233
X32.582 Y-1.248
X32.349 Y-1.193
X31.546 Y-0.881
G2 X31.379 Y-0.515 I0.118 J0.276
G1 X31.483 Y-0.187
X32.238 Y2.195 F1200
X32.331 Y2.489 F100
G2 X32.714 Y2.682 I0.286 J-0.091
G1 X33.624 Y2.337
X33.798 Y2.269
X34.076 Y2.016
X34.473 Y1.38
X34.599 Y0.641
X34.551 Y-0.107
X34.352 Y-0.831
X34.163 Y-1.131
X34.023 Y-1.3
X33.843 Y-1.427
X33.637 Y-1.502
X33.418 Y-1.52
X33.202 Y-1.481
X32.532 Y-1.265
X32.349 Y-1.193
G2 X32.186 Y-0.816 I0.119 J0.276
G1 X32.298 Y-0.504
X33.143 Y1.841 F1200
X33.256 Y2.152 F100
G2 X33.624 Y2.337 I0.282 J-0.102
G1 X34.271 Y2.121
X34.621 Y1.986
X35.168 Y1.473
X35.399 Y0.76
X35.433 Y0.01
X35.319 Y-0.731
X35.015 Y-1.417
X34.966 Y-1.472
X34.802 Y-1.612
X34.607 Y-1.706
X34.395 Y-1.746
X34.179 Y-1.731
X33.624 Y-1.617
X33.202 Y-1.481
G2 X33.016 Y-1.115 I0.102 J0.282
G1 X33.109 Y-0.795
X33.811 Y1.614 F1200
X33.9 Y1.917 F100
G2 X34.271 Y2.121 I0.288 J-0.084
G1 X34.716 Y1.975
X35.049 Y1.955
X35.235 Y1.935
X35.553 Y1.736
X36.058 Y1.182
X36.267 Y0.461
X36.287 Y-0.288
X36.139 Y-1.024
X36.004 Y-1.337
X35.877 Y-1.543
X35.697 Y-1.703
X35.478 Y-1.805
X35.239 Y-1.84
X34.716 Y-1.841
X34.179 Y-1.731
G2 X33.959 Y-1.365 I0.07 J0.292
G1 X34.036 Y-1.065
X34.656 Y1.36 F1200
X34.751 Y1.73 F100
G2 X35.049 Y1.955 I0.291 J-0.074
G1 X35.807 Y1.91
X35.995 Y1.899
X36.325 Y1.721
X36.841 Y1.177
X37.089 Y0.469
X37.145 Y-0.279
X37.05 Y-1.023
X36.943 Y-1.304
X36.819 Y-1.522
X36.637 Y-1.693
X36.412 Y-1.802
X36.164 Y-1.84
X35.239
G2 X34.954 Y-1.487 I0.01 J0.3
G1 X35.002 Y-1.221
X35.456 Y1.291 F1200
X35.523 Y1.663 F100
G2 X35.807 Y1.91 I0.295 J-0.053
G1 X36.456
X36.831 Y1.891
X37.467 Y1.493
X37.831 Y0.838
X38 Y0.107
X38.013 Y-0.643
X37.852 Y-1.375
X37.828 Y-1.418
X37.696 Y-1.592
X37.523 Y-1.727
X37.321 Y-1.811
X37.103 Y-1.84
X36.164
G2 X35.876 Y-1.513 I0.01 J0.3
G1 X35.903 Y-1.217
X36.136 Y1.287 F1200
X36.168 Y1.638 F100
G2 X36.456 Y1.91 I0.299 J-0.028
G1 X37.46
X37.647 Y1.901
X38.292 Y1.518
X38.671 Y0.871
X38.858 Y0.145
X38.889 Y-0.605
X38.78 Y-1.347
X38.75 Y-1.402
X38.619 Y-1.582
X38.444 Y-1.722
X38.239 Y-1.809
X38.017 Y-1.839
X37.103 Y-1.84
G2 X36.816 Y-1.506 I0.01 J0.3
G1 X36.848 Y-1.217
X37.132 Y1.288 F1200
X37.172 Y1.644 F100
G2 X37.46 Y1.91 I0.298 J-0.034
G1 X38.173 Y1.911
X38.547 Y1.892
X39.179 Y1.488
X39.55 Y0.836
X39.735 Y0.109
X39.773 Y-0.64
X39.669 Y-1.383
X39.654 Y-1.41
X39.522 Y-1.588
X39.348 Y-1.724
X39.145 Y-1.81
X38.926 Y-1.839
X38.017
G2 X37.728 Y-1.525 I0.01 J0.3
G1 X37.743 Y-1.216
X37.867 Y1.286 F1200
X37.883 Y1.626 F100
G2 X38.173 Y1.911 I0.3 J-0.015
G1 X39.083
X39.27 Y1.902
X39.608 Y1.739
X40.177 Y1.251
X40.497 Y0.572
X40.648 Y-0.162
X40.653 Y-0.912
X40.575 Y-1.214
X40.492 Y-1.417
X40.36 Y-1.592
X40.187 Y-1.726
X39.985 Y-1.81
X39.768 Y-1.839
X38.926
G2 X38.636 Y-1.524 I0.01 J0.3
G1 X38.652 Y-1.215
X38.777 Y1.287 F1200
X38.794 Y1.626 F100
G2 X39.083 Y1.911 I0.3 J-0.015
G1 X39.765
X40.139 Y1.893
X40.807 Y1.551
X41.226 Y0.929
X41.464 Y0.217
X41.558 Y-0.527
X41.465 Y-1.271
X41.418 Y-1.368
X41.288 Y-1.561
X41.11 Y-1.711
X40.898 Y-1.806
X40.668 Y-1.839
X39.768
G2 X39.479 Y-1.539 I0.01 J0.3
G1 X39.478 Y-1.215
X39.476 Y1.287 F1200
X39.475 Y1.611 F100
G2 X39.765 Y1.911 I0.3 J0
G1 X40.735
X41.11 Y1.893
X41.749 Y1.501
X42.146 Y0.865
X42.37 Y0.149
X42.431 Y-0.598
X42.335 Y-1.342
X42.307 Y-1.395
X42.176 Y-1.578
X42.001 Y-1.719
X41.794 Y-1.808
X41.571 Y-1.838
X40.668 Y-1.839
G2 X40.378 Y-1.532 I0.01 J0.3
G1 X40.385 Y-1.214
X40.439 Y1.287 F1200
X40.446 Y1.618 F100
G2 X40.735 Y1.911 I0.3 J-0.006
G1 X41.599 Y1.912
X41.974 Y1.893
X42.621 Y1.515
X43.025 Y0.883
X43.242 Y0.165
X43.309 Y-0.582
X43.233 Y-1.328
X43.203 Y-1.385
X43.073 Y-1.572
X42.897 Y-1.716
X42.688 Y-1.807
X42.463 Y-1.838
X41.571
G2 X41.281 Y-1.536 I0.01 J0.3
G1 X41.284 Y-1.214
X41.307 Y1.287 F1200
X41.31 Y1.615 F100
G2 X41.599 Y1.912 I0.3 J-0.003
G1 X42.539
X42.727 Y1.903
X43.07 Y1.752
X43.651 Y1.278
X43.993 Y0.611
X44.167 Y-0.119
X44.196 Y-0.868
X44.117 Y-1.199
X44.037 Y-1.406
X43.905 Y-1.584
X43.731 Y-1.722
X43.527 Y-1.808
X43.307 Y-1.838
X42.463
G2 X42.173 Y-1.531 I0.01 J0.3
G1 X42.181 Y-1.214
X42.242 Y1.288 F1200
X42.25 Y1.62 F100
G2 X42.539 Y1.912 I0.3 J-0.007
G1 X43.296
X43.67 Y1.894
X44.326 Y1.529
X44.744 Y0.907
X44.986 Y0.197
X45.087 Y-0.546
X44.995 Y-1.29
X44.952 Y-1.375
X44.822 Y-1.565
X44.645 Y-1.712
X44.435 Y-1.805
X44.207 Y-1.837
X43.307 Y-1.838
G2 X43.017 Y-1.539 I0.01 J0.3
G1 X43.016 Y-1.213
X43.008 Y1.288 F1200
X43.007 Y1.612 F100
G2 X43.296 Y1.912 I0.3 J0.001
G1 X44.199 Y1.913
X44.573 Y1.894
X45.228 Y1.529
X45.641 Y0.903
X45.88 Y0.192
X45.956 Y-0.554
X45.881 Y-1.301
X45.843 Y-1.376
X45.713 Y-1.566
X45.536 Y-1.712
X45.326 Y-1.805
X45.098 Y-1.837
X44.207
G2 X43.917 Y-1.538 I0.01 J0.3
G1 X43.916 Y-1.213
X43.91 Y1.288 F1200
X43.909 Y1.613 F100
G2 X44.199 Y1.913 I0.3 J0
G1 X45.102
X45.476 Y1.894
X46.128 Y1.524
X46.538 Y0.895
X46.763 Y0.18
X46.837 Y-0.566
X46.764 Y-1.313
X46.731 Y-1.379
X46.6 Y-1.567
X46.424 Y-1.713
X46.214 Y-1.805
X45.987 Y-1.837
X45.098
G2 X44.808 Y-1.537 I0.01 J0.3
G1 X44.809 Y-1.213
X44.812 Y1.288 F1200
Y1.614 F100
G2 X45.102 Y1.913 I0.3 J0
G1 X45.966
X46.341 Y1.895
X47.002 Y1.541
X47.412 Y0.913
X47.639 Y0.198
X47.719 Y-0.548
X47.656 Y-1.295
X47.619 Y-1.37
X47.489 Y-1.562
X47.312 Y-1.71
X47.1 Y-1.804
X46.871 Y-1.836
X45.987 Y-1.837
G2 X45.697 Y-1.539 I0.01 J0.3
G1 X45.695 Y-1.212
X45.679 Y1.289 F1200
X45.677 Y1.611 F100
G2 X45.966 Y1.913 I0.3 J0.002
G1 X46.906 Y1.914
X47.281 Y1.895
X47.923 Y1.507
X48.318 Y0.869
X48.534 Y0.151
X48.607 Y-0.595
X48.527 Y-1.341
X48.502 Y-1.389
X48.371 Y-1.573
X48.195 Y-1.715
X47.988 Y-1.805
X47.764 Y-1.836
X46.871
G2 X46.581 Y-1.533 I0.01 J0.3
G1 X46.585 Y-1.212
X46.613 Y1.289 F1200
X46.617 Y1.617 F100
G2 X46.906 Y1.914 I0.3 J-0.003
G1 X47.817
X48.191 Y1.895
X48.823 Y1.491
X49.211 Y0.85
X49.424 Y0.13
X49.49 Y-0.617
X49.409 Y-1.362
X49.392 Y-1.395
X49.261 Y-1.577
X49.085 Y-1.717
X48.879 Y-1.806
X48.657 Y-1.836
X47.764
G2 X47.474 Y-1.531 I0.01 J0.3
G1 X47.48 Y-1.212
X47.522 Y1.289 F1200
X47.527 Y1.619 F100
G2 X47.817 Y1.914 I0.3 J-0.005
G1 X48.724
X48.911 Y1.905
X49.252 Y1.749
X49.831 Y1.272
X50.172 Y0.604
X50.348 Y-0.125
X50.376 Y-0.874
X50.302 Y-1.192
X50.223 Y-1.4
X50.091 Y-1.58
X49.917 Y-1.718
X49.712 Y-1.806
X49.491 Y-1.835
X48.657 Y-1.836
G2 X48.368 Y-1.53 I0.01 J0.3
G1 X48.374 Y-1.211
X48.428 Y1.29 F1200
X48.435 Y1.621 F100
G2 X48.724 Y1.914 I0.3 J-0.006
G1 X49.469 Y1.915
X49.843 Y1.896
X50.5 Y1.533
X50.92 Y0.912
X51.165 Y0.203
X51.268 Y-0.54
X51.179 Y-1.285
X51.136 Y-1.371
X51.006 Y-1.562
X50.829 Y-1.71
X50.618 Y-1.803
X50.389 Y-1.835
X49.491
G2 X49.201 Y-1.538 I0.01 J0.3
G1 X49.199 Y-1.211
X49.182 Y1.29 F1200
X49.179 Y1.613 F100
G2 X49.469 Y1.915 I0.3 J0.002
G1 X50.33
X50.705 Y1.896
X51.374 Y1.558
X51.8 Y0.941
X52.048 Y0.233
X52.136 Y-0.512
X52.074 Y-1.259
X52.027 Y-1.358
X51.898 Y-1.553
X51.72 Y-1.705
X51.506 Y-1.802
X51.274 Y-1.835
X50.389
G2 X50.1 Y-1.541 I0.01 J0.3
G1 X50.094 Y-1.211
X50.047 Y1.29 F1200
X50.041 Y1.609 F100
G2 X50.33 Y1.915 I0.3 J0.006
G1 X51.273
X51.648 Y1.897
X52.302 Y1.53
X52.714 Y0.903
X52.942 Y0.188
X53.02 Y-0.558
X52.945 Y-1.304
X52.909 Y-1.375
X52.779 Y-1.564
X52.602 Y-1.71
X52.392 Y-1.803
X52.164 Y-1.835
X51.274
G2 X50.984 Y-1.535 I0.01 J0.3
G1 Y-1.211
Y1.291 F1200
Y1.615 F100
G2 X51.273 Y1.915 I0.3 J0
G1 X52.183
X52.558 Y1.897
X53.206 Y1.52
X53.608 Y0.887
X53.829 Y0.17
X53.902 Y-0.577
X53.826 Y-1.323
X53.796 Y-1.381
X53.666 Y-1.567
X53.49 Y-1.712
X53.281 Y-1.803
X53.055 Y-1.834
X52.164 Y-1.835
G2 X51.875 Y-1.533 I0.01 J0.3
G1 X51.877 Y-1.21
X51.892 Y1.291 F1200
X51.894 Y1.617 F100
G2 X52.183 Y1.915 I0.3 J-0.002
G1 X53.091 Y1.916
X53.465 Y1.897
X54.106 Y1.507
X54.501 Y0.87
X54.716 Y0.151
X54.786 Y-0.596
X54.708 Y-1.342
X54.685 Y-1.387
X54.554 Y-1.571
X54.378 Y-1.713
X54.17 Y-1.803
X53.947 Y-1.834
X53.055
G2 X52.765 Y-1.531 I0.01 J0.3
G1 X52.769 Y-1.21
X52.798 Y1.291 F1200
X52.802 Y1.619 F100
G2 X53.091 Y1.916 I0.3 J-0.003
G1 X54.024
X54.212 Y1.907
X54.553 Y1.751
X55.129 Y1.271
X55.468 Y0.602
X55.643 Y-0.127
X55.672 Y-0.877
X55.595 Y-1.196
X55.515 Y-1.402
X55.384 Y-1.58
X55.209 Y-1.718
X55.005 Y-1.804
X54.786 Y-1.834
X53.947
G2 X53.657 Y-1.527 I0.01 J0.3
G1 X53.665 Y-1.21
X53.727 Y1.292 F1200
X53.735 Y1.624 F100
G2 X54.024 Y1.916 I0.3 J-0.007
G1 X54.697
X55.072 Y1.898
X55.752 Y1.582
X56.189 Y0.972
X56.448 Y0.268
X56.565 Y-0.473
X56.489 Y-1.219
X56.434 Y-1.341
X56.306 Y-1.543
X56.127 Y-1.699
X55.91 Y-1.799
X55.674 Y-1.833
X54.786 Y-1.834
G2 X54.496 Y-1.542 I0.01 J0.3
G1 X54.487 Y-1.209
X54.417 Y1.292 F1200
X54.408 Y1.608 F100
G2 X54.697 Y1.916 I0.3 J0.008
G1 X55.64 Y1.917
X56.015 Y1.898
X56.682 Y1.556
X57.105 Y0.937
X57.354 Y0.229
X57.436 Y-0.517
X57.362 Y-1.263
X57.315 Y-1.361
X57.186 Y-1.555
X57.008 Y-1.705
X56.795 Y-1.8
X56.565 Y-1.833
X55.674
G2 X55.385 Y-1.537 I0.01 J0.3
G1 X55.381 Y-1.209
X55.354 Y1.292 F1200
X55.351 Y1.614 F100
G2 X55.64 Y1.917 I0.3 J0.003
G1 X56.55
X56.925 Y1.898
X57.588 Y1.548
X58.007 Y0.925
X58.238 Y0.212
X58.315 Y-0.534
X58.243 Y-1.281
X58.202 Y-1.366
X58.072 Y-1.558
X57.895 Y-1.706
X57.683 Y-1.8
X57.454 Y-1.833
X56.565
G2 X56.275 Y-1.535 I0.01 J0.3
G1 X56.274 Y-1.209
X56.262 Y1.292 F1200
X56.261 Y1.616 F100
G2 X56.55 Y1.917 I0.3 J0.001
G1 X57.458
X57.832 Y1.899
X58.491 Y1.54
X58.899 Y0.911
X59.123 Y0.195
X59.198 Y-0.551
X59.125 Y-1.298
X59.088 Y-1.371
X58.958 Y-1.561
X58.781 Y-1.708
X58.571 Y-1.801
X58.343 Y-1.832
X57.454 Y-1.833
G2 X57.164 Y-1.532 I0.01 J0.3
G1 Y-1.208
X57.168 Y1.293 F1200
Y1.618 F100
G2 X57.458 Y1.917 I0.3 J0
G1 X58.391 Y1.918
X58.766 Y1.899
X59.407 Y1.51
X59.801 Y0.872
X60.015 Y0.153
X60.083 Y-0.594
X60 Y-1.339
X59.975 Y-1.386
X59.844 Y-1.57
X59.669 Y-1.712
X59.461 Y-1.801
X59.238 Y-1.832
X58.343
G2 X58.053 Y-1.528 I0.01 J0.3
G1 X58.058 Y-1.208
X58.097 Y1.293 F1200
X58.102 Y1.622 F100
G2 X58.391 Y1.918 I0.3 J-0.005
G1 X59.294
X59.669 Y1.899
X60.303 Y1.498
X60.691 Y0.856
X60.901 Y0.136
X60.966 Y-0.611
X60.885 Y-1.356
X60.866 Y-1.391
X60.735 Y-1.573
X60.56 Y-1.713
X60.354 Y-1.801
X60.131 Y-1.832
X59.238
G2 X58.948 Y-1.527 I0.01 J0.3
G1 X58.954 Y-1.208
X58.999 Y1.293 F1200
X59.005 Y1.624 F100
G2 X59.294 Y1.918 I0.3 J-0.005
G1 X60.159
X60.533 Y1.9
X61.173 Y1.508
X61.565 Y0.869
X61.78 Y0.15
X61.85 Y-0.597
X61.779 Y-1.343
X61.757 Y-1.384
X61.627 Y-1.568
X61.451 Y-1.711
X61.243 Y-1.801
X61.019 Y-1.831
X60.131 Y-1.832
G2 X59.842 Y-1.529 I0.01 J0.3
G1 X59.845 Y-1.207
X59.866 Y1.294 F1200
X59.869 Y1.621 F100
G2 X60.159 Y1.918 I0.3 J-0.003
G1 X61.099 Y1.919
X61.286 Y1.909
X61.626 Y1.75
X62.197 Y1.264
X62.534 Y0.594
X62.708 Y-0.136
X62.74 Y-0.885
X62.665 Y-1.194
X62.584 Y-1.401
X62.452 Y-1.579
X62.278 Y-1.715
X62.074 Y-1.802
X61.855 Y-1.831
X61.019
G2 X60.73 Y-1.524 I0.01 J0.3
G1 X60.738 Y-1.207
X60.801 Y1.294 F1200
X60.81 Y1.626 F100
G2 X61.099 Y1.919 I0.3 J-0.008
G1 X61.855
X62.23 Y1.9
X62.876 Y1.519
X63.288 Y0.892
X63.529 Y0.182
X63.63 Y-0.561
X63.535 Y-1.305
X63.498 Y-1.377
X63.368 Y-1.564
X63.192 Y-1.708
X62.983 Y-1.8
X62.757 Y-1.831
X61.855
G2 X61.565 Y-1.531 I0.01 J0.3
G1 Y-1.207
X61.566 Y1.294 F1200
Y1.619 F100
G2 X61.855 Y1.919 I0.3 J0
G1 X62.758
X63.133 Y1.901
X63.778 Y1.519
X64.187 Y0.89
X64.424 Y0.178
X64.499 Y-0.568
X64.422 Y-1.314
X64.391 Y-1.376
X64.26 Y-1.563
X64.084 Y-1.708
X63.875 Y-1.799
X63.649 Y-1.831
X62.757
G2 X62.467 Y-1.531 I0.01 J0.3
G1 Y-1.206
X62.469 Y1.295 F1200
Y1.619 F100
G2 X62.758 Y1.919 I0.3 J0
G1 X63.661
X64.036 Y1.901
X64.68 Y1.516
X65.085 Y0.885
X65.307 Y0.168
X65.381 Y-0.578
X65.307 Y-1.324
X65.277 Y-1.383
X65.144 Y-1.571
X64.965 Y-1.716
X64.753 Y-1.806
X64.525 Y-1.835
X63.893 Y-1.83
X63.649 Y-1.831
G2 X63.359 Y-1.529 I0.01 J0.3
G1 X63.36 Y-1.206
X63.371 Y1.295 F1200
X63.372 Y1.621 F100
G2 X63.661 Y1.919 I0.3 J-0.001
G1 X64.526 Y1.92
X64.9 Y1.901
X65.554 Y1.534
X65.96 Y0.903
X66.184 Y0.187
X66.263 Y-0.558
X66.226 Y-0.991
X66.177 Y-1.219
X66.074 Y-1.427
X65.923 Y-1.603
X65.733 Y-1.737
X65.515 Y-1.819
X65.284 Y-1.845
X64.525 Y-1.835
G2 X64.239 Y-1.535 I0.014 J0.3
G1 Y-1.206
X64.236 Y1.295 F1200
Y1.62 F100
G2 X64.526 Y1.92 I0.3 J0
G1 X65.284
X65.466 Y1.9
X65.836 Y1.84
X66.483 Y1.462
X66.875 Y0.822
X67.086 Y0.102
X67.148 Y-0.645
X67.022 Y-1.385
X66.859 Y-1.665
X66.72 Y-1.844
X66.538 Y-1.978
X66.326 Y-2.059
X66.101 Y-2.08
X65.879 Y-2.039
X65.284 Y-1.845
G2 X65.088 Y-1.558 I0.103 J0.282
G1 X65.095 Y-1.143
X65.138 Y1.309 F1200
X65.144 Y1.606 F100
G2 X65.466 Y1.9 I0.3 J-0.005
G1 X66.376 Y1.8
X66.709 Y1.675
X67.053 Y1.526
X67.591 Y1.003
X67.887 Y0.314
X68.008 Y-0.426
X67.974 Y-1.175
X67.724 Y-1.882
X67.599 Y-2.04
X67.451 Y-2.187
X67.271 Y-2.292
X67.07 Y-2.349
X66.862 Y-2.354
X66.659 Y-2.308
X66.32 Y-2.184
X65.879 Y-2.039
G2 X65.688 Y-1.699 I0.103 J0.282
G1 X65.759 Y-1.345
X66.265 Y1.179 F1200
X66.32 Y1.45 F100
G2 X66.709 Y1.675 I0.294 J-0.059
G1 X67.603 Y1.342
X67.947 Y1.194
X68.518 Y0.707
X68.797 Y0.011
X68.888 Y-0.734
X68.792 Y-1.477
X68.532 Y-2.181
X68.394 Y-2.348
X68.247 Y-2.489
X68.069 Y-2.589
X67.873 Y-2.644
X67.669 Y-2.649
X67.47 Y-2.604
X66.659 Y-2.308
G2 X66.48 Y-1.96 I0.113 J0.278
G1 X66.563 Y-1.611
X67.15 Y0.846 F1200
X67.217 Y1.126 F100
G2 X67.603 Y1.342 I0.292 J-0.07
G1 X68.56 Y0.989
X68.906 Y0.846
X69.452 Y0.332
X69.696 Y-0.377
X69.732 Y-1.127
X69.599 Y-1.865
X69.303 Y-2.554
X69.195 Y-2.674
X69.006 Y-2.829
X68.78 Y-2.923
X68.536 Y-2.947
X68.296 Y-2.9
X67.47 Y-2.604
G2 X67.293 Y-2.241 I0.111 J0.279
G1 X67.389 Y-1.912
X68.094 Y0.493 F1200
X68.18 Y0.788 F100
G2 X68.56 Y0.989 I0.288 J-0.084
G1 X69.467 Y0.665
X69.813 Y0.521
X70.348 Y-0.005
X70.561 Y-0.724
X70.569 Y-1.474
X70.411 Y-2.207
X70.104 Y-2.891
X70.006 Y-2.992
X69.818 Y-3.138
X69.595 Y-3.225
X69.358 Y-3.245
X69.124 Y-3.197
X68.296 Y-2.9
G2 X68.121 Y-2.529 I0.111 J0.279
G1 X68.224 Y-2.211
X68.993 Y0.171 F1200
X69.09 Y0.471 F100
G2 X69.467 Y0.665 I0.285 J-0.092
G1 X70.4 Y0.329
X70.746 Y0.184
X71.239 Y-0.382
X71.417 Y-1.11
X71.394 Y-1.86
X71.214 Y-2.588
X70.884 Y-3.262
X70.829 Y-3.314
X70.647 Y-3.445
X70.437 Y-3.523
X70.214 Y-3.542
X69.993 Y-3.501
X69.651 Y-3.387
X69.124 Y-3.197
G2 X68.953 Y-2.817 I0.112 J0.278
G1 X69.064 Y-2.512
X69.916 Y-0.161 F1200
X70.026 Y0.145 F100
G2 X70.4 Y0.329 I0.282 J-0.102
G1 X70.743 Y0.205
X71.227 Y0.042
X71.576 Y-0.096
X72.074 Y-0.657
X72.251 Y-1.386
X72.226 Y-2.135
X72.047 Y-2.864
X71.733 Y-3.545
X71.693 Y-3.583
X71.521 Y-3.712
X71.322 Y-3.792
X71.109 Y-3.819
X70.896 Y-3.79
X70.743 Y-3.749
X69.993 Y-3.501
G2 X69.814 Y-3.12 I0.104 J0.281
G1 X69.92 Y-2.819
X70.749 Y-0.456 F1200
X70.858 Y-0.147 F100
G2 X71.227 Y0.042 I0.283 J-0.099
G1 X71.835 Y-0.162
X72.016 Y-0.21
X72.374 Y-0.323
X72.886 Y-0.871
X73.075 Y-1.597
X73.064 Y-2.347
X72.904 Y-3.079
X72.616 Y-3.772
X72.589 Y-3.799
X72.415 Y-3.937
X72.211 Y-4.025
X71.991 Y-4.055
X71.771 Y-4.027
X70.896 Y-3.79
G2 X70.698 Y-3.412 I0.088 J0.287
G1 X70.793 Y-3.116
X71.56 Y-0.736 F1200
X71.665 Y-0.411 F100
G2 X72.016 Y-0.21 I0.286 J-0.092
G1 X72.773 Y-0.408
X73.13 Y-0.52
X73.676 Y-1.035
X73.894 Y-1.752
X73.909 Y-2.502
X73.778 Y-3.24
X73.52 Y-3.945
X73.49 Y-3.979
X73.321 Y-4.125
X73.119 Y-4.221
X72.899 Y-4.26
X72.676 Y-4.239
X71.771 Y-4.027
G2 X71.57 Y-3.659 I0.088 J0.287
G1 X71.657 Y-3.349
X72.33 Y-0.937 F1200
X72.418 Y-0.62 F100
G2 X72.773 Y-0.408 I0.289 J-0.081
G1 X72.926 Y-0.448
X73.676 Y-0.622
X73.955 Y-0.702
X74.501 Y-1.216
X74.729 Y-1.931
X74.76 Y-2.68
X74.647 Y-3.421
X74.402 Y-4.13
X74.388 Y-4.147
X74.227 Y-4.292
X74.033 Y-4.39
X73.821 Y-4.435
X73.605 Y-4.424
G2 X73.369 Y-4.136 I0.065 J0.293
G1 X73.363 Y-3.752
X73.322 Y-1.172 F1200
X73.318 Y-0.921 F100
G2 X73.676 Y-0.622 I0.3 J0.005
G1 X74.018 Y-0.701
X74.56 Y-0.902
X74.845 Y-1.024
X75.38 Y-1.55
X75.591 Y-2.27
X75.609 Y-3.02
X75.545 Y-3.394
X75.511 Y-3.526
X75.455 Y-3.651
X75.38 Y-3.766
G2 X74.862 Y-3.656 I-0.23 J0.193
G1 X74.825 Y-3.524
X74.214 Y-1.399 F1200
X74.177 Y-1.27 F100
G2 X74.56 Y-0.902 I0.288 J0.083
G1 X75.073 Y-1.092
X75.11 Y-1.116
X75.835 Y-2.184
X75.763 Y-3.276
X75.11 Y-4.111
X74.411 Y-4.368
X74.018 Y-4.5
X72.926 Y-4.297
X72.676 Y-4.239
X72.634 Y-4.422
X71.975 Y-4.78
X71.225 Y-4.764
G2 X65.982 Y-3.119 I5.151 J25.589
G1 X63.624 Y-2.644
X62.88 Y-2.746
G2 X54.082 Y-2.823 I-5.795 J159.181
G1 X51.68 Y-2.838
X49.277 Y-2.834
X46.874 Y-2.838
X35.524 Y-2.84
X34.776 Y-2.788
X34.033 Y-2.682
X33.157 Y-2.476
X30.862 Y-1.764
X28.575 Y-1.027
X23.838 Y-0.372
X23.104 Y-0.219
G2 X20.531 Y1.206 I0.61 J4.139
X23.555 Y5.431 I2.273 J1.568
X34.669 Y3.05 I-2.407 J-38.356
G1 X37.057 Y2.826
X38.67 Y2.924
X43.476 Y2.913
X48.281 Y2.911
X53.087 Y2.917
X64.823 Y2.92
X65.572 Y2.868
X66.313 Y2.756
X67.375 Y2.466
X69.643 Y1.673
X71.899 Y0.846
X73.999 Y0.315
G2 X76.717 Y-2.812 I-0.47 J-3.153
X74.27 Y-5.309 I-2.824 J0.319
G1 X71.883 Y-5.588
G2 X68.111 Y-4.958 I-0.432 J9.033
G1 X65.843 Y-4.163
X64.674 Y-3.889
X62.288 Y-3.599
X61.55 Y-3.731
X60.376 Y-3.818
X53.969 Y-3.815
X47.561 Y-3.825
X41.154 Y-3.846
G2 X34.528 Y-3.761 I-1.899 J109.622
X27.604 Y-1.737 I8.191 J40.884
X21.458 Y-0.688 I-0.352 J16.474
X19.242 Y3.649 I1.592 J3.549
X23.23 Y6.396 I3.624 J-0.993
X34.508 Y4.176 I-1.412 J-36.933
G1 X36.874 Y3.767
X38.042 Y3.879
X40.444 Y3.944
X42.846 Y3.883
X47.343 Y3.908
X51.84 Y3.921
X56.337 Y3.923
X60.835 Y3.914
X65.332 Y3.893
G2 X70.731 Y2.34 I-3.57 J-22.574
G1 X72.986 Y1.509
G2 X76.901 Y-0.475 I-0.445 J-5.733
X74.368 Y-6.197 I-2.984 J-2.101
X67.344 Y-5.746 I-2.823 J10.957
G1 X65.078 Y-4.946
X62.693 Y-4.655
G2 X53.088 Y-4.808 I-6.351 J97.591
G1 X44.678 Y-4.821
X36.269 Y-4.848
G2 X28.562 Y-3.094 I1.087 J22.581
G1 X26.228 Y-2.514
G2 X20.129 Y-0.966 I-0.637 J10.28
X18.243 Y2.962 I3.088 J3.899
X23.471 Y7.313 I4.679 J-0.306
X35.848 Y4.783 I-0.833 J-35.624
X48.071 Y4.873 I7.609 J-203.393
X62.485 Y4.885 I7.562 J-430.807
G1 X64.143 Y4.925
X65.119 Y4.873
X66.049 Y4.758
G2 X73.016 Y2.543 I-6.621 J-32.879
X77.756 Y-0.101 I-0.788 J-6.985
X74.611 Y-7.092 I-3.891 J-2.452
X67.312 Y-6.769 I-3.151 J11.425
G1 X65.032 Y-6.008
X62.661 Y-5.617
X61.465 Y-5.737
G2 X51.439 Y-5.812 I-6.303 J172.817
G1 X49.036 Y-5.848
X46.633 Y-5.814
G2 X34.873 Y-5.766 I-4.742 J275.605
X27.964 Y-3.945 I3.502 J27.315
G1 X25.619 Y-3.42
X24.911 Y-3.421
X24.846 Y-3.413
X24.781 Y-3.4
G2 X19.975 Y-1.652 I3.379 J16.769
X17.63 Y1.105 I1.634 J3.766
X21.534 Y8.036 I5.07 J1.709
G1 X26.521 Y8.023
G2 X35.693 Y5.906 I-2.374 J-31.202
G1 X38.093 Y5.737
G2 X45.547 Y5.842 I4.312 J-41.687
G1 X47.949 Y5.941
X52.004 Y5.922
X56.059 Y5.913
X60.114 Y5.914
X64.169 Y5.924
G2 X71.737 Y4.107 I-1.303 J-22.098
X74.494 Y3.084 I-11.9 J-36.299
G1 X74.603 Y3.014
G3 X75.835 Y2.488 I3.47 J6.415
G1 X75.976 Y2.446
X76.034 Y2.43
X76.088 Y2.407
G2 X75.899 Y1.903 I-0.126 J-0.24
G1 X75.862 Y1.914 F1200
X75.828 Y1.931
G2 X75.946 Y2.438 I0.134 J0.236 F100
G1 X75.991 Y2.437
X76.034 Y2.43
X76.092 Y2.405
X76.823 Y1.903
X77.086 Y1.731
G2 X75.191 Y-7.873 I-3.053 J-4.387
G1 X75.118 Y-7.942
X75.032 Y-7.956
X74.946 Y-7.96
X69.111
X68.362 Y-7.923
X67.618 Y-7.826
X66.59 Y-7.572
X64.303 Y-6.836
X61.917 Y-6.555
G2 X55.507 Y-6.806 I-4.256 J26.707
G1 X53.104 Y-6.852
X50.701 Y-6.816
X48.299 Y-6.869
X45.898 Y-6.782
G2 X35.517 Y-6.796 I-5.624 J340.905
X28.121 Y-5.078 I2.037 J25.557
G1 X28.024 Y-4.974
G3 X24.779 Y-3.41 I-4.529 J-5.25
G1 X24.716 Y-3.385
X24.661 Y-3.348
X24.615 Y-3.299
X24.582 Y-3.243
X24.553 Y-3.196
X24.515 Y-3.155
X24.471 Y-3.122
X24.421 Y-3.097
X24.14 Y-2.989
X20.908 Y-1.747 F1200
X20.857 Y-1.733
X20.804 Y-1.728
X20.751 Y-1.732
X20.743 Y-1.733
G2 X19.969 Y-1.664 I-0.251 J1.563 F100
G3 X18.712 Y-1.264 I-2.241 J-4.86
G2 X16.903 Y0.474 I0.603 J2.438
X19.279 Y8.04 I5.661 J2.378
G1 X19.463 Y8.018
X21.538 Y8.02
G2 X21.813 Y7.629 I-0.01 J-0.3
G1 X21.743 Y7.408
X19.152 Y-0.715 F1200
X19.042 Y-1.06 F100
G2 X18.712 Y-1.265 I-0.286 J0.091
G1 X18.331 Y-1.194
X17.785 Y-1.124
X17.415 Y-1.061
X16.738 Y-0.737
G2 X15.659 Y4.187 I4.105 J3.48
X17.634 Y7.913 I6.486 J-1.051
G1 X17.848 Y7.988
X18.068 Y8.017
X19.463 Y8.018
G2 X19.747 Y7.662 I-0.01 J-0.3
G1 X19.697 Y7.399
X18.17 Y-0.542 F1200
X18.105 Y-0.882 F100
G2 X17.785 Y-1.124 I-0.295 J0.057
G1 X16.693 Y-0.988
X16.324 Y-0.921
X15.665 Y-0.562
G2 X14.747 Y4.413 I4.503 J3.403
X16.428 Y7.945 I6.79 J-1.066
G1 X16.64 Y7.992
X16.839 Y8.017
X18.068
G2 X18.354 Y7.67 I-0.01 J-0.3
G1 X18.31 Y7.397
X17.069 Y-0.407 F1200
X17.017 Y-0.737 F100
G2 X16.693 Y-0.988 I-0.296 J0.047
G1 X15.601 Y-0.844
X15.232 Y-0.774
X14.604 Y-0.365
G2 X13.831 Y4.654 I4.955 J3.332
X15.281 Y7.947 I6.718 J-0.992
G1 X15.505 Y7.991
X15.706 Y8.016
X16.839 Y8.017
G2 X17.125 Y7.674 I-0.01 J-0.3
G1 X17.085 Y7.395
X15.974 Y-0.263 F1200
X15.927 Y-0.588 F100
G2 X15.601 Y-0.844 I-0.297 J0.043
G1 X14.509 Y-0.693
X14.14 Y-0.625
X13.554 Y-0.156
G2 X12.911 Y4.9 I5.438 J3.261
X14.141 Y7.916 I6.75 J-0.996
G1 X14.382 Y7.984
X14.607 Y8.015
X15.706 Y8.016
G2 X15.993 Y7.674 I-0.01 J-0.3
G1 X15.953 Y7.394
X14.881 Y-0.112 F1200
X14.835 Y-0.437 F100
G2 X14.509 Y-0.693 I-0.297 J0.042
G1 X13.963 Y-0.62
X13.588 Y-0.58
X13.217 Y-0.522
X12.613 Y-0.078
G2 X11.833 Y4.241 I5.01 J3.135
X12.923 Y7.749 I8.76 J-0.799
G1 X13.112 Y7.889
X13.322 Y7.982
X13.55 Y8.014
X14.607 Y8.015
G2 X14.894 Y7.678 I-0.01 J-0.3
G1 X14.859 Y7.393
X13.947 Y0.009 F1200
X13.907 Y-0.318 F100
G2 X13.588 Y-0.58 I-0.298 J0.037
G1 X13.417 Y-0.562
X12.705 Y-0.513
X12.333 Y-0.473
X11.708 Y-0.057
G2 X10.883 Y4.25 I4.891 J3.17
X11.883 Y7.752 I8.582 J-0.556
G1 X12.076 Y7.889
X12.286 Y7.982
X12.513 Y8.014
X13.55
G2 X13.838 Y7.683 I-0.01 J-0.3
G1 X13.808 Y7.392
X13.046 Y0.092 F1200
X13.011 Y-0.245 F100
G2 X12.705 Y-0.513 I-0.298 J0.031
G1 X11.778 Y-0.463
X11.405 Y-0.432
X10.779 Y-0.019
G2 X9.932 Y4.29 I4.934 J3.207
X10.861 Y7.763 I8.347 J-0.373
G1 X11.058 Y7.893
X11.265 Y7.982
X11.488 Y8.013
X12.513 Y8.014
G2 X12.801 Y7.686 I-0.01 J-0.3
G1 X12.774 Y7.391
X12.109 Y0.149 F1200
X12.077 Y-0.191 F100
G2 X11.778 Y-0.463 I-0.299 J0.027
G1 X10.858 Y-0.434
X10.484 Y-0.405
X9.855 Y0.004
G2 X8.98 Y4.339 I4.992 J3.263
X9.849 Y7.776 I8.118 J-0.223
G1 X10.049 Y7.898
X10.252 Y7.983
X10.47 Y8.012
X11.488 Y8.013
G2 X11.777 Y7.689 I-0.01 J-0.3
G1 X11.753 Y7.39
X11.182 Y0.181 F1200
X11.155 Y-0.158 F100
G2 X10.858 Y-0.434 I-0.299 J0.024
G1 X9.975 Y-0.413
X9.601 Y-0.388
X8.957 Y-0.004
G2 X7.985 Y3.536 I4.292 J3.081
X8.829 Y7.779 I9.344 J0.348
G1 X9.038 Y7.897
X9.24 Y7.982
X9.458 Y8.011
X10.47 Y8.012
G2 X10.759 Y7.694 I-0.01 J-0.3
G1 X10.74 Y7.388
X10.29 Y0.206 F1200
X10.269 Y-0.132 F100
G2 X9.975 Y-0.413 I-0.299 J0.019
G1 X9.048 Y-0.402
X8.674 Y-0.38
X8.032 Y0.007
G2 X7.037 Y3.542 I4.335 J3.127
X7.825 Y7.784 I9.297 J0.468
G1 X8.036 Y7.899
X8.237 Y7.982
X8.452 Y8.011
X9.458
G2 X9.747 Y7.696 I-0.01 J-0.3
G1 X9.731 Y7.388
X9.357 Y0.22 F1200
X9.34 Y-0.118 F100
G2 X9.048 Y-0.402 I-0.3 J0.016
G1 X8.128 Y-0.395
X7.753 Y-0.373
X7.109 Y0.011
G2 X6.088 Y3.547 I4.357 J3.174
X6.824 Y7.786 I9.262 J0.575
G1 X7.037 Y7.9
X7.237 Y7.982
X7.451 Y8.011
X8.452
G2 X8.742 Y7.699 I-0.01 J-0.3
G1 X8.729 Y7.387
X8.433 Y0.227 F1200
X8.419 Y-0.107 F100
G2 X8.128 Y-0.395 I-0.3 J0.012
G1 X7.245 Y-0.388
X6.871 Y-0.367
X6.211 Y-0.01
G2 X5.14 Y3.516 I4.25 J3.217
X5.824 Y7.78 I9.245 J0.704
G1 X6.039 Y7.897
X6.241 Y7.982
X6.458 Y8.01
X7.451 Y8.011
G2 X7.741 Y7.703 I-0.01 J-0.3
G1 X7.733 Y7.386
X7.545 Y0.234 F1200
X7.537 Y-0.096 F100
G2 X7.245 Y-0.388 I-0.3 J0.008
G1 X6.318 Y-0.382
X5.944 Y-0.361
X5.283 Y-0.007
G2 X4.188 Y3.521 I4.284 J3.263
X4.836 Y7.784 I9.158 J0.79
G1 X5.051 Y7.899
X5.252 Y7.982
X5.468 Y8.01
X6.458
G2 X6.747 Y7.705 I-0.01 J-0.3
G1 X6.742 Y7.386
X6.616 Y0.24 F1200
X6.61 Y-0.088 F100
G2 X6.318 Y-0.382 I-0.3 J0.005
G1 X5.226 Y-0.375
X5.039 Y-0.364
X4.37 Y-0.024
G2 X3.238 Y3.494 I4.228 J3.302
X3.844 Y7.777 I9.13 J0.892
G1 X4.062 Y7.896
X4.265 Y7.981
X4.483 Y8.01
X5.468
G2 X5.757 Y7.701 I-0.01 J-0.3
G1 X5.748 Y7.386
X5.527 Y0.248 F1200
X5.517 Y-0.084 F100
G2 X5.226 Y-0.375 I-0.3 J0.009
G1 X4.515 Y-0.372
X4.14 Y-0.354
X3.459 Y-0.04
G2 X2.288 Y3.466 I4.139 J3.331
X2.86 Y7.772 I9.051 J0.989
G1 X3.078 Y7.893
X3.283 Y7.98
X3.504 Y8.01
X4.483
G2 X4.773 Y7.711 I-0.01 J-0.3
G1 X4.774 Y7.386
X4.803 Y0.252 F1200
X4.804 Y-0.071 F100
G2 X4.515 Y-0.372 I-0.3 J-0.001
G1 X3.588 Y-0.375
X3.214 Y-0.358
X2.531 Y-0.048
G2 X1.335 Y3.453 I4.142 J3.369
X1.88 Y7.769 I8.96 J1.06
G1 X2.1 Y7.892
X2.305 Y7.98
X2.527 Y8.01
X3.504
G2 X3.793 Y7.713 I-0.01 J-0.3
G1 X3.797 Y7.386
X3.873 Y0.251 F1200
X3.876 Y-0.072 F100
G2 X3.588 Y-0.375 I-0.3 J-0.003
G1 X2.496 Y-0.38
X2.309 Y-0.371
X1.619 Y-0.078
X1.147 Y0.506
X0.887 Y1.047
G2 X1.339 Y1.409 I0.275 J0.121
G1 X1.368 Y1.386 F1200
X2.631 Y0.194
X2.69 Y0.138 F100
G2 X2.496 Y-0.38 I-0.206 J-0.218
G1 X-0.063 Y-0.386
G2 X-0.347 Y-0.144 I0.01 J0.3
G1 X-0.42 Y0.231
X-1.805 Y7.39 F1200
X-1.856 Y7.652 F100
G2 X-1.572 Y8.009 I0.295 J0.057
G1 X-1.326
X2.527 Y8.01
G0 Z2.01
X70.122 Y-7.586
Z-9.385
G1 Z-9.685 F100
X70.116 Y-7.59 Z-9.752
X70.097 Y-7.601 Z-9.815
X70.066 Y-7.619 Z-9.872
X70.025 Y-7.643 Z-9.92
X69.976 Y-7.672 Z-9.955
X69.922 Y-7.705 Z-9.978
X69.864 Y-7.739 Z-9.985
G2 X69.111 Y-7.96 I-0.809 J1.36
G1 X65.835
X64.86 Y-7.911
X62.474 Y-7.626
X58.228 Y-7.863
X55.826 Y-7.828
X48.617 Y-7.843
X42.201 Y-7.825
X35.786 Y-7.812
G2 X29.146 Y-6.469 I1.346 J23.742
G1 X28.978 Y-6.311
X28.852 Y-6.124
X28.637 Y-5.691
X28.159 Y-5.124
X28.024 Y-4.974
X27.989 Y-4.926
X27.964 Y-4.872
X27.95 Y-4.813
X27.867 Y-4.213
X26.273 Y7.401 F1200
X26.235 Y7.683 F100
G2 X26.521 Y8.023 I0.297 J0.041
G1 X31.19 Y8.027
X31.939 Y7.99
X32.704 Y7.857
X33.819 Y7.583
X36.107 Y6.85
X38.507 Y6.737
G2 X46.061 Y6.826 I4.262 J-41.038
G1 X47.262 Y6.913
X52.868 Y6.902
X58.474 Y6.905
X64.08 Y6.92
G2 X72.241 Y4.96 I-1.046 J-22.32
X74.606 Y3.017 I-99.823 J-123.946
G1 X74.649 Y2.967
X74.68 Y2.91
X74.699 Y2.847
X74.703 Y2.781
X74.693 Y2.717
X74.669 Y2.656
X74.633 Y2.602
X74.424 Y2.347
X66.393 Y-7.44 F1200
X66.056 Y-7.851 F100
X66.011 Y-7.895
X65.957 Y-7.929
X65.898 Y-7.951
X65.835 Y-7.96
X31.681
G2 X29.457 Y-7.49 I-0.264 J4.244
G1 X29.336 Y-7.283
X29.257 Y-7.071
G2 X29.639 Y-6.729 I0.295 J0.056
G1 X29.801 Y-6.778
X31.758 Y-7.373 F1200
X31.785 Y-7.383
X31.811 Y-7.396
G2 X31.681 Y-7.96 I-0.141 J-0.265 F100
G1 X29.72
X29.643 Y-7.955
X29.566 Y-7.932
X29.528 Y-7.911
X29.489 Y-7.883
G2 X29.167 Y-6.793 I8.834 J3.206
G1 X28.915 Y-6.252
X28.852 Y-6.124
X28.834 Y-6.07
X28.826 Y-6.013
X28.829 Y-5.956
X28.921 Y-5.349
X30.848 Y7.406 F1200
X30.904 Y7.772 F100
G2 X31.19 Y8.027 I0.297 J-0.045
G1 X34.466 Y8.029
X36.866 Y7.91
X39.253 Y7.638
X39.987 Y7.793
X40.732 Y7.878
X42.324 Y7.942
X44.726 Y7.873
X47.128 Y7.835
X48.648 Y7.938
X52.509 Y7.918
X56.369 Y7.91
X60.23 Y7.911
X64.09 Y7.924
G2 X71.03 Y6.451 I-0.565 J-19.745
G1 X71.128 Y6.246
G3 X72.231 Y4.938 I4.341 J2.539
G0 Z2.01
X33.455 Y7.654
Z-9.385
G1 Z-9.685 F100
X33.461 Y7.657 Z-9.752
X33.48 Y7.669 Z-9.815
X33.511 Y7.687 Z-9.872
X33.552 Y7.711 Z-9.92
X33.6 Y7.74 Z-9.955
X33.655 Y7.773 Z-9.978
X33.712 Y7.807 Z-9.985
G2 X34.466 Y8.029 I0.81 J-1.36
G1 X68.319 Y8.052
X69.068 Y8.016
X69.807 Y7.885
X70.217 Y7.77
X70.418 Y7.684
X70.59 Y7.549
X70.721 Y7.373
X70.801 Y7.17
G2 X70.423 Y6.82 I-0.293 J-0.063
G1 X70.265 Y6.866
X68.245 Y7.465 F1200
X68.216 Y7.475
X68.189 Y7.488
G2 X68.319 Y8.052 I0.141 J0.265 F100
G1 X70.319 Y8.054
X70.406 Y8.053
X70.464 Y8.042
X70.551 Y8.005
X70.587 Y7.979
X70.647 Y7.913
G3 X71.128 Y6.246 I4.771 J0.472
G2 X70.701 Y5.854 I-0.266 J-0.139
G1 X70.645 Y5.89 Z-9.978
X70.591 Y5.924 Z-9.955
X70.543 Y5.955 Z-9.92
X70.503 Y5.98 Z-9.872
X70.473 Y5.999 Z-9.815
X70.454 Y6.011 Z-9.752
X70.448 Y6.015 Z-9.685
G0 Z2.01
X76.034 Y1.97
Z-9.385
G1 Z-9.685 F100
X76.042 Z-9.752
X76.064 Y1.969 Z-9.815
X76.1 Y1.967 Z-9.872
X76.147 Y1.965 Z-9.92
X76.204 Y1.963 Z-9.955
X76.267 Y1.96 Z-9.978
X76.334 Y1.958 Z-9.985
G2 X77.086 Y1.731 I-0.066 J-1.581
G3 X78.283 Y1.142 I2.307 J3.177
G1 X78.972 Y0.847
G2 X80.3 Y-2.551 I-3.489 J-3.322
X77.256 Y-7.975 I-6.176 J-0.1
G1 X77.076 Y-7.96
X74.946
G2 X74.676 Y-7.554 I0.01 J0.3
G1 X74.752 Y-7.352
X77.792 Y0.658 F1200
X77.908 Y0.964 F100
G2 X78.283 Y1.142 I0.28 J-0.106
G1 X78.393 Y1.101
X78.939 Y0.969
X79.239 Y0.919
X79.606 Y0.839
X80.243 Y0.444
G2 X81.133 Y-3.838 I-4.512 J-3.171
X78.776 Y-7.964 I-6.57 J1.018
G1 X78.519 Y-7.96
X77.076
G2 X76.796 Y-7.586 I0.01 J0.3
G1 X76.858 Y-7.344
X78.823 Y0.356 F1200
X78.91 Y0.696 F100
G2 X79.239 Y0.919 I0.291 J-0.074
G1 X79.485 Y0.878
X80.196 Y0.78
X80.565 Y0.712
X81.214 Y0.337
G2 X82.062 Y-3.956 I-4.599 J-3.138
X80.239 Y-7.816 I-7.188 J1.034
G1 X80.015 Y-7.923
X79.77 Y-7.96
X78.519
G2 X78.235 Y-7.601 I0.01 J0.3
G1 X78.288 Y-7.341
X79.805 Y0.203 F1200
X79.873 Y0.541 F100
G2 X80.196 Y0.78 I0.294 J-0.059
G1 X81.288 Y0.629
X81.56 Y0.575
X82.201 Y0.186
G2 X82.988 Y-4.122 I-4.771 J-3.097
X81.41 Y-7.815 I-7.196 J0.892
G1 X81.186 Y-7.923
X80.939 Y-7.96
X79.77
G2 X79.485 Y-7.606 I0.01 J0.3
G1 X79.534 Y-7.341
X80.898 Y0.057 F1200
X80.959 Y0.386 F100
G2 X81.288 Y0.629 I0.295 J-0.054
G1 X81.669 Y0.572
X82.215 Y0.395
X82.371 Y0.358
X82.731 Y0.252
X83.311 Y-0.224
G2 X83.866 Y-4.585 I-5.422 J-2.907
X82.61 Y-7.749 I-7.822 J1.274
G1 X82.432 Y-7.861
X82.24 Y-7.935
X82.037 Y-7.96
X80.939
G2 X80.654 Y-7.608 I0.01 J0.3
G1 X80.702 Y-7.34
X81.963 Y-0.186 F1200
X82.016 Y0.116 F100
G2 X82.371 Y0.358 I0.295 J-0.052
G1 X82.761 Y0.267
X83.307 Y0.196
X83.492 Y0.165
X84.137 Y-0.219
G2 X84.948 Y-3.053 I-3.78 J-2.615
X83.711 Y-7.747 I-9.318 J-0.056
G1 X83.517 Y-7.857
X83.322 Y-7.934
X83.114 Y-7.96
X82.037
G2 X81.751 Y-7.612 I0.01 J0.3
G1 X81.796 Y-7.34
X82.932 Y-0.388 F1200
X82.986 Y-0.054 F100
G2 X83.307 Y0.196 I0.296 J-0.048
G1 X83.853 Y0.131
X84.228 Y0.07
X84.595 Y-0.009
X85.174 Y-0.485
G2 X85.747 Y-4.849 I-5.584 J-2.952
X84.788 Y-7.68 I-6.982 J0.787
G1 X84.61 Y-7.832
X84.396 Y-7.927
X84.165 Y-7.96
X83.114
G2 X82.828 Y-7.618 I0.01 J0.3
G1 X82.868 Y-7.339
X83.848 Y-0.5 F1200
X83.893 Y-0.185 F100
G2 X84.228 Y0.07 I0.297 J-0.043
G1 X84.945 Y-0.056
X85.111 Y-0.079
X85.479 Y-0.148
X86.086 Y-0.589
G2 X86.785 Y-4.2 I-5.101 J-2.861
X85.824 Y-7.69 I-8.53 J0.472
G1 X85.634 Y-7.833
X85.421 Y-7.928
X85.191 Y-7.96
X84.165
G2 X83.877 Y-7.623 I0.01 J0.3
G1 X83.913 Y-7.338
X84.743 Y-0.659 F1200
X84.783 Y-0.34 F100
G2 X85.111 Y-0.079 I0.298 J-0.037
G1 X85.491 Y-0.13
X86.037 Y-0.176
X86.224 Y-0.194
X86.887 Y-0.545
G2 X87.748 Y-3.362 I-3.649 J-2.656
X86.839 Y-7.673 I-8.636 J-0.43
G1 X86.659 Y-7.828
X86.444 Y-7.927
X86.209 Y-7.96
X85.191
G2 X84.903 Y-7.626 I0.01 J0.3
G1 X84.937 Y-7.338
X85.696 Y-0.784 F1200
X85.735 Y-0.441 F100
G2 X86.037 Y-0.176 I0.298 J-0.035
G1 X86.749 Y-0.208
X87.122 Y-0.239
X87.79 Y-0.58
G2 X88.683 Y-3.387 I-3.621 J-2.697
X87.843 Y-7.673 I-8.296 J-0.6
G1 X87.664 Y-7.828
X87.448 Y-7.927
X87.213 Y-7.96
X86.209
G2 X85.92 Y-7.638 I0.01 J0.3
G1 X85.942 Y-7.337
X86.425 Y-0.821 F1200
X86.45 Y-0.485 F100
G2 X86.749 Y-0.208 I0.299 J-0.022
G1 X87.676 Y-0.235
X88.049 Y-0.264
X88.71 Y-0.619
G2 X89.62 Y-3.422 I-3.677 J-2.742
X88.836 Y-7.677 I-7.949 J-0.736
G1 X88.658 Y-7.83
X88.443 Y-7.927
X88.21 Y-7.96
X87.213
G2 X86.925 Y-7.641 I0.01 J0.3
G1 X86.944 Y-7.336
X87.357 Y-0.851 F1200
X87.379 Y-0.516 F100
G2 X87.676 Y-0.235 I0.299 J-0.019
G1 X88.768 Y-0.262
X88.955 Y-0.276
X89.616 Y-0.63
G2 X90.556 Y-3.424 I-3.673 J-2.791
X89.829 Y-7.675 I-7.767 J-0.86
G1 X89.65 Y-7.829
X89.435 Y-7.927
X89.202 Y-7.96
X88.21
G2 X87.922 Y-7.637 I0.01 J0.3
G1 X87.945 Y-7.337
X88.446 Y-0.88 F1200
X88.472 Y-0.539 F100
G2 X88.768 Y-0.262 I0.299 J-0.023
G1 X89.479 Y-0.278
X89.853 Y-0.303
X90.522 Y-0.642
G2 X91.493 Y-3.425 I-3.642 J-2.831
X90.962 Y-7.48 I-9.841 J-0.772
G1 X90.817 Y-7.673
X90.638 Y-7.828
X90.422 Y-7.927
X90.187 Y-7.96
X89.202
G2 X88.912 Y-7.649 I0.01 J0.3
G1 X88.924 Y-7.336
X89.171 Y-0.896 F1200
X89.184 Y-0.566 F100
G2 X89.479 Y-0.278 I0.3 J-0.011
G1 X90.406 Y-0.291
X90.78 Y-0.312
X91.445 Y-0.659
G2 X92.433 Y-3.438 I-3.691 J-2.877
X91.944 Y-7.479 I-9.723 J-0.872
G1 X91.798 Y-7.673
X91.619 Y-7.828
X91.403 Y-7.927
X91.168 Y-7.96
X90.187
G2 X89.898 Y-7.651 I0.01 J0.3
G1 X89.908 Y-7.336
X90.104 Y-0.914 F1200
X90.114 Y-0.582 F100
G2 X90.406 Y-0.291 I0.3 J-0.009
G1 X91.498 Y-0.298
X91.685 Y-0.308
X92.352 Y-0.65
G2 X93.371 Y-3.418 I-3.668 J-2.922
X92.926 Y-7.47 I-9.644 J-0.989
G1 X92.78 Y-7.667
X92.6 Y-7.825
X92.383 Y-7.926
X92.146 Y-7.96
X91.168
G2 X90.879 Y-7.647 I0.01 J0.3
G1 X90.893 Y-7.336
X91.192 Y-0.92 F1200
X91.207 Y-0.584 F100
G2 X91.498 Y-0.298 I0.3 J-0.014
G1 X92.209 Y-0.3
X92.583 Y-0.32
X93.26 Y-0.643
G2 X94.311 Y-3.398 I-3.616 J-2.956
X93.903 Y-7.461 I-9.556 J-1.093
G1 X93.758 Y-7.662
X93.578 Y-7.823
X93.358 Y-7.925
X93.119 Y-7.96
X92.146
G2 X91.856 Y-7.658 I0.01 J0.3
G1 X91.859 Y-7.336
X91.916 Y-0.924 F1200
X91.918 Y-0.598 F100
G2 X92.209 Y-0.3 I0.3 J-0.003
G1 X93.136 Y-0.303
X93.51 Y-0.322
X94.187 Y-0.646
G2 X95.254 Y-3.396 I-3.641 J-2.995
X94.875 Y-7.458 I-9.451 J-1.167
G1 X94.73 Y-7.659
X94.549 Y-7.822
X94.329 Y-7.925
X94.089 Y-7.96
X93.119
G2 X92.829 Y-7.66 I0.01 J0.3
G1 X92.83 Y-7.336
X92.845 Y-0.927 F1200
X92.846 Y-0.602 F100
G2 X93.136 Y-0.303 I0.3 J-0.001
G1 X94.228 Y-0.304
X94.415 Y-0.313
X95.097 Y-0.626
G2 X96.193 Y-3.365 I-3.586 J-3.025
X95.847 Y-7.447 I-9.392 J-1.26
G1 X95.704 Y-7.653
X95.522 Y-7.819
X95.3 Y-7.924
X95.057 Y-7.96
X94.089
G2 X93.8 Y-7.655 I0.01 J0.3
G1 X93.806 Y-7.336
X93.932 Y-0.928 F1200
X93.938 Y-0.598 F100
G2 X94.228 Y-0.304 I0.3 J-0.006
G1 X95.148
X95.336 Y-0.313
X96.021 Y-0.618
G2 X97.137 Y-3.349 I-3.579 J-3.056
X96.816 Y-7.441 I-9.32 J-1.327
G1 X96.673 Y-7.649
X96.491 Y-7.817
X96.268 Y-7.924
X96.023 Y-7.96
X95.057
G2 X94.768 Y-7.657 I0.01 J0.3
G1 X94.772 Y-7.336
X94.855 Y-0.928 F1200
X94.859 Y-0.6 F100
G2 X95.148 Y-0.304 I0.3 J-0.004
G1 X96.031
X96.406 Y-0.324
X97.044 Y-0.717
G2 X98.164 Y-4.227 I-5.032 J-3.54
X97.619 Y-7.67 I-6.284 J-0.769
G1 X97.439 Y-7.827
X97.223 Y-7.926
X96.987 Y-7.96
X96.023
G2 X95.733 Y-7.66 I0.01 J0.3
G1 X95.734 Y-7.336
X95.741 Y-0.929 F1200
Y-0.604 F100
G2 X96.031 Y-0.304 I0.3 J0
G1 X96.958 Y-0.306
X97.332 Y-0.325
X97.975 Y-0.711
G2 X99.115 Y-4.215 I-4.985 J-3.558
X98.586 Y-7.667 I-6.331 J-0.797
G1 X98.406 Y-7.825
X98.189 Y-7.926
X97.951 Y-7.96
X96.987
G2 X96.697 Y-7.662 I0.01 J0.3
G1 X96.696 Y-7.336
X96.669 Y-0.93 F1200
X96.668 Y-0.607 F100
G2 X96.958 Y-0.306 I0.3 J0.001
G1 X97.879 Y-0.307
X98.253 Y-0.326
X98.903 Y-0.701
G2 X100.065 Y-4.196 I-4.923 J-3.578
X99.552 Y-7.662 I-6.373 J-0.829
G1 X99.372 Y-7.823
X99.153 Y-7.925
X98.914 Y-7.96
X97.951
G2 X97.662 Y-7.664 I0.01 J0.3
G1 X97.658 Y-7.336
X97.592 Y-0.931 F1200
X97.589 Y-0.61 F100
G2 X97.879 Y-0.307 I0.3 J0.003
G1 X98.761 Y-0.308
X99.136 Y-0.327
X99.805 Y-0.666
G2 X100.933 Y-3.396 I-3.76 J-3.153
X100.666 Y-7.448 I-9.06 J-1.438
G1 X100.521 Y-7.653
X100.34 Y-7.819
X100.118 Y-7.924
X99.875 Y-7.96
X98.914
G2 X98.624 Y-7.667 I0.01 J0.3
G1 X98.617 Y-7.336
X98.478 Y-0.932 F1200
X98.471 Y-0.614 F100
G2 X98.761 Y-0.308 I0.3 J0.007
G1 X99.688 Y-0.309
X100.063 Y-0.328
X100.737 Y-0.656
G2 X101.881 Y-3.379 I-3.733 J-3.17
X101.628 Y-7.442 I-9.019 J-1.477
G1 X101.483 Y-7.65
X101.301 Y-7.817
X101.078 Y-7.924
X100.833 Y-7.96
X99.875
G2 X99.585 Y-7.668 I0.01 J0.3
G1 X99.576 Y-7.336
X99.407 Y-0.933 F1200
X99.398 Y-0.617 F100
G2 X99.688 Y-0.309 I0.3 J0.008
G1 X100.78 Y-0.31
X100.967 Y-0.32
X101.652 Y-0.626
G2 X102.824 Y-3.336 I-3.618 J-3.173
X102.59 Y-7.43 I-9.02 J-1.54
G1 X102.447 Y-7.643
X102.265 Y-7.814
X102.04 Y-7.923
X101.792 Y-7.961
X100.833 Y-7.96
G2 X100.544 Y-7.663 I0.011 J0.3
G1 X100.541 Y-7.336
X100.493 Y-0.934 F1200
X100.49 Y-0.612 F100
G2 X100.78 Y-0.31 I0.3 J0.002
G1 X101.701 Y-0.311
X101.888 Y-0.321
X102.58 Y-0.609
G2 X103.77 Y-3.31 I-3.562 J-3.182
X103.551 Y-7.422 I-9.006 J-1.582
G1 X103.439 Y-7.597
X103.306 Y-7.749
X103.14 Y-7.865
X102.951 Y-7.937
X102.75 Y-7.961
X101.792
G2 X101.503 Y-7.665 I0.011 J0.3
G1 X101.498 Y-7.336
X101.415 Y-0.935 F1200
X101.411 Y-0.615 F100
G2 X101.701 Y-0.311 I0.3 J0.004
G1 X102.583 Y-0.312
X102.958 Y-0.332
X103.61 Y-0.701
G2 X104.825 Y-4.18 I-4.96 J-3.683
X104.346 Y-7.661 I-6.151 J-0.926
G1 X104.165 Y-7.824
X103.945 Y-7.927
X103.704 Y-7.962
X102.75 Y-7.961
G2 X102.461 Y-7.669 I0.011 J0.3
G1 X102.453 Y-7.337
X102.301 Y-0.936 F1200
X102.293 Y-0.619 F100
G2 X102.583 Y-0.312 I0.3 J0.007
G1 X103.51 Y-0.313
X103.885 Y-0.333
X104.544 Y-0.689
G2 X105.776 Y-4.161 I-4.871 J-3.683
X105.308 Y-7.657 I-6.257 J-0.942
G1 X105.127 Y-7.822
X104.905 Y-7.927
X104.662 Y-7.963
X103.704 Y-7.962
G2 X103.415 Y-7.67 I0.011 J0.3
G1 X103.406 Y-7.337
X103.229 Y-0.938 F1200
X103.22 Y-0.622 F100
G2 X103.51 Y-0.313 I0.3 J0.008
G1 X104.356
X104.731 Y-0.331
X105.421 Y-0.625
G2 X106.624 Y-3.321 I-3.572 J-3.21
X106.422 Y-7.428 I-8.875 J-1.623
G1 X106.309 Y-7.601
X106.176 Y-7.753
X106.01 Y-7.868
X105.822 Y-7.939
X105.621 Y-7.963
X104.662
G2 X104.373 Y-7.676 I0.011 J0.3
G1 X104.359 Y-7.338
X104.082 Y-0.938 F1200
X104.068 Y-0.626 F100
G2 X104.356 Y-0.313 I0.3 J0.013
G1 X105.313 Y-0.305
X105.688 Y-0.32
X106.375 Y-0.621
G2 X107.576 Y-3.319 I-3.647 J-3.241
X107.369 Y-7.452 I-8.803 J-1.629
G1 X107.251 Y-7.633
X107.109 Y-7.79
X106.932 Y-7.906
X106.732 Y-7.974
X106.521 Y-7.989
X106.24 Y-7.973
X105.621 Y-7.963
G2 X105.332 Y-7.677 I0.011 J0.3
G1 X105.318 Y-7.339
X105.041 Y-0.933 F1200
X105.028 Y-0.618 F100
G2 X105.313 Y-0.305 I0.3 J0.013
G1 X106.24 Y-0.291
X106.615 Y-0.3
X107.305 Y-0.594
G2 X108.523 Y-3.283 I-3.581 J-3.242
X108.232 Y-7.725 I-8.615 J-1.666
G1 X108.061 Y-7.88
X107.88 Y-7.99
X107.678 Y-8.051
X107.467 Y-8.059
X106.786 Y-8.003
X106.521 Y-7.989
G2 X106.249 Y-7.702 I0.027 J0.299
G1 X106.234 Y-7.349
X105.972 Y-0.924 F1200
X105.959 Y-0.603 F100
G2 X106.24 Y-0.291 I0.3 J0.012
G1 X107.146 Y-0.264
X107.521 Y-0.269
X108.219 Y-0.543
G2 X109.464 Y-3.218 I-3.464 J-3.239
X109.168 Y-7.762 I-8.154 J-1.75
G1 X109.02 Y-7.937
X108.83 Y-8.064
X108.613 Y-8.135
X108.385 Y-8.145
X107.467 Y-8.059
G2 X107.204 Y-7.776 I0.037 J0.298
G1 X107.187 Y-7.411
X106.882 Y-0.898 F1200
X106.867 Y-0.577 F100
G2 X107.146 Y-0.264 I0.3 J0.014
G1 X108.253 Y-0.223
X108.44 Y-0.225
X109.142 Y-0.491
G2 X110.406 Y-3.156 I-3.421 J-3.255
X110.112 Y-7.816 I-8.361 J-1.812
G1 X109.965 Y-8.009
X109.767 Y-8.151
X109.538 Y-8.23
X109.295 Y-8.24
X108.385 Y-8.145
G2 X108.124 Y-7.853 I0.039 J0.297
G1 X108.117 Y-7.494
X107.981 Y-0.858 F1200
X107.975 Y-0.528 F100
G2 X108.253 Y-0.223 I0.3 J0.006
G1 X109.136 Y-0.19
X109.511 Y-0.195
X110.173 Y-0.547
G2 X111.481 Y-3.991 I-4.811 J-3.797
X111.06 Y-7.926 I-8.553 J-1.075
G1 X110.887 Y-8.109
X110.69 Y-8.251
X110.461 Y-8.329
X110.219 Y-8.339
X109.295 Y-8.24
G2 X109.037 Y-7.95 I0.042 J0.297
G1 X109.029 Y-7.587
X108.865 Y-0.825 F1200
X108.857 Y-0.497 F100
G2 X109.136 Y-0.19 I0.3 J0.007
G1 X110.062 Y-0.156
X110.437 Y-0.161
X111.105 Y-0.503
G2 X112.43 Y-3.939 I-4.742 J-3.801
X112.009 Y-7.991 I-8.775 J-1.137
G1 X111.873 Y-8.15
X111.724 Y-8.287
X111.547 Y-8.384
X111.352 Y-8.436
X111.15 Y-8.439
X110.219 Y-8.339
G2 X109.961 Y-8.049 I0.042 J0.297
G1 X109.953 Y-7.685
X109.792 Y-0.791 F1200
X109.784 Y-0.462 F100
G2 X110.062 Y-0.156 I0.3 J0.007
G1 X110.909 Y-0.125
X111.284 Y-0.13
X111.979 Y-0.41
G2 X113.254 Y-3.073 I-3.485 J-3.305
X112.882 Y-8.223 I-8.951 J-1.942
G1 X112.698 Y-8.359
X112.517 Y-8.468
X112.315 Y-8.527
X112.104 Y-8.534
X111.15 Y-8.439
G2 X110.893 Y-8.152 I0.042 J0.297
G1 X110.88 Y-7.785
X110.642 Y-0.76 F1200
X110.63 Y-0.434 F100
G2 X110.909 Y-0.125 I0.3 J0.01
G1 X111.7 Y-0.102
X111.866
X112.24 Y-0.121
X112.938 Y-0.395
G2 X114.209 Y-3.061 I-3.552 J-3.33
X113.852 Y-8.301 I-9.495 J-1.986
G1 X113.673 Y-8.452
X113.495 Y-8.557
X113.296 Y-8.616
X113.089 Y-8.623
X112.104 Y-8.534
G2 X111.843 Y-8.247 I0.039 J0.297
G1 X111.831 Y-7.884
X111.587 Y-0.726 F1200
X111.576 Y-0.412 F100
G2 X111.866 Y-0.102 I0.3 J0.01
G1 X112.247
X112.958 Y-0.114
X113.332 Y-0.139
X113.991 Y-0.497
G2 X115.297 Y-3.945 I-4.955 J-3.849
X114.762 Y-8.359 I-7.855 J-1.288
G1 X114.615 Y-8.517
X114.433 Y-8.632
X114.226 Y-8.696
X114.011 Y-8.705
X113.089 Y-8.623
G2 X112.826 Y-8.331 I0.037 J0.298
G1 X112.819 Y-7.974
X112.67 Y-0.735 F1200
X112.664 Y-0.421 F100
G2 X112.958 Y-0.114 I0.3 J0.006
G1 X113.339 Y-0.12
X113.885 Y-0.115
X114.26 Y-0.12
X114.926 Y-0.465
G2 X116.249 Y-3.904 I-4.858 J-3.844
X115.723 Y-8.459 I-8.566 J-1.318
G1 X115.576 Y-8.611
X115.395 Y-8.721
X115.193 Y-8.782
X114.982 Y-8.791
X114.011 Y-8.705
G2 X113.748 Y-8.412 I0.037 J0.298
G1 X113.741 Y-8.056
X113.612 Y-0.749 F1200
X113.606 Y-0.419 F100
G2 X113.885 Y-0.115 I0.3 J0.005
G1 X114.731 Y-0.082
X115.106 Y-0.084
X115.799 Y-0.372
G2 X117.072 Y-3.036 I-3.548 J-3.332
X116.729 Y-8.488 I-10.117 J-2.101
G1 X116.559 Y-8.657
X116.369 Y-8.788
X116.151 Y-8.862
X115.922 Y-8.874
X114.982 Y-8.791
G2 X114.719 Y-8.503 I0.037 J0.298
G1 X114.707 Y-8.142
X114.466 Y-0.719 F1200
X114.455 Y-0.391 F100
G2 X114.731 Y-0.082 I0.3 J0.01
G1 X115.688 Y-0.035
X116.063 Y-0.033
X116.75 Y-0.333
G2 X118.024 Y-3 I-3.632 J-3.372
X117.685 Y-8.557 I-10.302 J-2.162
G1 X117.512 Y-8.731
X117.32 Y-8.867
X117.099 Y-8.944
X116.864 Y-8.957
X115.922 Y-8.874
G2 X115.659 Y-8.585 I0.037 J0.298
G1 X115.648 Y-8.225
X115.425 Y-0.675 F1200
X115.415 Y-0.343 F100
G2 X115.688 Y-0.035 I0.3 J0.009
G1 X116.615 Y0.018
X116.99 Y0.021
X117.679 Y-0.273
G2 X118.969 Y-2.931 I-3.581 J-3.379
X118.646 Y-8.616 I-10.484 J-2.255
G1 X118.471 Y-8.799
X118.277 Y-8.944
X118.05 Y-9.026
X117.809 Y-9.04
X116.864 Y-8.957
G2 X116.601 Y-8.668 I0.037 J0.298
G1 X116.59 Y-8.308
X116.353 Y-0.623 F1200
X116.343 Y-0.29 F100
G2 X116.615 Y0.018 I0.3 J0.009
G1 X117.707 Y0.082
X117.894 Y0.083
X118.592 Y-0.192
G2 X119.909 Y-2.835 I-3.475 J-3.381
X119.608 Y-8.672 I-10.646 J-2.377
G1 X119.434 Y-8.866
X119.237 Y-9.02
X119.004 Y-9.108
X118.755 Y-9.124
X117.809 Y-9.04
G2 X117.545 Y-8.746 I0.037 J0.298
G1 X117.541 Y-8.391
X117.439 Y-0.559 F1200
X117.435 Y-0.221 F100
G2 X117.707 Y0.082 I0.3 J0.004
G1 X118.627 Y0.135
X118.815 Y0.136
X119.519 Y-0.123
G2 X120.854 Y-2.756 I-3.432 J-3.394
X120.568 Y-8.732 I-10.8 J-2.479
G1 X120.43 Y-8.897
X120.283 Y-9.04
X120.106 Y-9.143
X119.91 Y-9.2
X119.705 Y-9.208
X118.755 Y-9.124
G2 X118.492 Y-8.831 I0.037 J0.298
G1 X118.486 Y-8.475
X118.36 Y-0.506 F1200
X118.355 Y-0.169 F100
G2 X118.627 Y0.135 I0.3 J0.005
G1 X119.51 Y0.181
X119.885 Y0.18
X120.553 Y-0.16
G2 X121.965 Y-3.58 I-4.886 J-4.018
X121.484 Y-8.809 I-9.747 J-1.74
G1 X121.376 Y-8.983
X121.23 Y-9.125
X121.053 Y-9.228
X120.857 Y-9.284
X120.653 Y-9.291
X119.705 Y-9.208
G2 X119.442 Y-8.917 I0.037 J0.298
G1 X119.433 Y-8.559
X119.242 Y-0.457 F1200
X119.235 Y-0.125 F100
G2 X119.51 Y0.181 I0.3 J0.007
G1 X120.437 Y0.223
X120.812 Y0.219
X121.489 Y-0.104
G2 X122.922 Y-3.542 I-4.822 J-4.029
X122.448 Y-8.874 I-10.018 J-1.795
G1 X122.342 Y-9.054
X122.196 Y-9.202
X122.017 Y-9.309
X121.817 Y-9.368
X121.609 Y-9.376
X120.653 Y-9.291
G2 X120.39 Y-9.001 I0.037 J0.298
G1 X120.381 Y-8.643
X120.169 Y-0.414 F1200
X120.161 Y-0.084 F100
G2 X120.437 Y0.223 I0.3 J0.008
G1 X121.529 Y0.262
X121.716 Y0.258
X122.407 Y-0.034
G2 X123.727 Y-2.679 I-3.635 J-3.467
X123.401 Y-9.005 I-10.675 J-2.62
G1 X123.235 Y-9.202
X123.039 Y-9.355
