(1001)
(Machine)
(  vendor: Autodesk)
(  description: Generic 3-axis)
(T1  D=3 CR=0 - ZMIN=-28 - flat end mill)
G90 G94
G17
G21
G28 G91 Z0
G90

(Adaptive2)
T1
S18000 M3
G54
G0 X-261.037 Y28.273
Z2
Z-1.39
G1 Z-1.69 F650
X-261.031 Y28.269 Z-1.757
X-261.012 Y28.257 Z-1.82
X-260.982 Y28.237 Z-1.877
X-260.942 Y28.212 Z-1.925
X-260.894 Y28.181 Z-1.96
X-260.841 Y28.147 Z-1.982
X-260.785 Y28.111 Z-1.99
G2 X-259.499 Y27.076 I-4.134 J-6.448
G1 X-259.392 Y26.96
X-259.31 Y26.891
X-259.2 Y26.789
X-259.115 Y26.666
X-259.042 Y26.535
X-258.966 Y26.372
X-258.885 Y26.163
X-258.8 Y25.888
X-258.635 Y25.185
X-258.439 Y24.882
X-257.915 Y24.385
X-257.255 Y24.093
X-256.551 Y23.934
X-255.833 Y23.852
X-255.113 Y23.81
X-254.391 Y23.789
X-253.669 Y23.779
X-252.947 Y23.774
X-252.225 Y23.771
X-250.781 Y23.769
X-210.349 Y23.751
X-159.81 Y23.73
X-109.27 Y23.708
X-82.556 Y23.697
X-81.834 Y23.683
X-81.474 Y23.657
X-80.917 Y23.587
X-80.634 Y23.532
X-80.325 Y23.448
X-79.93 Y23.312
X-79.65 Y23.192
X-79.302 Y23.015
X-79.066 Y22.873
X-78.876 Y22.74
X-78.642 Y22.552
X-78.343 Y22.274
X-77.924 Y21.826
X-77.468 Y21.267
X-77.043 Y20.683
X-76.634 Y20.088
X-76.213 Y19.501
X-75.78 Y18.924
X-75.34 Y18.351
X-74.85 Y17.821
X-74.334 Y17.316
X-73.805 Y16.825
X-73.248 Y16.365
X-72.659 Y15.948
X-72.048 Y15.562
X-71.413 Y15.22
X-70.752 Y14.93
X-70.078 Y14.671
X-69.385 Y14.467
X-68.678 Y14.323
X-67.964 Y14.21
X-67.248 Y14.117
X-66.528 Y14.07
X-65.806 Y14.046
X-65.084 Y14.034
X-64.363 Y14.028
X-63.641 Y14.025
X-62.197 Y14.022
X-44.147 Y14.012
X-35.844 Y14.007
X-35.516 Y13.99
X-35.312 Y13.965
X-35.147 Y13.932
X-35 Y13.893
X-34.858 Y13.844
X-34.721 Y13.784
X-34.589 Y13.712
X-34.466 Y13.626
X-34.354 Y13.527
X-34.253 Y13.416
X-34.163 Y13.296
X-34.084 Y13.169
X-34.01 Y13.025
X-33.931 Y12.841
X-33.848 Y12.603
X-33.761 Y12.283
X-33.67 Y11.828
X-33.578 Y11.112
X-33.535 Y10.391
X-33.514 Y9.669
X-33.505 Y8.947
X-33.5 Y8.225
X-33.498 Y7.503
X-33.497 Y6.059
X-33.504 Y-8.381
X-33.506 Y-11.63
X-33.521 Y-11.967
X-33.544 Y-12.17
X-33.574 Y-12.332
X-33.617 Y-12.499
X-33.664 Y-12.642
X-33.722 Y-12.78
X-33.793 Y-12.912
X-33.876 Y-13.037
X-33.972 Y-13.152
X-34.081 Y-13.256
X-34.199 Y-13.348
X-34.327 Y-13.427
X-34.471 Y-13.501
X-34.654 Y-13.58
X-34.892 Y-13.663
X-35.212 Y-13.751
X-35.667 Y-13.842
X-36.383 Y-13.935
X-37.103 Y-13.979
X-37.825 Y-14.001
X-38.547 Y-14.012
X-39.269 Y-14.017
X-39.991 Y-14.02
X-41.435 Y-14.023
X-65.983 Y-14.043
X-66.704 Y-14.065
X-67.424 Y-14.116
X-68.141 Y-14.201
X-68.847 Y-14.354
X-69.544 Y-14.542
X-70.236 Y-14.748
X-70.908 Y-15.011
X-71.56 Y-15.322
X-72.2 Y-15.657
X-72.803 Y-16.054
X-73.377 Y-16.492
X-73.935 Y-16.95
X-74.471 Y-17.433
X-74.965 Y-17.96
X-75.434 Y-18.509
X-75.883 Y-19.074
X-76.306 Y-19.659
X-76.717 Y-20.253
X-77.323 Y-21.151
X-77.599 Y-21.542
X-77.869 Y-21.873
X-78.086 Y-22.104
X-78.377 Y-22.373
X-78.728 Y-22.656
X-78.931 Y-22.798
X-79.189 Y-22.952
X-79.47 Y-23.096
X-79.747 Y-23.213
X-80.125 Y-23.344
X-80.462 Y-23.434
X-80.928 Y-23.525
X-81.645 Y-23.615
X-82.365 Y-23.657
X-83.087 Y-23.678
X-83.809 Y-23.688
X-84.531 Y-23.693
X-85.253 Y-23.696
X-87.419 Y-23.698
X-125.685 Y-23.711
X-176.224 Y-23.727
X-226.764 Y-23.743
X-256.727 Y-23.753
X-257.077 Y-23.839
X-257.379 Y-24.038
X-257.873 Y-24.564
X-258.162 Y-25.226
X-258.32 Y-25.93
X-258.368 Y-26.126
X-258.465 Y-26.302
X-258.604 Y-26.448
X-258.776 Y-26.554
G2 X-259.089 Y-26.5 Z-1.279 I-0.113 J0.278
G1 X-259.134 Y-26.449 Z-1.135 F1200
X-259.167 Y-26.389 Z-0.99
X-259.183 Y-26.335
X-259.189 Y-26.279
X-259.794 Y26.652
X-259.788 Y26.719
X-259.766 Y26.782
X-259.731 Y26.84
X-259.683 Y26.888 Z-1.135
X-259.626 Y26.925 Z-1.279
G2 X-259.31 Y26.891 Z-1.99 I0.131 J-0.27 F650
G1 X-259.232 Y26.826
X-259.193 Y26.796
X-259.068 Y26.702
X-258.904 Y26.611
X-258.854 Y26.589
X-258.721 Y26.521
X-258.602 Y26.429
X-258.082 Y25.928
X-257.5 Y25.501
X-256.841 Y25.207
X-256.143 Y25.021
X-255.43 Y24.91
X-254.711 Y24.847
X-253.989 Y24.811
X-253.268 Y24.791
X-252.546 Y24.781
X-251.824 Y24.775
X-251.102 Y24.771
X-249.658 Y24.768
X-242.438 Y24.764
X-209.226 Y24.75
X-158.687 Y24.729
X-108.147 Y24.708
X-83.599 Y24.697
X-82.877 Y24.694
X-82.155 Y24.676
X-81.51 Y24.63
X-80.976 Y24.553
X-80.482 Y24.447
X-80.035 Y24.319
X-79.631 Y24.171
X-79.271 Y24.011
X-78.931 Y23.831
X-78.585 Y23.615
X-78.2 Y23.336
X-77.827 Y23.025
X-77.384 Y22.599
X-76.899 Y22.064
X-76.449 Y21.499
X-76.017 Y20.921
X-75.587 Y20.34
X-75.154 Y19.763
X-74.7 Y19.201
X-74.217 Y18.665
X-73.712 Y18.149
X-73.182 Y17.659
X-72.62 Y17.205
X-72.031 Y16.788
X-71.413 Y16.415
X-70.769 Y16.087
X-70.104 Y15.806
X-69.419 Y15.58
X-68.718 Y15.405
X-68.009 Y15.268
X-67.294 Y15.171
X-66.574 Y15.109
X-65.853 Y15.072
X-65.132 Y15.05
X-64.41 Y15.037
X-63.688 Y15.03
X-62.966 Y15.026
X-61.522 Y15.022
X-57.19 Y15.019
X-36.974 Y15.008
X-36.252 Y15.001
X-35.833 Y14.969
X-35.506 Y14.921
X-35.237 Y14.863
X-35.002 Y14.794
X-34.796 Y14.719
X-34.614 Y14.637
X-34.442 Y14.545
X-34.281 Y14.444
X-34.129 Y14.333
X-33.984 Y14.211
X-33.841 Y14.073
X-33.703 Y13.921
X-33.569 Y13.749
X-33.431 Y13.544
X-33.301 Y13.32
X-33.167 Y13.048
X-33.038 Y12.73
X-32.906 Y12.329
X-32.786 Y11.856
X-32.672 Y11.224
X-32.592 Y10.506
X-32.548 Y9.785
X-32.524 Y9.064
X-32.511 Y8.342
X-32.504 Y7.62
X-32.501 Y6.898
X-32.498 Y5.454
X-32.499 Y1.122
X-32.504 Y-8.264
X-32.506 Y-10.43
X-32.51 Y-11.152
X-32.537 Y-11.6
X-32.583 Y-11.952
X-32.64 Y-12.23
X-32.707 Y-12.474
X-32.782 Y-12.687
X-32.863 Y-12.876
X-32.953 Y-13.049
X-33.05 Y-13.21
X-33.157 Y-13.361
X-33.275 Y-13.506
X-33.408 Y-13.648
X-33.554 Y-13.783
X-33.722 Y-13.918
X-33.922 Y-14.057
X-34.135 Y-14.185
X-34.403 Y-14.322
X-34.701 Y-14.448
X-35.097 Y-14.585
X-35.535 Y-14.703
X-36.133 Y-14.82
X-36.849 Y-14.909
X-37.569 Y-14.96
X-38.291 Y-14.988
X-39.013 Y-15.004
X-39.734 Y-15.013
X-40.456 Y-15.018
X-41.178 Y-15.021
X-42.622 Y-15.024
X-54.174 Y-15.034
X-65.004 Y-15.042
X-65.726 Y-15.05
X-66.448 Y-15.075
X-67.168 Y-15.126
X-67.883 Y-15.224
X-68.591 Y-15.368
X-69.29 Y-15.547
X-69.976 Y-15.774
X-70.644 Y-16.047
X-71.292 Y-16.366
X-71.912 Y-16.735
X-72.506 Y-17.146
X-73.075 Y-17.59
X-73.613 Y-18.072
X-74.12 Y-18.586
X-74.599 Y-19.126
X-75.05 Y-19.69
X-75.482 Y-20.269
X-75.899 Y-20.858
X-76.313 Y-21.449
X-76.709 Y-21.979
X-77.089 Y-22.421
X-77.458 Y-22.793
X-77.792 Y-23.087
X-78.13 Y-23.345
X-78.471 Y-23.57
X-78.84 Y-23.778
X-79.218 Y-23.958
X-79.639 Y-24.123
X-80.125 Y-24.277
X-80.676 Y-24.41
X-81.388 Y-24.53
X-82.107 Y-24.602
X-82.827 Y-24.644
X-83.549 Y-24.668
X-84.271 Y-24.682
X-84.993 Y-24.689
X-85.715 Y-24.693
X-87.159 Y-24.697
X-90.769 Y-24.7
X-124.703 Y-24.71
X-175.242 Y-24.727
X-225.782 Y-24.743
X-255.384 Y-24.753
X-255.737 Y-24.828
X-256.06 Y-24.99
X-256.625 Y-25.438
X-257.081 Y-26.052
X-257.212 Y-26.194
X-257.373 Y-26.301
X-257.553 Y-26.368
X-257.745 Y-26.392
X-257.97 Y-26.394
G2 X-258.235 Y-26.22 Z-1.279 I0.008 J0.3
G1 X-258.254 Y-26.161 Z-1.149 F1200
X-258.262 Y-26.1 Z-1.018
Y-26.087 Z-0.99
X-259.268 Y26.306
X-259.263 Y26.366
X-259.245 Y26.425
X-259.213 Y26.484 Z-1.135
X-259.167 Y26.535 Z-1.279
G2 X-258.854 Y26.589 Z-1.99 I0.2 J-0.224 F650
G1 X-258.74 Y26.538
X-258.576 Y26.477
X-258.547 Y26.468
X-258.412 Y26.44
X-258.248 Y26.414
X-258.084 Y26.395
X-258.034
X-257.885 Y26.386
X-257.172 Y26.272
X-256.465 Y26.122
X-255.754 Y26.001
X-255.037 Y25.914
X-254.317 Y25.857
X-253.596 Y25.821
X-252.874 Y25.799
X-252.153 Y25.786
X-251.431 Y25.778
X-250.709 Y25.773
X-249.987 Y25.771
X-248.543 Y25.768
X-241.323 Y25.764
X-207.389 Y25.75
X-156.849 Y25.728
X-106.31 Y25.707
X-84.65 Y25.698
X-83.928 Y25.697
X-83.206 Y25.691
X-82.484 Y25.672
X-81.764 Y25.624
X-81.08 Y25.537
X-80.501 Y25.423
X-79.981 Y25.282
X-79.498 Y25.114
X-79.039 Y24.918
X-78.584 Y24.685
X-78.136 Y24.416
X-77.668 Y24.087
X-77.196 Y23.705
X-76.701 Y23.244
X-76.208 Y22.717
X-75.744 Y22.163
X-75.298 Y21.596
X-74.858 Y21.023
X-74.413 Y20.455
X-73.95 Y19.901
X-73.464 Y19.366
X-72.953 Y18.856
X-72.412 Y18.378
X-71.841 Y17.937
X-71.238 Y17.539
X-70.607 Y17.188
X-69.95 Y16.89
X-69.27 Y16.647
X-68.574 Y16.454
X-67.867 Y16.308
X-67.152 Y16.206
X-66.434 Y16.136
X-65.713 Y16.092
X-64.992 Y16.063
X-64.27 Y16.046
X-63.548 Y16.036
X-62.826 Y16.03
X-62.104 Y16.026
X-60.66 Y16.022
X-59.216 Y16.02
X-37.556 Y16.008
X-36.834 Y16.002
X-36.223 Y15.967
X-35.756 Y15.908
X-35.376 Y15.833
X-35.042 Y15.742
X-34.737 Y15.637
X-34.461 Y15.519
X-34.205 Y15.388
X-33.965 Y15.243
X-33.736 Y15.083
X-33.515 Y14.904
X-33.303 Y14.707
X-33.101 Y14.491
X-32.908 Y14.253
X-32.718 Y13.984
X-32.529 Y13.672
X-32.347 Y13.317
X-32.184 Y12.939
X-32.047 Y12.545
X-32.021 Y12.455
X-32.005 Y12.363
X-32 Y12.27
Y-12.21
X-32.009 Y-12.38
X-32.03 Y-12.562
X-32.066 Y-12.746
X-32.115 Y-12.933
X-32.179 Y-13.122
X-32.259 Y-13.314
X-32.356 Y-13.506
X-32.47 Y-13.699
X-32.603 Y-13.891
X-32.751 Y-14.077
X-32.921 Y-14.262
X-33.117 Y-14.448
X-33.343 Y-14.634
X-33.59 Y-14.811
X-33.876 Y-14.986
X-34.211 Y-15.162
X-34.591 Y-15.328
X-35.025 Y-15.482
X-35.574 Y-15.637
X-36.242 Y-15.775
X-36.957 Y-15.872
X-37.677 Y-15.933
X-38.398 Y-15.97
X-39.119 Y-15.992
X-39.841 Y-16.005
X-40.563 Y-16.013
X-41.285 Y-16.018
X-42.007 Y-16.021
X-43.451 Y-16.024
X-50.671 Y-16.031
X-64.389 Y-16.042
X-65.111 Y-16.048
X-65.833 Y-16.066
X-66.553 Y-16.108
X-67.271 Y-16.187
X-67.983 Y-16.306
X-68.686 Y-16.47
X-69.377 Y-16.681
X-70.051 Y-16.94
X-70.701 Y-17.253
X-71.325 Y-17.617
X-71.921 Y-18.025
X-72.485 Y-18.475
X-73.018 Y-18.963
X-73.519 Y-19.482
X-73.991 Y-20.028
X-74.44 Y-20.594
X-74.872 Y-21.172
X-75.299 Y-21.754
X-75.739 Y-22.327
X-76.206 Y-22.877
X-76.622 Y-23.305
X-77.032 Y-23.673
X-77.451 Y-23.999
X-77.878 Y-24.287
X-78.325 Y-24.544
X-78.805 Y-24.778
X-79.329 Y-24.99
X-79.927 Y-25.185
X-80.561 Y-25.344
X-81.272 Y-25.471
X-81.989 Y-25.556
X-82.709 Y-25.611
X-83.43 Y-25.646
X-84.151 Y-25.667
X-84.873 Y-25.68
X-85.595 Y-25.688
X-86.317 Y-25.692
X-87.039 Y-25.695
X-88.483 Y-25.698
X-94.981 Y-25.701
X-127.471 Y-25.711
X-178.011 Y-25.728
X-228.55 Y-25.744
X-253.82 Y-25.752
X-254.542 Y-25.753
X-255.22 Y-26.001
X-255.582 Y-26.247
X-255.727 Y-26.326
X-255.886 Y-26.374
X-256.05 Y-26.391
X-257.592
X-257.745 Y-26.392
G2 X-258.01 Y-26.217 Z-1.279 I0.008 J0.3
G1 X-258.03 Y-26.157 Z-1.145 F1200
X-258.037 Y-26.094 Z-1.01
Y-26.085 Z-0.99
X-258.327 Y26.088
Y26.093 Z-1.002
X-258.32 Y26.158 Z-1.141
X-258.299 Y26.22 Z-1.279
G2 X-258.034 Y26.395 Z-1.99 I0.273 J-0.125 F650
G1 X-257.592 Y26.391
X-187.719 Y26.39
X-81.762 Y26.383
X-81.27 Y26.367
X-80.553 Y26.282
X-80.16 Y26.22
X-79.728 Y26.121
X-79.268 Y25.981
X-78.792 Y25.8
X-78.628 Y25.724
X-78.6 Y25.709
G2 X-78.451 Y25.429 Z-1.279 I-0.151 J-0.259
G1 X-78.464 Y25.362 Z-1.135 F1200
X-78.491 Y25.3 Z-0.99
G2 X-78.822 Y25.159 I-0.26 J0.15
G1 X-81.341 Y25.776
G2 X-81.569 Y26.067 I0.071 J0.291
G1 X-81.562 Y26.135 Z-1.135
X-81.539 Y26.199 Z-1.279
G2 X-81.27 Y26.367 Z-1.99 I0.27 J-0.131 F650
G1 X-81.106 Y26.356
X-80.286 Y26.275
X-80.122 Y26.258
X-79.958 Y26.212
X-79.138 Y25.963
X-78.974 Y25.909
X-77.99 Y25.383
X-77.945 Y25.357
X-77.901 Y25.321
X-77.103 Y24.666
X-77.054 Y24.625
X-77.006 Y24.571
X-76.678 Y24.168
X-76.286 Y23.682
X-76.185 Y23.547
X-75.621 Y22.699
X-75.186 Y22.043
X-75.037 Y21.824
X-74.962 Y21.716
X-74.69 Y21.388
X-74.217 Y20.824
X-73.889 Y20.431
X-73.865 Y20.404
X-73.725 Y20.277
X-73.397 Y19.991
X-73.233 Y19.855
X-72.577 Y19.316
X-72.413 Y19.187
X-72.288 Y19.093
X-71.921 Y18.885
X-71.757 Y18.793
X-70.773 Y18.267
X-70.609 Y18.189
X-70.445 Y18.119
X-70.281 Y18.067
X-69.953 Y17.967
X-69.133 Y17.718
X-68.641 Y17.586
X-68.613 Y17.582
X-67.907 Y17.43
X-67.199 Y17.288
X-66.484 Y17.192
X-65.765 Y17.129
X-65.044 Y17.088
X-64.322 Y17.062
X-63.601 Y17.046
X-62.879 Y17.036
X-62.157 Y17.03
X-61.435 Y17.026
X-59.991 Y17.022
X-56.381 Y17.018
X-38.331 Y17.008
X-37.609 Y17.005
X-36.887 Y16.986
X-36.241 Y16.935
X-35.692 Y16.854
X-35.238 Y16.754
X-34.827 Y16.633
X-34.447 Y16.492
X-34.094 Y16.333
X-33.762 Y16.154
X-33.451 Y15.958
X-33.156 Y15.742
X-32.876 Y15.505
X-32.609 Y15.246
X-32.351 Y14.958
X-32.176 Y14.733
X-32.08 Y14.576
X-32.02 Y14.403
X-32 Y14.221
Y12.27
Y11.935 Z-1.279
Y11.799 Z-0.99
Y-11.739
Y-11.875 Z-1.279
Y-12.21 Z-1.99
Y-13.521
X-32.007 Y-13.671
X-32.026 Y-13.82
X-32.059 Y-13.966
X-32.104 Y-14.109
X-32.16 Y-14.248
X-32.234 Y-14.401
X-32.325 Y-14.561
X-32.435 Y-14.725
X-32.574 Y-14.905
X-32.729 Y-15.079
X-32.921 Y-15.266
X-33.147 Y-15.459
X-33.397 Y-15.644
X-33.702 Y-15.837
X-34.058 Y-16.03
X-34.45 Y-16.209
X-34.946 Y-16.395
X-35.524 Y-16.567
X-36.203 Y-16.719
X-36.917 Y-16.827
X-37.636 Y-16.899
X-38.356 Y-16.946
X-39.078 Y-16.976
X-39.799 Y-16.995
X-40.521 Y-17.006
X-41.243 Y-17.014
X-41.965 Y-17.018
X-43.409 Y-17.023
X-46.297 Y-17.027
X-63.625 Y-17.041
X-64.347 Y-17.044
X-65.069 Y-17.055
X-65.79 Y-17.081
X-66.51 Y-17.137
X-67.226 Y-17.23
X-67.935 Y-17.366
X-68.633 Y-17.55
X-69.045 Y-17.693
X-69.083 Y-17.704
X-69.133 Y-17.718
X-70.117 Y-18.016
X-70.416 Y-18.11
X-70.445 Y-18.119
X-70.609 Y-18.189
X-70.773 Y-18.267
X-71.757 Y-18.793
X-72.085 Y-18.978
X-72.288 Y-19.093
X-72.413 Y-19.187
X-72.577 Y-19.316
X-73.303 Y-19.913
X-73.397 Y-19.991
X-73.725 Y-20.277
X-73.865 Y-20.404
X-73.889 Y-20.431
X-74.415 Y-21.06
X-74.709 Y-21.41
X-74.962 Y-21.716
X-75.075 Y-21.88
X-75.201 Y-22.067
X-76.021 Y-23.301
X-76.185 Y-23.547
X-76.286 Y-23.682
X-76.682 Y-24.174
X-76.815 Y-24.338
X-77.01 Y-24.555
X-77.206 Y-24.744
X-77.457 Y-24.956
X-77.751 Y-25.17
X-78.092 Y-25.385
X-78.52 Y-25.614
X-78.996 Y-25.829
X-79.523 Y-26.024
X-80.167 Y-26.212
X-80.553 Y-26.296
X-80.585 Y-26.302
X-80.617 Y-26.307
X-80.649 Y-26.311
G2 X-80.929 Y-26.161 Z-1.279 I-0.019 J0.299
G1 X-80.956 Y-26.098 Z-1.135 F1200
X-80.968 Y-26.031 Z-0.99
G2 X-80.805 Y-25.745 I0.299 J0.019
G1 X-77.191 Y-23.89
G2 X-76.873 Y-23.918 I0.137 J-0.267
G1 X-76.824 Y-23.965 Z-1.135
X-76.787 Y-24.022 Z-1.279
G2 X-76.815 Y-24.338 Z-1.99 I-0.268 J-0.135 F650
G1 X-77.006 Y-24.571
X-77.054 Y-24.625
X-77.17 Y-24.72
X-77.901 Y-25.321
X-77.945 Y-25.357
X-77.99 Y-25.383
X-78.974 Y-25.909
X-79.138 Y-25.963
X-79.958 Y-26.212
X-80.122 Y-26.258
X-80.45 Y-26.292
X-81.106 Y-26.356
X-81.27 Y-26.367
X-81.762 Y-26.383
X-204.613 Y-26.391
X-256.05
G0 Z2
X-69.672 Y17.375
Z-1.39
G1 Z-1.69 F650
X-69.665 Y17.378 Z-1.757
X-69.644 Y17.386 Z-1.82
X-69.611 Y17.399 Z-1.877
X-69.567 Y17.416 Z-1.925
X-69.514 Y17.437 Z-1.96
X-69.455 Y17.46 Z-1.982
X-69.393 Y17.485 Z-1.99
G2 X-68.613 Y17.582 I0.579 J-1.473
G1 X-68.477 Y17.56
X-67.492 Y17.437
X-67 Y17.376
X-66.508 Y17.358
X-66.344 Y17.356
X-35.18
X-34.877 Y17.341
X-34.656 Y17.315
X-34.404 Y17.267
X-34.13 Y17.194
X-33.855 Y17.101
X-33.559 Y16.977
X-33.252 Y16.823
X-32.938 Y16.637
X-32.626 Y16.421
X-32.329 Y16.184
X-32.27 Y16.13
X-32.124 Y15.953
X-32.032 Y15.743
X-32 Y15.516
G2 X-32.177 Y15.253 Z-1.279 I-0.3 J0.01
G1 X-32.242 Y15.232 Z-1.135 F1200
X-32.31 Y15.227 Z-0.99
X-32.378 Y15.237
X-32.441 Y15.262
X-35.311 Y16.792
G2 X-35.47 Y17.046 I0.141 J0.265
G1 X-35.464 Y17.114 Z-1.135
X-35.444 Y17.179 Z-1.279
G2 X-35.18 Y17.356 Z-1.99 I0.274 J-0.122 F650
G1 X-33.376
X-33.226 Y17.349
X-33.078 Y17.328
X-32.912 Y17.291
X-32.737 Y17.24
X-32.586 Y17.184
X-32.491 Y17.141
X-32.29 Y17.013
X-32.133 Y16.834
X-32.034 Y16.617
X-32 Y16.381
G2 X-32.177 Y16.118 Z-1.279 I-0.3 J0.01
G1 X-32.242 Y16.098 Z-1.135 F1200
X-32.31 Y16.092 Z-0.99
X-32.362 Y16.098
X-32.412 Y16.114
X-32.459 Y16.137
X-33.524 Y16.802
G2 X-33.666 Y17.046 I0.159 J0.255
G1 X-33.66 Y17.114 Z-1.135
X-33.64 Y17.179 Z-1.279
G2 X-33.376 Y17.356 Z-1.99 I0.274 J-0.122 F650
G1 X-32.425
X-32.392
X-32.347
X-32.269 Y17.346
X-32.195 Y17.324
X-32.126 Y17.291
G2 X-32.014 Y16.99 Z-1.279 I-0.224 J-0.255
G1 X-32.025 Y16.939 Z-1.169 F1200
X-32.039 Y16.899 Z-1.079
X-32.059 Y16.862 Z-0.99
G2 X-32.66 Y17.06 I-0.277 J0.169
G1 X-32.658 Y17.078 Z-1.028
X-32.644 Y17.135 Z-1.154
X-32.62 Y17.19 Z-1.279
G2 X-32.347 Y17.356 Z-1.99 I0.284 J-0.158 F650
G1 X-32.31
X-32.269 Y17.352
X-32.228 Y17.342
X-32.203 Y17.333
X-32.177 Y17.32
X-32.126 Y17.291
X-32.095 Y17.265
X-32.064 Y17.231
X-32.046 Y17.205
X-32.031 Y17.179
X-32.02 Y17.153
X-32.011 Y17.127
X-32.003 Y17.086
X-32 Y17.045
Y14.221
G0 Z2
X-32.375 Y-12.51
Z-1.39
G1 Z-1.69 F650
X-32.371 Y-12.516 Z-1.757
X-32.359 Y-12.535 Z-1.82
X-32.341 Y-12.566 Z-1.877
X-32.317 Y-12.607 Z-1.925
X-32.288 Y-12.656 Z-1.96
X-32.255 Y-12.71 Z-1.982
X-32.221 Y-12.767 Z-1.99
G2 X-32 Y-13.521 I-1.36 J-0.809
G1 Y-14.595
X-32.007 Y-14.744
X-32.033 Y-14.892
X-32.072 Y-15.037
X-32.125 Y-15.177
X-32.188 Y-15.314
X-32.27 Y-15.463
X-32.369 Y-15.617
X-32.493 Y-15.784
X-32.642 Y-15.957
X-32.82 Y-16.137
X-33.04 Y-16.331
X-33.279 Y-16.514
X-33.586 Y-16.717
X-33.935 Y-16.914
X-34.34 Y-17.108
X-34.847 Y-17.308
X-34.876 Y-17.317
X-34.959 Y-17.339
X-35.043 Y-17.352
X-35.128 Y-17.356
G2 X-35.392 Y-17.179 Z-1.279 I0.01 J0.3
G1 X-35.412 Y-17.114 Z-1.135 F1200
X-35.418 Y-17.046 Z-0.99
X-35.409 Y-16.985
X-35.389 Y-16.928
X-35.357 Y-16.875
X-35.315 Y-16.83
X-32.497 Y-14.379
X-32.441 Y-14.34
X-32.377 Y-14.315
X-32.31 Y-14.305
X-32.242 Y-14.311 Z-1.135
X-32.177 Y-14.331 Z-1.279
G2 X-32 Y-14.595 Z-1.99 I-0.122 J-0.274 F650
G1 Y-15.578
X-32.007 Y-15.728
X-32.034 Y-15.875
X-32.077 Y-16.019
X-32.131 Y-16.159
X-32.198 Y-16.298
X-32.28 Y-16.441
X-32.387 Y-16.602
X-32.511 Y-16.763
X-32.669 Y-16.941
X-32.854 Y-17.121
X-32.896 Y-17.157
X-33.058 Y-17.266
X-33.242 Y-17.333
X-33.436 Y-17.356
G2 X-33.7 Y-17.179 Z-1.279 I0.01 J0.3
G1 X-33.72 Y-17.114 Z-1.135 F1200
X-33.726 Y-17.046 Z-0.99
X-33.717 Y-16.985
X-33.696 Y-16.927
X-33.664 Y-16.874
X-32.538 Y-15.406
G2 X-32.31 Y-15.289 I0.238 J-0.183
G1 X-32.242 Y-15.294 Z-1.135
X-32.177 Y-15.314 Z-1.279
G2 X-32 Y-15.578 Z-1.99 I-0.122 J-0.274 F650
G1 Y-16.471
X-32.007 Y-16.621
X-32.009 Y-16.632
X-32.074 Y-16.862
X-32.202 Y-17.064
X-32.381 Y-17.222
X-32.599 Y-17.322
X-32.835 Y-17.356
G2 X-33.099 Y-17.179 Z-1.279 I0.01 J0.3
G1 X-33.119 Y-17.114 Z-1.135 F1200
X-33.125 Y-17.046 Z-0.99
X-33.118 Y-16.994
X-33.102 Y-16.943
X-33.078 Y-16.896
X-33.046 Y-16.854
X-32.521 Y-16.279
X-32.477 Y-16.239
X-32.426 Y-16.209
X-32.369 Y-16.19
X-32.31 Y-16.182
X-32.242 Y-16.187 Z-1.135
X-32.177 Y-16.208 Z-1.279
G2 X-32 Y-16.471 Z-1.99 I-0.122 J-0.274 F650
G1 Y-17.045
X-32.003 Y-17.086
X-32.011 Y-17.127
X-32.02 Y-17.153
X-32.031 Y-17.179
X-32.046 Y-17.205
X-32.064 Y-17.231
X-32.095 Y-17.265
X-32.126 Y-17.291
X-32.177 Y-17.32
X-32.203 Y-17.333
X-32.228 Y-17.342
X-32.269 Y-17.352
X-32.31 Y-17.356
X-66.344
X-66.508 Y-17.358
X-67 Y-17.376
X-68.312 Y-17.539
X-68.477 Y-17.56
X-68.641 Y-17.586
X-69.083 Y-17.704
G2 X-69.446 Y-17.466 I-0.068 J0.292
G1 X-69.451 Y-17.412 Z-1.985
X-69.437 Y-17.358 Z-1.969
X-69.424 Y-17.309 Z-1.942
X-69.413 Y-17.265 Z-1.906
X-69.389 Y-17.234 Z-1.86
X-69.371 Y-17.212 Z-1.808
X-69.36 Y-17.198 Z-1.75
X-69.356 Y-17.193 Z-1.69
G0 Z2
X-261.034 Y28.046
Z-3.38
G1 Z-3.68 F650
X-261.028 Y28.042 Z-3.747
X-261.009 Y28.03 Z-3.81
X-260.979 Y28.011 Z-3.867
X-260.939 Y27.985 Z-3.915
X-260.891 Y27.955 Z-3.95
X-260.837 Y27.921 Z-3.972
X-260.781 Y27.885 Z-3.98
G2 X-259.49 Y26.857 I-4.1 J-6.469
G1 X-259.433 Y26.796
X-259.396 Y26.759
X-259.321 Y26.689
X-259.216 Y26.582
X-259.129 Y26.46
X-259.054 Y26.33
X-258.979 Y26.174
X-258.899 Y25.973
X-258.815 Y25.711
X-258.728 Y25.36
X-258.582 Y25.031
X-258.349 Y24.754
X-257.783 Y24.307
X-257.108 Y24.05
X-256.399 Y23.912
X-255.681 Y23.84
X-254.96 Y23.805
X-254.238 Y23.787
X-253.516 Y23.778
X-252.794 Y23.773
X-252.072 Y23.771
X-249.906 Y23.768
X-210.197 Y23.751
X-159.657 Y23.73
X-109.117 Y23.708
X-82.403 Y23.697
X-81.682 Y23.674
X-81.322 Y23.64
X-80.814 Y23.567
X-80.558 Y23.512
X-80.225 Y23.415
X-79.85 Y23.278
X-79.567 Y23.151
X-79.224 Y22.969
X-79.018 Y22.841
X-78.819 Y22.696
X-78.571 Y22.489
X-78.249 Y22.178
X-77.787 Y21.667
X-77.341 Y21.099
X-76.922 Y20.511
X-76.516 Y19.914
X-76.09 Y19.332
X-75.653 Y18.757
X-75.199 Y18.195
X-74.701 Y17.673
X-74.18 Y17.173
X-73.649 Y16.684
X-73.08 Y16.24
X-72.484 Y15.832
X-71.865 Y15.461
X-71.222 Y15.132
X-70.556 Y14.852
X-69.88 Y14.599
X-69.181 Y14.418
X-68.471 Y14.286
X-67.757 Y14.18
X-67.039 Y14.102
X-66.319 Y14.062
X-65.597 Y14.042
X-64.875 Y14.032
X-64.153 Y14.027
X-63.431 Y14.024
X-62.709 Y14.023
X-58.377 Y14.019
X-35.995 Y14.007
X-35.634 Y13.999
X-35.396 Y13.978
X-35.234 Y13.952
X-35.061 Y13.912
X-34.917 Y13.868
X-34.778 Y13.813
X-34.644 Y13.745
X-34.517 Y13.666
X-34.399 Y13.573
X-34.294 Y13.466
X-34.199 Y13.35
X-34.115 Y13.226
X-34.043 Y13.094
X-33.966 Y12.929
X-33.885 Y12.717
X-33.799 Y12.437
X-33.71 Y12.051
X-33.617 Y11.468
X-33.554 Y10.749
X-33.523 Y10.028
X-33.509 Y9.306
X-33.502 Y8.584
X-33.499 Y7.862
X-33.497 Y6.418
X-33.501 Y-1.524
X-33.504 Y-8.022
X-33.506 Y-11.632
X-33.514 Y-11.812
X-33.531 Y-12.055
X-33.554 Y-12.223
X-33.59 Y-12.396
X-33.631 Y-12.543
X-33.682 Y-12.684
X-33.744 Y-12.821
X-33.818 Y-12.951
X-33.905 Y-13.074
X-34.006 Y-13.185
X-34.117 Y-13.285
X-34.239 Y-13.373
X-34.368 Y-13.449
X-34.523 Y-13.524
X-34.721 Y-13.605
X-34.98 Y-13.689
X-35.333 Y-13.778
X-35.849 Y-13.871
X-36.566 Y-13.949
X-37.287 Y-13.986
X-38.009 Y-14.004
X-38.731 Y-14.013
X-39.453 Y-14.018
X-40.175 Y-14.021
X-42.341 Y-14.024
X-66.167 Y-14.043
X-66.888 Y-14.076
X-67.608 Y-14.131
X-68.322 Y-14.236
X-69.025 Y-14.4
X-69.721 Y-14.594
X-70.412 Y-14.803
X-71.077 Y-15.084
X-71.724 Y-15.404
X-72.359 Y-15.749
X-72.952 Y-16.161
X-73.52 Y-16.606
X-74.075 Y-17.068
X-74.599 Y-17.565
X-75.085 Y-18.098
X-75.551 Y-18.65
X-75.992 Y-19.222
X-76.411 Y-19.809
X-76.82 Y-20.405
X-77.223 Y-21.004
X-77.428 Y-21.301
X-77.649 Y-21.604
X-77.922 Y-21.93
X-78.137 Y-22.153
X-78.452 Y-22.437
X-78.775 Y-22.69
X-78.976 Y-22.827
X-79.251 Y-22.986
X-79.519 Y-23.118
X-79.812 Y-23.238
X-80.193 Y-23.363
X-80.541 Y-23.452
X-81.047 Y-23.544
X-81.765 Y-23.624
X-82.486 Y-23.661
X-83.207 Y-23.68
X-83.929 Y-23.689
X-84.651 Y-23.693
X-85.373 Y-23.696
X-87.539 Y-23.698
X-125.805 Y-23.711
X-176.345 Y-23.727
X-226.884 Y-23.743
X-256.667 Y-23.753
X-256.845 Y-23.782
X-257.181 Y-23.913
X-257.465 Y-24.137
X-257.925 Y-24.693
X-258.192 Y-25.364
X-258.265 Y-25.726
X-258.327 Y-25.914
X-258.431 Y-26.082
X-258.571 Y-26.221
X-258.74 Y-26.323
G2 X-259.053 Y-26.271 Z-3.269 I-0.115 J0.277
G1 X-259.099 Y-26.221 Z-3.125 F1200
X-259.132 Y-26.161 Z-2.98
X-259.149 Y-26.107
X-259.155 Y-26.05
X-259.817 Y26.458
X-259.813 Y26.513
X-259.799 Y26.565
X-259.776 Y26.614
X-259.744 Y26.658
X-259.694 Y26.704 Z-3.125
X-259.635 Y26.738 Z-3.269
G2 X-259.321 Y26.689 Z-3.98 I0.118 J-0.276 F650
G1 X-259.26 Y26.632
X-259.068 Y26.49
X-259.032 Y26.468
X-258.904 Y26.398
X-258.854 Y26.375
X-258.721 Y26.307
X-258.151 Y25.864
X-257.549 Y25.465
X-256.882 Y25.188
X-256.182 Y25.012
X-255.468 Y24.906
X-254.749 Y24.844
X-254.028 Y24.81
X-253.306 Y24.791
X-252.584 Y24.78
X-251.862 Y24.775
X-251.14 Y24.771
X-249.696 Y24.768
X-242.476 Y24.764
X-208.542 Y24.75
X-158.003 Y24.729
X-107.463 Y24.708
X-83.637 Y24.697
X-82.915 Y24.695
X-82.193 Y24.679
X-81.499 Y24.627
X-80.971 Y24.551
X-80.472 Y24.443
X-80.026 Y24.314
X-79.616 Y24.164
X-79.262 Y24.005
X-78.92 Y23.823
X-78.566 Y23.601
X-78.21 Y23.343
X-77.809 Y23.007
X-77.36 Y22.574
X-76.876 Y22.039
X-76.427 Y21.473
X-75.568 Y20.313
X-75.132 Y19.737
X-74.676 Y19.177
X-74.193 Y18.641
X-73.687 Y18.126
X-73.155 Y17.638
X-72.592 Y17.185
X-72.002 Y16.769
X-71.383 Y16.397
X-70.739 Y16.072
X-70.073 Y15.792
X-69.387 Y15.569
X-68.686 Y15.397
X-67.976 Y15.264
X-67.26 Y15.17
X-66.541 Y15.109
X-65.82 Y15.072
X-65.098 Y15.05
X-64.376 Y15.037
X-63.654 Y15.03
X-62.932 Y15.026
X-61.488 Y15.022
X-60.766 Y15.021
X-39.828 Y15.009
X-36.94 Y15.008
X-36.24 Y15.001
X-35.817 Y14.968
X-35.496 Y14.92
X-35.224 Y14.86
X-34.991 Y14.792
X-34.788 Y14.716
X-34.604 Y14.633
X-34.431 Y14.54
X-34.27 Y14.438
X-34.12 Y14.328
X-33.977 Y14.207
X-33.837 Y14.071
X-33.698 Y13.916
X-33.559 Y13.737
X-33.429 Y13.543
X-33.292 Y13.306
X-33.163 Y13.041
X-33.029 Y12.709
X-32.905 Y12.329
X-32.783 Y11.841
X-32.667 Y11.187
X-32.59 Y10.469
X-32.547 Y9.748
X-32.523 Y9.027
X-32.511 Y8.305
X-32.504 Y7.583
X-32.5 Y6.861
X-32.498 Y5.417
X-32.499 Y1.085
X-32.505 Y-9.023
X-32.506 Y-10.467
X-32.511 Y-11.189
X-32.541 Y-11.632
X-32.588 Y-11.975
X-32.646 Y-12.255
X-32.714 Y-12.495
X-32.788 Y-12.702
X-32.871 Y-12.89
X-32.962 Y-13.063
X-33.062 Y-13.225
X-33.169 Y-13.376
X-33.288 Y-13.52
X-33.42 Y-13.658
X-33.569 Y-13.794
X-33.743 Y-13.933
X-33.937 Y-14.066
X-34.16 Y-14.198
X-34.432 Y-14.334
X-34.734 Y-14.46
X-35.129 Y-14.594
X-35.581 Y-14.712
X-36.203 Y-14.83
X-36.92 Y-14.915
X-37.641 Y-14.963
X-38.362 Y-14.99
X-39.084 Y-15.005
X-39.806 Y-15.013
X-40.528 Y-15.018
X-41.25 Y-15.021
X-43.416 Y-15.025
X-65.076 Y-15.042
X-65.798 Y-15.051
X-66.519 Y-15.078
X-67.239 Y-15.135
X-67.953 Y-15.239
X-68.66 Y-15.386
X-69.36 Y-15.563
X-70.044 Y-15.795
X-70.71 Y-16.074
X-71.356 Y-16.397
X-71.973 Y-16.772
X-72.564 Y-17.187
X-73.129 Y-17.636
X-73.663 Y-18.122
X-74.167 Y-18.639
X-74.643 Y-19.182
X-75.092 Y-19.747
X-75.522 Y-20.327
X-75.939 Y-20.916
X-76.355 Y-21.507
X-76.743 Y-22.019
X-77.125 Y-22.458
X-77.493 Y-22.825
X-77.826 Y-23.114
X-78.161 Y-23.367
X-78.504 Y-23.589
X-78.873 Y-23.795
X-79.256 Y-23.974
X-79.689 Y-24.141
X-80.155 Y-24.285
X-80.735 Y-24.421
X-81.447 Y-24.536
X-82.166 Y-24.606
X-82.887 Y-24.646
X-83.608 Y-24.669
X-84.33 Y-24.682
X-85.052 Y-24.69
X-85.774 Y-24.694
X-87.218 Y-24.697
X-91.55 Y-24.7
X-125.484 Y-24.711
X-176.024 Y-24.727
X-226.563 Y-24.743
X-255.443 Y-24.753
X-255.791 Y-24.848
X-256.422 Y-25.199
X-256.902 Y-25.739
X-257 Y-25.863
X-257.18 Y-26.032
X-257.402 Y-26.141
X-257.646 Y-26.179
X-257.97 Y-26.183
G2 X-258.235 Y-26.008 Z-3.269 I0.008 J0.3
G1 X-258.254 Y-25.949 Z-3.139 F1200
X-258.262 Y-25.888 Z-3.008
Y-25.875 Z-2.98
X-259.269 Y26.093
X-259.264 Y26.154
X-259.246 Y26.213
X-259.213 Y26.273 Z-3.125
X-259.168 Y26.323 Z-3.269
G2 X-258.854 Y26.375 Z-3.98 I0.198 J-0.225 F650
G1 X-258.74 Y26.323
X-258.69 Y26.305
X-258.576 Y26.267
X-258.412 Y26.225
X-258.248 Y26.199
X-258.084 Y26.184
X-257.92 Y26.182
X-257.199 Y26.139
X-255.766 Y25.962
X-255.047 Y25.893
X-254.327 Y25.846
X-253.606 Y25.815
X-252.884 Y25.796
X-252.162 Y25.784
X-251.44 Y25.777
X-250.718 Y25.773
X-249.274 Y25.769
X-245.664 Y25.766
X-207.398 Y25.75
X-156.859 Y25.728
X-106.319 Y25.707
X-84.659 Y25.698
X-83.937 Y25.697
X-83.215 Y25.691
X-82.494 Y25.672
X-81.773 Y25.624
X-81.086 Y25.537
X-80.5 Y25.421
X-79.98 Y25.28
X-79.497 Y25.112
X-79.035 Y24.915
X-78.587 Y24.686
X-78.135 Y24.413
X-77.662 Y24.082
X-77.195 Y23.704
X-76.696 Y23.24
X-76.203 Y22.712
X-75.74 Y22.158
X-75.294 Y21.59
X-74.854 Y21.018
X-74.408 Y20.45
X-73.944 Y19.897
X-73.459 Y19.363
X-72.948 Y18.853
X-72.407 Y18.375
X-71.835 Y17.933
X-71.233 Y17.535
X-70.602 Y17.184
X-69.944 Y16.886
X-69.264 Y16.644
X-68.568 Y16.452
X-67.861 Y16.308
X-67.146 Y16.206
X-66.427 Y16.137
X-65.707 Y16.092
X-64.985 Y16.064
X-64.263 Y16.047
X-63.541 Y16.036
X-62.82 Y16.03
X-62.098 Y16.026
X-60.654 Y16.022
X-59.21 Y16.02
X-37.55 Y16.008
X-36.828 Y16.003
X-36.218 Y15.968
X-35.753 Y15.908
X-35.372 Y15.833
X-35.038 Y15.742
X-34.733 Y15.636
X-34.456 Y15.518
X-34.202 Y15.387
X-33.962 Y15.243
X-33.732 Y15.082
X-33.512 Y14.904
X-33.301 Y14.707
X-33.099 Y14.491
X-32.906 Y14.253
X-32.715 Y13.982
X-32.528 Y13.672
X-32.348 Y13.321
X-32.185 Y12.941
X-32.047 Y12.544
X-32.021 Y12.454
X-32.005 Y12.362
X-32 Y12.269
Y-12.21
X-32.008 Y-12.379
X-32.03 Y-12.56
X-32.065 Y-12.744
X-32.115 Y-12.931
X-32.179 Y-13.122
X-32.26 Y-13.314
X-32.357 Y-13.507
X-32.471 Y-13.7
X-32.602 Y-13.89
X-32.75 Y-14.075
X-32.921 Y-14.261
X-33.12 Y-14.449
X-33.345 Y-14.635
X-33.588 Y-14.809
X-33.876 Y-14.986
X-34.215 Y-15.163
X-34.583 Y-15.324
X-35.029 Y-15.483
X-35.58 Y-15.638
X-36.246 Y-15.776
X-36.961 Y-15.873
X-37.68 Y-15.933
X-38.401 Y-15.97
X-39.123 Y-15.992
X-39.845 Y-16.006
X-40.567 Y-16.013
X-41.289 Y-16.018
X-42.011 Y-16.021
X-43.455 Y-16.024
X-50.675 Y-16.031
X-64.393 Y-16.042
X-65.115 Y-16.047
X-65.836 Y-16.065
X-66.557 Y-16.108
X-67.275 Y-16.188
X-67.987 Y-16.307
X-68.69 Y-16.469
X-69.381 Y-16.68
X-70.054 Y-16.94
X-70.705 Y-17.253
X-71.329 Y-17.617
X-71.924 Y-18.025
X-72.488 Y-18.476
X-73.02 Y-18.965
X-73.52 Y-19.485
X-73.992 Y-20.031
X-74.441 Y-20.597
X-74.873 Y-21.175
X-75.301 Y-21.756
X-75.741 Y-22.329
X-76.209 Y-22.879
X-76.632 Y-23.314
X-77.04 Y-23.679
X-77.457 Y-24.003
X-77.884 Y-24.29
X-78.334 Y-24.549
X-78.809 Y-24.781
X-79.338 Y-24.994
X-79.916 Y-25.182
X-80.565 Y-25.344
X-81.276 Y-25.471
X-81.993 Y-25.556
X-82.713 Y-25.611
X-83.434 Y-25.646
X-84.156 Y-25.667
X-84.878 Y-25.68
X-85.6 Y-25.688
X-86.322 Y-25.692
X-87.044 Y-25.695
X-88.488 Y-25.698
X-94.986 Y-25.701
X-127.475 Y-25.711
X-178.015 Y-25.728
X-228.555 Y-25.744
X-253.824 Y-25.752
X-254.546 Y-25.754
X-255.231 Y-25.983
X-255.352 Y-26.057
X-255.488 Y-26.124
X-255.635 Y-26.165
X-255.786 Y-26.179
X-257.646
G2 X-257.911 Y-26.004 Z-3.269 I0.008 J0.3
G1 X-257.931 Y-25.944 Z-3.135 F1200
X-257.938 Y-25.881 Z-3
X-257.939 Y-25.872 Z-2.98
X-258.212 Y25.875
Y25.881 Z-2.992
X-258.206 Y25.945 Z-3.131
X-258.185 Y26.007 Z-3.269
G2 X-257.92 Y26.182 Z-3.98 I0.273 J-0.125 F650
G1 X-257.592 Y26.179
X-125.392 Y26.187
X-81.762 Y26.181
X-81.27 Y26.165
X-81.106 Y26.154
X-80.286 Y26.072
X-80.122 Y26.054
X-79.958 Y26.006
X-79.138 Y25.754
X-78.974 Y25.698
X-78.646 Y25.521
X-77.977 Y25.157
X-77.826 Y25.037
X-77.088 Y24.423
X-77.042 Y24.381
X-77.005 Y24.338
X-76.604 Y23.846
X-76.472 Y23.682
X-76.348 Y23.518
X-76.114 Y23.191
X-76.021 Y23.057
X-75.462 Y22.207
X-75.247 Y21.88
X-75.03 Y21.552
X-74.912 Y21.388
X-74.381 Y20.75
X-73.968 Y20.241
X-73.889 Y20.145
X-73.644 Y19.913
X-73.561 Y19.836
X-72.865 Y19.257
X-72.413 Y18.89
X-72.246 Y18.766
X-71.757 Y18.491
X-70.749 Y17.946
X-70.609 Y17.88
X-70.445 Y17.81
X-70.117 Y17.707
X-69.133 Y17.405
X-68.641 Y17.273
X-68.477 Y17.245
X-67 Y17.048
X-66.672 Y17.035
X-66.508 Y17.029
X-66.344 Y17.028
X-63.72
X-62.999 Y16.992
X-62.277 Y17.008
X-61.555 Y17.016
X-60.833 Y17.018
X-59.389 Y17.02
X-38.451 Y17.008
X-37.729 Y17.006
X-37.007 Y16.99
X-36.341 Y16.946
X-35.787 Y16.871
X-35.305 Y16.771
X-34.892 Y16.655
X-34.511 Y16.519
X-34.155 Y16.364
X-33.822 Y16.19
X-33.507 Y15.996
X-33.209 Y15.784
X-32.926 Y15.551
X-32.656 Y15.294
X-32.395 Y15.01
X-32.182 Y14.744
X-32.083 Y14.586
X-32.021 Y14.409
X-32 Y14.224
Y12.269
G0 Z2
X-64.731 Y16.653
Z-3.38
G1 Z-3.68 F650
X-64.725 Y16.657 Z-3.747
X-64.706 Y16.668 Z-3.81
X-64.675 Y16.687 Z-3.867
X-64.634 Y16.711 Z-3.915
X-64.585 Y16.74 Z-3.95
X-64.531 Y16.772 Z-3.972
X-64.473 Y16.806 Z-3.98
G2 X-63.72 Y17.028 I0.809 J-1.36
G1 X-34.524
X-34.3 Y17.016
X-34.124 Y16.995
X-33.943 Y16.961
X-33.735 Y16.906
X-33.517 Y16.832
X-33.284 Y16.735
X-33.028 Y16.606
X-32.772 Y16.454
X-32.507 Y16.271
X-32.314 Y16.117
X-32.145 Y15.935
X-32.037 Y15.711
X-32 Y15.465
G2 X-32.177 Y15.202 Z-3.269 I-0.3 J0.01
G1 X-32.242 Y15.181 Z-3.125 F1200
X-32.31 Y15.176 Z-2.98
X-32.358 Y15.181
X-32.404 Y15.194
X-32.447 Y15.215
X-34.662 Y16.467
G2 X-34.814 Y16.718 I0.148 J0.261
G1 X-34.808 Y16.785 Z-3.125
X-34.788 Y16.85 Z-3.269
G2 X-34.524 Y17.028 Z-3.98 I0.274 J-0.122 F650
G1 X-33.048
X-32.898 Y17.02
X-32.75 Y17.001
X-32.603 Y16.968
X-32.582 Y16.962
X-32.391 Y16.874
X-32.228 Y16.74
X-32.104 Y16.571
X-32.026 Y16.376
X-32 Y16.167
G2 X-32.177 Y15.904 Z-3.269 I-0.3 J0.01
G1 X-32.242 Y15.883 Z-3.125 F1200
X-32.31 Y15.878 Z-2.98
X-32.37 Y15.886
X-32.427 Y15.906
X-32.479 Y15.937
X-33.217 Y16.487
G2 X-33.337 Y16.718 I0.179 J0.24
G1 X-33.332 Y16.785 Z-3.125
X-33.312 Y16.85 Z-3.269
G2 X-33.048 Y17.028 Z-3.98 I0.274 J-0.122 F650
G1 X-32.347
X-32.31
X-32.269 Y17.023
X-32.228 Y17.013
X-32.203 Y17.004
X-32.179 Y16.993
X-32.13 Y16.963
X-32.097 Y16.937
X-32.064 Y16.901
X-32.046 Y16.876
X-32.032 Y16.85
X-32.02 Y16.824
X-32.012 Y16.799
X-32.003 Y16.758
X-32 Y16.717
Y14.224
G0 Z2
X-32.375 Y-11.198
Z-3.38
G1 Z-3.68 F650
X-32.371 Y-11.205 Z-3.747
X-32.359 Y-11.224 Z-3.81
X-32.341 Y-11.255 Z-3.867
X-32.317 Y-11.296 Z-3.915
X-32.288 Y-11.344 Z-3.95
X-32.255 Y-11.399 Z-3.972
X-32.221 Y-11.456 Z-3.98
G2 X-32 Y-12.21 I-1.36 J-0.809
G1 Y-13.521
X-32.007 Y-13.671
X-32.026 Y-13.82
X-32.059 Y-13.966
X-32.105 Y-14.109
X-32.16 Y-14.248
X-32.234 Y-14.401
X-32.326 Y-14.561
X-32.435 Y-14.725
X-32.575 Y-14.905
X-32.729 Y-15.079
X-32.922 Y-15.267
X-33.149 Y-15.46
X-33.397 Y-15.643
X-33.703 Y-15.837
X-34.06 Y-16.031
X-34.454 Y-16.21
X-34.95 Y-16.396
X-35.53 Y-16.568
X-36.209 Y-16.72
X-36.923 Y-16.828
X-37.642 Y-16.9
X-38.362 Y-16.946
X-39.083 Y-16.976
X-39.805 Y-16.995
X-40.527 Y-17.007
X-41.249 Y-17.014
X-41.971 Y-17.018
X-43.415 Y-17.023
X-46.303 Y-17.027
X-46.793 Y-17.028
X-66.344
X-66.508 Y-17.029
X-66.836 Y-17.041
X-67 Y-17.048
X-68.477 Y-17.245
X-68.641 Y-17.273
X-69.133 Y-17.405
X-70.117 Y-17.707
X-70.445 Y-17.81
X-70.609 Y-17.88
X-70.749 Y-17.946
X-71.757 Y-18.491
X-72.249 Y-18.767
X-72.413 Y-18.89
X-72.865 Y-19.257
X-73.561 Y-19.836
X-73.817 Y-20.077
X-73.889 Y-20.145
X-73.968 Y-20.241
X-74.381 Y-20.75
X-74.912 Y-21.388
X-75.03 Y-21.552
X-75.355 Y-22.043
X-75.57 Y-22.371
X-76.021 Y-23.057
X-76.114 Y-23.191
X-76.349 Y-23.52
X-76.472 Y-23.682
X-76.678 Y-23.937
X-77.006 Y-24.339
X-77.042 Y-24.381
X-77.088 Y-24.423
X-77.826 Y-25.037
X-77.977 Y-25.157
X-78.882 Y-25.649
X-78.974 Y-25.698
X-79.138 Y-25.754
X-79.958 Y-26.006
X-80.122 Y-26.054
X-80.286 Y-26.072
X-81.106 Y-26.154
X-81.27 Y-26.165
X-81.762 Y-26.181
X-130.968 Y-26.187
X-255.786 Y-26.179
G0 Z2
X-32.375 Y-12.51
Z-3.38
G1 Z-3.68 F650
X-32.371 Y-12.516 Z-3.747
X-32.359 Y-12.535 Z-3.81
X-32.341 Y-12.566 Z-3.867
X-32.317 Y-12.607 Z-3.915
X-32.288 Y-12.656 Z-3.95
X-32.255 Y-12.71 Z-3.972
X-32.221 Y-12.767 Z-3.98
G2 X-32 Y-13.521 I-1.36 J-0.809
G1 Y-14.595
X-32.007 Y-14.744
X-32.033 Y-14.892
X-32.073 Y-15.037
X-32.125 Y-15.177
X-32.188 Y-15.314
X-32.27 Y-15.463
X-32.369 Y-15.617
X-32.493 Y-15.784
X-32.642 Y-15.957
X-32.82 Y-16.137
X-33.041 Y-16.332
X-33.28 Y-16.515
X-33.588 Y-16.718
X-33.937 Y-16.915
X-34.003 Y-16.947
X-34.118 Y-16.991
X-34.239 Y-17.019
X-34.362 Y-17.028
G2 X-34.625 Y-16.85 Z-3.269 I0.01 J0.3
G1 X-34.646 Y-16.785 Z-3.125 F1200
X-34.651 Y-16.718 Z-2.98
X-34.644 Y-16.663
X-34.627 Y-16.611
X-34.601 Y-16.562
X-34.567 Y-16.519
X-32.516 Y-14.397
X-32.472 Y-14.359
X-32.422 Y-14.331
X-32.367 Y-14.313
X-32.31 Y-14.305
X-32.242 Y-14.311 Z-3.125
X-32.177 Y-14.331 Z-3.269
G2 X-32 Y-14.595 Z-3.98 I-0.122 J-0.274 F650
G1 Y-15.578
X-32.007 Y-15.728
X-32.035 Y-15.875
X-32.077 Y-16.019
X-32.131 Y-16.159
X-32.198 Y-16.298
X-32.28 Y-16.441
X-32.387 Y-16.602
X-32.466 Y-16.704
X-32.598 Y-16.84
X-32.758 Y-16.942
X-32.937 Y-17.006
X-33.125 Y-17.028
G2 X-33.389 Y-16.85 Z-3.269 I0.01 J0.3
G1 X-33.409 Y-16.785 Z-3.125 F1200
X-33.415 Y-16.718 Z-2.98
X-33.407 Y-16.66
X-33.388 Y-16.604
X-33.359 Y-16.553
X-32.544 Y-15.414
G2 X-32.31 Y-15.289 I0.244 J-0.175
G1 X-32.242 Y-15.294 Z-3.125
X-32.177 Y-15.314 Z-3.269
G2 X-32 Y-15.578 Z-3.98 I-0.122 J-0.274 F650
G1 Y-16.471
Y-16.521
Y-16.555
X-32.007 Y-16.705
X-32.072 Y-16.835
X-32.173 Y-16.938
X-32.302 Y-17.005
X-32.445 Y-17.028
G2 X-32.749 Y-16.905 Z-3.269 I0.017 J0.479
G1 X-32.756 Y-16.898 Z-3.247 F1200
X-32.799 Y-16.852 Z-3.114
X-32.835 Y-16.8 Z-2.98
G2 X-32.239 Y-16.174 I0.386 J0.229
G1 X-32.181 Y-16.21 Z-3.125
X-32.13 Y-16.255 Z-3.269
G2 X-32 Y-16.555 Z-3.98 I-0.319 J-0.316 F650
G1 Y-16.717
X-32.003 Y-16.758
X-32.012 Y-16.799
X-32.02 Y-16.824
X-32.032 Y-16.85
X-32.046 Y-16.876
X-32.064 Y-16.901
X-32.097 Y-16.937
X-32.13 Y-16.963
X-32.179 Y-16.993
X-32.203 Y-17.004
X-32.228 Y-17.013
X-32.269 Y-17.023
X-32.31 Y-17.028
X-45.514
G2 X-45.803 Y-16.729 I0.01 J0.3
G1 Y-16.728
X-45.802 Y-16.703
X-45.785 Y-16.653 Z-3.975
X-45.768 Y-16.605 Z-3.961
X-45.752 Y-16.56 Z-3.938
X-45.715 Y-16.527 Z-3.901
X-45.685 Y-16.5 Z-3.854
X-45.663 Y-16.48 Z-3.8
X-45.649 Y-16.467 Z-3.742
X-45.644 Y-16.463 Z-3.68
G0 Z2
X-261.029 Y27.725
Z-5.37
G1 Z-5.67 F650
X-261.023 Y27.721 Z-5.737
X-261.004 Y27.709 Z-5.8
X-260.974 Y27.69 Z-5.857
X-260.934 Y27.664 Z-5.905
X-260.886 Y27.634 Z-5.94
X-260.833 Y27.599 Z-5.962
X-260.777 Y27.563 Z-5.97
G2 X-259.491 Y26.529 I-4.13 J-6.45
G1 X-259.396 Y26.428
X-259.318 Y26.36
X-259.21 Y26.256
X-259.124 Y26.133
X-259.05 Y26.003
X-258.974 Y25.844
X-258.894 Y25.64
X-258.785 Y25.296
X-258.619 Y24.975
X-258.375 Y24.709
X-257.794 Y24.28
X-257.115 Y24.035
X-256.405 Y23.904
X-255.686 Y23.837
X-254.965 Y23.803
X-254.243 Y23.786
X-253.521 Y23.777
X-252.8 Y23.773
X-252.078 Y23.77
X-249.912 Y23.768
X-210.202 Y23.751
X-159.662 Y23.73
X-109.123 Y23.708
X-82.409 Y23.697
X-81.687 Y23.675
X-81.328 Y23.641
X-80.816 Y23.567
X-80.561 Y23.512
X-80.229 Y23.417
X-79.853 Y23.279
X-79.57 Y23.153
X-79.226 Y22.97
X-79.02 Y22.842
X-78.821 Y22.697
X-78.574 Y22.491
X-78.252 Y22.181
X-77.791 Y21.673
X-77.345 Y21.105
X-76.926 Y20.517
X-76.52 Y19.92
X-76.094 Y19.337
X-75.657 Y18.762
X-75.204 Y18.2
X-74.706 Y17.678
X-74.185 Y17.177
X-73.654 Y16.688
X-73.085 Y16.244
X-72.49 Y15.836
X-71.871 Y15.464
X-71.228 Y15.135
X-70.563 Y14.855
X-69.887 Y14.601
X-69.188 Y14.42
X-68.478 Y14.288
X-67.764 Y14.181
X-67.046 Y14.102
X-66.325 Y14.062
X-65.604 Y14.042
X-64.882 Y14.032
X-64.16 Y14.027
X-63.438 Y14.024
X-62.716 Y14.023
X-58.384 Y14.019
X-36.002 Y14.007
X-35.641 Y14
X-35.399 Y13.978
X-35.236 Y13.952
X-35.063 Y13.912
X-34.919 Y13.869
X-34.779 Y13.814
X-34.646 Y13.746
X-34.518 Y13.667
X-34.4 Y13.574
X-34.295 Y13.468
X-34.2 Y13.351
X-34.116 Y13.227
X-34.043 Y13.096
X-33.967 Y12.931
X-33.886 Y12.72
X-33.8 Y12.441
X-33.711 Y12.055
X-33.618 Y11.476
X-33.554 Y10.757
X-33.524 Y10.036
X-33.509 Y9.314
X-33.502 Y8.592
X-33.499 Y7.87
X-33.497 Y6.426
X-33.501 Y-1.516
X-33.504 Y-8.014
X-33.506 Y-11.624
X-33.514 Y-11.804
X-33.53 Y-12.051
X-33.554 Y-12.221
X-33.589 Y-12.394
X-33.631 Y-12.541
X-33.682 Y-12.683
X-33.743 Y-12.819
X-33.817 Y-12.95
X-33.904 Y-13.072
X-34.004 Y-13.184
X-34.116 Y-13.284
X-34.237 Y-13.372
X-34.367 Y-13.448
X-34.521 Y-13.523
X-34.718 Y-13.604
X-34.976 Y-13.688
X-35.328 Y-13.777
X-35.841 Y-13.869
X-36.559 Y-13.948
X-37.28 Y-13.986
X-38.001 Y-14.004
X-38.723 Y-14.013
X-39.445 Y-14.018
X-40.167 Y-14.021
X-42.333 Y-14.024
X-66.159 Y-14.043
X-66.88 Y-14.075
X-67.6 Y-14.13
X-68.315 Y-14.235
X-69.018 Y-14.398
X-69.714 Y-14.592
X-70.405 Y-14.8
X-71.07 Y-15.081
X-71.717 Y-15.401
X-72.352 Y-15.745
X-72.946 Y-16.156
X-73.514 Y-16.601
X-74.069 Y-17.063
X-74.593 Y-17.559
X-75.08 Y-18.092
X-75.546 Y-18.644
X-75.987 Y-19.215
X-76.407 Y-19.803
X-76.815 Y-20.398
X-77.218 Y-20.997
X-77.423 Y-21.294
X-77.645 Y-21.6
X-77.918 Y-21.926
X-78.133 Y-22.149
X-78.447 Y-22.433
X-78.772 Y-22.688
X-78.973 Y-22.825
X-79.246 Y-22.984
X-79.515 Y-23.116
X-79.807 Y-23.236
X-80.188 Y-23.362
X-80.534 Y-23.45
X-81.038 Y-23.542
X-81.755 Y-23.623
X-82.476 Y-23.661
X-83.198 Y-23.68
X-83.92 Y-23.689
X-84.642 Y-23.693
X-85.364 Y-23.696
X-87.53 Y-23.698
X-125.796 Y-23.711
X-176.335 Y-23.727
X-226.875 Y-23.743
X-256.657 Y-23.753
X-256.836 Y-23.78
X-257.173 Y-23.908
X-257.458 Y-24.129
X-257.921 Y-24.683
X-258.19 Y-25.354
X-258.194 Y-25.376
X-258.26 Y-25.572
X-258.372 Y-25.745
X-258.524 Y-25.886
X-258.705 Y-25.985
G2 X-259.015 Y-25.916 Z-5.259 I-0.1 J0.283
G1 X-259.058 Y-25.863 Z-5.115 F1200
X-259.088 Y-25.802 Z-4.97
X-259.101 Y-25.755
X-259.105 Y-25.706
X-259.807 Y26.123
X-259.803 Y26.175
X-259.79 Y26.225
X-259.769 Y26.273
X-259.74 Y26.316
X-259.691 Y26.363 Z-5.115
X-259.633 Y26.399 Z-5.259
G2 X-259.318 Y26.36 Z-5.97 I0.126 J-0.272 F650
G1 X-259.255 Y26.305
X-259.068 Y26.163
X-258.904 Y26.072
X-258.814 Y26.032
X-258.171 Y25.703
X-257.533 Y25.364
X-256.851 Y25.129
X-256.145 Y24.978
X-255.428 Y24.887
X-254.708 Y24.835
X-253.987 Y24.805
X-253.265 Y24.788
X-252.543 Y24.779
X-251.821 Y24.774
X-251.099 Y24.771
X-249.655 Y24.768
X-239.547 Y24.763
X-208.502 Y24.75
X-157.962 Y24.729
X-107.422 Y24.708
X-83.597 Y24.697
X-82.875 Y24.694
X-82.153 Y24.676
X-81.479 Y24.624
X-80.951 Y24.547
X-80.453 Y24.438
X-80.009 Y24.308
X-79.605 Y24.16
X-79.251 Y24
X-78.909 Y23.817
X-78.555 Y23.594
X-78.195 Y23.331
X-77.796 Y22.995
X-77.345 Y22.559
X-76.863 Y22.022
X-76.415 Y21.456
X-75.555 Y20.295
X-75.119 Y19.72
X-74.662 Y19.161
X-74.178 Y18.626
X-73.672 Y18.111
X-73.139 Y17.624
X-72.576 Y17.172
X-71.984 Y16.758
X-71.364 Y16.387
X-70.719 Y16.063
X-70.053 Y15.785
X-69.366 Y15.564
X-68.664 Y15.392
X-67.955 Y15.261
X-67.239 Y15.167
X-66.519 Y15.107
X-65.798 Y15.071
X-65.076 Y15.049
X-64.355 Y15.037
X-63.633 Y15.03
X-62.911 Y15.026
X-61.467 Y15.022
X-60.745 Y15.021
X-37.641 Y15.008
X-36.919
X-36.228 Y15
X-35.809 Y14.967
X-35.489 Y14.919
X-35.218 Y14.859
X-34.987 Y14.79
X-34.785 Y14.715
X-34.6 Y14.631
X-34.428 Y14.538
X-34.267 Y14.436
X-34.117 Y14.326
X-33.974 Y14.204
X-33.834 Y14.068
X-33.696 Y13.913
X-33.556 Y13.733
X-33.426 Y13.539
X-33.29 Y13.302
X-33.16 Y13.034
X-33.027 Y12.703
X-32.903 Y12.319
X-32.781 Y11.831
X-32.665 Y11.172
X-32.589 Y10.454
X-32.546 Y9.733
X-32.523 Y9.012
X-32.51 Y8.29
X-32.504 Y7.568
X-32.5 Y6.846
X-32.498 Y5.402
X-32.499 Y1.07
X-32.505 Y-9.038
X-32.506 Y-10.482
X-32.511 Y-11.204
X-32.542 Y-11.642
X-32.59 Y-11.984
X-32.648 Y-12.262
X-32.716 Y-12.501
X-32.791 Y-12.708
X-32.873 Y-12.895
X-32.964 Y-13.068
X-33.064 Y-13.229
X-33.173 Y-13.38
X-33.292 Y-13.524
X-33.424 Y-13.662
X-33.573 Y-13.798
X-33.748 Y-13.936
X-33.944 Y-14.071
X-34.166 Y-14.202
X-34.442 Y-14.339
X-34.743 Y-14.464
X-35.144 Y-14.598
X-35.595 Y-14.716
X-36.223 Y-14.833
X-36.941 Y-14.917
X-37.661 Y-14.964
X-38.383 Y-14.99
X-39.104 Y-15.005
X-39.826 Y-15.013
X-40.548 Y-15.018
X-41.27 Y-15.021
X-43.436 Y-15.025
X-65.096 Y-15.042
X-65.818 Y-15.051
X-66.54 Y-15.079
X-67.259 Y-15.137
X-67.973 Y-15.242
X-68.68 Y-15.39
X-69.379 Y-15.57
X-70.063 Y-15.803
X-70.728 Y-16.083
X-71.373 Y-16.407
X-71.99 Y-16.783
X-72.58 Y-17.199
X-73.145 Y-17.649
X-73.678 Y-18.136
X-74.181 Y-18.654
X-74.656 Y-19.197
X-75.105 Y-19.763
X-75.534 Y-20.343
X-76.366 Y-21.523
X-76.753 Y-22.032
X-77.137 Y-22.47
X-77.5 Y-22.832
X-77.835 Y-23.121
X-78.171 Y-23.373
X-78.513 Y-23.595
X-78.884 Y-23.8
X-79.266 Y-23.978
X-79.699 Y-24.144
X-80.173 Y-24.29
X-80.752 Y-24.424
X-81.465 Y-24.538
X-82.184 Y-24.607
X-82.905 Y-24.647
X-83.626 Y-24.67
X-84.348 Y-24.683
X-85.07 Y-24.69
X-85.792 Y-24.694
X-87.236 Y-24.697
X-91.568 Y-24.7
X-125.502 Y-24.711
X-176.042 Y-24.727
X-226.581 Y-24.743
X-255.461 Y-24.753
X-255.808 Y-24.852
X-256.442 Y-25.198
X-256.867 Y-25.613
X-257.038 Y-25.742
X-257.237 Y-25.823
X-257.45 Y-25.851
X-257.592
X-257.97 Y-25.855
G2 X-258.235 Y-25.68 Z-5.259 I0.008 J0.3
G1 X-258.254 Y-25.621 Z-5.128 F1200
X-258.262 Y-25.56 Z-4.997
Y-25.547 Z-4.97
X-259.227 Y25.748
X-259.222 Y25.809
X-259.205 Y25.868
X-259.172 Y25.927 Z-5.115
X-259.127 Y25.978 Z-5.259
G2 X-258.814 Y26.032 Z-5.97 I0.2 J-0.224 F650
G1 X-258.74 Y25.998
X-258.685 Y25.977
X-258.576 Y25.937
X-258.412 Y25.898
X-258.248 Y25.874
X-258.084 Y25.856
X-257.592 Y25.851
X-256.28
X-255.559 Y25.815
X-254.837 Y25.814
X-253.393 Y25.792
X-252.671 Y25.783
X-251.949 Y25.777
X-251.227 Y25.773
X-249.783 Y25.769
X-246.895 Y25.767
X-205.741 Y25.749
X-155.202 Y25.728
X-104.662 Y25.706
X-84.446 Y25.698
X-83.724 Y25.696
X-83.002 Y25.688
X-82.281 Y25.662
X-81.561 Y25.603
X-80.933 Y25.511
X-80.364 Y25.388
X-79.846 Y25.237
X-79.368 Y25.061
X-78.912 Y24.856
X-78.468 Y24.618
X-78.018 Y24.336
X-77.546 Y23.992
X-77.047 Y23.572
X-76.537 Y23.079
X-76.054 Y22.542
X-75.598 Y21.982
X-75.449 Y21.789
X-75.422 Y21.748
X-75.189 Y21.388
X-74.974 Y21.06
X-74.846 Y20.896
X-74.053 Y19.871
X-73.957 Y19.749
X-73.889 Y19.666
X-73.561 Y19.359
X-73.448 Y19.257
X-72.869 Y18.766
X-72.577 Y18.523
X-72.413 Y18.388
X-72.268 Y18.274
X-72.249 Y18.261
X-71.646 Y17.864
X-71.05 Y17.457
X-70.418 Y17.107
X-69.757 Y16.818
X-69.072 Y16.588
X-68.372 Y16.41
X-67.663 Y16.278
X-66.947 Y16.186
X-66.227 Y16.124
X-65.506 Y16.084
X-64.785 Y16.059
X-64.063 Y16.043
X-63.341 Y16.034
X-62.619 Y16.029
X-61.897 Y16.025
X-60.453 Y16.022
X-55.399 Y16.018
X-38.071 Y16.008
X-37.349 Y16.007
X-36.627 Y15.994
X-36.088 Y15.953
X-35.648 Y15.889
X-35.284 Y15.811
X-34.954 Y15.715
X-34.66 Y15.607
X-34.393 Y15.487
X-34.142 Y15.353
X-33.905 Y15.205
X-33.678 Y15.039
X-33.461 Y14.857
X-33.25 Y14.654
X-33.046 Y14.428
X-32.854 Y14.182
X-32.668 Y13.908
X-32.485 Y13.593
X-32.303 Y13.222
X-32.141 Y12.826
X-32.042 Y12.524
X-32.019 Y12.439
X-32.005 Y12.352
X-32 Y12.263
Y-12.21
X-32.008 Y-12.379
X-32.03 Y-12.56
X-32.065 Y-12.743
X-32.115 Y-12.931
X-32.179 Y-13.122
X-32.26 Y-13.314
X-32.357 Y-13.507
X-32.471 Y-13.7
X-32.602 Y-13.889
X-32.75 Y-14.075
X-32.921 Y-14.261
X-33.12 Y-14.45
X-33.345 Y-14.635
X-33.588 Y-14.809
X-33.877 Y-14.986
X-34.217 Y-15.164
X-34.581 Y-15.323
X-35.03 Y-15.484
X-35.581 Y-15.638
X-36.244 Y-15.776
X-36.959 Y-15.873
X-37.679 Y-15.933
X-38.4 Y-15.97
X-39.121 Y-15.992
X-39.843 Y-16.005
X-40.565 Y-16.013
X-41.287 Y-16.018
X-42.009 Y-16.021
X-43.453 Y-16.024
X-50.673 Y-16.031
X-64.391 Y-16.042
X-65.113 Y-16.047
X-65.835 Y-16.065
X-66.556 Y-16.107
X-67.273 Y-16.187
X-67.985 Y-16.307
X-68.689 Y-16.469
X-69.379 Y-16.679
X-70.053 Y-16.94
X-70.703 Y-17.253
X-71.327 Y-17.616
X-71.923 Y-18.024
X-72.094 Y-18.16
X-72.126 Y-18.185
X-72.161 Y-18.209
X-72.196 Y-18.23
X-72.249 Y-18.261
X-72.268 Y-18.274
X-72.413 Y-18.388
X-72.741 Y-18.659
X-72.905 Y-18.796
X-73.448 Y-19.257
X-73.561 Y-19.359
X-73.889 Y-19.666
X-73.957 Y-19.749
X-74.085 Y-19.913
X-74.846 Y-20.896
X-74.974 Y-21.06
X-75.201 Y-21.406
X-75.365 Y-21.661
X-75.785 Y-22.248
X-76.101 Y-22.672
X-76.44 Y-23.068
X-76.797 Y-23.431
X-77.169 Y-23.76
X-77.561 Y-24.061
X-77.97 Y-24.332
X-78.407 Y-24.58
X-78.877 Y-24.805
X-79.401 Y-25.013
X-79.998 Y-25.203
X-80.643 Y-25.36
X-81.355 Y-25.482
X-82.072 Y-25.563
X-82.793 Y-25.616
X-83.514 Y-25.649
X-84.236 Y-25.669
X-84.957 Y-25.681
X-85.679 Y-25.688
X-86.401 Y-25.693
X-87.123 Y-25.695
X-89.289 Y-25.699
X-124.667 Y-25.71
X-175.207 Y-25.727
X-225.746 Y-25.743
X-253.904 Y-25.752
X-254.626 Y-25.77
X-254.749 Y-25.81
X-254.834 Y-25.833
X-254.92 Y-25.847
X-255.008 Y-25.851
X-257.45
G2 X-257.713 Y-25.674 Z-5.259 I0.01 J0.3
G1 X-257.733 Y-25.61 Z-5.118 F1200
X-257.739 Y-25.544 Z-4.977
Y-25.541 Z-4.97
X-256.57 Y25.541
X-256.569 Y25.558 Z-5.006
X-256.562 Y25.617 Z-5.133
X-256.543 Y25.674 Z-5.259
G2 X-256.28 Y25.851 Z-5.97 I0.274 J-0.122 F650
G1 X-245.126
X-81.762 Y25.83
X-81.231 Y25.813
X-81.106 Y25.803
X-80.286 Y25.721
X-80.122 Y25.703
X-79.937 Y25.649
X-79.138 Y25.403
X-78.974 Y25.347
X-78.318 Y24.992
X-77.99 Y24.814
X-77.949 Y24.788
X-77.908 Y24.755
X-77.099 Y24.081
X-77.061 Y24.046
X-77.029 Y24.01
X-76.349 Y23.149
X-76.257 Y23.027
X-76.021 Y22.673
X-75.459 Y21.807
X-75.422 Y21.748
X-75.398 Y21.7 Z-5.856
X-75.384 Y21.649 Z-5.743
X-75.379 Y21.596 Z-5.629
Y21.421 Z-5.259
Y21.285 Z-4.97 F1200
X-75.324 Y-21.198
Y-21.334 Z-5.259
X-75.323 Y-21.508 Z-5.629 F650
X-75.328 Y-21.561 Z-5.742
X-75.342 Y-21.613 Z-5.856
X-75.365 Y-21.661 Z-5.97
X-75.529 Y-21.916
X-76.038 Y-22.699
X-76.257 Y-23.027
X-76.349 Y-23.149
X-77.029 Y-24.01
X-77.061 Y-24.046
X-77.099 Y-24.081
X-77.908 Y-24.755
X-77.949 Y-24.788
X-77.99 Y-24.814
X-78.925 Y-25.321
X-78.974 Y-25.347
X-79.138 Y-25.403
X-79.958 Y-25.655
X-80.122 Y-25.703
X-80.286 Y-25.721
X-81.106 Y-25.803
X-81.231 Y-25.813
X-81.762 Y-25.83
X-254.147 Y-25.851
X-255.008
G0 Z2
X-73.312 Y18.445
Z-5.37
G1 Z-5.67 F650
X-73.304 Z-5.737
X-73.282 Z-5.8
X-73.246 Z-5.857
X-73.199 Y18.446 Z-5.905
X-73.142 Y18.447 Z-5.94
X-73.079 Z-5.962
X-73.012 Y18.448 Z-5.97
G2 X-72.249 Y18.261 I0.017 J-1.582
G1 X-72.085 Y18.166
X-71.691 Y17.946
X-70.773 Y17.439
X-70.609 Y17.366
X-70.281 Y17.24
X-70.117 Y17.183
X-69.625 Y17.028
X-69.133 Y16.872
X-68.641 Y16.735
X-68.477 Y16.706
X-67.656 Y16.598
X-67.492 Y16.577
X-67 Y16.518
X-66.508 Y16.5
X-66.344 Y16.499
X-35.508
X-35.147 Y16.481
X-34.926 Y16.454
X-34.695 Y16.41
X-34.449 Y16.345
X-34.194 Y16.259
X-33.934 Y16.15
X-33.676 Y16.02
X-33.42 Y15.868
X-33.162 Y15.691
X-32.907 Y15.487
X-32.656 Y15.256
X-32.408 Y14.995
X-32.164 Y14.699
X-32.155 Y14.686
X-32.07 Y14.537
X-32.018 Y14.373
X-32 Y14.202
G2 X-32.177 Y13.939 Z-5.259 I-0.3 J0.01
G1 X-32.242 Y13.918 Z-5.115 F1200
X-32.31 Y13.913 Z-4.97
X-32.362 Y13.919
X-32.412 Y13.934
X-32.458 Y13.958
X-35.656 Y15.944
G2 X-35.798 Y16.189 I0.158 J0.255
G1 X-35.792 Y16.257 Z-5.115
X-35.772 Y16.321 Z-5.259
G2 X-35.508 Y16.499 Z-5.97 I0.274 J-0.122 F650
G1 X-33.778
X-33.628 Y16.491
X-33.479 Y16.473
X-33.332 Y16.442
X-33.174 Y16.398
X-33.005 Y16.337
X-32.818 Y16.255
X-32.625 Y16.154
X-32.409 Y16.02
X-32.348 Y15.977
X-32.202 Y15.844
X-32.092 Y15.681
X-32.023 Y15.496
X-32 Y15.3
G2 X-32.177 Y15.036 Z-5.259 I-0.3 J0.01
G1 X-32.242 Y15.016 Z-5.115 F1200
X-32.31 Y15.01 Z-4.97
X-32.361 Y15.016
X-32.41 Y15.031
X-32.455 Y15.054
X-33.923 Y15.942
G2 X-34.067 Y16.189 I0.155 J0.257
G1 X-34.062 Y16.257 Z-5.115
X-34.041 Y16.321 Z-5.259
G2 X-33.778 Y16.499 Z-5.97 I0.274 J-0.122 F650
G1 X-32.63
X-32.48 Y16.491
X-32.291 Y16.423
X-32.136 Y16.294
X-32.035 Y16.119
X-32 Y15.921
G2 X-32.177 Y15.658 Z-5.259 I-0.3 J0.01
G1 X-32.242 Y15.637 Z-5.115 F1200
X-32.31 Y15.632 Z-4.97
X-32.376 Y15.641
X-32.437 Y15.665
X-32.492 Y15.701
X-32.812 Y15.969
X-32.856 Y16.014
X-32.889 Y16.067
X-32.911 Y16.127
X-32.919 Y16.189
X-32.914 Y16.257 Z-5.115
X-32.893 Y16.321 Z-5.259
G2 X-32.63 Y16.499 Z-5.97 I0.274 J-0.122 F650
G1 X-32.31
X-32.269 Y16.495
X-32.228 Y16.485
X-32.193 Y16.471
X-32.129 Y16.433
X-32.096 Y16.407
X-32.064 Y16.372
X-32.042 Y16.339
X-32.025 Y16.307
X-32.011 Y16.266
X-32.003 Y16.225
X-32 Y16.143
Y12.263
Y11.929 Z-5.259
Y11.792 Z-4.97
Y-11.739
Y-11.875 Z-5.259
Y-12.21 Z-5.97
Y-13.521
X-32.007 Y-13.671
X-32.026 Y-13.82
X-32.059 Y-13.966
X-32.105 Y-14.109
X-32.16 Y-14.248
X-32.234 Y-14.401
X-32.326 Y-14.561
X-32.435 Y-14.725
X-32.575 Y-14.905
X-32.729 Y-15.079
X-32.922 Y-15.267
X-33.149 Y-15.46
X-33.397 Y-15.643
X-33.703 Y-15.838
X-34.06 Y-16.031
X-34.454 Y-16.211
X-34.95 Y-16.396
X-35.179 Y-16.464
X-35.257 Y-16.483
X-35.336 Y-16.495
X-35.416 Y-16.499
G2 X-35.68 Y-16.321 Z-5.259 I0.01 J0.3
G1 X-35.7 Y-16.257 Z-5.115 F1200
X-35.706 Y-16.189 Z-4.97
X-35.697 Y-16.127
X-35.676 Y-16.069
X-35.644 Y-16.016
X-35.601 Y-15.971
X-32.495 Y-13.304
X-32.44 Y-13.266
X-32.377 Y-13.242
X-32.31 Y-13.232
X-32.242 Y-13.237 Z-5.115
X-32.177 Y-13.258 Z-5.259
G2 X-32 Y-13.521 Z-5.97 I-0.122 J-0.274 F650
G1 Y-14.595
X-32.007 Y-14.744
X-32.033 Y-14.892
X-32.073 Y-15.037
X-32.125 Y-15.177
X-32.188 Y-15.314
X-32.27 Y-15.463
X-32.369 Y-15.617
X-32.493 Y-15.784
X-32.642 Y-15.957
X-32.82 Y-16.137
X-32.994 Y-16.291
X-33.159 Y-16.404
X-33.347 Y-16.475
X-33.545 Y-16.499
G2 X-33.809 Y-16.321 Z-5.259 I0.01 J0.3
G1 X-33.829 Y-16.257 Z-5.115 F1200
X-33.835 Y-16.189 Z-4.97
X-33.826 Y-16.127
X-33.805 Y-16.068
X-33.772 Y-16.015
X-32.537 Y-14.421
G2 X-32.31 Y-14.305 I0.237 J-0.184
G1 X-32.242 Y-14.311 Z-5.115
X-32.177 Y-14.331 Z-5.259
G2 X-32 Y-14.595 Z-5.97 I-0.122 J-0.274 F650
G1 Y-15.578
X-32.007 Y-15.728
X-32.035 Y-15.875
X-32.042 Y-15.901
X-32.128 Y-16.096
X-32.261 Y-16.263
X-32.432 Y-16.391
X-32.63 Y-16.471
X-32.841 Y-16.499
G2 X-33.105 Y-16.321 Z-5.259 I0.01 J0.3
G1 X-33.125 Y-16.257 Z-5.115 F1200
X-33.131 Y-16.189 Z-4.97
X-33.121 Y-16.122
X-33.096 Y-16.058
X-33.057 Y-16.002
X-32.526 Y-15.391
X-32.481 Y-15.349
X-32.429 Y-15.318
X-32.371 Y-15.297
X-32.31 Y-15.289
X-32.242 Y-15.294 Z-5.115
X-32.177 Y-15.314 Z-5.259
G2 X-32 Y-15.578 Z-5.97 I-0.122 J-0.274 F650
G1 Y-16.143
X-32.001 Y-16.188
X-32.003 Y-16.225
X-32.011 Y-16.266
X-32.025 Y-16.307
X-32.042 Y-16.339
X-32.064 Y-16.372
X-32.096 Y-16.407
X-32.129 Y-16.433
X-32.193 Y-16.471
X-32.228 Y-16.485
X-32.269 Y-16.495
X-32.31 Y-16.499
X-66.344
X-66.508 Y-16.5
X-66.836 Y-16.512
X-67 Y-16.519
X-68.477 Y-16.707
X-68.641 Y-16.735
X-69.133 Y-16.872
X-69.789 Y-17.08
X-70.117 Y-17.183
X-70.281 Y-17.24
X-70.609 Y-17.366
X-70.773 Y-17.439
X-71.757 Y-17.982
X-72.085 Y-18.166
X-72.196 Y-18.23
G2 X-72.608 Y-18.094 I-0.141 J0.265
G1 X-72.623 Y-18.028 Z-5.962
X-72.637 Y-17.966 Z-5.939
X-72.624 Y-17.916 Z-5.906
X-72.613 Y-17.874 Z-5.864
X-72.605 Y-17.841 Z-5.814
X-72.599 Y-17.819 Z-5.758
X-72.594 Y-17.81 Z-5.715
X-72.592 Y-17.807 Z-5.67
G0 Z2
X-261.032 Y27.195
Z-7.36
G1 Z-7.66 F650
X-261.026 Y27.19 Z-7.727
X-261.007 Y27.178 Z-7.79
X-260.977 Y27.159 Z-7.847
X-260.937 Y27.133 Z-7.895
X-260.889 Y27.103 Z-7.93
X-260.836 Y27.068 Z-7.952
X-260.78 Y27.032 Z-7.96
G2 X-259.497 Y25.994 I-4.149 J-6.438
G1 X-259.396 Y25.885
X-259.322 Y25.813
X-259.295 Y25.792
X-259.181 Y25.694
X-259.099 Y25.568
X-259.027 Y25.433
X-258.879 Y25.104
X-258.663 Y24.815
X-258.116 Y24.344
X-257.447 Y24.07
X-256.741 Y23.922
X-256.023 Y23.846
X-255.302 Y23.807
X-254.58 Y23.788
X-253.858 Y23.778
X-253.136 Y23.773
X-252.414 Y23.771
X-250.248 Y23.768
X-209.816 Y23.751
X-159.277 Y23.729
X-108.737 Y23.708
X-82.745 Y23.697
X-82.023 Y23.694
X-81.663 Y23.673
X-81.132 Y23.62
X-80.737 Y23.553
X-80.455 Y23.485
X-80.081 Y23.367
X-79.756 Y23.239
X-79.444 Y23.09
X-79.133 Y22.914
X-78.951 Y22.794
X-78.736 Y22.63
X-78.466 Y22.392
X-78.103 Y22.025
X-77.632 Y21.477
X-77.197 Y20.901
X-76.371 Y19.717
X-75.941 Y19.136
X-75.503 Y18.563
X-75.032 Y18.016
X-74.525 Y17.502
X-74 Y17.006
X-73.462 Y16.525
X-72.88 Y16.097
X-72.279 Y15.698
X-71.65 Y15.343
X-70.997 Y15.034
X-70.327 Y14.765
X-69.644 Y14.531
X-68.94 Y14.37
X-68.229 Y14.248
X-67.514 Y14.147
X-66.795 Y14.085
X-66.073 Y14.054
X-65.352 Y14.038
X-64.63 Y14.03
X-63.908 Y14.026
X-62.464 Y14.022
X-61.742
X-36.111 Y14.007
X-35.704 Y14.004
X-35.433 Y13.982
X-35.257 Y13.956
X-35.08 Y13.917
X-34.936 Y13.875
X-34.796 Y13.821
X-34.662 Y13.755
X-34.533 Y13.678
X-34.414 Y13.587
X-34.307 Y13.481
X-34.211 Y13.366
X-34.126 Y13.243
X-34.052 Y13.112
X-33.976 Y12.952
X-33.895 Y12.747
X-33.81 Y12.477
X-33.722 Y12.107
X-33.629 Y11.558
X-33.559 Y10.84
X-33.526 Y10.118
X-33.511 Y9.397
X-33.503 Y8.675
X-33.5 Y7.953
X-33.499 Y6.509
X-33.503 Y0.011
X-33.51 Y-9.375
X-33.511 Y-11.541
X-33.522 Y-11.902
X-33.542 Y-12.129
X-33.567 Y-12.282
X-33.61 Y-12.464
X-33.654 Y-12.607
X-33.709 Y-12.746
X-33.777 Y-12.88
X-33.856 Y-13.008
X-33.948 Y-13.126
X-34.054 Y-13.232
X-34.171 Y-13.327
X-34.296 Y-13.409
X-34.432 Y-13.481
X-34.604 Y-13.559
X-34.827 Y-13.641
X-35.122 Y-13.728
X-35.535 Y-13.819
X-36.173 Y-13.913
X-36.893 Y-13.968
X-37.614 Y-13.995
X-38.336 Y-14.009
X-39.058 Y-14.015
X-39.78 Y-14.019
X-41.224 Y-14.022
X-53.498 Y-14.033
X-65.772 Y-14.043
X-66.494 Y-14.054
X-67.214 Y-14.099
X-67.934 Y-14.16
X-68.642 Y-14.301
X-69.341 Y-14.482
X-70.034 Y-14.685
X-70.714 Y-14.927
X-71.37 Y-15.227
X-72.013 Y-15.557
X-72.629 Y-15.934
X-73.21 Y-16.361
X-73.772 Y-16.815
X-74.323 Y-17.282
X-74.825 Y-17.801
X-75.299 Y-18.345
X-75.757 Y-18.903
X-76.185 Y-19.484
X-76.598 Y-20.077
X-77.003 Y-20.675
X-77.404 Y-21.275
X-77.633 Y-21.59
X-77.909 Y-21.92
X-78.126 Y-22.146
X-78.44 Y-22.429
X-78.77 Y-22.688
X-78.971 Y-22.824
X-79.244 Y-22.983
X-79.514 Y-23.116
X-79.806 Y-23.236
X-80.188 Y-23.362
X-80.534 Y-23.451
X-81.038 Y-23.543
X-81.756 Y-23.623
X-82.477 Y-23.661
X-83.198 Y-23.68
X-83.92 Y-23.689
X-84.642 Y-23.693
X-85.364 Y-23.696
X-87.53 Y-23.698
X-127.24 Y-23.711
X-177.78 Y-23.728
X-228.319 Y-23.744
X-256.658 Y-23.753
X-256.836 Y-23.78
X-257.174 Y-23.908
X-257.458 Y-24.13
X-257.922 Y-24.684
X-258.009 Y-24.902
X-258.102 Y-25.073
X-258.233 Y-25.216
X-258.394 Y-25.324
X-258.576 Y-25.391
G2 X-258.885 Y-25.316 Z-7.249 I-0.094 J0.285
G1 X-258.926 Y-25.262 Z-7.105 F1200
X-258.955 Y-25.201 Z-6.96
X-258.966 Y-25.156
X-258.97 Y-25.111
X-259.77 Y25.544
X-259.764 Y25.608
X-259.745 Y25.669
X-259.713 Y25.725
X-259.667 Y25.775 Z-7.105
X-259.611 Y25.814 Z-7.249
G2 X-259.295 Y25.792 Z-7.96 I0.141 J-0.265 F650
G1 X-259.111 Y25.649
X-259.068 Y25.619
X-258.904 Y25.527
X-258.821 Y25.485
X-258.74 Y25.453
X-258.576 Y25.391
X-258.412 Y25.353
X-257.71 Y25.186
X-257.004 Y25.033
X-256.29 Y24.928
X-255.571 Y24.861
X-254.85 Y24.821
X-254.128 Y24.798
X-253.406 Y24.785
X-252.684 Y24.777
X-251.962 Y24.773
X-250.518 Y24.769
X-246.908 Y24.766
X-207.921 Y24.75
X-157.381 Y24.729
X-106.841 Y24.707
X-83.738 Y24.697
X-83.016 Y24.696
X-82.294 Y24.684
X-81.596 Y24.64
X-81.048 Y24.567
X-80.564 Y24.468
X-80.113 Y24.343
X-79.685 Y24.192
X-79.314 Y24.031
X-78.974 Y23.855
X-78.637 Y23.649
X-78.273 Y23.391
X-77.862 Y23.054
X-77.45 Y22.667
X-76.96 Y22.136
X-76.506 Y21.575
X-76.073 Y20.997
X-75.644 Y20.416
X-75.211 Y19.839
X-74.761 Y19.274
X-74.282 Y18.734
X-73.779 Y18.216
X-73.253 Y17.721
X-72.696 Y17.263
X-72.109 Y16.841
X-71.495 Y16.463
X-70.854 Y16.129
X-70.193 Y15.839
X-69.51 Y15.604
X-68.811 Y15.423
X-68.103 Y15.282
X-67.389 Y15.181
X-66.669 Y15.116
X-65.949 Y15.076
X-65.227 Y15.052
X-64.505 Y15.039
X-63.783 Y15.031
X-63.061 Y15.027
X-62.339 Y15.024
X-60.173 Y15.021
X-37.069 Y15.008
X-36.347 Y15.005
X-35.892 Y14.976
X-35.56 Y14.932
X-35.279 Y14.874
X-35.039 Y14.807
X-34.83 Y14.733
X-34.641 Y14.651
X-34.467 Y14.56
X-34.303 Y14.46
X-34.152 Y14.353
X-34.008 Y14.234
X-33.867 Y14.102
X-33.727 Y13.95
X-33.588 Y13.776
X-33.457 Y13.588
X-33.321 Y13.359
X-33.191 Y13.102
X-33.058 Y12.786
X-32.932 Y12.419
X-32.809 Y11.954
X-32.691 Y11.346
X-32.604 Y10.629
X-32.555 Y9.909
X-32.528 Y9.187
X-32.514 Y8.465
X-32.506 Y7.744
X-32.502 Y7.022
X-32.5 Y6.3
Y4.134
X-32.51 Y-9.584
X-32.511 Y-10.306
X-32.513 Y-11.028
X-32.535 Y-11.519
X-32.577 Y-11.885
X-32.631 Y-12.173
X-32.695 Y-12.424
X-32.769 Y-12.645
X-32.848 Y-12.837
X-32.935 Y-13.013
X-33.03 Y-13.174
X-33.134 Y-13.327
X-33.249 Y-13.473
X-33.378 Y-13.615
X-33.521 Y-13.752
X-33.682 Y-13.886
X-33.873 Y-14.024
X-34.084 Y-14.155
X-34.335 Y-14.288
X-34.632 Y-14.42
X-34.991 Y-14.55
X-35.426 Y-14.675
X-35.975 Y-14.792
X-36.69 Y-14.893
X-37.41 Y-14.95
X-38.131 Y-14.982
X-38.853 Y-15.001
X-39.575 Y-15.011
X-40.297 Y-15.016
X-41.019 Y-15.02
X-42.463 Y-15.023
X-49.683 Y-15.03
X-64.844 Y-15.042
X-65.566 Y-15.046
X-66.288 Y-15.067
X-67.009 Y-15.106
X-67.726 Y-15.194
X-68.435 Y-15.33
X-69.136 Y-15.503
X-69.825 Y-15.719
X-70.497 Y-15.983
X-71.15 Y-16.291
X-71.776 Y-16.65
X-72.375 Y-17.053
X-72.953 Y-17.486
X-73.499 Y-17.959
X-74.011 Y-18.467
X-74.497 Y-19.002
X-74.953 Y-19.561
X-75.388 Y-20.137
X-75.808 Y-20.725
X-76.219 Y-21.319
X-76.646 Y-21.901
X-77.018 Y-22.344
X-77.398 Y-22.737
X-77.739 Y-23.045
X-78.071 Y-23.304
X-78.409 Y-23.533
X-78.774 Y-23.745
X-79.152 Y-23.931
X-79.562 Y-24.098
X-80.005 Y-24.244
X-80.571 Y-24.387
X-81.265 Y-24.513
X-81.983 Y-24.592
X-82.704 Y-24.639
X-83.425 Y-24.665
X-84.147 Y-24.68
X-84.869 Y-24.688
X-85.591 Y-24.693
X-86.313 Y-24.695
X-87.757 Y-24.698
X-98.587 Y-24.702
X-126.023 Y-24.711
X-176.562 Y-24.727
X-227.102 Y-24.743
X-255.26 Y-24.753
X-255.617 Y-24.8
X-256.294 Y-25.052
X-256.441 Y-25.154
X-256.589 Y-25.237
X-256.75 Y-25.288
X-256.919 Y-25.305
X-257.592
X-258.084 Y-25.309
X-258.207 Y-25.321
X-258.412 Y-25.353
X-258.576 Y-25.391
G2 X-258.873 Y-25.28 Z-7.249 I-0.059 J0.294
G1 X-258.908 Y-25.221 Z-7.105 F1200
X-258.929 Y-25.157 Z-6.96
X-258.935 Y-25.096
X-258.747 Y25.056
X-258.745 Y25.09
X-258.729 Y25.156 Z-7.105
X-258.699 Y25.217 Z-7.249
G2 X-258.412 Y25.353 Z-7.96 I0.252 J-0.162 F650
G1 X-258.207 Y25.321
X-258.084 Y25.309
X-257.592 Y25.305
X-184.439 Y25.313
X-81.762 Y25.295
X-81.27 Y25.278
X-81.106 Y25.266
X-80.45 Y25.199
X-80.286 Y25.182
X-80.122 Y25.162
X-80.101 Y25.157
X-79.063 Y24.83
X-79.018 Y24.814
X-78.974 Y24.793
X-77.99 Y24.244
X-77.902 Y24.174
X-77.136 Y23.518
X-77.062 Y23.453
X-77.006 Y23.387
X-76.842 Y23.178
X-76.678 Y22.964
X-76.349 Y22.531
X-76.185 Y22.288
X-76.021 Y22.04
X-75.713 Y21.552
X-75.303 Y20.896
X-74.986 Y20.404
X-74.862 Y20.241
X-74.545 Y19.843
X-74.473 Y19.749
X-74.104 Y19.257
X-73.889 Y18.979
X-73.675 Y18.766
X-73.561 Y18.663
X-72.559 Y17.782
X-72.413 Y17.657
X-72.363 Y17.618
X-72.249 Y17.542
X-71.757 Y17.25
X-70.967 Y16.799
X-70.773 Y16.688
X-70.677 Y16.635
X-70.609 Y16.607
X-70.244 Y16.471
X-70.117 Y16.426
X-69.133 Y16.091
X-68.969 Y16.043
X-68.641 Y15.95
X-68.477 Y15.924
X-67.984 Y15.87
X-67.328 Y15.8
X-67 Y15.765
X-66.508 Y15.747
X-66.344 Y15.745
X-36
X-35.563 Y15.723
X-35.311 Y15.693
X-35.061 Y15.645
X-34.817 Y15.581
X-34.58 Y15.5
X-34.35 Y15.404
X-34.128 Y15.292
X-33.911 Y15.164
X-33.7 Y15.018
X-33.495 Y14.855
X-33.293 Y14.669
X-33.095 Y14.46
X-32.904 Y14.229
X-32.723 Y13.974
X-32.542 Y13.681
X-32.361 Y13.333
X-32.197 Y12.959
X-32.036 Y12.508
X-32.031 Y12.491
X-32.014 Y12.417
X-32.003 Y12.341
X-32 Y12.265
G2 X-32.177 Y12.002 Z-7.249 I-0.3 J0.01
G1 X-32.242 Y11.981 Z-7.105 F1200
X-32.31 Y11.976 Z-6.96
X-32.377 Y11.986
X-32.44 Y12.01
X-32.495 Y12.048
X-36.185 Y15.218
X-36.228 Y15.262
X-36.26 Y15.315
X-36.281 Y15.374
X-36.29 Y15.435
X-36.284 Y15.503 Z-7.105
X-36.264 Y15.568 Z-7.249
G2 X-36 Y15.745 Z-7.96 I0.274 J-0.122 F650
G1 X-34.196
X-34.046 Y15.737
X-33.898 Y15.717
X-33.752 Y15.684
X-33.608 Y15.64
X-33.448 Y15.579
X-33.287 Y15.504
X-33.112 Y15.407
X-32.928 Y15.288
X-32.746 Y15.151
X-32.549 Y14.981
X-32.349 Y14.782
X-32.206 Y14.619
X-32.094 Y14.454
X-32.024 Y14.268
X-32 Y14.07
G2 X-32.177 Y13.807 Z-7.249 I-0.3 J0.01
G1 X-32.242 Y13.786 Z-7.105 F1200
X-32.31 Y13.781 Z-6.96
X-32.369 Y13.789
X-32.425 Y13.808
X-32.476 Y13.838
X-34.362 Y15.202
G2 X-34.486 Y15.435 I0.176 J0.243
G1 X-34.48 Y15.503 Z-7.105
X-34.46 Y15.568 Z-7.249
G2 X-34.196 Y15.745 Z-7.96 I0.274 J-0.122 F650
G1 X-33.048
X-32.898 Y15.737
X-32.751 Y15.71
X-32.606 Y15.669
X-32.54 Y15.644
X-32.362 Y15.551
X-32.211 Y15.418
X-32.096 Y15.253
X-32.024 Y15.064
X-32 Y14.864
G2 X-32.177 Y14.601 Z-7.249 I-0.3 J0.01
G1 X-32.242 Y14.58 Z-7.105 F1200
X-32.31 Y14.575 Z-6.96
X-32.372 Y14.583
X-32.43 Y14.605
X-32.483 Y14.637
X-33.221 Y15.208
G2 X-33.337 Y15.435 I0.183 J0.237
G1 X-33.332 Y15.503 Z-7.105
X-33.312 Y15.568 Z-7.249
G2 X-33.048 Y15.745 Z-7.96 I0.274 J-0.122 F650
G1 X-32.347
X-32.31 Y15.744
X-32.269 Y15.739
X-32.228 Y15.728
X-32.198 Y15.715
X-32.169 Y15.699
X-32.139 Y15.678
X-32.11 Y15.652
X-32.084 Y15.624
X-32.064 Y15.597
X-32.048 Y15.57
X-32.036 Y15.542
X-32.027 Y15.515
X-32.02 Y15.488
X-32.006 Y15.406
X-32.001 Y15.365
X-32 Y15.324
Y-12.21
X-32.008 Y-12.374
X-32.03 Y-12.556
X-32.066 Y-12.744
X-32.116 Y-12.933
X-32.18 Y-13.122
X-32.26 Y-13.313
X-32.356 Y-13.504
X-32.469 Y-13.696
X-32.602 Y-13.888
X-32.755 Y-14.08
X-32.924 Y-14.264
X-33.116 Y-14.446
X-33.339 Y-14.63
X-33.599 Y-14.815
X-33.877 Y-14.986
X-34.203 Y-15.156
X-34.601 Y-15.33
X-35.026 Y-15.482
X-35.565 Y-15.633
X-36.019 Y-15.728
X-36.075 Y-15.737
X-36.131 Y-15.743
X-36.188 Y-15.745
G2 X-36.452 Y-15.568 Z-7.249 I0.01 J0.3
G1 X-36.472 Y-15.503 Z-7.105 F1200
X-36.478 Y-15.435 Z-6.96
X-36.469 Y-15.372
X-36.447 Y-15.313
X-36.414 Y-15.26
X-36.37 Y-15.214
X-32.492 Y-11.99
X-32.437 Y-11.953
X-32.375 Y-11.93
X-32.31 Y-11.921
X-32.242 Y-11.926 Z-7.105
X-32.177 Y-11.947 Z-7.249
G2 X-32 Y-12.21 Z-7.96 I-0.122 J-0.274 F650
G1 Y-13.521
X-32.007 Y-13.671
X-32.026 Y-13.82
X-32.059 Y-13.966
X-32.105 Y-14.109
X-32.161 Y-14.248
X-32.234 Y-14.4
X-32.326 Y-14.561
X-32.437 Y-14.726
X-32.576 Y-14.906
X-32.731 Y-15.08
X-32.922 Y-15.266
X-33.15 Y-15.46
X-33.316 Y-15.583
X-33.468 Y-15.671
X-33.635 Y-15.726
X-33.81 Y-15.745
G2 X-34.074 Y-15.568 Z-7.249 I0.01 J0.3
G1 X-34.094 Y-15.503 Z-7.105 F1200
X-34.1 Y-15.435 Z-6.96
X-34.091 Y-15.373
X-34.07 Y-15.313
X-34.036 Y-15.26
X-32.536 Y-13.346
G2 X-32.31 Y-13.232 I0.236 J-0.185
G1 X-32.242 Y-13.237 Z-7.105
X-32.177 Y-13.258 Z-7.249
G2 X-32 Y-13.521 Z-7.96 I-0.122 J-0.274 F650
G1 Y-14.595
X-32.007 Y-14.744
X-32.033 Y-14.892
X-32.073 Y-15.037
X-32.125 Y-15.177
X-32.164 Y-15.261
X-32.293 Y-15.459
X-32.472 Y-15.614
X-32.687 Y-15.711
X-32.921 Y-15.745
G2 X-33.184 Y-15.568 Z-7.249 I0.01 J0.3
G1 X-33.204 Y-15.503 Z-7.105 F1200
X-33.21 Y-15.435 Z-6.96
X-33.202 Y-15.376
X-33.183 Y-15.32
X-33.153 Y-15.269
X-32.543 Y-14.429
G2 X-32.31 Y-14.305 I0.243 J-0.176
G1 X-32.242 Y-14.311 Z-7.105
X-32.177 Y-14.331 Z-7.249
G2 X-32 Y-14.595 Z-7.96 I-0.122 J-0.274 F650
G1 Y-15.324
X-32.001 Y-15.365
X-32.006 Y-15.406
X-32.02 Y-15.488
X-32.027 Y-15.515
X-32.036 Y-15.542
X-32.048 Y-15.57
X-32.064 Y-15.597
X-32.084 Y-15.624
X-32.11 Y-15.652
X-32.139 Y-15.678
X-32.169 Y-15.699
X-32.198 Y-15.715
X-32.228 Y-15.728
X-32.269 Y-15.739
X-32.31 Y-15.744
X-32.884 Y-15.745
X-66.344
X-66.508 Y-15.747
X-67 Y-15.765
X-67.656 Y-15.835
X-68.148 Y-15.887
X-68.477 Y-15.924
X-68.641 Y-15.95
X-68.969 Y-16.043
X-69.133 Y-16.091
X-70.117 Y-16.426
X-70.281 Y-16.485
X-70.609 Y-16.607
X-70.677 Y-16.635
X-70.773 Y-16.688
X-71.541 Y-17.127
X-71.757 Y-17.25
X-72.249 Y-17.542
X-72.363 Y-17.618
X-72.413 Y-17.657
X-72.577 Y-17.798
X-73.561 Y-18.663
X-73.675 Y-18.766
X-73.889 Y-18.979
X-74.104 Y-19.257
X-74.473 Y-19.749
X-74.545 Y-19.843
X-74.873 Y-20.254
X-74.986 Y-20.404
X-75.303 Y-20.896
X-75.713 Y-21.552
X-76.021 Y-22.04
X-76.241 Y-22.371
X-76.353 Y-22.535
X-76.725 Y-23.027
X-76.852 Y-23.191
X-77.006 Y-23.387
X-77.062 Y-23.453
X-77.17 Y-23.547
X-77.662 Y-23.968
X-77.902 Y-24.174
X-77.99 Y-24.244
X-78.974 Y-24.793
X-79.018 Y-24.814
X-79.063 Y-24.83
X-80.101 Y-25.157
X-80.122 Y-25.162
X-80.286 Y-25.182
X-81.106 Y-25.266
X-81.27 Y-25.278
X-81.762 Y-25.295
X-187.719 Y-25.313
X-256.919 Y-25.305
G2 X-257.208 Y-25.006 I0.011 J0.3
G1 Y-25.005
X-257.207 Y-24.98
X-257.19 Y-24.93 Z-7.955
X-257.173 Y-24.882 Z-7.941
X-257.157 Y-24.837 Z-7.918
X-257.12 Y-24.804 Z-7.881
X-257.09 Y-24.777 Z-7.834
X-257.068 Y-24.757 Z-7.78
X-257.054 Y-24.744 Z-7.722
X-257.049 Y-24.74 Z-7.66
G0 Z2
X-261.054 Y26.493
Z-9.35
G1 Z-9.65 F650
X-261.048 Y26.489 Z-9.717
X-261.029 Y26.477 Z-9.78
X-260.999 Y26.458 Z-9.837
X-260.958 Y26.433 Z-9.885
X-260.91 Y26.403 Z-9.92
X-260.856 Y26.37 Z-9.942
X-260.799 Y26.335 Z-9.95
G2 X-259.497 Y25.321 I-4.027 J-6.515
G1 X-259.396 Y25.216
X-259.334 Y25.157
X-259.303 Y25.13
X-259.196 Y25.026
X-259.111 Y24.902
X-259.039 Y24.771
X-258.962 Y24.607
X-258.881 Y24.397
X-258.796 Y24.119
X-258.707 Y23.737
X-258.615 Y23.165
X-258.55 Y22.445
X-258.52 Y21.724
X-258.513 Y21.363
X-258.403 Y21.019
X-258.191 Y20.727
X-257.649 Y20.25
X-256.983 Y19.972
X-256.276 Y19.822
X-255.559 Y19.744
X-254.838 Y19.705
X-254.116 Y19.685
X-253.394 Y19.675
X-252.672 Y19.67
X-251.95 Y19.667
X-249.784 Y19.664
X-212.962 Y19.643
X-162.423 Y19.615
X-111.883 Y19.586
X-83.003 Y19.57
X-82.281 Y19.562
X-81.921 Y19.544
X-81.326 Y19.488
X-81.034 Y19.44
X-80.725 Y19.367
X-80.42 Y19.272
X-80.052 Y19.129
X-79.809 Y19.014
X-79.528 Y18.857
X-79.338 Y18.733
X-79.151 Y18.591
X-78.922 Y18.391
X-78.628 Y18.097
X-78.312 Y17.732
X-78.013 Y17.335
X-77.62 Y16.729
X-77.264 Y16.101
X-76.925 Y15.464
X-76.59 Y14.824
X-76.257 Y14.183
X-75.594 Y12.9
X-75.251 Y12.265
X-74.867 Y11.654
X-74.462 Y11.056
X-74.046 Y10.466
X-73.598 Y9.9
X-73.121 Y9.358
X-72.631 Y8.828
X-72.134 Y8.304
X-71.603 Y7.814
X-71.043 Y7.359
X-70.456 Y6.939
X-69.843 Y6.557
X-69.18 Y6.272
X-68.495 Y6.042
X-67.802 Y5.842
X-67.088 Y5.731
X-66.369 Y5.673
X-65.647 Y5.644
X-64.925 Y5.629
X-64.203 Y5.621
X-63.481 Y5.617
X-62.037 Y5.612
X-53.373 Y5.598
X-36.046 Y5.57
X-35.685 Y5.566
X-35.422 Y5.546
X-35.25 Y5.52
X-35.073 Y5.481
X-34.929 Y5.439
X-34.788 Y5.386
X-34.654 Y5.32
X-34.525 Y5.242
X-34.406 Y5.152
X-34.299 Y5.047
X-34.202 Y4.932
X-34.119 Y4.807
X-34.048 Y4.675
X-33.971 Y4.508
X-33.89 Y4.292
X-33.805 Y4.007
X-33.716 Y3.613
X-33.624 Y3.014
X-33.564 Y2.295
X-33.536 Y1.573
X-33.524 Y0.851
X-33.518 Y0.129
X-33.517 Y-0.593
Y-2.037
X-33.519 Y-3.12
X-33.527 Y-3.491
X-33.547 Y-3.713
X-33.575 Y-3.883
X-33.61 Y-4.037
X-33.655 Y-4.18
X-33.709 Y-4.32
X-33.778 Y-4.453
X-33.858 Y-4.58
X-33.95 Y-4.698
X-34.057 Y-4.804
X-34.173 Y-4.899
X-34.299 Y-4.981
X-34.434 Y-5.054
X-34.607 Y-5.132
X-34.831 Y-5.214
X-35.128 Y-5.301
X-35.544 Y-5.392
X-36.187 Y-5.487
X-36.907 Y-5.542
X-37.628 Y-5.569
X-38.35 Y-5.583
X-39.072 Y-5.59
X-39.794 Y-5.594
X-40.516 Y-5.597
X-43.404 Y-5.603
X-65.786 Y-5.638
X-66.508 Y-5.648
X-67.224 Y-5.738
X-67.935 Y-5.868
X-68.631 Y-6.058
X-69.302 Y-6.325
X-69.945 Y-6.654
X-70.56 Y-7.031
X-71.145 Y-7.455
X-71.692 Y-7.926
X-72.217 Y-8.421
X-72.732 Y-8.928
X-73.222 Y-9.458
X-73.68 Y-10.016
X-74.122 Y-10.587
X-74.556 Y-11.164
X-74.946 Y-11.771
X-75.311 Y-12.394
X-75.664 Y-13.024
X-76.01 Y-13.658
X-76.338 Y-14.301
X-76.657 Y-14.949
X-76.972 Y-15.599
X-77.303 Y-16.24
X-77.654 Y-16.871
X-77.841 Y-17.18
X-78.063 Y-17.512
X-78.268 Y-17.777
X-78.476 Y-18.011
X-78.766 Y-18.293
X-79.032 Y-18.52
X-79.227 Y-18.663
X-79.464 Y-18.814
X-79.668 Y-18.925
X-79.941 Y-19.049
X-80.26 Y-19.168
X-80.558 Y-19.257
X-80.977 Y-19.351
X-81.627 Y-19.449
X-82.346 Y-19.508
X-83.068 Y-19.539
X-83.789 Y-19.556
X-84.511 Y-19.568
X-85.233 Y-19.575
X-85.955 Y-19.579
X-87.399 Y-19.582
X-95.341 Y-19.585
X-135.051 Y-19.598
X-185.591 Y-19.615
X-236.13 Y-19.632
X-256.707 Y-19.639
X-256.883 Y-19.678
X-257.214 Y-19.822
X-257.492 Y-20.053
X-257.941 Y-20.618
X-258.2 Y-21.292
X-258.339 Y-22
X-258.411 Y-22.718
X-258.447 Y-23.44
X-258.465 Y-24.147
X-258.499 Y-24.362
X-258.587 Y-24.561
X-258.725 Y-24.731
X-258.901 Y-24.859
G2 X-259.285 Y-24.425 I-0.134 J0.269
G1 X-259.248 Y-24.369 Z-9.942
X-259.213 Y-24.316 Z-9.92
X-259.181 Y-24.269 Z-9.885
X-259.155 Y-24.229 Z-9.837
X-259.135 Y-24.199 Z-9.78
X-259.123 Y-24.181 Z-9.717
X-259.119 Y-24.174 Z-9.65
G0 Z2
X-260.311 Y25.516
Z-9.35
G1 Z-9.65 F650
X-260.303 Y25.514 Z-9.717
X-260.282 Y25.51 Z-9.78
X-260.246 Y25.504 Z-9.837
X-260.2 Y25.495 Z-9.885
X-260.144 Y25.485 Z-9.92
X-260.081 Y25.473 Z-9.942
X-260.016 Y25.461 Z-9.95
G2 X-259.303 Y25.13 I-0.289 J-1.556
G1 X-259.232 Y25.068
X-259.132 Y24.993
X-259.068 Y24.949
X-258.847 Y24.83
X-258.715 Y24.758
X-258.597 Y24.666
X-258.49 Y24.561
X-258.393 Y24.446
X-258.296 Y24.31
X-258.206 Y24.164
X-258.11 Y23.98
X-258.004 Y23.737
X-257.905 Y23.462
X-257.8 Y23.09
X-257.653 Y22.383
X-257.473 Y22.07
X-256.998 Y21.526
X-256.374 Y21.164
X-255.686 Y20.944
X-254.975 Y20.817
X-254.257 Y20.747
X-253.536 Y20.708
X-252.814 Y20.688
X-252.092 Y20.677
X-251.37 Y20.671
X-250.648 Y20.667
X-249.204 Y20.664
X-241.262 Y20.659
X-210.938 Y20.642
X-160.399 Y20.614
X-109.859 Y20.585
X-83.867 Y20.571
X-83.145 Y20.567
X-82.423 Y20.549
X-81.769 Y20.504
X-81.27 Y20.435
X-80.791 Y20.334
X-80.365 Y20.214
X-79.969 Y20.071
X-79.633 Y19.923
X-79.311 Y19.754
X-78.984 Y19.552
X-78.665 Y19.322
X-78.328 Y19.044
X-77.986 Y18.717
X-77.606 Y18.302
X-77.232 Y17.83
X-76.823 Y17.234
X-76.449 Y16.617
X-76.094 Y15.988
X-75.751 Y15.353
X-75.413 Y14.715
X-75.079 Y14.075
X-74.741 Y13.437
X-74.381 Y12.811
X-73.997 Y12.199
X-73.596 Y11.599
X-73.167 Y11.018
X-72.713 Y10.457
X-72.239 Y9.912
X-71.748 Y9.383
X-71.23 Y8.88
X-70.683 Y8.409
X-70.106 Y7.974
X-69.488 Y7.601
X-68.833 Y7.297
X-68.154 Y7.052
X-67.453 Y6.88
X-66.739 Y6.77
X-66.021 Y6.703
X-65.3 Y6.664
X-64.578 Y6.641
X-63.856 Y6.628
X-63.134 Y6.62
X-62.412 Y6.616
X-60.968 Y6.611
X-55.914 Y6.602
X-37.142 Y6.572
X-36.42 Y6.569
X-35.947 Y6.545
X-35.599 Y6.503
X-35.316 Y6.448
X-35.069 Y6.383
X-34.853 Y6.309
X-34.661 Y6.228
X-34.485 Y6.14
X-34.327 Y6.046
X-34.178 Y5.943
X-34.035 Y5.828
X-33.894 Y5.698
X-33.754 Y5.551
X-33.622 Y5.39
X-33.488 Y5.202
X-33.352 Y4.98
X-33.226 Y4.737
X-33.089 Y4.422
X-32.967 Y4.081
X-32.84 Y3.624
X-32.726 Y3.07
X-32.629 Y2.355
X-32.576 Y1.635
X-32.547 Y0.913
X-32.531 Y0.192
X-32.524 Y-0.53
X-32.52 Y-1.252
X-32.519 Y-1.974
X-32.522 Y-2.696
X-32.546 Y-3.155
X-32.588 Y-3.501
X-32.641 Y-3.777
X-32.706 Y-4.022
X-32.78 Y-4.239
X-32.86 Y-4.43
X-32.948 Y-4.604
X-33.043 Y-4.763
X-33.148 Y-4.914
X-33.263 Y-5.059
X-33.395 Y-5.201
X-33.541 Y-5.339
X-33.703 Y-5.472
X-33.895 Y-5.609
X-34.112 Y-5.742
X-34.365 Y-5.873
X-34.671 Y-6.007
X-35.033 Y-6.135
X-35.486 Y-6.261
X-36.049 Y-6.377
X-36.765 Y-6.473
X-37.485 Y-6.528
X-38.206 Y-6.559
X-38.928 Y-6.577
X-39.65 Y-6.587
X-40.372 Y-6.593
X-41.094 Y-6.596
X-42.538 Y-6.601
X-51.924 Y-6.616
X-64.92 Y-6.637
X-65.642 Y-6.641
X-66.362 Y-6.685
X-67.078 Y-6.776
X-67.784 Y-6.928
X-68.471 Y-7.152
X-69.131 Y-7.443
X-69.762 Y-7.794
X-70.358 Y-8.202
X-70.922 Y-8.653
X-71.462 Y-9.132
X-71.977 Y-9.638
X-72.463 Y-10.172
X-72.928 Y-10.725
X-73.372 Y-11.294
X-73.787 Y-11.885
X-74.175 Y-12.494
X-74.544 Y-13.114
X-74.898 Y-13.743
X-75.238 Y-14.38
X-75.566 Y-15.023
X-75.891 Y-15.668
X-76.222 Y-16.31
X-76.567 Y-16.944
X-76.897 Y-17.495
X-77.208 Y-17.941
X-77.525 Y-18.334
X-77.821 Y-18.653
X-78.119 Y-18.933
X-78.411 Y-19.171
X-78.716 Y-19.386
X-79.041 Y-19.584
X-79.377 Y-19.757
X-79.752 Y-19.919
X-80.213 Y-20.081
X-80.693 Y-20.213
X-81.344 Y-20.344
X-82.06 Y-20.438
X-82.779 Y-20.495
X-83.5 Y-20.53
X-84.222 Y-20.551
X-84.944 Y-20.565
X-85.666 Y-20.572
X-86.388 Y-20.577
X-87.11 Y-20.58
X-88.554 Y-20.582
X-97.218 Y-20.586
X-134.04 Y-20.598
X-184.579 Y-20.615
X-235.119 Y-20.632
X-255.335 Y-20.638
X-255.689 Y-20.705
X-256.017 Y-20.857
X-256.303 Y-21.077
X-256.786 Y-21.614
X-257.09 Y-22.268
X-257.269 Y-22.968
X-257.375 Y-23.648
X-257.442 Y-23.944
X-257.477 Y-24.058
X-257.582 Y-24.281
X-257.748 Y-24.463
X-257.959 Y-24.588
X-258.198 Y-24.647
G2 X-258.477 Y-24.495 Z-9.239 I-0.017 J0.3
G1 X-258.503 Y-24.432 Z-9.095 F1200
X-258.515 Y-24.365 Z-8.95
Y-24.352
X-259.266 Y24.55
X-259.26 Y24.613
X-259.241 Y24.674
X-259.207 Y24.733 Z-9.095
X-259.161 Y24.783 Z-9.239
G2 X-258.847 Y24.83 Z-9.95 I0.195 J-0.228 F650
G1 X-258.74 Y24.779
X-258.576 Y24.721
X-258.412 Y24.678
X-258.355 Y24.666
X-258.208 Y24.634
X-258.071 Y24.574
X-257.943 Y24.496
X-257.823 Y24.405
X-257.713 Y24.303
X-257.607 Y24.189
X-257.505 Y24.061
X-257.39 Y23.895
X-257.02 Y23.275
X-256.549 Y22.728
X-255.948 Y22.328
X-255.276 Y22.063
X-254.574 Y21.896
X-253.859 Y21.797
X-253.139 Y21.739
X-252.418 Y21.706
X-251.696 Y21.687
X-250.974 Y21.677
X-250.252 Y21.671
X-249.53 Y21.667
X-248.086 Y21.664
X-242.31 Y21.66
X-209.099 Y21.641
X-158.559 Y21.613
X-108.019 Y21.584
X-84.915 Y21.571
X-84.193 Y21.57
X-83.471 Y21.564
X-82.75 Y21.545
X-82.029 Y21.499
X-81.368 Y21.416
X-80.809 Y21.307
X-80.302 Y21.17
X-79.835 Y21.009
X-79.394 Y20.821
X-78.973 Y20.607
X-78.561 Y20.359
X-78.152 Y20.074
X-77.733 Y19.736
X-77.309 Y19.342
X-76.887 Y18.892
X-76.438 Y18.341
X-76.022 Y17.751
X-75.636 Y17.141
X-75.271 Y16.518
X-74.919 Y15.888
X-74.576 Y15.252
X-74.236 Y14.615
X-73.887 Y13.983
X-73.522 Y13.361
X-73.137 Y12.75
X-72.728 Y12.155
X-72.295 Y11.577
X-71.839 Y11.018
X-71.36 Y10.477
X-70.856 Y9.96
X-70.323 Y9.474
X-69.753 Y9.03
X-69.142 Y8.645
X-68.494 Y8.328
X-67.813 Y8.087
X-67.112 Y7.916
X-66.399 Y7.801
X-65.681 Y7.727
X-64.96 Y7.681
X-64.239 Y7.652
X-63.517 Y7.635
X-62.795 Y7.625
X-62.073 Y7.618
X-61.351 Y7.614
X-59.907 Y7.609
X-54.853 Y7.6
X-37.525 Y7.572
X-36.803 Y7.564
X-36.219 Y7.531
X-35.751 Y7.472
X-35.37 Y7.397
X-35.029 Y7.305
X-34.733 Y7.203
X-34.462 Y7.088
X-34.208 Y6.958
X-33.968 Y6.814
X-33.741 Y6.656
X-33.524 Y6.48
X-33.313 Y6.285
X-33.111 Y6.069
X-32.911 Y5.823
X-32.724 Y5.558
X-32.546 Y5.265
X-32.366 Y4.917
X-32.19 Y4.506
X-32.038 Y4.076
X-32.03 Y4.044
X-32.013 Y3.971
X-32.003 Y3.898
X-32 Y3.823
Y-3.688
X-32.013 Y-3.951
X-32.035 Y-4.133
X-32.071 Y-4.319
X-32.12 Y-4.507
X-32.184 Y-4.695
X-32.264 Y-4.886
X-32.36 Y-5.078
X-32.474 Y-5.27
X-32.607 Y-5.463
X-32.758 Y-5.652
X-32.926 Y-5.835
X-33.12 Y-6.019
X-33.345 Y-6.205
X-33.602 Y-6.387
X-33.878 Y-6.557
X-34.211 Y-6.731
X-34.608 Y-6.905
X-35.027 Y-7.055
X-35.574 Y-7.208
X-36.247 Y-7.348
X-36.962 Y-7.445
X-37.682 Y-7.506
X-38.403 Y-7.543
X-39.124 Y-7.566
X-39.846 Y-7.58
X-40.568 Y-7.589
X-41.29 Y-7.594
X-42.012 Y-7.598
X-43.456 Y-7.602
X-50.676 Y-7.614
X-64.394 Y-7.636
X-65.116 Y-7.645
X-65.837 Y-7.681
X-66.555 Y-7.761
X-67.263 Y-7.901
X-67.954 Y-8.112
X-68.617 Y-8.396
X-69.247 Y-8.748
X-69.844 Y-9.156
X-70.409 Y-9.605
X-70.944 Y-10.09
X-71.449 Y-10.605
X-71.929 Y-11.145
X-72.382 Y-11.707
X-72.807 Y-12.29
X-73.207 Y-12.892
X-73.586 Y-13.506
X-73.946 Y-14.132
X-74.291 Y-14.766
X-74.626 Y-15.406
X-74.959 Y-16.046
X-75.296 Y-16.685
X-75.648 Y-17.315
X-76.027 Y-17.93
X-76.391 Y-18.44
X-76.755 Y-18.882
X-77.117 Y-19.264
X-77.481 Y-19.599
X-77.851 Y-19.895
X-78.235 Y-20.16
X-78.639 Y-20.4
X-79.082 Y-20.623
X-79.56 Y-20.824
X-80.121 Y-21.014
X-80.77 Y-21.186
X-81.479 Y-21.322
X-82.195 Y-21.414
X-82.915 Y-21.475
X-83.635 Y-21.515
X-84.357 Y-21.541
X-85.079 Y-21.557
X-85.801 Y-21.568
X-86.523 Y-21.574
X-87.245 Y-21.578
X-88.689 Y-21.581
X-92.299 Y-21.584
X-124.788 Y-21.595
X-175.328 Y-21.612
X-225.868 Y-21.629
X-254.026 Y-21.638
X-254.384 Y-21.677
X-254.729 Y-21.786
X-255.042 Y-21.965
X-255.592 Y-22.433
X-255.966 Y-23.051
X-256.248 Y-23.715
X-256.38 Y-23.994
X-256.508 Y-24.22
X-256.531 Y-24.256
X-256.665 Y-24.413
X-256.832 Y-24.532
X-257.024 Y-24.607
X-257.228 Y-24.632
X-257.592
X-258.084 Y-24.636
X-258.198 Y-24.647
G2 X-258.477 Y-24.495 Z-9.239 I-0.017 J0.3
G1 X-258.503 Y-24.432 Z-9.095 F1200
X-258.515 Y-24.365 Z-8.95
Y-24.349
X-258.683 Y24.366
X-258.682 Y24.396
X-258.668 Y24.462 Z-9.095
X-258.639 Y24.524 Z-9.239
G2 X-258.355 Y24.666 Z-9.95 I0.256 J-0.157 F650
G1 X-258.248 Y24.652
X-258.084 Y24.636
X-257.83 Y24.634
X-257.68 Y24.625
X-257.534 Y24.592
X-257.394 Y24.538
X-257.26 Y24.469
X-257.021 Y24.321
X-256.434 Y23.9
X-255.827 Y23.51
X-255.169 Y23.211
X-254.477 Y23.005
X-253.768 Y22.871
X-253.051 Y22.787
X-252.331 Y22.736
X-251.609 Y22.706
X-250.888 Y22.688
X-250.166 Y22.677
X-249.444 Y22.671
X-248.722 Y22.667
X-247.278 Y22.664
X-242.946 Y22.66
X-207.568 Y22.64
X-157.028 Y22.612
X-106.489 Y22.583
X-85.551 Y22.572
X-84.829 Y22.571
X-84.107 Y22.567
X-83.385 Y22.555
X-82.664 Y22.526
X-81.944 Y22.467
X-81.249 Y22.371
X-80.618 Y22.239
X-80.031 Y22.073
X-79.482 Y21.876
X-78.961 Y21.646
X-78.459 Y21.383
X-77.965 Y21.078
X-77.476 Y20.727
X-76.99 Y20.325
X-76.495 Y19.854
X-76.008 Y19.322
X-75.559 Y18.757
X-75.143 Y18.167
X-74.754 Y17.559
X-74.384 Y16.939
X-74.028 Y16.311
X-73.68 Y15.678
X-73.33 Y15.046
X-72.972 Y14.42
X-72.597 Y13.802
X-72.203 Y13.198
X-71.785 Y12.609
X-71.343 Y12.038
X-70.877 Y11.486
X-70.384 Y10.959
X-69.858 Y10.464
X-69.293 Y10.015
X-68.682 Y9.63
X-68.029 Y9.322
X-67.345 Y9.09
X-66.643 Y8.925
X-65.93 Y8.812
X-65.211 Y8.737
X-64.491 Y8.689
X-63.77 Y8.658
X-63.048 Y8.639
X-62.326 Y8.627
X-61.604 Y8.62
X-60.882 Y8.615
X-59.438 Y8.609
X-56.55 Y8.603
X-38.5 Y8.574
X-37.778 Y8.571
X-37.056 Y8.555
X-36.363 Y8.512
X-35.804 Y8.439
X-35.319 Y8.34
X-34.907 Y8.226
X-34.527 Y8.092
X-34.172 Y7.939
X-33.84 Y7.767
X-33.526 Y7.575
X-33.229 Y7.365
X-32.944 Y7.132
X-32.673 Y6.877
X-32.415 Y6.598
X-32.165 Y6.287
X-32.149 Y6.265
X-32.068 Y6.118
X-32.017 Y5.957
X-32 Y5.789
Y3.823
G2 X-32.107 Y3.593 Z-9.394 I-0.3 J0
G1 X-32.134 Y3.568 Z-9.317
X-32.157 Y3.54 Z-9.239
X-32.19 Y3.481 Z-9.095 F1200
X-32.21 Y3.416 Z-8.95
X-32.214 Y3.366
X-32.263 Y-2.778
X-32.259 Y-2.832
X-32.245 Y-2.885
X-32.221 Y-2.934
G2 X-32.086 Y-3.226 I-1.36 J-0.809
G1 X-32.047 Y-3.357 Z-9.239
G2 X-32 Y-3.688 Z-9.95 I-1.535 J-0.386 F650
G1 Y-5.089
X-32.007 Y-5.239
X-32.026 Y-5.387
X-32.059 Y-5.534
X-32.104 Y-5.677
X-32.16 Y-5.816
X-32.234 Y-5.969
X-32.325 Y-6.129
X-32.436 Y-6.295
X-32.575 Y-6.475
X-32.729 Y-6.649
X-32.921 Y-6.836
X-33.147 Y-7.029
X-33.401 Y-7.216
X-33.704 Y-7.409
X-34.06 Y-7.602
X-34.451 Y-7.781
X-34.947 Y-7.967
X-35.525 Y-8.139
X-36.206 Y-8.291
X-36.92 Y-8.4
X-37.638 Y-8.472
X-38.359 Y-8.519
X-39.08 Y-8.55
X-39.802 Y-8.569
X-40.524 Y-8.582
X-41.246 Y-8.59
X-41.968 Y-8.595
X-42.69 Y-8.598
X-44.134 Y-8.603
X-49.91 Y-8.613
X-63.627 Y-8.635
X-64.349 Y-8.64
X-65.071 Y-8.661
X-65.791 Y-8.716
X-66.505 Y-8.825
X-67.205 Y-9.003
X-67.881 Y-9.256
X-68.525 Y-9.581
X-69.135 Y-9.968
X-69.708 Y-10.407
X-70.248 Y-10.886
X-70.756 Y-11.399
X-71.234 Y-11.941
X-71.681 Y-12.507
X-72.101 Y-13.095
X-72.496 Y-13.699
X-72.871 Y-14.316
X-73.228 Y-14.944
X-73.573 Y-15.578
X-73.913 Y-16.215
X-74.256 Y-16.85
X-74.609 Y-17.48
X-74.982 Y-18.098
X-75.387 Y-18.696
X-75.806 Y-19.235
X-76.228 Y-19.705
X-76.651 Y-20.117
X-77.081 Y-20.48
X-77.53 Y-20.809
X-78.005 Y-21.109
X-78.506 Y-21.379
X-79.055 Y-21.628
X-79.673 Y-21.857
X-80.366 Y-22.061
X-81.071 Y-22.217
X-81.783 Y-22.332
X-82.501 Y-22.414
X-83.22 Y-22.471
X-83.941 Y-22.51
X-84.663 Y-22.537
X-85.385 Y-22.554
X-86.107 Y-22.565
X-86.828 Y-22.572
X-87.55 Y-22.576
X-88.272 Y-22.579
X-89.716 Y-22.582
X-94.048 Y-22.585
X-125.094 Y-22.595
X-175.634 Y-22.612
X-226.173 Y-22.629
X-252.887 Y-22.638
X-253.247 Y-22.67
X-253.596 Y-22.76
X-254.249 Y-23.069
X-254.768 Y-23.571
X-255.205 Y-24.145
X-255.345 Y-24.32
X-255.527 Y-24.488
X-255.751 Y-24.595
X-255.996 Y-24.632
X-257.228
G2 X-257.491 Y-24.454 Z-9.239 I0.011 J0.3
G1 X-257.511 Y-24.396 Z-9.11 F1200
X-257.518 Y-24.336 Z-8.98
Y-24.322 Z-8.95
X-258.122 Y24.327
Y24.33 Z-8.958
X-258.116 Y24.396 Z-9.099
X-258.095 Y24.459 Z-9.239
G2 X-257.83 Y24.634 Z-9.95 I0.273 J-0.125 F650
G1 X-257.592 Y24.632
X-256.936
X-256.76 Y24.623
X-256.587 Y24.602
X-256.215 Y24.532
X-255.517 Y24.348
X-254.822 Y24.152
X-254.117 Y23.994
X-253.405 Y23.879
X-252.687 Y23.8
X-251.967 Y23.748
X-251.246 Y23.715
X-250.524 Y23.694
X-249.802 Y23.682
X-249.08 Y23.674
X-248.358 Y23.669
X-247.636 Y23.666
X-246.192 Y23.663
X-241.138 Y23.659
X-206.482 Y23.639
X-155.943 Y23.611
X-105.403 Y23.583
X-85.909 Y23.572
X-85.187 Y23.57
X-84.465 Y23.566
X-83.743 Y23.554
X-83.022 Y23.528
X-82.301 Y23.479
X-81.584 Y23.398
X-80.872 Y23.277
X-80.187 Y23.112
X-79.54 Y22.909
X-78.926 Y22.668
X-78.335 Y22.387
X-77.76 Y22.064
X-77.197 Y21.693
X-76.638 Y21.268
X-76.096 Y20.791
X-75.586 Y20.279
X-75.161 Y19.793
X-75.134 Y19.761
X-75.11 Y19.728
X-75.086 Y19.694
X-75.017 Y19.585
X-74.903 Y19.421
X-74.779 Y19.257
X-74.374 Y18.66
X-73.956 Y18.071
X-73.569 Y17.461
X-73.202 Y16.84
X-72.486 Y15.586
X-72.12 Y14.963
X-71.74 Y14.35
X-71.339 Y13.749
X-70.916 Y13.164
X-70.468 Y12.598
X-69.991 Y12.056
X-69.481 Y11.545
X-68.927 Y11.082
X-68.325 Y10.683
X-67.676 Y10.366
X-66.995 Y10.127
X-66.294 Y9.955
X-65.582 Y9.835
X-64.864 Y9.755
X-64.144 Y9.702
X-63.423 Y9.667
X-62.702 Y9.645
X-61.98 Y9.631
X-61.258 Y9.622
X-60.536 Y9.616
X-59.814 Y9.612
X-58.37 Y9.607
X-54.038 Y9.599
X-39.598 Y9.576
X-38.876 Y9.574
X-38.154 Y9.569
X-37.432 Y9.553
X-36.711 Y9.515
X-36.009 Y9.437
X-35.426 Y9.332
X-34.916 Y9.203
X-34.441 Y9.047
X-33.998 Y8.866
X-33.582 Y8.662
X-33.19 Y8.435
X-32.819 Y8.184
X-32.468 Y7.909
X-32.276 Y7.736
X-32.127 Y7.559
X-32.032 Y7.347
X-32 Y7.117
Y5.789
G0 Z2
X-32.375 Y-4.077
Z-9.35
G1 Z-9.65 F650
X-32.371 Y-4.084 Z-9.717
X-32.359 Y-4.103 Z-9.78
X-32.341 Y-4.134 Z-9.837
X-32.317 Y-4.174 Z-9.885
X-32.288 Y-4.223 Z-9.92
X-32.255 Y-4.278 Z-9.942
X-32.221 Y-4.335 Z-9.95
G2 X-32 Y-5.089 I-1.36 J-0.809
G1 Y-6.146
X-32.007 Y-6.296
X-32.031 Y-6.444
X-32.068 Y-6.589
X-32.119 Y-6.73
X-32.181 Y-6.867
X-32.262 Y-7.017
X-32.357 Y-7.168
X-32.48 Y-7.336
X-32.624 Y-7.506
X-32.8 Y-7.688
X-33.013 Y-7.879
X-33.25 Y-8.063
X-33.554 Y-8.268
X-33.888 Y-8.461
X-34.293 Y-8.658
X-34.796 Y-8.861
X-35.336 Y-9.037
X-36.011 Y-9.207
X-36.722 Y-9.333
X-37.439 Y-9.422
X-38.158 Y-9.483
X-38.879 Y-9.524
X-39.6 Y-9.552
X-40.322 Y-9.57
X-41.044 Y-9.582
X-41.766 Y-9.59
X-42.488 Y-9.595
X-43.21 Y-9.599
X-44.654 Y-9.603
X-48.986 Y-9.612
X-62.704 Y-9.633
X-63.426 Y-9.636
X-64.148 Y-9.645
X-64.869 Y-9.674
X-65.588 Y-9.741
X-66.298 Y-9.87
X-66.991 Y-10.075
X-67.655 Y-10.357
X-68.286 Y-10.709
X-68.878 Y-11.121
X-69.433 Y-11.583
X-69.952 Y-12.085
X-70.435 Y-12.622
X-70.885 Y-13.186
X-71.306 Y-13.773
X-71.703 Y-14.376
X-72.078 Y-14.993
X-72.437 Y-15.619
X-72.787 Y-16.251
X-73.135 Y-16.884
X-73.487 Y-17.514
X-73.649 Y-17.789
X-73.689 Y-17.851
X-73.735 Y-17.91
X-73.786 Y-17.964
X-73.889 Y-18.065
X-73.926 Y-18.11
X-74.053 Y-18.279
X-74.409 Y-18.766
X-74.903 Y-19.421
X-75.017 Y-19.585
X-75.267 Y-19.935
X-75.582 Y-20.318
X-75.936 Y-20.691
X-76.331 Y-21.054
X-76.777 Y-21.41
X-77.267 Y-21.748
X-77.803 Y-22.066
X-78.395 Y-22.364
X-79.051 Y-22.639
X-79.735 Y-22.871
X-80.432 Y-23.058
X-81.139 Y-23.204
X-81.853 Y-23.315
X-82.57 Y-23.397
X-83.289 Y-23.456
X-84.01 Y-23.498
X-84.732 Y-23.527
X-85.453 Y-23.546
X-86.175 Y-23.56
X-86.897 Y-23.568
X-87.619 Y-23.574
X-88.341 Y-23.577
X-89.785 Y-23.581
X-92.673 Y-23.584
X-124.441 Y-23.595
X-174.98 Y-23.612
X-225.52 Y-23.628
X-251.512 Y-23.637
X-252.234 Y-23.642
X-252.939 Y-23.799
X-253.566 Y-24.156
X-253.919 Y-24.444
X-254.079 Y-24.547
X-254.258 Y-24.611
X-254.446 Y-24.632
X-255.996
G2 X-256.259 Y-24.455 Z-9.239 I0.011 J0.3
G1 X-256.278 Y-24.398 Z-9.112 F1200
X-256.285 Y-24.338 Z-8.984
Y-24.322 Z-8.95
X-257.225 Y24.322
Y24.326 Z-8.96
X-257.219 Y24.392 Z-9.099
X-257.199 Y24.455 Z-9.239
G2 X-256.936 Y24.632 Z-9.95 I0.274 J-0.122 F650
G1 X-209.042 Y24.64
X-208.321 Y24.604
X-207.599 Y24.622
X-206.877 Y24.631
X-206.155 Y24.635
X-205.433 Y24.637
X-203.267
X-158.503 Y24.613
X-107.964 Y24.584
X-86.304 Y24.572
X-85.582 Y24.57
X-84.86 Y24.565
X-84.138 Y24.554
X-83.416 Y24.532
X-82.696 Y24.491
X-81.977 Y24.426
X-81.261 Y24.329
X-80.552 Y24.194
X-79.852 Y24.016
X-79.166 Y23.792
X-78.495 Y23.524
X-77.845 Y23.21
X-77.298 Y22.898
X-77.239 Y22.861
X-77.184 Y22.819
X-77.132 Y22.773
X-77.055 Y22.699
X-76.674 Y22.207
X-76.55 Y22.043
X-76.514 Y21.993
X-76.436 Y21.88
X-76.185 Y21.505
X-76.109 Y21.388
X-75.693 Y20.707
X-75.51 Y20.404
X-75.201 Y19.882
X-75.122 Y19.749
X-75.086 Y19.694
X-75.061 Y19.644 Z-9.83
X-75.045 Y19.589 Z-9.709
X-75.039 Y19.533 Z-9.589
Y19.532 Z-9.587
X-75.044 Y19.478 Z-9.471
X-75.059 Y19.425 Z-9.355
X-75.083 Y19.376 Z-9.239
X-75.124 Y19.323 Z-9.095 F1200
X-75.177 Y19.28 Z-8.95
G2 X-75.454 Y19.255 I-0.162 J0.252
X-75.33 Y19.554 I0.062 J0.149
X-75.238 Y19.353 I-0.062 J-0.149
X-75.808 Y19.542 I-0.285 J0.094
X-75.41 Y19.725 I0.285 J-0.094
X-75.126 Y19.574 I-0.599 J-1.465
G1 X-75.016 Y19.493 Z-9.239
G2 X-74.779 Y19.257 Z-9.95 I-0.993 J-1.233 F650
G1 X-74.409 Y18.766
X-74.049 Y18.274
X-73.926 Y18.11
X-73.889 Y18.065
X-73.561 Y17.745
X-73.43 Y17.618
X-72.577 Y16.833
X-72.539 Y16.799
X-72.413 Y16.695
X-72.241 Y16.537
X-71.944 Y16.225
X-71.485 Y15.668
X-71.061 Y15.084
X-70.641 Y14.496
X-70.21 Y13.917
X-69.758 Y13.354
X-69.277 Y12.815
X-68.753 Y12.319
X-68.178 Y11.883
X-67.551 Y11.524
X-66.885 Y11.246
X-66.193 Y11.041
X-65.485 Y10.896
X-64.77 Y10.797
X-64.051 Y10.731
X-63.33 Y10.687
X-62.609 Y10.658
X-61.887 Y10.639
X-61.165 Y10.627
X-60.443 Y10.619
X-59.721 Y10.614
X-58.999 Y10.61
X-57.555 Y10.606
X-53.223 Y10.597
X-39.506 Y10.575
X-38.784 Y10.572
X-38.062 Y10.562
X-37.34 Y10.537
X-36.62 Y10.485
X-35.903 Y10.396
X-35.261 Y10.272
X-34.667 Y10.114
X-34.114 Y9.925
X-33.597 Y9.707
X-33.113 Y9.462
X-32.665 Y9.195
X-32.374 Y8.993
X-32.312 Y8.944
X-32.144 Y8.762
X-32.037 Y8.539
X-32 Y8.294
Y7.117
G0 Z2
X-32.375 Y-5.135
Z-9.35
G1 Z-9.65 F650
X-32.371 Y-5.141 Z-9.717
X-32.359 Y-5.16 Z-9.78
X-32.341 Y-5.191 Z-9.837
X-32.317 Y-5.232 Z-9.885
X-32.288 Y-5.28 Z-9.92
X-32.255 Y-5.335 Z-9.942
X-32.221 Y-5.392 Z-9.95
G2 X-32 Y-6.146 I-1.36 J-0.809
G1 Y-7.129
X-32.007 Y-7.279
X-32.032 Y-7.427
X-32.073 Y-7.572
X-32.125 Y-7.712
X-32.189 Y-7.848
X-32.269 Y-7.991
X-32.372 Y-8.15
X-32.495 Y-8.311
X-32.646 Y-8.485
X-32.828 Y-8.667
X-33.042 Y-8.853
X-33.311 Y-9.057
X-33.609 Y-9.25
X-33.982 Y-9.458
X-34.413 Y-9.661
X-34.907 Y-9.852
X-35.52 Y-10.042
X-36.222 Y-10.207
X-36.934 Y-10.327
X-37.651 Y-10.413
X-38.371 Y-10.474
X-39.091 Y-10.516
X-39.813 Y-10.545
X-40.535 Y-10.565
X-41.256 Y-10.578
X-41.978 Y-10.587
X-42.7 Y-10.593
X-43.422 Y-10.598
X-44.866 Y-10.603
X-47.754 Y-10.609
X-62.194 Y-10.633
X-62.916 Y-10.635
X-63.638 Y-10.645
X-64.36 Y-10.671
X-65.079 Y-10.733
X-65.791 Y-10.853
X-66.486 Y-11.049
X-67.152 Y-11.328
X-67.781 Y-11.682
X-68.37 Y-12.1
X-68.918 Y-12.57
X-69.425 Y-13.083
X-69.896 Y-13.631
X-70.334 Y-14.205
X-70.743 Y-14.8
X-71.129 Y-15.41
X-71.466 Y-15.977
X-71.546 Y-16.089
X-71.643 Y-16.186
X-71.754 Y-16.266
X-72.249 Y-16.569
X-72.341 Y-16.635
X-72.539 Y-16.799
X-72.577 Y-16.833
X-73.43 Y-17.618
X-73.6 Y-17.782
X-73.786 Y-17.964
G2 X-74.025 Y-18.047 Z-9.394 I-0.21 J0.215
G1 X-74.061 Y-18.046 Z-9.317
X-74.098 Y-18.049 Z-9.239
X-74.163 Y-18.066 Z-9.095 F1200
X-74.224 Y-18.098 Z-8.95
X-74.253 Y-18.12
X-74.279 Y-18.146
X-74.72 Y-18.641
X-74.752 Y-18.683
X-74.775 Y-18.73
X-74.79 Y-18.779
X-74.796 Y-18.831
G2 X-74.84 Y-19.15 I-1.582 J0.053
G1 X-74.878 Y-19.281 Z-9.239
G2 X-75.017 Y-19.585 Z-9.95 I-1.5 J0.503 F650
G1 X-75.122 Y-19.749
X-75.22 Y-19.913
X-75.529 Y-20.436
X-75.908 Y-21.06
X-76.109 Y-21.388
X-76.217 Y-21.552
X-76.326 Y-21.716
X-76.513 Y-21.967
X-76.651 Y-22.127
X-76.834 Y-22.313
X-77.066 Y-22.519
X-77.34 Y-22.729
X-77.695 Y-22.964
X-78.12 Y-23.205
X-78.611 Y-23.44
X-79.219 Y-23.681
X-79.908 Y-23.9
X-80.608 Y-24.074
X-81.317 Y-24.209
X-82.032 Y-24.314
X-82.75 Y-24.392
X-83.469 Y-24.45
X-84.19 Y-24.492
X-84.911 Y-24.521
X-85.633 Y-24.542
X-86.355 Y-24.556
X-87.077 Y-24.565
X-87.799 Y-24.572
X-88.521 Y-24.576
X-89.965 Y-24.581
X-92.131 Y-24.584
X-126.065 Y-24.595
X-176.604 Y-24.612
X-227.144 Y-24.629
X-243.009 Y-24.634
X-254.446 Y-24.632
G2 X-254.71 Y-24.455 Z-9.239 I0.011 J0.3
G1 X-254.73 Y-24.39 Z-9.095 F1200
X-254.736 Y-24.322 Z-8.95
X-254.729 Y-24.269
X-254.713 Y-24.218
X-254.688 Y-24.17
X-254.655 Y-24.128
X-209.411 Y24.373
X-209.318 Y24.472 Z-9.239
X-209.251 Y24.545 Z-9.45 F650
X-209.207 Y24.584 Z-9.575
X-209.156 Y24.613 Z-9.7
X-209.1 Y24.632 Z-9.825
X-209.042 Y24.64 Z-9.95
X-110.63 Y24.656
X-81.762 Y24.649
X-81.27 Y24.632
X-81.106 Y24.619
X-80.286 Y24.531
X-80.122 Y24.51
X-80.095 Y24.502
X-79.102 Y24.174
X-79.038 Y24.152
X-78.974 Y24.118
X-78.154 Y23.641
X-77.99 Y23.541
X-77.962 Y23.518
X-77.17 Y22.81
X-77.132 Y22.773
X-77.096 Y22.729 Z-9.831
X-77.07 Y22.68 Z-9.711
X-77.054 Y22.626 Z-9.592
X-77.048 Y22.57 Z-9.472
X-77.046 Y22.461 Z-9.239
X-77.043 Y22.324 Z-8.95 F1200
X-76.287 Y-21.253
X-76.284 Y-21.389 Z-9.239
X-76.281 Y-21.553 Z-9.586 F650
X-76.286 Y-21.609 Z-9.707
X-76.301 Y-21.664 Z-9.829
X-76.326 Y-21.716 Z-9.95
X-76.436 Y-21.88
X-76.514 Y-21.993
X-76.55 Y-22.043
X-76.678 Y-22.211
X-77.055 Y-22.699
X-77.17 Y-22.81
X-77.962 Y-23.518
X-77.99 Y-23.541
X-78.154 Y-23.641
X-78.974 Y-24.118
X-79.038 Y-24.152
X-79.138 Y-24.186
X-80.095 Y-24.502
X-80.122 Y-24.51
X-80.286 Y-24.531
X-81.106 Y-24.619
X-81.27 Y-24.632
X-81.762 Y-24.649
X-113.09 Y-24.656
X-240.698 Y-24.635
G0 Z2
X-73.431 Y17.052
Z-9.35
G1 Z-9.65 F650
X-73.423 Y17.051 Z-9.717
X-73.401 Y17.047 Z-9.78
X-73.366 Y17.042 Z-9.837
X-73.319 Y17.034 Z-9.885
X-73.263 Y17.026 Z-9.92
X-73.2 Y17.016 Z-9.942
X-73.134 Y17.005 Z-9.95
G2 X-72.413 Y16.695 I-0.246 J-1.563
G1 X-72.341 Y16.635
X-72.249 Y16.569
X-71.757 Y16.268
X-71.265 Y15.973
X-70.937 Y15.769
X-70.58 Y15.521
X-70.288 Y15.286
X-69.757 Y14.796
X-69.262 Y14.271
X-68.762 Y13.75
X-68.23 Y13.262
X-67.647 Y12.836
X-67.013 Y12.49
X-66.342 Y12.224
X-65.647 Y12.028
X-64.938 Y11.889
X-64.223 Y11.794
X-63.504 Y11.729
X-62.783 Y11.686
X-62.062 Y11.658
X-61.34 Y11.64
X-60.618 Y11.627
X-59.896 Y11.619
X-59.174 Y11.614
X-58.452 Y11.61
X-57.008 Y11.605
X-52.676 Y11.597
X-40.402 Y11.577
X-39.68 Y11.575
X-38.958 Y11.57
X-38.236 Y11.557
X-37.515 Y11.529
X-36.795 Y11.478
X-36.077 Y11.396
X-35.366 Y11.273
X-34.679 Y11.107
X-34.038 Y10.905
X-33.438 Y10.669
X-32.903 Y10.414
X-32.587 Y10.236
X-32.328 Y10.065
X-32.19 Y9.932
X-32.086 Y9.772
X-32.022 Y9.592
X-32 Y9.403
Y8.294
G0 Z2
X-32.375 Y-6.118
Z-9.35
G1 Z-9.65 F650
X-32.371 Y-6.124 Z-9.717
X-32.359 Y-6.143 Z-9.78
X-32.341 Y-6.174 Z-9.837
X-32.317 Y-6.215 Z-9.885
X-32.288 Y-6.264 Z-9.92
X-32.255 Y-6.318 Z-9.942
X-32.221 Y-6.376 Z-9.95
G2 X-32 Y-7.129 I-1.36 J-0.809
G1 Y-8.113
X-32.007 Y-8.262
X-32.036 Y-8.41
X-32.08 Y-8.553
X-32.135 Y-8.693
X-32.206 Y-8.835
X-32.289 Y-8.979
X-32.399 Y-9.141
X-32.526 Y-9.302
X-32.691 Y-9.484
X-32.878 Y-9.665
X-33.111 Y-9.859
X-33.39 Y-10.061
X-33.704 Y-10.258
X-34.11 Y-10.474
X-34.555 Y-10.672
X-35.1 Y-10.872
X-35.769 Y-11.065
X-36.475 Y-11.217
X-37.188 Y-11.329
X-37.905 Y-11.411
X-38.625 Y-11.47
X-39.346 Y-11.512
X-40.067 Y-11.541
X-40.789 Y-11.562
X-41.51 Y-11.576
X-42.232 Y-11.586
X-42.954 Y-11.592
X-43.676 Y-11.597
X-45.12 Y-11.603
X-48.008 Y-11.61
X-61.726 Y-11.632
X-62.448 Y-11.635
X-63.17 Y-11.645
X-63.892 Y-11.67
X-64.611 Y-11.73
X-65.324 Y-11.845
X-66.019 Y-12.041
X-66.683 Y-12.324
X-67.308 Y-12.685
X-67.889 Y-13.114
X-68.426 Y-13.597
X-68.921 Y-14.123
X-69.377 Y-14.682
X-69.658 Y-15.068
X-69.768 Y-15.192
X-69.9 Y-15.291
X-70.049 Y-15.362
X-70.445 Y-15.507
X-70.609 Y-15.577
X-70.749 Y-15.652
X-71.265 Y-15.973
X-71.754 Y-16.266
G2 X-72.071 Y-16.25 Z-9.239 I-0.145 J0.262
G1 X-72.122 Y-16.205 Z-9.095 F1200
X-72.162 Y-16.149 Z-8.95
X-72.183 Y-16.101
X-72.196 Y-16.049
X-72.199 Y-15.996
X-71.386 Y15.517
X-71.381 Y15.566
X-71.368 Y15.614
X-71.346 Y15.659
X-71.306 Y15.713 Z-9.095
X-71.254 Y15.758 Z-9.239
G2 X-70.937 Y15.769 Z-9.95 I0.168 J-0.249 F650
G1 X-70.749 Y15.652
X-70.609 Y15.577
X-70.445 Y15.507
X-70.117 Y15.387
X-69.489 Y15.16
X-69.243 Y15.057
X-68.972 Y14.92
X-68.41 Y14.587
X-67.816 Y14.176
X-67.206 Y13.79
X-66.56 Y13.468
X-65.884 Y13.215
X-65.187 Y13.027
X-64.477 Y12.892
X-63.762 Y12.797
X-63.043 Y12.733
X-62.322 Y12.689
X-61.6 Y12.66
X-60.879 Y12.641
X-60.157 Y12.628
X-59.435 Y12.62
X-58.713 Y12.614
X-57.991 Y12.61
X-56.547 Y12.604
X-52.937 Y12.597
X-40.663 Y12.577
X-39.941 Y12.574
X-39.219 Y12.568
X-38.497 Y12.554
X-37.776 Y12.527
X-37.055 Y12.481
X-36.337 Y12.408
X-35.623 Y12.302
X-34.915 Y12.158
X-34.218 Y11.97
X-33.547 Y11.742
X-32.99 Y11.508
X-32.657 Y11.34
X-32.416 Y11.197
X-32.359 Y11.158
X-32.209 Y11.024
X-32.095 Y10.859
X-32.024 Y10.671
X-32 Y10.472
Y9.403
G0 Z2
X-32.375 Y-7.101
Z-9.35
G1 Z-9.65 F650
X-32.371 Y-7.108 Z-9.717
X-32.359 Y-7.127 Z-9.78
X-32.341 Y-7.157 Z-9.837
X-32.317 Y-7.198 Z-9.885
X-32.288 Y-7.247 Z-9.92
X-32.255 Y-7.302 Z-9.942
X-32.221 Y-7.359 Z-9.95
G2 X-32 Y-8.113 I-1.36 J-0.809
G1 Y-9.022
X-32.007 Y-9.172
X-32.031 Y-9.32
X-32.07 Y-9.465
X-32.122 Y-9.606
X-32.186 Y-9.742
X-32.267 Y-9.889
X-32.365 Y-10.04
X-32.49 Y-10.206
X-32.638 Y-10.377
X-32.823 Y-10.563
X-33.042 Y-10.754
X-33.299 Y-10.949
X-33.626 Y-11.164
X-33.976 Y-11.36
X-34.435 Y-11.577
X-34.976 Y-11.788
X-35.595 Y-11.982
X-36.298 Y-12.149
X-37.009 Y-12.274
X-37.725 Y-12.367
X-38.443 Y-12.436
X-39.164 Y-12.486
X-39.885 Y-12.522
X-40.606 Y-12.547
X-41.328 Y-12.565
X-42.05 Y-12.578
X-42.772 Y-12.587
X-43.494 Y-12.593
X-44.216 Y-12.598
X-45.66 Y-12.604
X-48.548 Y-12.611
X-60.822 Y-12.63
X-61.544 Y-12.632
X-62.266 Y-12.637
X-62.988 Y-12.651
X-63.709 Y-12.684
X-64.427 Y-12.76
X-65.133 Y-12.908
X-65.816 Y-13.142
X-66.463 Y-13.463
X-67.065 Y-13.862
X-67.618 Y-14.326
X-67.893 Y-14.606
X-68.041 Y-14.726
X-68.212 Y-14.809
X-68.398 Y-14.851
X-68.477 Y-14.859
X-68.641 Y-14.884
X-69.034 Y-14.996
X-69.297 Y-15.09
X-70.049 Y-15.362
G2 X-70.357 Y-15.285 Z-9.239 I-0.092 J0.286
G1 X-70.398 Y-15.231 Z-9.095 F1200
X-70.426 Y-15.169 Z-8.95
X-70.438 Y-15.121
X-70.441 Y-15.071
X-69.881 Y14.88
X-69.877 Y14.924
X-69.867 Y14.967
X-69.839 Y15.029 Z-9.095
X-69.797 Y15.083 Z-9.239
G2 X-69.489 Y15.16 Z-9.95 I0.216 J-0.208 F650
G1 X-69.133 Y15.031
X-69.034 Y14.996
X-68.641 Y14.884
X-68.477 Y14.859
X-67.984 Y14.806
X-67.566 Y14.738
X-66.946 Y14.593
X-66.256 Y14.38
X-65.562 Y14.182
X-64.858 Y14.019
X-64.147 Y13.895
X-63.43 Y13.805
X-62.711 Y13.74
X-61.991 Y13.696
X-61.269 Y13.665
X-60.548 Y13.645
X-59.826 Y13.631
X-59.104 Y13.621
X-58.382 Y13.615
X-57.66 Y13.61
X-56.216 Y13.604
X-53.328 Y13.598
X-41.776 Y13.579
X-41.054 Y13.578
X-40.332 Y13.575
X-39.61 Y13.569
X-38.888 Y13.556
X-38.167 Y13.532
X-37.446 Y13.493
X-36.726 Y13.433
X-36.009 Y13.346
X-35.297 Y13.228
X-34.592 Y13.073
X-33.897 Y12.878
X-33.286 Y12.666
X-32.85 Y12.479
X-32.567 Y12.334
X-32.379 Y12.221
X-32.355 Y12.204
X-32.206 Y12.071
X-32.094 Y11.906
X-32.024 Y11.719
X-32 Y11.522
Y10.472
G0 Z2
X-32.375 Y-8.011
Z-9.35
G1 Z-9.65 F650
X-32.371 Y-8.017 Z-9.717
X-32.359 Y-8.036 Z-9.78
X-32.341 Y-8.067 Z-9.837
X-32.317 Y-8.108 Z-9.885
X-32.288 Y-8.157 Z-9.92
X-32.255 Y-8.211 Z-9.942
X-32.221 Y-8.269 Z-9.95
G2 X-32 Y-9.022 I-1.36 J-0.809
G1 Y-10.006
X-32.007 Y-10.155
X-32.035 Y-10.303
X-32.078 Y-10.447
X-32.133 Y-10.586
X-32.202 Y-10.728
X-32.284 Y-10.87
X-32.395 Y-11.035
X-32.521 Y-11.197
X-32.683 Y-11.379
X-32.869 Y-11.559
X-33.105 Y-11.758
X-33.38 Y-11.96
X-33.71 Y-12.168
X-34.127 Y-12.393
X-34.568 Y-12.592
X-35.133 Y-12.802
X-35.826 Y-13.006
X-36.531 Y-13.161
X-37.243 Y-13.279
X-37.96 Y-13.368
X-38.679 Y-13.434
X-39.399 Y-13.483
X-40.12 Y-13.519
X-40.842 Y-13.545
X-41.564 Y-13.563
X-42.285 Y-13.576
X-43.007 Y-13.586
X-43.729 Y-13.592
X-44.451 Y-13.597
X-45.895 Y-13.604
X-48.061 Y-13.609
X-60.335 Y-13.63
X-61.057 Y-13.632
X-61.779 Y-13.637
X-62.501 Y-13.649
X-63.222 Y-13.681
X-63.94 Y-13.756
X-64.648 Y-13.899
X-65.33 Y-14.136
X-65.972 Y-14.466
X-66.037 Y-14.511
X-66.181 Y-14.592
X-66.339 Y-14.642
X-66.504 Y-14.66
X-66.836 Y-14.672
X-67 Y-14.679
X-67.492 Y-14.75
X-67.656 Y-14.769
X-68.398 Y-14.851
G2 X-68.679 Y-14.702 Z-9.239 I-0.022 J0.299
G1 X-68.706 Y-14.64 Z-9.095 F1200
X-68.719 Y-14.573 Z-8.95
X-68.72 Y-14.547
X-68.307 Y14.511
X-68.306 Y14.529
X-68.293 Y14.596 Z-9.095
X-68.266 Y14.658 Z-9.239
G2 X-67.984 Y14.806 Z-9.95 I0.259 J-0.152 F650
G1 X-67.656 Y14.769
X-67.492 Y14.75
X-67 Y14.679
X-66.74 Y14.668
X-66.508 Y14.66
X-66.344 Y14.658
X-62.408
X-61.687 Y14.622
X-60.965 Y14.631
X-60.243 Y14.629
X-58.077 Y14.613
X-56.633 Y14.607
X-54.467 Y14.6
X-46.525 Y14.587
X-42.193 Y14.58
X-41.471 Y14.578
X-40.749 Y14.575
X-40.027 Y14.569
X-39.305 Y14.558
X-38.583 Y14.538
X-37.862 Y14.505
X-37.142 Y14.455
X-36.423 Y14.384
X-35.708 Y14.286
X-34.997 Y14.159
X-34.294 Y13.996
X-33.6 Y13.795
X-33.057 Y13.597
X-32.741 Y13.457
X-32.495 Y13.326
X-32.392 Y13.262
X-32.229 Y13.129
X-32.105 Y12.959
X-32.027 Y12.764
X-32 Y12.555
Y11.522
G0 Z2
X-63.419 Y14.284
Z-9.35
G1 Z-9.65 F650
X-63.413 Y14.287 Z-9.717
X-63.394 Y14.299 Z-9.78
X-63.363 Y14.317 Z-9.837
X-63.322 Y14.341 Z-9.885
X-63.273 Y14.37 Z-9.92
X-63.219 Y14.403 Z-9.942
X-63.161 Y14.437 Z-9.95
G2 X-62.408 Y14.658 I0.809 J-1.36
G1 X-34.36
X-33.901 Y14.635
X-33.614 Y14.601
X-33.318 Y14.544
X-33.026 Y14.467
X-32.795 Y14.389
X-32.585 Y14.301
X-32.43 Y14.223
X-32.408 Y14.21
X-32.239 Y14.078
X-32.109 Y13.906
X-32.028 Y13.707
X-32 Y13.494
G2 X-32.177 Y13.23 Z-9.239 I-0.3 J0.01
G1 X-32.242 Y13.21 Z-9.095 F1200
X-32.31 Y13.204 Z-8.95
X-32.364 Y13.211
X-32.415 Y13.227
X-34.465 Y14.082
G2 X-34.65 Y14.348 I0.115 J0.277
G1 X-34.644 Y14.416 Z-9.095
X-34.624 Y14.481 Z-9.239
G2 X-34.36 Y14.658 Z-9.95 I0.274 J-0.122 F650
G1 X-32.556
X-32.506
X-32.472
X-32.322 Y14.651
X-32.175 Y14.569
X-32.068 Y14.44
X-32.014 Y14.28
G2 X-32.099 Y13.964 Z-9.239 I-0.459 J-0.047
G1 X-32.118 Y13.939 Z-9.173 F1200
X-32.154 Y13.901 Z-9.062
X-32.194 Y13.867 Z-8.95
G2 X-32.85 Y14.416 I-0.263 J0.352
G1 X-32.814 Y14.474 Z-9.095
X-32.771 Y14.526 Z-9.239
G2 X-32.472 Y14.658 Z-9.95 I0.314 J-0.307 F650
G1 X-32.392
X-32.31 Y14.657
X-32.269 Y14.65
X-32.228 Y14.637
X-32.189 Y14.618
X-32.15 Y14.591
X-32.105 Y14.548
X-32.088 Y14.526
X-32.073 Y14.504
X-32.064 Y14.489
X-32.047 Y14.452
X-32.036 Y14.415
X-32.023 Y14.341
X-32 Y14.177
Y12.555
G0 Z2
X-32.375 Y-8.994
Z-9.35
G1 Z-9.65 F650
X-32.371 Y-9.001 Z-9.717
X-32.359 Y-9.02 Z-9.78
X-32.341 Y-9.05 Z-9.837
X-32.317 Y-9.091 Z-9.885
X-32.288 Y-9.14 Z-9.92
X-32.255 Y-9.195 Z-9.942
X-32.221 Y-9.252 Z-9.95
G2 X-32 Y-10.006 I-1.36 J-0.809
G1 Y-10.899
X-32.007 Y-11.049
X-32.028 Y-11.197
X-32.064 Y-11.343
X-32.114 Y-11.484
X-32.175 Y-11.621
X-32.254 Y-11.768
X-32.348 Y-11.917
X-32.471 Y-12.086
X-32.613 Y-12.254
X-32.799 Y-12.446
X-33.008 Y-12.634
X-33.265 Y-12.835
X-33.578 Y-13.046
X-33.934 Y-13.251
X-34.402 Y-13.48
X-34.912 Y-13.687
X-35.546 Y-13.895
X-36.246 Y-14.071
X-36.955 Y-14.207
X-37.67 Y-14.31
X-38.388 Y-14.388
X-39.107 Y-14.448
X-39.828 Y-14.492
X-40.549 Y-14.524
X-41.271 Y-14.548
X-41.992 Y-14.565
X-42.714 Y-14.578
X-43.436 Y-14.587
X-44.158 Y-14.593
X-44.88 Y-14.598
X-46.324 Y-14.604
X-48.49 Y-14.61
X-60.042 Y-14.629
X-60.764 Y-14.632
X-61.486 Y-14.638
X-62.208 Y-14.653
X-62.307 Y-14.658
X-62.322
X-66.344
X-66.504 Y-14.66
G2 X-66.639 Y-14.096 I0.008 J0.3
G1 X-66.581 Y-14.065 Z-9.942
X-66.525 Y-14.034 Z-9.92
X-66.475 Y-14.007 Z-9.885
X-66.433 Y-13.984 Z-9.837
X-66.402 Y-13.967 Z-9.78
X-66.382 Y-13.957 Z-9.717
X-66.376 Y-13.953 Z-9.65
G0 Z2
X-32.375 Y-9.887
Z-9.35
G1 Z-9.65 F650
X-32.371 Y-9.894 Z-9.717
X-32.359 Y-9.913 Z-9.78
X-32.341 Y-9.944 Z-9.837
X-32.317 Y-9.984 Z-9.885
X-32.288 Y-10.033 Z-9.92
X-32.255 Y-10.088 Z-9.942
X-32.221 Y-10.145 Z-9.95
G2 X-32 Y-10.899 I-1.36 J-0.809
G1 Y-11.882
X-32.007 Y-12.032
X-32.031 Y-12.18
X-32.071 Y-12.325
X-32.123 Y-12.465
X-32.188 Y-12.604
X-32.267 Y-12.747
X-32.372 Y-12.909
X-32.493 Y-13.07
X-32.649 Y-13.251
X-32.829 Y-13.432
X-33.06 Y-13.635
X-33.326 Y-13.837
X-33.645 Y-14.046
X-34.052 Y-14.275
X-34.483 Y-14.479
X-34.795 Y-14.601
X-34.894 Y-14.633
X-34.996 Y-14.652
X-35.099 Y-14.658
G2 X-35.363 Y-14.481 Z-9.239 I0.01 J0.3
G1 X-35.383 Y-14.416 Z-9.095 F1200
X-35.388 Y-14.348 Z-8.95
X-35.38 Y-14.288
X-35.36 Y-14.231
X-35.329 Y-14.178
X-35.287 Y-14.134
X-32.499 Y-11.668
X-32.442 Y-11.628
X-32.378 Y-11.603
X-32.31 Y-11.593
X-32.242 Y-11.598 Z-9.095
X-32.177 Y-11.619 Z-9.239
G2 X-32 Y-11.882 Z-9.95 I-0.122 J-0.274 F650
G1 Y-12.865
X-32.007 Y-13.015
X-32.035 Y-13.163
X-32.077 Y-13.307
X-32.131 Y-13.447
X-32.201 Y-13.591
X-32.283 Y-13.734
X-32.394 Y-13.9
X-32.519 Y-14.062
X-32.688 Y-14.252
X-32.874 Y-14.435
X-32.903 Y-14.459
X-33.065 Y-14.568
X-33.249 Y-14.635
X-33.443 Y-14.658
G2 X-33.706 Y-14.481 Z-9.239 I0.01 J0.3
G1 X-33.727 Y-14.416 Z-9.095 F1200
X-33.732 Y-14.348 Z-8.95
X-33.724 Y-14.287
X-33.703 Y-14.229
X-33.671 Y-14.176
X-32.538 Y-12.694
G2 X-32.31 Y-12.576 I0.238 J-0.182
G1 X-32.242 Y-12.582 Z-9.095
X-32.177 Y-12.602 Z-9.239
G2 X-32 Y-12.865 Z-9.95 I-0.122 J-0.274 F650
G1 Y-13.775
X-32.007 Y-13.925
X-32.01 Y-13.942
X-32.076 Y-14.17
X-32.204 Y-14.37
X-32.384 Y-14.526
X-32.6 Y-14.624
X-32.835 Y-14.658
