(brokennose)
(Machine)
(  vendor: Autodesk)
(  description: Generic 3-axis)
(T1  D=3 CR=0 - ZMIN=-28.3 - flat end mill)
G90 G94
G17
G21
G28 G91 Z0
G90

(Pocket6)
T1
S18000 M3
G54
G0 X-128.314 Y-0.299
Z2
Z-21
G18 G3 X-128.607 Z-21.3 I-0.3 K0 F333.3
G1 X-128.668 Z-21.301
X-128.864 Y0 Z-21.309
X-128.668 Y0.298 Z-21.317
X-97.301 Y0.277 Z-22.009
X-83.673 Y0.002 Z-22.309
X-99.765 Y-0.299 Z-22.664
X-128.668 Z-23.301
X-128.864 Y0 Z-23.309
X-128.668 Y0.298 Z-23.317
X-97.301 Y0.277 Z-24.009
X-83.673 Y0.002 Z-24.309
X-99.765 Y-0.299 Z-24.664
X-128.668 Z-25.301
X-128.864 Y0 Z-25.309
X-128.668 Y0.298 Z-25.317
X-97.301 Y0.277 Z-26.009
X-83.673 Y0.002 Z-26.309
X-99.765 Y-0.299 Z-26.664
X-128.607 Z-27.3
X-128.668 F400
X-128.864 Y0
X-128.668 Y0.298
X-97.301 Y0.277
X-83.673 Y0.002
X-99.765 Y-0.299
X-128.607
X-128.668 Z-27.294
X-128.703 Y-0.245 Z-27.272
X-128.735 Y-0.196 Z-27.237
X-128.762 Y-0.155 Z-27.189
X-128.782 Y-0.125 Z-27.132
X-128.795 Y-0.105 Z-27.068
X-128.799 Y-0.099 Z-27
G0 Z2.012
X-74.188 Y15.785
G1 Z2 F50
Z-3.76 F400
X-74.183 Y15.783 Z-3.813
X-74.166 Y15.777 Z-3.864
X-74.139 Y15.767 Z-3.91
X-74.103 Y15.754 Z-3.948
X-74.061 Y15.738 Z-3.976
X-74.013 Y15.72 Z-3.994
X-73.963 Y15.702 Z-4
X-73.92 Y15.682
X-73.881 Y15.656
G17 G3 X-73.145 Y15.187 I2.638 J3.332
G1 X-72.683 Y14.955
G3 X-72.1 Y14.716 I1.902 J3.801
G1 X-69.018 Y13.709
G3 X-68.352 Y13.55 I1.32 J4.04
G1 X-67.427 Y13.406
G3 X-66.776 Y13.355 I0.654 J4.199
G1 X-35.501 Y13.339
Y12.823
X-35.505 Y12.776
X-35.516 Y12.73
X-35.534 Y12.687
X-36.454 Y10.884
X-36.484 Y10.825 Z-3.992
X-36.513 Y10.768 Z-3.97
X-36.539 Y10.718 Z-3.935
X-36.56 Y10.675 Z-3.887
X-36.576 Y10.644 Z-3.83
X-36.586 Y10.624 Z-3.767
X-36.59 Y10.617 Z-3.7
G0 Z2
X-35.511 Y-12.466
G1 Z-3.7 F400
Y-12.473 Z-3.767
Y-12.496 Z-3.83
Y-12.531 Z-3.887
Y-12.579 Z-3.935
Y-12.636 Z-3.97
X-35.512 Y-12.699 Z-3.992
Y-12.766 Z-4
Y-12.796
Y-13.356
X-66.93 Y-13.372
G3 X-68.159 Y-13.554 I0.002 J-4.25
G1 X-71.363 Y-14.524
X-72.101 Y-14.734
G3 X-73.107 Y-15.168 I1.166 J-4.087
G1 X-73.572 Y-15.445
G3 X-73.871 Y-15.64 I2.172 J-3.653
G2 X-74.14 Y-15.68 I-0.174 J0.244
G1 X-76.06 Y-15.04
X-76.123 Y-15.019 Z-3.992
X-76.183 Y-14.999 Z-3.97
X-76.237 Y-14.981 Z-3.935
X-76.282 Y-14.965 Z-3.887
X-76.316 Y-14.954 Z-3.83
X-76.337 Y-14.947 Z-3.767
X-76.344 Y-14.945 Z-3.7
G0 Z2.015
X-34.6 Y-12.388
Z2.012
G1 Z2 F50
Z-3.76 F400
X-34.598 Y-12.393 Z-3.813
X-34.593 Y-12.41 Z-3.864
X-34.584 Y-12.438 Z-3.91
X-34.572 Y-12.474 Z-3.948
X-34.558 Y-12.517 Z-3.976
X-34.543 Y-12.565 Z-3.994
X-34.526 Y-12.616 Z-4
X-34.515 Y-12.662
X-34.512 Y-12.709
Y-14.355
X-66.93 Y-14.372
G3 X-67.869 Y-14.511 I0.002 J-3.25
G1 X-71.081 Y-15.483
X-71.826 Y-15.696
G3 X-72.596 Y-16.028 I0.892 J-3.125
G1 X-73.061 Y-16.304
G3 X-73.458 Y-16.582 I1.661 J-2.793
G1 X-75.685 Y-18.404
G3 X-76.062 Y-18.767 I2.058 J-2.515
G1 X-76.902 Y-19.717
G3 X-77.173 Y-20.069 I2.435 J-2.153
G1 X-78.245 Y-21.68
X-78.592 Y-22.036
X-79.627 Y-22.985
X-79.69 Y-23.02
X-80.842 Y-23.311
X-81.702 Y-23.465
X-253.5 Y-23.481
Y-22.262
Y-11.715
Y23.48
X-81.57 Y23.444
X-80.733 Y23.284
X-79.69 Y23.02
X-79.638 Y22.992
X-78.336 Y21.777
X-78.094 Y21.493
X-77.089 Y19.946
G3 X-76.698 Y19.455 I2.726 J1.77
G1 X-75.726 Y18.451
G3 X-75.426 Y18.178 I2.335 J2.261
G1 X-73.277 Y16.453
G3 X-72.697 Y16.081 I2.035 J2.534
G1 X-72.235 Y15.85
G3 X-71.79 Y15.667 I1.455 J2.906
G1 X-68.708 Y14.66
G3 X-68.198 Y14.538 I1.009 J3.089
G1 X-67.274 Y14.394
G3 X-66.775 Y14.355 I0.5 J3.211
G1 X-34.501 Y14.338
X-34.502 Y12.651
G3 X-34.002 Y11.9 I0.813 J0
G2 X-33.502 Y11.15 I-0.313 J-0.75
G1 X-33.513 Y-15.355
X-66.929 Y-15.372
G3 X-67.58 Y-15.468 I0.001 J-2.25
G1 X-70.799 Y-16.442
X-71.552 Y-16.657
G3 X-72.085 Y-16.887 I0.617 J-2.164
G1 X-72.55 Y-17.164
G3 X-72.825 Y-17.356 I1.15 J-1.934
G1 X-75.052 Y-19.178
G3 X-75.313 Y-19.429 I1.425 J-1.741
G1 X-76.153 Y-20.379
G3 X-76.34 Y-20.623 I1.685 J-1.491
G1 X-77.465 Y-22.312
X-77.896 Y-22.754
X-79.039 Y-23.803
X-79.319 Y-23.958
X-80.632 Y-24.289
X-81.614 Y-24.465
X-254.5 Y-24.481
Y24.481
X-81.475 Y24.444
X-80.516 Y24.26
X-79.319 Y23.958
X-79.047 Y23.807
X-77.612 Y22.469
X-77.29 Y22.092
X-76.25 Y20.49
G3 X-75.98 Y20.151 I1.887 J1.226
G1 X-75.008 Y19.147
G3 X-74.8 Y18.957 I1.616 J1.565
G1 X-72.651 Y17.233
G3 X-72.25 Y16.975 I1.409 J1.755
G1 X-71.788 Y16.744
G3 X-71.479 Y16.617 I1.007 J2.012
G1 X-68.397 Y15.61
G3 X-68.044 Y15.526 I0.699 J2.139
G1 X-67.12 Y15.382
G3 X-66.775 Y15.355 I0.346 J2.223
G1 X-33.501 Y15.338
X-33.502 Y11.15
G3 X-33.002 Y10.4 I0.813 J0
G2 X-32.503 Y9.65 I-0.313 J-0.75
G1 X-32.513 Y-16.354
X-66.928 Y-16.372
G3 X-67.29 Y-16.425 I0.001 J-1.25
G1 X-70.517 Y-17.402
X-71.278 Y-17.619
G3 X-71.574 Y-17.747 I0.343 J-1.202
G1 X-72.039 Y-18.023
X-72.117 Y-18.074
X-72.192 Y-18.13
X-74.419 Y-19.952
X-74.494 Y-20.019
X-74.563 Y-20.092
X-75.404 Y-21.042
X-75.458 Y-21.108
X-75.508 Y-21.177
X-76.684 Y-22.943
X-77.199 Y-23.472
X-78.451 Y-24.62
X-78.949 Y-24.896
X-80.421 Y-25.268
X-81.525 Y-25.465
X-255.5 Y-25.481
Y25.481
X-81.379 Y25.444
X-80.299 Y25.237
X-78.949 Y24.896
X-78.455 Y24.623
X-76.887 Y23.161
X-76.487 Y22.69
X-75.412 Y21.035
X-75.341 Y20.937
X-75.261 Y20.846
X-74.289 Y19.843
X-74.233 Y19.788
X-74.174 Y19.737
X-72.025 Y18.013
G3 X-71.802 Y17.87 I0.783 J0.975
G1 X-71.34 Y17.638
X-71.256 Y17.6
X-71.169 Y17.568
X-68.087 Y16.561
X-67.99 Y16.534
X-67.891 Y16.514
X-66.966 Y16.37
X-66.87 Y16.359
X-66.774 Y16.355
X-32.5 Y16.337
X-32.503 Y9.65
G2 X-32.595 Y9.361 I-0.5 J0
G1 X-34.472 Y6.713
G3 X-34.562 Y6.385 I0.408 J-0.289
G1 X-34.557 Y6.318 Z-4.008
X-34.552 Y6.255 Z-4.03
X-34.548 Y6.198 Z-4.065
X-34.544 Y6.151 Z-4.113
X-34.541 Y6.115 Z-4.17
X-34.539 Y6.093 Z-4.233
Y6.086 Z-4.3
Z-7.7
X-34.538 Y6.078 Z-7.767
X-34.536 Y6.056 Z-7.83
X-34.534 Y6.02 Z-7.887
X-34.53 Y5.973 Z-7.935
X-34.525 Y5.916 Z-7.97
X-34.52 Y5.853 Z-7.992
X-34.515 Y5.786 Z-8
G2 X-34.5 Y5.4 I-4.91 J-0.386
G1 Y3.619
Y-3.647
Y-5.428
Y-12.64
Y-12.919
X-66.93 Y-12.937
G3 X-67.979 Y-13.111 I0.002 J-3.25
G1 X-71.244 Y-14.227
X-71.733 Y-14.351
G3 X-72.554 Y-14.684 I0.798 J-3.15
G1 X-72.862 Y-14.861
G3 X-73.48 Y-15.321 I1.619 J-2.818
G1 X-74.953 Y-16.719
X-76.448 Y-18.085
G3 X-77.001 Y-18.746 I2.192 J-2.399
G1 X-78.107 Y-20.492
X-79.781 Y-22.127
X-81.844 Y-22.682
X-253.5 Y-22.673
Y-22.251
X-253.496 Y-22.204
X-252.949 Y-18.747
X-252.938 Y-18.681 Z-7.992
X-252.928 Y-18.619 Z-7.97
X-252.92 Y-18.563 Z-7.935
X-252.912 Y-18.516 Z-7.887
X-252.907 Y-18.48 Z-7.83
X-252.903 Y-18.458 Z-7.767
X-252.902 Y-18.451 Z-7.7
G0 Z2.013
X-253.418 Y20.725
G1 Z-2 F50
Z-7.7 F400
Y20.733 Z-7.767
X-253.42 Y20.755 Z-7.83
X-253.423 Y20.79 Z-7.887
X-253.426 Y20.838 Z-7.935
X-253.431 Y20.894 Z-7.97
X-253.436 Y20.958 Z-7.992
X-253.441 Y21.024 Z-8
G2 X-253.5 Y22.523 I19.045 J1.499
G1 Y22.673
X-81.844 Y22.682
X-79.78 Y22.127
X-78.107 Y20.492
X-77.001 Y18.746
G3 X-76.447 Y18.084 I2.746 J1.738
G1 X-74.271 Y16.098
X-73.52 Y15.36
G3 X-72.862 Y14.861 I2.277 J2.319
G1 X-72.554 Y14.684
G3 X-71.722 Y14.348 I1.619 J2.818
G1 X-71.092 Y14.191
X-67.993 Y13.116
G3 X-66.932 Y12.937 I1.065 J3.071
G1 X-34.5 Y12.9
Y12.619
G3 X-34 Y11.869 I0.813 J0
G2 X-33.5 Y11.119 I-0.313 J-0.75
G1 Y-13.918
X-66.929 Y-13.937
G3 X-67.655 Y-14.058 I0.001 J-2.25
G1 X-70.959 Y-15.187
X-71.487 Y-15.32
G3 X-72.056 Y-15.551 I0.553 J-2.181
G1 X-72.364 Y-15.728
G3 X-72.792 Y-16.046 I1.121 J-1.951
G1 X-74.272 Y-17.451
X-75.773 Y-18.823
G3 X-76.157 Y-19.28 I1.518 J-1.661
G1 X-77.325 Y-21.126
X-79.269 Y-23.025
X-81.712 Y-23.682
X-254.5 Y-23.673
Y23.673
X-81.712 Y23.682
X-79.286 Y23.029
X-79.103 Y22.864
X-77.325 Y21.126
X-76.157 Y19.28
G3 X-75.772 Y18.822 I1.901 J1.203
G1 X-73.584 Y16.824
X-72.819 Y16.073
G3 X-72.364 Y15.728 I1.577 J1.605
G1 X-72.056 Y15.551
G3 X-71.48 Y15.319 I1.121 J1.951
G1 X-70.807 Y15.15
X-67.665 Y14.061
G3 X-66.93 Y13.937 I0.737 J2.126
G1 X-33.5 Y13.899
Y11.119
G3 X-33 Y10.369 I0.813 J0
G2 X-32.5 Y9.619 I-0.313 J-0.75
G1 Y-14.918
X-66.929 Y-14.937
G3 X-67.332 Y-15.004 I0.001 J-1.25
G1 X-70.674 Y-16.146
X-71.242 Y-16.29
G3 X-71.558 Y-16.418 I0.307 J-1.212
G1 X-71.866 Y-16.595
G3 X-72.103 Y-16.772 I0.623 J-1.084
G1 X-73.59 Y-18.183
X-75.099 Y-19.561
G3 X-75.312 Y-19.815 I0.843 J-0.923
G1 X-76.542 Y-21.759
X-78.757 Y-23.923
X-81.579 Y-24.682
X-255.5 Y-24.673
Y24.673
X-81.579 Y24.682
X-78.794 Y23.932
X-78.418 Y23.592
X-76.542 Y21.759
X-75.312 Y19.815
G3 X-75.098 Y19.561 I1.056 J0.669
G1 X-72.896 Y17.55
X-72.119 Y16.787
G3 X-71.866 Y16.595 I0.876 J0.892
G1 X-71.558 Y16.418
G3 X-71.238 Y16.289 I0.623 J1.084
G1 X-70.521 Y16.11
X-67.337 Y15.006
G3 X-66.929 Y14.937 I0.41 J1.181
G1 X-32.5 Y14.898
Y9.619
X-32.507 Y9.556
X-32.526 Y9.497
X-32.557 Y9.442
X-34.615 Y6.611
X-34.654 Y6.557 Z-7.992
X-34.691 Y6.506 Z-7.97
X-34.724 Y6.46 Z-7.935
X-34.752 Y6.421 Z-7.887
X-34.773 Y6.392 Z-7.83
X-34.786 Y6.374 Z-7.767
X-34.791 Y6.368 Z-7.7
G0 Z2
X-40.51 Y-2.068
Z-11.7
G1 Y-2.076 Z-11.767 F400
Y-2.098 Z-11.83
Y-2.133 Z-11.887
Y-2.181 Z-11.935
Y-2.238 Z-11.97
Y-2.301 Z-11.992
Y-2.368 Z-12
X-40.511 Y-4.148
X-40.512 Y-4.329
X-66.934 Y-4.346
G3 X-68.103 Y-4.421 I0.006 J-9.25
G2 X-68.666 Y-3.927 I-0.064 J0.496
G1 X-68.697 Y3.927
G2 X-68.132 Y4.425 I0.5 J0.002
G3 X-66.934 Y4.346 I1.204 J9.171
G1 X-40.505 Y4.329
X-40.506 Y4.141
X-39.511 Y-4.14
X-39.512 Y-5.328
X-66.933 Y-5.346
G3 X-69.931 Y-5.912 I0.005 J-8.25
G1 X-71.11 Y-6.373
G2 X-71.792 Y-5.907 I-0.182 J0.466
G1 X-71.788 Y5.908
G2 X-71.106 Y6.373 I0.5 J0
G1 X-69.94 Y5.916
G3 X-66.933 Y5.346 I3.012 J7.68
G1 X-39.505 Y5.328
X-39.506 Y4.156
X-38.511 Y-4.126
X-38.513 Y-6.328
X-66.933 Y-6.346
G3 X-69.567 Y-6.844 I0.005 J-7.25
G1 X-72.924 Y-8.156
X-73.335 Y-8.293
G3 X-73.904 Y-8.509 I2.289 J-6.879
X-74.13 Y-8.701 I0.197 J-0.459
G1 X-79.631 Y-17.404
X-79.798 Y-17.696
X-80.802 Y-18.674
X-82.109 Y-19.025
X-251.5 Y-19.069
Y-18.365
X-251.496 Y-18.319
X-251.18 Y-16.32
X-251.169 Y-16.254 Z-11.992
X-251.159 Y-16.191 Z-11.97
X-251.151 Y-16.135 Z-11.935
X-251.143 Y-16.088 Z-11.887
X-251.137 Y-16.053 Z-11.83
X-251.134 Y-16.031 Z-11.767
X-251.133 Y-16.024 Z-11.7
G0 Z2
X-251.171 Y16.281
Z-11.73
G1 X-251.172 Y16.287 Z-11.79 F400
X-251.175 Y16.307 Z-11.847
X-251.18 Y16.339 Z-11.898
X-251.186 Y16.381 Z-11.941
X-251.194 Y16.432 Z-11.973
X-251.203 Y16.488 Z-11.993
X-251.213 Y16.547 Z-12
X-251.496 Y18.338
X-251.5 Y18.385
Y19.069
X-82.109 Y19.025
X-80.802 Y18.674
X-79.792 Y17.689
X-79.604 Y17.365
X-74.118 Y8.713
G3 X-73.913 Y8.531 I0.422 J0.268
X-72.976 Y8.155 I3.162 J6.524
G1 X-72.602 Y8.034
X-69.575 Y6.847
G3 X-66.933 Y6.346 I2.647 J6.749
G1 X-38.504 Y6.328
X-38.506 Y4.124
X-37.511 Y-4.157
X-37.514 Y-7.327
X-66.932 Y-7.346
G3 X-69.203 Y-7.775 I0.004 J-6.25
G1 X-72.584 Y-9.096
X-73.019 Y-9.241
G3 X-75.052 Y-10.375 I1.974 J-5.93
G1 X-75.074 Y-10.393
X-75.123 Y-10.426
X-75.177 Y-10.449
X-75.234 Y-10.461
X-75.293 Y-10.462
X-77.309 Y-10.281
X-77.375 Y-10.275 Z-11.992
X-77.438 Y-10.269 Z-11.97
X-77.495 Y-10.264 Z-11.935
X-77.542 Y-10.26 Z-11.887
X-77.578 Y-10.257 Z-11.83
X-77.6 Y-10.255 Z-11.767
X-77.607 Y-10.254 Z-11.7
G0 Z2
X-78.203 Y11.476
Z-11.76
G1 X-78.197 Y11.474 Z-11.813 F400
X-78.18 Y11.468 Z-11.864
X-78.154 Y11.459 Z-11.91
X-78.118 Y11.446 Z-11.948
X-78.075 Y11.431 Z-11.976
X-78.027 Y11.413 Z-11.994
X-77.977 Y11.395 Z-12
X-75.093 Y10.366
X-75.05 Y10.346
X-75.01 Y10.321
G3 X-73.918 Y9.644 I3.818 J4.948
G1 X-73.477 Y9.431
G3 X-72.669 Y9.107 I2.726 J5.624
G1 X-72.266 Y8.977
X-69.21 Y7.778
G3 X-66.932 Y7.346 I2.282 J5.818
G1 X-37.503 Y7.327
X-37.506 Y4.139
X-36.511 Y-4.142
X-36.514 Y-8.326
X-66.931 Y-8.346
G3 X-68.839 Y-8.707 I0.003 J-5.25
G1 X-72.243 Y-10.037
X-72.703 Y-10.19
G3 X-74.411 Y-11.142 I1.658 J-4.981
G1 X-74.763 Y-11.436
G3 X-75.327 Y-11.984 I3.366 J-4.029
G1 X-77.689 Y-14.65
X-77.732 Y-14.69
X-77.782 Y-14.721
X-77.837 Y-14.741
X-77.896 Y-14.751
X-79.915 Y-14.873
X-79.982 Y-14.877 Z-11.992
X-80.045 Y-14.881 Z-11.97
X-80.102 Y-14.884 Z-11.935
X-80.149 Y-14.887 Z-11.887
X-80.185 Y-14.889 Z-11.83
X-80.207 Y-14.89 Z-11.767
X-80.215 Y-14.891 Z-11.7
G0 Z2
X-77.937 Y14.777
Z-6
G1 Z-11.76 F400
X-77.932 Y14.774 Z-11.813
X-77.917 Y14.765 Z-11.864
X-77.892 Y14.751 Z-11.91
X-77.859 Y14.732 Z-11.948
X-77.82 Y14.709 Z-11.976
X-77.776 Y14.684 Z-11.994
X-77.729 Y14.657 Z-12
X-77.691 Y14.631
X-77.656 Y14.598
X-75.092 Y11.754
G3 X-73.482 Y10.544 I3.899 J3.515
G1 X-73.041 Y10.331
G3 X-72.362 Y10.058 I2.29 J4.724
G1 X-71.93 Y9.919
X-68.845 Y8.709
G3 X-66.931 Y8.346 I1.917 J4.887
G1 X-36.503 Y8.326
X-36.506 Y4.154
X-35.511 Y-4.128
X-35.515 Y-9.326
X-66.931 Y-9.346
G3 X-68.475 Y-9.638 I0.003 J-4.25
G1 X-71.903 Y-10.978
X-72.388 Y-11.139
G3 X-73.77 Y-11.91 I1.342 J-4.033
G1 X-74.122 Y-12.203
G3 X-74.578 Y-12.647 I2.724 J-3.262
G1 X-77.606 Y-16.064
G3 X-78.109 Y-16.765 I3.181 J-2.818
G1 X-79.001 Y-18.315
X-80.291 Y-19.572
X-81.977 Y-20.025
X-252.5 Y-20.069
Y-18.381
X-252.496 Y-18.334
X-252.485 Y-18.289
X-252.467 Y-18.245
X-251.549 Y-16.442
X-251.518 Y-16.383 Z-11.992
X-251.49 Y-16.326 Z-11.97
X-251.464 Y-16.276 Z-11.935
X-251.442 Y-16.233 Z-11.887
X-251.426 Y-16.201 Z-11.83
X-251.416 Y-16.182 Z-11.767
X-251.412 Y-16.175 Z-11.7
G0 Z2
X-252.454 Y18.055
Z-6
G1 Z-11.73 F400
X-252.455 Y18.062 Z-11.79
X-252.458 Y18.081 Z-11.847
X-252.463 Y18.113 Z-11.898
X-252.47 Y18.155 Z-11.941
X-252.478 Y18.206 Z-11.973
X-252.487 Y18.262 Z-11.993
X-252.496 Y18.322 Z-12
X-252.5 Y18.369
Y20.069
X-81.977 Y20.025
X-80.291 Y19.572
X-78.995 Y18.31
X-78.031 Y16.645
G3 X-77.51 Y15.929 I3.677 J2.13
G1 X-74.349 Y12.423
G3 X-73.046 Y11.444 I3.157 J2.846
G1 X-72.605 Y11.231
G3 X-72.056 Y11.01 I1.853 J3.825
G1 X-71.593 Y10.861
X-68.48 Y9.64
G3 X-66.931 Y9.346 I1.552 J3.957
G1 X-35.502 Y9.326
X-35.506 Y4.122
X-34.511 Y-4.066
X-34.516 Y-10.325
X-66.93 Y-10.346
G3 X-68.111 Y-10.569 I0.002 J-3.25
G1 X-71.563 Y-11.919
X-72.072 Y-12.088
G3 X-73.129 Y-12.677 I1.026 J-3.084
G1 X-73.48 Y-12.971
G3 X-73.83 Y-13.31 I2.083 J-2.494
G1 X-76.857 Y-16.727
G3 X-77.243 Y-17.263 I2.433 J-2.155
G1 X-78.203 Y-18.934
X-79.78 Y-20.47
X-81.844 Y-21.025
X-253.5 Y-21.069
Y14.04
Y18.165
Y21.069
X-81.844 Y21.025
X-79.784 Y20.471
X-79.737 Y20.428
X-78.199 Y18.93
X-77.166 Y17.146
G3 X-76.767 Y16.599 I2.812 J1.629
G1 X-73.606 Y13.093
G3 X-72.61 Y12.344 I2.414 J2.176
G1 X-72.169 Y12.131
G3 X-71.749 Y11.962 I1.417 J2.925
G1 X-71.257 Y11.804
X-68.115 Y10.571
G3 X-66.93 Y10.346 I1.187 J3.026
G1 X-34.501 Y10.325
X-34.506 Y4.044
G3 X-34.006 Y3.293 I0.813 J-0.001
G2 X-33.507 Y2.543 I-0.313 J-0.75
G1 X-33.516 Y-11.324
X-66.929 Y-11.346
G3 X-67.747 Y-11.501 I0.002 J-2.25
G1 X-71.223 Y-12.859
X-71.756 Y-13.037
G3 X-72.488 Y-13.445 I0.71 J-2.135
G1 X-72.839 Y-13.738
G3 X-73.081 Y-13.973 I1.442 J-1.727
G1 X-76.109 Y-17.391
G3 X-76.376 Y-17.761 I1.684 J-1.492
G1 X-77.405 Y-19.553
X-79.268 Y-21.368
X-81.712 Y-22.025
X-254.5 Y-22.069
Y22.069
X-81.712 Y22.025
X-79.29 Y21.373
X-79.051 Y21.156
X-77.403 Y19.55
X-76.3 Y17.647
G3 X-76.025 Y17.269 I1.947 J1.128
G1 X-72.864 Y13.762
G3 X-72.174 Y13.244 I1.671 J1.507
G1 X-71.733 Y13.031
G3 X-71.442 Y12.914 I0.981 J2.025
G1 X-70.921 Y12.746
X-67.749 Y11.502
G3 X-66.929 Y11.346 I0.822 J2.095
G1 X-33.501 Y11.324
X-33.507 Y2.543
G3 X-33.007 Y1.793 I0.813 J-0.001
G2 X-32.508 Y1.042 I-0.313 J-0.75
G1 X-32.517 Y-12.182
X-32.549 Y-12.324
X-66.929 Y-12.346
G3 X-67.383 Y-12.432 I0.001 J-1.25
G1 X-70.883 Y-13.8
X-71.44 Y-13.986
G3 X-71.847 Y-14.212 I0.395 J-1.186
G1 X-72.198 Y-14.506
X-72.268 Y-14.568
X-72.333 Y-14.636
X-75.36 Y-18.054
G3 X-75.509 Y-18.26 I0.936 J-0.829
G1 X-76.608 Y-20.172
X-78.757 Y-22.266
X-81.58 Y-23.025
X-255.5 Y-23.07
Y23.07
X-81.58 Y23.025
X-78.796 Y22.276
X-78.365 Y21.884
X-76.606 Y20.171
X-75.435 Y18.149
G3 X-75.282 Y17.938 I1.082 J0.627
G1 X-72.121 Y14.432
G3 X-71.738 Y14.144 I0.928 J0.837
G1 X-71.297 Y13.93
X-71.217 Y13.895
X-71.135 Y13.866
X-70.585 Y13.688
X-67.384 Y12.433
G3 X-66.929 Y12.346 I0.456 J1.164
G1 X-32.547 Y12.324
X-32.5 Y12.059
X-32.508 Y1.042
G2 X-32.6 Y0.753 I-0.5 J0
G1 X-35.417 Y-3.208
G3 X-35.51 Y-3.497 I0.407 J-0.29
G1 Y-3.564 Z-12.008
Y-3.628 Z-12.03
Y-3.684 Z-12.065
Y-3.732 Z-12.113
Y-3.768 Z-12.17
Y-3.79 Z-12.233
Y-3.797 Z-12.3
Z-15.7
Y-3.805 Z-15.767
Y-3.827 Z-15.83
Y-3.863 Z-15.887
Y-3.91 Z-15.935
Y-3.967 Z-15.97
Y-4.031 Z-15.992
Y-4.097 Z-16
Y-4.144
Y-4.323
X-66.774 Y-4.325
G3 X-68.023 Y-4.513 I0 J-4.25
G1 X-68.331 Y-4.608
G3 X-68.774 Y-4.772 I1.249 J-4.062
G2 X-69.473 Y-4.311 I-0.199 J0.459
G1 X-69.442 Y4.301
G2 X-68.746 Y4.76 I0.5 J-0.002
G3 X-68.331 Y4.608 I1.664 J3.911
G1 X-68.023 Y4.513
G3 X-66.774 Y4.325 I1.249 J4.062
G1 X-35.502 Y4.323
Y4.136
X-34.51 Y-4.052
X-34.511 Y-5.323
X-66.774 Y-5.325
G3 X-67.729 Y-5.469 I0 J-3.25
G1 X-68.037 Y-5.564
G3 X-68.903 Y-5.978 I0.955 J-3.106
G1 X-70.245 Y-6.886
X-72.166 Y-7.713
G3 X-72.938 Y-8.183 I1.286 J-2.985
G1 X-73.266 Y-8.451
G3 X-73.952 Y-9.225 I2.058 J-2.515
G1 X-75.289 Y-11.331
X-76.39 Y-12.743
X-76.868 Y-13.313
G3 X-77.308 Y-13.995 I2.49 J-2.089
G1 X-78.298 Y-16.057
X-79.968 Y-17.958
X-81.915 Y-18.572
X-150.302 Y-18.623
X-253.5 Y-18.588
Y-18.166
X-253.496 Y-18.119
X-252.949 Y-14.662
X-252.938 Y-14.596 Z-15.992
X-252.928 Y-14.533 Z-15.97
X-252.92 Y-14.477 Z-15.935
X-252.912 Y-14.43 Z-15.887
X-252.907 Y-14.395 Z-15.83
X-252.903 Y-14.373 Z-15.767
X-252.902 Y-14.365 Z-15.7
G0 Z2.013
X-253.418 Y16.639
Z-10
G1 Z-15.7 F400
Y16.646 Z-15.767
X-253.42 Y16.669 Z-15.83
X-253.423 Y16.704 Z-15.887
X-253.426 Y16.752 Z-15.935
X-253.431 Y16.808 Z-15.97
X-253.436 Y16.871 Z-15.992
X-253.441 Y16.938 Z-16
G2 X-253.5 Y18.437 I19.045 J1.499
G1 Y18.587
X-102.222 Y18.605
X-81.916 Y18.572
X-79.968 Y17.958
X-78.298 Y16.057
X-77.308 Y13.995
G3 X-76.885 Y13.333 I2.93 J1.406
G1 X-75.922 Y12.166
X-75.134 Y11.102
X-73.959 Y9.236
G3 X-73.268 Y8.453 I2.75 J1.731
G1 X-72.939 Y8.184
G3 X-72.184 Y7.721 I2.059 J2.514
G1 X-70.136 Y6.824
X-68.92 Y5.99
G3 X-68.037 Y5.564 I1.838 J2.68
G1 X-67.729 Y5.469
G3 X-66.774 Y5.325 I0.955 J3.106
G1 X-34.501 Y5.323
X-34.502 Y3.777
G3 X-34.003 Y3.026 I0.813 J-0.001
G2 X-33.504 Y2.276 I-0.313 J-0.75
G1 X-33.512 Y-6.308
X-66.774 Y-6.325
G3 X-67.435 Y-6.425 I0 J-2.25
G1 X-67.743 Y-6.52
G3 X-68.342 Y-6.806 I0.661 J-2.151
G1 X-69.763 Y-7.767
X-71.77 Y-8.632
G3 X-72.305 Y-8.957 I0.89 J-2.066
G1 X-72.633 Y-9.225
G3 X-73.108 Y-9.761 I1.425 J-1.741
G1 X-74.471 Y-11.908
X-75.613 Y-13.372
X-76.102 Y-13.955
G3 X-76.407 Y-14.428 I1.724 J-1.446
G1 X-77.456 Y-16.613
X-79.401 Y-18.828
X-81.761 Y-19.572
X-150.302 Y-19.623
X-254.5 Y-19.587
Y19.587
X-102.221 Y19.605
X-81.762 Y19.572
X-79.401 Y18.828
X-77.456 Y16.613
X-76.407 Y14.428
G3 X-76.113 Y13.969 I2.028 J0.974
G1 X-75.134 Y12.783
X-74.308 Y11.667
X-73.113 Y9.769
G3 X-72.635 Y9.227 I1.904 J1.199
G1 X-72.306 Y8.957
G3 X-71.783 Y8.637 I1.426 J1.741
G1 X-69.648 Y7.702
X-68.354 Y6.815
G3 X-67.743 Y6.52 I1.272 J1.856
G1 X-67.435 Y6.425
G3 X-66.774 Y6.325 I0.661 J2.151
G1 X-33.529 Y6.323
X-33.5 Y6.044
X-33.504 Y2.276
G3 X-33.005 Y1.525 I0.813 J-0.001
G2 X-32.505 Y0.775 I-0.313 J-0.75
G1 X-32.513 Y-6.38
X-32.647 Y-7.323
X-66.774 Y-7.325
G3 X-67.141 Y-7.381 I0 J-1.25
G1 X-67.449 Y-7.475
G3 X-67.782 Y-7.635 I0.367 J-1.195
G1 X-69.281 Y-8.648
X-71.375 Y-9.55
G3 X-71.672 Y-9.731 I0.495 J-1.148
G1 X-72 Y-9.999
G3 X-72.264 Y-10.297 I0.792 J-0.967
G1 X-73.653 Y-12.484
X-74.835 Y-14.001
X-75.336 Y-14.598
G3 X-75.505 Y-14.86 I0.958 J-0.803
G1 X-76.614 Y-17.17
X-78.834 Y-19.698
X-81.607 Y-20.571
X-150.302 Y-20.623
X-255.5 Y-20.587
Y20.587
X-102.22 Y20.605
X-81.607 Y20.572
X-78.834 Y19.698
X-76.614 Y17.17
X-75.505 Y14.86
G3 X-75.342 Y14.606 I1.127 J0.541
G1 X-74.346 Y13.399
X-73.482 Y12.231
X-72.267 Y10.302
G3 X-72.001 Y10 I1.058 J0.666
G1 X-71.672 Y9.731
G3 X-71.382 Y9.553 I0.792 J0.967
G1 X-69.161 Y8.58
X-67.789 Y7.639
G3 X-67.449 Y7.475 I0.707 J1.031
G1 X-67.141 Y7.381
G3 X-66.774 Y7.325 I0.367 J1.195
G1 X-32.657 Y7.323
X-32.62 Y7.234
X-32.5 Y6.096
X-32.505 Y0.775
X-32.512 Y0.712
X-32.531 Y0.653
X-32.563 Y0.598
X-34.623 Y-2.231
X-34.662 Y-2.285 Z-15.992
X-34.7 Y-2.336 Z-15.97
X-34.733 Y-2.382 Z-15.935
X-34.761 Y-2.421 Z-15.887
X-34.782 Y-2.45 Z-15.83
X-34.795 Y-2.468 Z-15.767
X-34.8 Y-2.474 Z-15.7
G0 Z2
X-137.144 Y-0.088
Z-19
G1 X-137.151 Z-19.067 F400
X-137.174 Z-19.13
X-137.209 Y-0.089 Z-19.187
X-137.257 Z-19.235
X-137.314 Z-19.27
X-137.377 Z-19.292
X-137.444 Z-19.3
X-139.224 Y-0.09
X-150.297 Y-0.099
X-158.004 Y-0.089
X-158.531 Y-0.073
G3 X-159.29 Y0.014 I-2.558 J-19.079
G1 X-159.089 Y0.05
X-157.432 Y0.097
X-139.245 Y0.087
G2 X-138.747 Y-0.369 I0 J-0.5
G1 X-138.731 Y-0.546
G2 X-139.229 Y-1.09 I-0.498 J-0.044
G1 X-150.297 Y-1.099
X-158.02 Y-1.089
X-158.614 Y-1.071
G3 X-159.94 Y-0.938 I-2.475 J-18.081
X-161.656 Y-0.765 I-2.691 J-18.051
G1 X-162.889 Y-0.699
G3 X-163.863 Y-0.673 I-0.974 J-18.224
G1 X-238.5
Y0.673
X-163.863
G3 X-163.14 Y0.687 I0 J18.25
G1 X-161.907 Y0.736
G3 X-159.197 Y1.048 I-0.723 J18.236
G1 X-157.446 Y1.097
X-139.212 Y1.087
G2 X-138.712 Y0.583 I0 J-0.5
G1 X-138.727 Y-1.594
G2 X-139.226 Y-2.09 I-0.5 J0.003
G1 X-150.297 Y-2.099
X-158.036 Y-2.089
X-158.698 Y-2.069
G3 X-160.045 Y-1.934 I-2.391 J-17.083
X-161.709 Y-1.763 I-2.585 J-17.055
G1 X-162.942 Y-1.698
G3 X-163.863 Y-1.673 I-0.921 J-17.225
G1 X-239.5
Y1.673
X-163.863
G3 X-163.179 Y1.686 I0 J17.25
G1 X-161.947 Y1.735
G3 X-159.307 Y2.045 I-0.684 J17.236
G1 X-157.46 Y2.097
X-139.225 Y2.087
G2 X-138.726 Y1.588 I0 J-0.5
G1 X-138.712 Y-2.588
G2 X-139.212 Y-3.09 I-0.5 J-0.002
G1 X-150.298 Y-3.099
X-158.052 Y-3.089
X-158.784 Y-3.066
G3 X-160.15 Y-2.929 I-2.305 J-16.086
X-161.763 Y-2.762 I-2.48 J-16.06
G1 X-162.996 Y-2.696
G3 X-163.863 Y-2.673 I-0.867 J-16.227
G1 X-240.5
Y2.673
X-163.863
G3 X-163.219 Y2.686 I0 J16.25
G1 X-161.986 Y2.735
G3 X-159.433 Y3.039 I-0.644 J16.237
G1 X-157.474 Y3.097
X-139.239 Y3.087
G2 X-138.74 Y2.588 I0 J-0.5
G1 X-138.72 Y-3.588
G2 X-139.219 Y-4.09 I-0.5 J-0.002
G1 X-150.298 Y-4.099
X-158.068 Y-4.089
X-158.872 Y-4.064
G3 X-160.256 Y-3.925 I-2.217 J-15.088
X-161.816 Y-3.761 I-2.374 J-15.064
G1 X-163.049 Y-3.695
G3 X-163.863 Y-3.673 I-0.814 J-15.228
G1 X-241.5
Y3.673
X-163.863
G3 X-163.259 Y3.685 I0 J15.25
G1 X-162.026 Y3.734
G3 X-159.63 Y4.02 I-0.604 J15.238
G1 X-159.533 Y4.039
X-157.487 Y4.097
X-139.206 Y4.087
G2 X-138.707 Y3.584 I0 J-0.5
G1 X-138.746 Y-4.593
G2 X-139.246 Y-5.09 I-0.5 J0.002
G1 X-150.298 Y-5.099
X-158.085 Y-5.089
X-158.961 Y-5.062
G3 X-160.361 Y-4.921 I-2.128 J-14.09
X-161.87 Y-4.759 I-2.269 J-14.068
G1 X-163.102 Y-4.693
G3 X-163.863 Y-4.673 I-0.761 J-14.23
G1 X-242.5
Y4.673
X-163.863
G3 X-163.298 Y4.684 I0 J14.25
G1 X-162.065 Y4.733
G3 X-159.827 Y5 I-0.565 J14.239
G1 X-159.649 Y5.036
X-157.501 Y5.097
X-139.22 Y5.087
G2 X-138.72 Y4.586 I0 J-0.5
G1 X-138.741 Y-5.591
G2 X-139.241 Y-6.09 I-0.5 J0.001
G1 X-150.298 Y-6.099
X-158.101 Y-6.089
X-159.053 Y-6.059
G3 X-160.467 Y-5.917 I-2.036 J-13.093
X-161.923 Y-5.758 I-2.163 J-13.072
G1 X-163.156 Y-5.692
G3 X-163.863 Y-5.673 I-0.707 J-13.231
G1 X-243.5
Y5.673
X-163.863
G3 X-163.338 Y5.683 I0 J13.25
G1 X-162.105 Y5.732
G3 X-160.023 Y5.981 I-0.525 J13.24
G1 X-159.771 Y6.031
X-159.664 Y6.036
X-157.515 Y6.097
X-139.234 Y6.087
G2 X-138.734 Y5.586 I0 J-0.5
G1 X-138.745 Y-6.591
G2 X-139.245 Y-7.09 I-0.5 J0
G1 X-150.299 Y-7.099
X-158.117 Y-7.089
X-159.147 Y-7.057
G3 X-160.536 Y-6.914 I-1.942 J-12.095
G1 X-160.573 Y-6.913
G3 X-161.976 Y-6.756 I-2.057 J-12.076
G1 X-163.209 Y-6.69
G3 X-163.863 Y-6.673 I-0.654 J-12.233
G1 X-244.5
Y6.673
X-163.863
G3 X-163.378 Y6.683 I0 J12.25
G1 X-162.145 Y6.731
G3 X-160.22 Y6.961 I-0.485 J12.24
G1 X-159.894 Y7.027
X-159.701 Y7.036
X-157.529 Y7.097
X-139.201 Y7.087
X-139.154 Y7.083
X-139.108 Y7.072
X-137.184 Y6.446
X-137.121 Y6.425 Z-19.292
X-137.06 Y6.405 Z-19.27
X-137.006 Y6.388 Z-19.235
X-136.961 Y6.373 Z-19.187
X-136.927 Y6.362 Z-19.13
X-136.906 Y6.355 Z-19.067
X-136.899 Y6.353 Z-19
G0 Z2
X-138.916 Y-8.044
Z-14
G1 Z-19.03 F400
X-138.923 Y-8.045 Z-19.09
X-138.942 Y-8.048 Z-19.147
X-138.974 Y-8.053 Z-19.198
X-139.016 Y-8.06 Z-19.241
X-139.067 Y-8.068 Z-19.273
X-139.123 Y-8.077 Z-19.293
X-139.183 Y-8.086 Z-19.3
X-139.23 Y-8.09
X-150.299 Y-8.099
X-158.133 Y-8.089
X-159.243 Y-8.054
G3 X-160.582 Y-7.913 I-1.846 J-11.098
G1 X-160.681 Y-7.909
G3 X-162.03 Y-7.755 I-1.949 J-11.08
G1 X-163.263 Y-7.689
G3 X-163.863 Y-7.673 I-0.6 J-11.234
G1 X-245.5
Y7.673
X-163.863
G3 X-163.417 Y7.682 I0 J11.25
G1 X-162.184 Y7.731
G3 X-160.417 Y7.942 I-0.446 J11.241
G1 X-160.017 Y8.022
X-159.739 Y8.035
X-157.543 Y8.097
X-139.215 Y8.087
X-139.152 Y8.08
X-139.093 Y8.061
X-139.038 Y8.029
X-137.402 Y6.839
X-137.348 Y6.8 Z-19.292
X-137.297 Y6.763 Z-19.27
X-137.251 Y6.729 Z-19.235
X-137.212 Y6.701 Z-19.187
X-137.184 Y6.68 Z-19.13
X-137.166 Y6.667 Z-19.067
X-137.16 Y6.663 Z-19
G0 Z2
X-83.575 Y-6.134
Z-19
G1 X-83.578 Y-6.141 Z-19.067 F400
X-83.585 Y-6.162 Z-19.13
X-83.596 Y-6.196 Z-19.187
X-83.611 Y-6.241 Z-19.235
X-83.63 Y-6.295 Z-19.27
X-83.65 Y-6.355 Z-19.292
X-83.671 Y-6.418 Z-19.3
X-84.28 Y-8.223
X-84.558 Y-9.048
X-150.299 Y-9.099
X-158.149 Y-9.089
X-159.343 Y-9.052
G3 X-160.627 Y-8.912 I-1.746 J-10.1
G1 X-160.792 Y-8.905
G3 X-162.083 Y-8.753 I-1.838 J-10.084
G1 X-163.316 Y-8.688
G3 X-163.863 Y-8.673 I-0.547 J-10.235
G1 X-246.5
Y8.673
X-163.863
G3 X-163.457 Y8.681 I0 J10.25
G1 X-162.224 Y8.73
G3 X-160.614 Y8.922 I-0.406 J10.242
G1 X-160.139 Y9.017
X-159.777 Y9.034
X-157.557 Y9.097
X-84.552 Y9.056
X-84.275 Y8.218
X-83.639 Y6.297
X-83.618 Y6.233 Z-19.292
X-83.598 Y6.173 Z-19.27
X-83.58 Y6.119 Z-19.235
X-83.565 Y6.074 Z-19.187
X-83.554 Y6.04 Z-19.13
X-83.547 Y6.019 Z-19.067
X-83.545 Y6.012 Z-19
G0 Z2
X-82.413 Y-5.815
Z-19
G1 X-82.415 Y-5.822 Z-19.067 F400
X-82.422 Y-5.843 Z-19.13
X-82.433 Y-5.877 Z-19.187
X-82.449 Y-5.922 Z-19.235
X-82.467 Y-5.976 Z-19.27
X-82.487 Y-6.036 Z-19.292
X-82.508 Y-6.099 Z-19.3
X-83.217 Y-8.201
X-83.763 Y-9.818
X-83.918 Y-10.047
X-150.299 Y-10.099
X-158.165 Y-10.089
X-159.446 Y-10.049
G3 X-160.672 Y-9.911 I-1.643 J-9.103
G1 X-160.907 Y-9.901
G3 X-162.136 Y-9.752 I-1.724 J-9.088
G1 X-163.369 Y-9.686
G3 X-163.863 Y-9.673 I-0.494 J-9.237
G1 X-247.5
Y9.673
X-163.863
G3 X-163.496 Y9.68 I0 J9.25
G1 X-162.264 Y9.729
G3 X-160.81 Y9.903 I-0.367 J9.243
G1 X-160.262 Y10.013
X-159.815 Y10.034
X-157.571 Y10.097
X-83.936 Y10.056
X-83.727 Y9.745
X-83.219 Y8.211
X-83.208 Y8.165
X-82.881 Y6.169
X-82.87 Y6.103 Z-19.292
X-82.86 Y6.04 Z-19.27
X-82.85 Y5.984 Z-19.235
X-82.843 Y5.937 Z-19.187
X-82.837 Y5.902 Z-19.13
X-82.833 Y5.88 Z-19.067
X-82.832 Y5.873 Z-19
G0 Z2
X-81.982 Y-5.413
Z-19.06
G1 Y-5.419 Z-19.113 F400
X-81.983 Y-5.437 Z-19.164
X-81.984 Y-5.465 Z-19.21
X-81.985 Y-5.503 Z-19.248
X-81.987 Y-5.549 Z-19.276
X-81.99 Y-5.599 Z-19.294
X-81.992 Y-5.653 Z-19.3
X-82.09 Y-7.963
X-82.096 Y-8.01
X-82.108 Y-8.055
G3 X-82.195 Y-8.298 I7.731 J-2.88
G1 X-82.859 Y-10.266
X-83.387 Y-11.047
X-150.299 Y-11.099
X-158.182 Y-11.089
X-159.553 Y-11.046
G3 X-160.717 Y-10.91 I-1.536 J-8.106
G1 X-161.025 Y-10.896
G3 X-162.19 Y-10.751 I-1.605 J-8.092
G1 X-163.423 Y-10.685
G3 X-163.863 Y-10.673 I-0.44 J-8.238
G1 X-248.5
Y10.673
X-163.863
G3 X-163.536 Y10.679 I0 J8.25
G1 X-162.303 Y10.728
G3 X-161.007 Y10.883 I-0.327 J8.244
G1 X-160.385 Y11.008
X-159.853 Y11.033
X-157.584 Y11.097
X-83.403 Y11.055
X-82.827 Y10.198
X-82.813 Y10.166
X-82.21 Y8.343
G3 X-82.1 Y8.034 I7.832 J2.592
X-81.321 Y7.503 I0.766 J0.288
G2 X-80.499 Y7.044 I0.015 J-0.94
G1 X-79.694 Y5.69
X-78.56 Y2.476
X-78.413 Y1.444
G3 X-78.228 Y0.55 I7.178 J1.021
G1 X-78.089 Y0.041
G3 X-78.193 Y-0.401 I6.999 J-1.889
G1 X-78.444 Y-1.633
G3 X-78.532 Y-2.167 I7.104 J-1.447
G1 X-78.588 Y-2.601
X-79.744 Y-5.796
X-80.585 Y-7.19
G3 X-81.247 Y-8.618 I6.208 J-3.745
G1 X-81.942 Y-10.678
X-81.969 Y-10.735
X-82.855 Y-12.046
X-150.3 Y-12.099
X-158.198 Y-12.089
X-159.664 Y-12.043
X-159.708 Y-12.035
G3 X-160.762 Y-11.909 I-1.381 J-7.117
G1 X-161.148 Y-11.892
G3 X-162.243 Y-11.749 I-1.482 J-7.097
G1 X-163.476 Y-11.683
G3 X-163.863 Y-11.673 I-0.387 J-7.24
G1 X-249.5
Y11.673
X-163.863
G3 X-163.576 Y11.679 I0 J7.25
G1 X-162.343 Y11.728
G3 X-161.204 Y11.863 I-0.287 J7.244
G1 X-160.508 Y12.003
X-159.89 Y12.032
X-157.598 Y12.097
X-82.87 Y12.055
X-81.946 Y10.68
X-81.878 Y10.522
X-81.26 Y8.657
G3 X-80.61 Y7.231 I6.883 J2.278
G1 X-80.499 Y7.044
G3 X-79.686 Y6.654 I0.698 J0.415
G2 X-78.873 Y6.265 I0.115 J-0.804
G1 X-78.784 Y6.116
X-77.584 Y2.715
X-77.423 Y1.584
G3 X-77.263 Y0.814 I6.188 J0.88
G1 X-77.049 Y0.033
G3 X-77.213 Y-0.6 I5.96 J-1.881
G1 X-77.464 Y-1.832
G3 X-77.54 Y-2.293 I6.124 J-1.248
G1 X-77.61 Y-2.837
X-78.838 Y-6.229
X-79.729 Y-7.706
G3 X-80.3 Y-8.937 I5.351 J-3.229
G1 X-81.012 Y-11.05
X-81.095 Y-11.229
X-82.263 Y-12.955
X-82.489 Y-13.046
X-150.3 Y-13.099
X-158.214 Y-13.089
X-159.776 Y-13.04
X-159.898 Y-13.016
G3 X-160.807 Y-12.908 I-1.191 J-6.136
G1 X-161.277 Y-12.887
G3 X-162.297 Y-12.748 I-1.354 J-6.102
G1 X-163.529 Y-12.682
G3 X-163.863 Y-12.673 I-0.334 J-6.241
G1 X-250.5
Y12.673
X-163.863
X-163.615 Y12.678
X-162.382 Y12.727
G3 X-161.401 Y12.844 I-0.248 J6.245
G1 X-160.63 Y12.999
X-159.928 Y13.032
X-157.612 Y13.097
X-82.486 Y13.055
X-82.28 Y12.97
X-81.064 Y11.161
X-80.942 Y10.878
X-80.311 Y8.971
G3 X-79.75 Y7.742 I5.934 J1.964
G1 X-78.873 Y6.265
G3 X-78.147 Y5.859 I0.713 J0.424
G2 X-77.465 Y5.384 I0.01 J-0.712
G1 X-76.608 Y2.954
X-76.433 Y1.725
G3 X-76.299 Y1.078 I5.198 J0.739
G1 X-76.046 Y0.154
X-76.002 Y0.003
G3 X-76.233 Y-0.8 I4.913 J-1.851
G1 X-76.485 Y-2.032
G3 X-76.548 Y-2.419 I5.144 J-1.048
G1 X-76.631 Y-3.073
X-77.931 Y-6.662
X-78.873 Y-8.223
G3 X-79.352 Y-9.257 I4.495 J-2.712
G1 X-80.082 Y-11.421
X-80.222 Y-11.723
X-81.605 Y-13.768
X-82.294 Y-14.046
X-150.3 Y-14.099
X-158.23 Y-14.089
X-159.887 Y-14.037
X-160.089 Y-13.998
G3 X-160.852 Y-13.907 I-1 J-5.154
G1 X-161.412 Y-13.882
G3 X-162.35 Y-13.746 I-1.218 J-5.107
G1 X-163.583 Y-13.68
G3 X-163.863 Y-13.673 I-0.28 J-5.243
G1 X-251.5
Y13.673
X-163.863
X-163.655 Y13.677
X-162.422 Y13.726
G3 X-161.597 Y13.824 I-0.208 J5.246
G1 X-160.753 Y13.994
X-159.966 Y14.031
X-157.626 Y14.097
X-82.299 Y14.055
X-82.245 Y14.037
X-81.62 Y13.781
X-80.183 Y11.642
X-80.007 Y11.235
X-79.362 Y9.286
G3 X-78.891 Y8.253 I4.984 J1.65
G1 X-77.874 Y6.542
X-77.465 Y5.384
G3 X-76.744 Y4.843 I0.766 J0.27
G2 X-76.023 Y4.303 I-0.045 J-0.811
G1 X-75.632 Y3.193
X-75.443 Y1.866
G3 X-75.334 Y1.342 I4.208 J0.598
G1 X-75.081 Y0.418
G3 X-74.932 Y-0.028 I4.099 J1.122
G1 X-74.991 Y-0.163
G3 X-75.254 Y-1 I3.902 J-1.685
G1 X-75.505 Y-2.232
G3 X-75.556 Y-2.545 I4.164 J-0.849
G1 X-75.653 Y-3.309
X-77.024 Y-7.094
X-78.016 Y-8.739
G3 X-78.405 Y-9.577 I3.639 J-2.196
G1 X-79.152 Y-11.793
X-79.349 Y-12.217
X-80.948 Y-14.581
X-82.1 Y-15.046
X-150.3 Y-15.099
X-158.246 Y-15.089
X-159.999 Y-15.034
X-160.279 Y-14.98
G3 X-160.897 Y-14.906 I-0.81 J-4.172
G1 X-161.557 Y-14.877
G3 X-162.403 Y-14.745 I-1.073 J-4.112
G1 X-163.636 Y-14.679
X-163.863 Y-14.673
X-252.5
Y14.673
X-163.863
X-163.695 Y14.676
X-162.462 Y14.725
G3 X-161.794 Y14.805 I-0.168 J4.247
G1 X-160.876 Y14.989
X-160.004 Y15.03
X-157.64 Y15.097
X-82.133 Y15.055
X-81.895 Y14.974
X-80.959 Y14.592
X-79.302 Y12.124
X-79.071 Y11.591
X-78.412 Y9.6
G3 X-78.031 Y8.764 I4.035 J1.335
G1 X-76.964 Y6.968
X-76.023 Y4.303
G3 X-75.297 Y3.791 I0.723 J0.255
G2 X-74.624 Y3.21 I0.003 J-0.676
G1 X-74.453 Y2.007
G3 X-74.37 Y1.606 I3.218 J0.458
G1 X-74.117 Y0.682
G3 X-73.947 Y0.209 I3.135 J0.858
G1 X-73.842 Y-0.025
X-74.073 Y-0.559
G3 X-74.274 Y-1.199 I2.984 J-1.289
G1 X-74.525 Y-2.431
X-74.547 Y-2.551
X-74.564 Y-2.671
X-74.675 Y-3.545
X-76.117 Y-7.527
X-77.16 Y-9.256
G3 X-77.457 Y-9.896 I2.783 J-1.679
G1 X-78.222 Y-12.164
X-78.476 Y-12.71
X-80.291 Y-15.395
X-81.88 Y-16.035
X-81.913 Y-16.046
X-150.301 Y-16.099
X-158.263 Y-16.089
X-160.11 Y-16.031
X-160.47 Y-15.962
G3 X-160.942 Y-15.905 I-0.619 J-3.19
G1 X-161.715 Y-15.87
G3 X-162.457 Y-15.743 I-0.916 J-3.118
G1 X-163.69 Y-15.678
X-163.863 Y-15.673
X-253.5
Y15.673
X-163.863
X-163.734 Y15.675
X-162.501 Y15.724
G3 X-161.991 Y15.785 I-0.129 J3.247
G1 X-160.998 Y15.984
X-160.042 Y16.03
X-157.654 Y16.097
X-81.967 Y16.054
X-81.544 Y15.911
X-80.299 Y15.402
X-78.42 Y12.605
X-78.136 Y11.947
X-77.463 Y9.914
G3 X-77.171 Y9.275 I3.085 J1.021
G1 X-76.054 Y7.394
X-74.656 Y3.432
X-74.624 Y3.21
G3 X-74.036 Y2.521 I0.838 J0.119
G2 X-73.405 Y1.869 I-0.278 J-0.9
G1 X-73.152 Y0.946
G3 X-73.035 Y0.619 I2.17 J0.594
G1 X-72.749 Y-0.017
X-73.155 Y-0.956
G3 X-73.294 Y-1.399 I2.066 J-0.892
G1 X-73.545 Y-2.631
X-73.572 Y-2.797
X-73.697 Y-3.781
X-75.21 Y-7.959
X-76.304 Y-9.773
G3 X-76.509 Y-10.216 I1.927 J-1.162
G1 X-77.292 Y-12.535
X-77.602 Y-13.204
X-79.634 Y-16.208
X-81.543 Y-16.978
X-81.759 Y-17.045
X-150.301 Y-17.099
X-158.279 Y-17.089
X-160.222 Y-17.028
X-160.66 Y-16.943
G3 X-160.988 Y-16.904 I-0.429 J-2.209
G1 X-161.889 Y-16.864
X-161.944 Y-16.846
G3 X-162.51 Y-16.742 I-0.687 J-2.143
G1 X-163.743 Y-16.676
X-163.863 Y-16.673
X-254.5
Y16.673
X-163.863
X-163.774 Y16.675
X-162.541 Y16.724
G3 X-162.188 Y16.766 I-0.089 J2.248
G1 X-161.121 Y16.98
X-160.079 Y17.029
X-157.667 Y17.097
X-81.801 Y17.054
X-81.194 Y16.848
X-79.639 Y16.213
X-77.539 Y13.086
X-77.2 Y12.303
X-76.514 Y10.228
G3 X-76.312 Y9.785 I2.136 J0.707
G1 X-75.144 Y7.82
X-73.68 Y3.672
X-73.463 Y2.147
G3 X-73.405 Y1.87 I2.228 J0.317
G1 Y1.869
G3 X-72.715 Y1.262 I0.807 J0.221
G2 X-71.98 Y0.71 I-0.132 J-0.942
G1 X-71.657 Y-0.01
X-72.237 Y-1.353
G3 X-72.314 Y-1.599 I1.148 J-0.496
G1 X-72.565 Y-2.831
X-72.58 Y-2.923
X-72.719 Y-4.017
X-74.303 Y-8.392
X-75.448 Y-10.289
G3 X-75.562 Y-10.535 I1.07 J-0.646
G1 X-76.362 Y-12.907
X-76.729 Y-13.698
X-78.977 Y-17.021
X-81.206 Y-17.92
X-81.606 Y-18.045
X-150.301 Y-18.099
X-158.295 Y-18.089
X-160.333 Y-18.025
X-160.851 Y-17.925
X-160.941 Y-17.911
X-161.033 Y-17.903
X-162.067 Y-17.857
X-162.249 Y-17.798
G3 X-162.563 Y-17.741 I-0.381 J-1.19
G1 X-163.796 Y-17.675
X-163.863 Y-17.673
X-255.5
Y17.673
X-163.863
X-163.814 Y17.674
X-162.581 Y17.723
X-162.482 Y17.731
X-162.384 Y17.746
X-161.244 Y17.975
X-160.117 Y18.028
X-157.681 Y18.097
X-81.684 Y18.054
X-81.577 Y18.034
X-80.844 Y17.785
X-78.979 Y17.023
X-76.658 Y13.568
X-76.265 Y12.66
X-75.564 Y10.542
G3 X-75.452 Y10.296 I1.187 J0.393
G1 X-74.234 Y8.246
X-72.703 Y3.911
X-72.473 Y2.288
X-72.459 Y2.211
X-72.441 Y2.134
X-72.188 Y1.21
X-72.159 Y1.118
X-72.123 Y1.028
X-71.98 Y0.71
X-71.962 Y0.66 Z-19.278
X-71.954 Y0.607 Z-19.256
X-71.955 Y0.554 Z-19.234
X-71.965 Y0.502 Z-19.212
X-71.981 Y0.461 Z-19.106
X-72.002 Y0.423 Z-19
G0 Z2
X-137.586 Y-8.059
Z-17.3
G1 Z-23 F400
X-137.594 Z-23.067
X-137.616 Z-23.13
X-137.652 Z-23.187
X-137.699 Z-23.235
X-137.756 Z-23.27
X-137.82 Z-23.292
X-137.886 Z-23.3
X-139.536 Y-8.061
X-139.532 Y8.058
X-139.251 Y8.057
X-135.751 Y8.052
X-135.684 Z-23.292
X-135.62 Z-23.27
X-135.564 Z-23.235
X-135.516 Z-23.187
X-135.48 Y8.051 Z-23.13
X-135.458 Z-23.067
X-135.451 Z-23
G0 Z2
X-81.832 Y-7.61
Z-17.3
G1 Z-23.03 F400
X-81.833 Y-7.616 Z-23.09
X-81.838 Y-7.636 Z-23.147
X-81.846 Y-7.667 Z-23.198
X-81.856 Y-7.708 Z-23.241
X-81.869 Y-7.758 Z-23.273
X-81.882 Y-7.813 Z-23.293
X-81.897 Y-7.872 Z-23.3
X-81.912 Y-7.916
X-82.301 Y-8.833
X-82.459 Y-8.898
X-105.935 Y-9.027
X-140.537 Y-9.062
X-140.532 Y9.059
X-94.845 Y8.988
X-82.482 Y8.9
X-82.296 Y8.822
X-81.912 Y7.916
X-79.354 Y-1.347
X-79.34 Y-1.415
X-79.336 Y-1.483
X-79.337 Y-1.621
X-79.705 Y-5.275
X-81.541 Y-9.603
X-82.26 Y-9.897
X-105.932 Y-10.027
X-141.537 Y-10.063
X-141.531 Y10.061
X-94.84 Y9.988
X-82.278 Y9.898
X-81.535 Y9.589
X-79.713 Y5.294
X-79.67 Y5.014
X-79.318 Y1.35
G3 X-78.805 Y0.661 I0.826 J0.079
G2 X-78.327 Y-0.054 I-0.289 J-0.71
G1 X-78.337 Y-1.675
X-78.715 Y-5.421
X-78.737 Y-5.553
X-80.782 Y-10.373
X-82.061 Y-10.896
X-105.928 Y-11.027
X-142.537 Y-11.064
X-142.531 Y11.062
X-94.836 Y10.988
X-82.075 Y10.897
X-80.774 Y10.355
X-78.744 Y5.57
X-78.677 Y5.139
X-78.318 Y1.395
X-78.327 Y-0.054
G3 X-77.832 Y-0.807 I0.812 J-0.005
G2 X-77.337 Y-1.56 I-0.317 J-0.748
G1 X-77.338 Y-1.728
X-77.723 Y-5.554
X-77.77 Y-5.835
X-79.988 Y-11.064
X-80.288 Y-11.252
X-81.862 Y-11.895
X-105.925 Y-12.027
X-143.538 Y-12.065
X-143.531 Y12.064
X-94.832 Y11.988
X-81.872 Y11.895
X-80.157 Y11.181
X-79.993 Y11.075
X-77.775 Y5.847
X-77.684 Y5.264
X-77.318 Y1.44
X-77.337 Y-1.56
G3 X-76.884 Y-2.3 I0.822 J-0.005
G2 X-76.467 Y-3.06 I-0.344 J-0.683
G1 X-76.731 Y-5.686
X-76.803 Y-6.116
X-79.19 Y-11.743
X-79.83 Y-12.145
X-81.663 Y-12.894
X-105.922 Y-13.027
X-144.538 Y-13.066
X-144.53 Y13.066
X-94.827 Y12.988
X-81.668 Y12.894
X-79.688 Y12.069
X-79.192 Y11.747
X-76.806 Y6.123
X-76.692 Y5.389
X-76.318 Y1.484
X-76.338 Y-1.781
X-76.467 Y-3.06
G2 X-76.657 Y-3.31 I-0.298 J0.03
G1 X-79.919 Y-4.578
X-79.981 Y-4.602 Z-23.292
X-80.04 Y-4.625 Z-23.27
X-80.093 Y-4.646 Z-23.235
X-80.137 Y-4.663 Z-23.187
X-80.171 Y-4.676 Z-23.13
X-80.191 Y-4.684 Z-23.067
X-80.198 Y-4.687 Z-23
G0 Z2

(Pocket7)
X-156.433 Y23.167
Z2
G1 Z-1.7 F600
X-156.429 Y23.174 Z-1.767
X-156.419 Y23.194 Z-1.83
X-156.403 Y23.226 Z-1.887
X-156.381 Y23.268 Z-1.935
X-156.355 Y23.319 Z-1.97
X-156.327 Y23.375 Z-1.992
X-156.296 Y23.434 Z-2
X-155.275 Y25.439
G2 X-153.995 Y26.223 I1.279 J-0.652
G1 X-81.311 Y26.21
X-79.803 Y25.957
X-79.014 Y25.738
X-77.906 Y25.145
X-76.668 Y23.927
X-76.146 Y23.348
X-74.947 Y21.544
X-74.898 Y21.477
X-74.844 Y21.414
X-73.553 Y20.038
X-73.498 Y19.984
X-73.44 Y19.935
X-72.132 Y18.91
X-72.056 Y18.857
X-71.975 Y18.81
X-70.573 Y18.083
X-70.501 Y18.049
X-70.427 Y18.021
X-68.957 Y17.535
X-68.88 Y17.513
X-68.801 Y17.497
X-66.886 Y17.19
X-66.807 Y17.18
X-66.728 Y17.177
X-32.233 Y17.169
X-32.079 Y17.128
X-32 Y16.83
X-32.008 Y-16.933
X-32.064 Y-17.115
X-32.325 Y-17.177
X-66.865 Y-17.188
G3 X-67.143 Y-17.227 I0 J-1
G1 X-69.009 Y-17.769
X-70.386 Y-18.02
G3 X-70.678 Y-18.122 I0.18 J-0.984
G1 X-72.123 Y-18.894
X-72.204 Y-18.943
X-72.28 Y-18.998
X-73.452 Y-19.944
X-73.508 Y-19.993
X-73.561 Y-20.047
X-74.974 Y-21.589
X-75.025 Y-21.649
X-75.071 Y-21.712
X-76.222 Y-23.451
X-77.014 Y-24.298
X-77.896 Y-25.138
X-79.146 Y-25.792
X-79.786 Y-25.954
X-81.578 Y-26.232
X-256 Y-26.24
Y26.24
X-153.995 Y26.223
G2 X-153.699 Y25.969 I0 J-0.3
G1 X-153.346 Y23.739
X-153.336 Y23.673 Z-1.992
X-153.326 Y23.611 Z-1.97
X-153.317 Y23.555 Z-1.935
X-153.31 Y23.508 Z-1.887
X-153.304 Y23.472 Z-1.83
X-153.301 Y23.451 Z-1.767
X-153.299 Y23.443 Z-1.7
G0 Z2
X-77.344 Y22.941
Z1.959
G1 Z0 F70
Z-3.7 F600
X-77.34 Y22.936 Z-3.767
X-77.325 Y22.919 Z-3.83
X-77.302 Y22.891 Z-3.887
X-77.271 Y22.855 Z-3.935
X-77.234 Y22.812 Z-3.97
X-77.193 Y22.764 Z-3.992
X-77.149 Y22.713 Z-4
X-77.13 Y22.69
X-76.931 Y22.458
X-75.988 Y21.02
G3 X-75.099 Y20.684 I0.675 J0.443
G2 X-74.184 Y20.429 I0.245 J-0.89
G1 X-74.072 Y20.311
X-74.024 Y20.263
X-73.972 Y20.219
X-71.75 Y18.432
X-71.652 Y18.362
X-71.546 Y18.304
X-70.98 Y18.04
X-70.87 Y17.997
X-68.029 Y17.062
X-67.949 Y17.039
X-67.868 Y17.023
X-66.879 Y16.872
X-66.804 Y16.863
X-66.728 Y16.86
X-32.251 Y16.857
X-32.072 Y16.809
X-32 Y16.55
X-32.024 Y-16.674
X-32.064 Y-16.807
X-32.251 Y-16.857
X-66.847 Y-16.868
G3 X-67.131 Y-16.91 I0 J-1
G1 X-70.706 Y-17.972
X-71.116 Y-18.094
X-71.228 Y-18.135
X-71.334 Y-18.188
X-71.741 Y-18.425
X-71.81 Y-18.469
X-71.875 Y-18.518
X-74.15 Y-20.396
X-74.205 Y-20.446
X-74.257 Y-20.499
X-74.974 Y-21.297
X-75.023 Y-21.357
X-75.068 Y-21.42
X-76.207 Y-23.168
X-76.994 Y-23.967
X-78.253 Y-25.097
X-78.835 Y-25.387
X-80.865 Y-25.872
X-81.569 Y-25.969
X-256 Y-25.985
Y25.985
X-81.31 Y25.947
X-80.59 Y25.828
X-78.733 Y25.355
X-78.149 Y25.025
X-76.405 Y23.381
X-76.13 Y23.06
X-74.95 Y21.262
X-74.899 Y21.19
X-74.841 Y21.123
X-74.184 Y20.429
G2 X-74.849 Y19.799 I-0.333 J-0.315
X-74.958 Y19.991 I0.333 J0.315
G1 X-75.248 Y21.032
G3 X-76.13 Y20.786 I-0.441 J-0.123
X-76.01 Y20.582 I0.441 J0.123
G1 X-75.962 Y20.535 Z-4.008
X-75.917 Y20.49 Z-4.03
X-75.876 Y20.451 Z-4.065
X-75.842 Y20.417 Z-4.113
X-75.817 Y20.392 Z-4.17
X-75.801 Y20.377 Z-4.233
X-75.795 Y20.372 Z-4.3
Z-5.7
X-75.79 Y20.366 Z-5.767
X-75.774 Y20.351 Z-5.83
X-75.749 Y20.326 Z-5.887
X-75.715 Y20.293 Z-5.935
X-75.674 Y20.253 Z-5.97
X-75.629 Y20.208 Z-5.992
X-75.581 Y20.162 Z-6
X-75.514 Y20.096
X-75.469 Y20.053
X-74.399 Y19.068
X-72.438 Y17.139
G3 X-71.811 Y16.721 I1.403 J1.426
G1 X-71.47 Y16.578
G3 X-71.146 Y16.473 I0.776 J1.843
G1 X-67.179 Y15.554
G3 X-66.728 Y15.503 I0.451 J1.948
G1 X-33 Y15.497
X-33.001 Y14.935
X-33.004 Y14.888
X-33.015 Y14.842
X-33.033 Y14.799
X-34.379 Y12.161
X-34.409 Y12.102 Z-5.992
X-34.438 Y12.045 Z-5.97
X-34.464 Y11.995 Z-5.935
X-34.485 Y11.952 Z-5.887
X-34.502 Y11.92 Z-5.83
X-34.512 Y11.901 Z-5.767
X-34.515 Y11.894 Z-5.7
G0 Z2
X-33.06 Y-14.624
Z1.936
G1 Z-2 F70
Z-5.73 F600
X-33.059 Y-14.631 Z-5.79
X-33.056 Y-14.651 Z-5.847
X-33.051 Y-14.683 Z-5.898
X-33.045 Y-14.725 Z-5.941
X-33.037 Y-14.775 Z-5.973
X-33.028 Y-14.832 Z-5.993
X-33.018 Y-14.891 Z-6
X-33.015 Y-14.938
Y-15.498
X-66.865 Y-15.514
G3 X-67.329 Y-15.569 I0.001 J-2
G1 X-71.296 Y-16.515
G3 X-71.851 Y-16.74 I0.464 J-1.945
G1 X-72.157 Y-16.922
G3 X-72.545 Y-17.221 I1.019 J-1.721
G1 X-74.846 Y-19.501
X-75.441 Y-20.028
X-75.515 Y-20.097
X-76.844 Y-22.056
X-76.951 Y-22.22
X-77.886 Y-23.073
X-78.835 Y-23.939
X-78.946 Y-24.04
X-81.478 Y-24.685
X-255 Y-24.73
Y-24.683
X-254.993 Y-24.621
X-254.974 Y-24.561
X-254.943 Y-24.507
X-253.657 Y-22.737
X-253.618 Y-22.683 Z-5.992
X-253.58 Y-22.632 Z-5.97
X-253.547 Y-22.586 Z-5.935
X-253.519 Y-22.548 Z-5.887
X-253.498 Y-22.519 Z-5.83
X-253.485 Y-22.501 Z-5.767
X-253.481 Y-22.495 Z-5.7
G0 Z2
X-255 Y24.355
Z1.952
G1 Z-2 F70
Z-5.7 F600
G19 G3 Y24.655 Z-6 J0.3 K0
G1 Y24.685
Y24.73
X-81.478 Y24.685
X-78.953 Y24.042
X-78.815 Y23.915
G17 G3 X-77.925 Y23.773 I0.551 J0.597
G2 X-77.035 Y23.631 I0.339 J-0.739
G1 X-76.131 Y22.796
X-74.953 Y20.98
G3 X-74.791 Y20.789 I0.839 J0.544
G1 X-73.709 Y19.793
X-71.737 Y17.852
G3 X-71.423 Y17.643 I0.701 J0.713
G1 X-71.082 Y17.499
X-71.002 Y17.47
X-70.92 Y17.447
X-66.953 Y16.529
X-66.841 Y16.509
X-66.728 Y16.503
X-32.265 Y16.497
X-32.109 Y16.451
X-32 Y16.016
X-32.015 Y-16.139
X-32.1 Y-16.444
X-32.265 Y-16.497
X-66.865 Y-16.514
X-66.981 Y-16.521
X-67.097 Y-16.541
X-71.063 Y-17.488
G3 X-71.341 Y-17.6 I0.232 J-0.973
G1 X-71.647 Y-17.782
X-71.749 Y-17.851
X-71.841 Y-17.932
X-74.162 Y-20.231
X-74.778 Y-20.776
G3 X-74.953 Y-20.98 I0.663 J-0.748
G1 X-76.182 Y-22.873
X-78.457 Y-24.948
X-81.353 Y-25.685
X-256 Y-25.731
Y25.731
X-81.353 Y25.685
X-78.46 Y24.949
X-77.035 Y23.631
G2 X-77.095 Y23.377 I-0.102 J-0.11
G1 X-78.465 Y22.992
X-79.404 Y23.553
G2 X-79.326 Y23.83 I0.08 J0.127
G1 X-79.26 Y23.831 Z-6.008
X-79.196 Y23.832 Z-6.03
X-79.139 Z-6.065
X-79.092 Y23.833 Z-6.113
X-79.056 Z-6.17
X-79.034 Y23.834 Z-6.233
X-79.026 Z-6.3
Z-7.7
X-79.019 Z-7.767
X-78.997 Z-7.83
X-78.961 Z-7.887
X-78.913 Y23.835 Z-7.935
X-78.856 Y23.836 Z-7.97
X-78.793 Z-7.992
X-78.726 Y23.837 Z-8
G2 X-77.367 Y23.292 I0.022 J-1.914
G1 X-76.16 Y22.112
X-74.961 Y20.203
G3 X-74.791 Y19.999 I0.847 J0.532
G1 X-72.612 Y17.995
X-71.74 Y17.149
G3 X-71.436 Y16.947 I0.696 J0.718
G1 X-71.087 Y16.798
X-71.011 Y16.769
X-70.934 Y16.747
X-70.02 Y16.522
X-67.191 Y15.545
G3 X-66.865 Y15.49 I0.326 J0.945
G1 X-32.265 Y15.473
X-32.122 Y15.431
X-32.076 Y15.38
X-32 Y15.064
Y-15.064
X-32.076 Y-15.38
X-32.122 Y-15.431
X-32.265 Y-15.473
X-66.865 Y-15.49
G3 X-67.186 Y-15.543 I0 J-1
G1 X-70.299 Y-16.602
X-71.192 Y-16.837
G3 X-71.555 Y-17.017 I0.255 J-0.967
G1 X-71.873 Y-17.267
X-71.954 Y-17.337
X-73.068 Y-18.421
X-74.79 Y-19.997
G3 X-74.961 Y-20.203 I0.675 J-0.738
G1 X-76.16 Y-22.112
X-78.508 Y-24.408
X-78.541 Y-24.422
X-81.63 Y-25.229
X-256 Y-25.212
Y25.211
X-81.496 Y25.217
X-78.516 Y24.415
X-77.367 Y23.292
X-77.344 Y23.263
X-77.328 Y23.229
X-77.322 Y23.193
X-77.324 Y23.156
X-77.432 Y22.356
X-70.447 Y12.895
X-70.416 Y12.863
X-70.377 Y12.843
X-70.334 Y12.834
X-70.29 Y12.838
X-69.177 Y13.091
X-69.114 Y13.069 Z-8.008
X-69.054 Y13.049 Z-8.03
X-69 Y13.03 Z-8.065
X-68.955 Y13.015 Z-8.113
X-68.921 Y13.003 Z-8.17
X-68.9 Y12.996 Z-8.233
X-68.893 Y12.994 Z-8.3
Z-9.7
X-68.886 Y12.991 Z-9.767
X-68.865 Y12.984 Z-9.83
X-68.831 Y12.973 Z-9.887
X-68.786 Y12.957 Z-9.935
X-68.732 Y12.939 Z-9.97
X-68.672 Y12.918 Z-9.992
X-68.609 Y12.897 Z-10
X-68.243 Y12.772
X-67.835 Y12.632
G3 X-66.866 Y12.471 I0.97 J2.839
G1 X-34.001 Y12.455
Y12.361
X-34.002 Y8.861
Y8.794 Z-9.992
X-34.003 Y8.731 Z-9.97
Y8.674 Z-9.935
Y8.627 Z-9.887
Y8.591 Z-9.83
Y8.569 Z-9.767
Y8.561 Z-9.7
G0 Z2
X-34.536 Y-9.003
Z-9.73
G1 X-34.535 Y-9.009 Z-9.79 F600
X-34.532 Y-9.029 Z-9.847
X-34.527 Y-9.061 Z-9.898
X-34.52 Y-9.103 Z-9.941
X-34.512 Y-9.154 Z-9.973
X-34.503 Y-9.21 Z-9.993
X-34.494 Y-9.269 Z-10
X-34.016 Y-12.294
X-34.012 Y-12.341
Y-12.455
X-66.866 Y-12.471
G3 X-67.804 Y-12.622 I0.001 J-3
G1 X-68.204 Y-12.754
X-70.37 Y-12.242
X-70.411 Y-12.237
X-70.451 Y-12.244
X-70.488 Y-12.262
X-70.519 Y-12.289
X-76.88 Y-19.621
X-76.901 Y-19.654
X-76.914 Y-19.691
X-76.916 Y-19.73
X-76.908 Y-19.769
X-76.753 Y-20.216
X-76.745 Y-20.259
X-76.749 Y-20.302
X-76.766 Y-20.343
X-76.977 Y-20.692
X-79.023 Y-22.686
X-81.758 Y-23.401
X-255 Y-23.41
Y-23.082
X-254.993 Y-23.019
X-254.974 Y-22.96
X-254.943 Y-22.905
X-253.244 Y-20.567
X-253.204 Y-20.513 Z-9.992
X-253.167 Y-20.462 Z-9.97
X-253.134 Y-20.416 Z-9.935
X-253.106 Y-20.377 Z-9.887
X-253.085 Y-20.348 Z-9.83
X-253.072 Y-20.33 Z-9.767
X-253.067 Y-20.324 Z-9.7
G0 Z2
X-254.954 Y22.777
G1 Z-6 F70
Z-9.73 F600
X-254.955 Y22.783 Z-9.79
X-254.958 Y22.803 Z-9.847
X-254.963 Y22.835 Z-9.898
X-254.97 Y22.877 Z-9.941
X-254.978 Y22.928 Z-9.973
X-254.987 Y22.984 Z-9.993
X-254.996 Y23.043 Z-10
X-255 Y23.09
Y23.41
X-81.759 Y23.401
X-79.028 Y22.686
X-76.918 Y20.603
X-76.749 Y20.322
X-75.75 Y18.671
G3 X-75.468 Y18.349 I1.636 J1.15
G1 X-73.615 Y16.646
X-72.609 Y15.526
G3 X-72.163 Y15.155 I1.488 J1.336
G1 X-71.873 Y14.978
G3 X-71.366 Y14.759 I1.042 J1.707
G1 X-69.234 Y14.167
X-67.511 Y13.578
G3 X-66.865 Y13.471 I0.647 J1.893
G1 X-33 Y13.455
X-33.001 Y12.33
X-33.002 Y8.83
Y8.763 Z-9.992
X-33.003 Y8.699 Z-9.97
Y8.642 Z-9.935
Y8.595 Z-9.887
Y8.559 Z-9.83
Y8.537 Z-9.767
Y8.53 Z-9.7
G0 Z2
X-33.058 Y-12.04
G1 Z-6 F70
Z-9.73 F600
X-33.057 Y-12.047 Z-9.79
X-33.054 Y-12.066 Z-9.847
X-33.049 Y-12.098 Z-9.898
X-33.042 Y-12.14 Z-9.941
X-33.034 Y-12.191 Z-9.973
X-33.025 Y-12.247 Z-9.993
X-33.016 Y-12.307 Z-10
X-33.012 Y-12.354
X-33.013 Y-13.455
X-66.865 Y-13.471
G3 X-67.491 Y-13.571 I0.001 J-2
G1 X-69.776 Y-14.325
X-71.473 Y-14.806
G3 X-72.17 Y-15.162 I0.545 J-1.924
G1 X-72.46 Y-15.392
G3 X-72.694 Y-15.61 I1.242 J-1.567
G1 X-73.814 Y-16.835
X-75.465 Y-18.346
G3 X-75.826 Y-18.787 I1.351 J-1.475
X-75.786 Y-19.688 I0.695 J-0.42
G2 X-75.746 Y-20.588 I-0.655 J-0.48
G1 X-76.188 Y-21.319
X-78.507 Y-23.579
X-78.541 Y-23.593
X-81.63 Y-24.401
X-256 Y-24.41
Y24.41
X-81.63 Y24.401
X-78.516 Y23.586
X-76.126 Y21.226
X-74.971 Y19.306
G3 X-74.791 Y19.085 I0.857 J0.515
G1 X-72.903 Y17.35
X-71.865 Y16.195
G3 X-71.642 Y16.009 I0.744 J0.668
G1 X-71.352 Y15.832
G3 X-71.099 Y15.722 I0.521 J0.854
G1 X-68.938 Y15.123
X-67.188 Y14.525
G3 X-66.865 Y14.471 I0.323 J0.946
G1 X-32.265 Y14.454
X-32.111 Y14.408
X-32.087 Y14.384
X-32 Y13.981
X-32.013 Y-14.105
X-32.078 Y-14.374
X-32.111 Y-14.408
X-32.265 Y-14.454
X-66.865 Y-14.471
G3 X-67.177 Y-14.521 I0 J-1
G1 X-69.483 Y-15.281
X-71.201 Y-15.768
G3 X-71.549 Y-15.946 I0.273 J-0.962
G1 X-71.839 Y-16.176
X-71.9 Y-16.228
X-71.956 Y-16.285
X-73.106 Y-17.543
X-74.79 Y-19.084
G3 X-74.97 Y-19.304 I0.675 J-0.738
G1 X-75.746 Y-20.588
G2 X-76.116 Y-20.711 I-0.257 J0.155
G1 X-78.793 Y-19.621
X-78.855 Y-19.596 Z-9.992
X-78.914 Y-19.572 Z-9.97
X-78.966 Y-19.551 Z-9.935
X-79.01 Y-19.533 Z-9.887
X-79.044 Y-19.52 Z-9.83
X-79.064 Y-19.511 Z-9.767
X-79.071 Y-19.508 Z-9.7
G0 Z2
X-76.589 Y-19.762
Z-8
G1 Z-11.7 F600
Y-19.77 Z-11.767
Y-19.792 Z-11.83
X-76.59 Y-19.828 Z-11.887
Y-19.875 Z-11.935
X-76.591 Y-19.932 Z-11.97
X-76.592 Y-19.995 Z-11.992
X-76.593 Y-20.062 Z-12
G2 X-77.183 Y-21.441 I-1.96 J0.023
G1 X-78.534 Y-22.762
X-81.63 Y-23.573
X-256 Y-23.608
Y23.608
X-81.497 Y23.561
X-78.537 Y22.764
X-76.161 Y20.443
X-74.979 Y18.406
X-74.918 Y18.313
X-74.847 Y18.228
X-73.759 Y17.055
X-71.841 Y14.918
G3 X-71.54 Y14.689 I0.744 J0.668
G1 X-71.137 Y14.49
X-71.056 Y14.454
X-70.973 Y14.426
X-69.565 Y14.018
X-67.226 Y13.111
G3 X-66.865 Y13.043 I0.362 J0.932
G1 X-32.316 Y13.023
X-32.242 Y12.995
X-32.125 Y12.834
X-32 Y12.089
X-32.001 Y-12.214
X-32.118 Y-12.824
X-32.242 Y-12.995
X-32.316 Y-13.023
X-66.865 Y-13.043
G3 X-67.226 Y-13.111 I0.001 J-1
G1 X-69.804 Y-14.111
X-71.096 Y-14.465
G3 X-71.338 Y-14.567 I0.264 J-0.964
G1 X-71.604 Y-14.723
G3 X-71.839 Y-14.914 I0.507 J-0.862
G1 X-74.744 Y-18.126
X-74.793 Y-18.185
X-75.065 Y-18.536
X-75.106 Y-18.593
X-75.143 Y-18.653
X-76.164 Y-20.446
X-77.183 Y-21.441
G2 X-78.021 Y-21.19 I-0.349 J0.358
G1 X-78.349 Y-19.692
G3 X-79.211 Y-19.467 I-0.488 J-0.107
G1 X-79.255 Y-19.516 Z-12.008
X-79.297 Y-19.564 Z-12.03
X-79.335 Y-19.606 Z-12.065
X-79.366 Y-19.642 Z-12.113
X-79.39 Y-19.668 Z-12.17
X-79.405 Y-19.685 Z-12.233
X-79.41 Y-19.691 Z-12.3
Z-13.7
X-79.415 Y-19.696 Z-13.767
X-79.43 Y-19.713 Z-13.83
X-79.454 Y-19.74 Z-13.887
X-79.485 Y-19.775 Z-13.935
X-79.523 Y-19.818 Z-13.97
X-79.565 Y-19.865 Z-13.992
X-79.609 Y-19.915 Z-14
X-79.648 Y-19.959
X-79.755 Y-20.078
X-81.838 Y-20.731
X-254 Y-20.681
Y-20.634
X-253.996 Y-20.587
X-253.529 Y-17.64
X-253.519 Y-17.574 Z-13.992
X-253.509 Y-17.511 Z-13.97
X-253.5 Y-17.455 Z-13.935
X-253.493 Y-17.408 Z-13.887
X-253.487 Y-17.373 Z-13.83
X-253.484 Y-17.351 Z-13.767
X-253.483 Y-17.343 Z-13.7
G0 Z2
X-254 Y20.27
Z-2
G1 Z-10 F70
Z-13.7 F600
G19 G3 Y20.57 Z-14 J0.3 K0
G1 Y20.6
Y20.681
X-81.838 Y20.731
X-79.757 Y20.078
X-79.663 Y19.973
G17 G2 X-79.629 Y19.622 I-0.224 J-0.199
G1 X-80.712 Y17.776
X-80.746 Y17.718 Z-13.992
X-80.778 Y17.664 Z-13.97
X-80.807 Y17.615 Z-13.935
X-80.831 Y17.574 Z-13.887
X-80.849 Y17.543 Z-13.83
X-80.86 Y17.524 Z-13.767
X-80.864 Y17.517 Z-13.7
G0 Z2
X-74.559 Y10.08
Z-13.73
G1 X-74.552 Y10.079 Z-13.79 F600
X-74.533 Y10.075 Z-13.847
X-74.501 Y10.068 Z-13.898
X-74.459 Y10.059 Z-13.941
X-74.409 Y10.048 Z-13.973
X-74.354 Y10.035 Z-13.993
X-74.295 Y10.022 Z-14
X-70.632 Y9.219
X-70.587 Y9.205
X-68.323 Y8.318
G3 X-66.867 Y8.043 I1.458 J3.725
G1 X-35.002 Y8.019
Y7.363
X-35.015 Y-7.338
X-35.016 Y-8.019
X-66.867 Y-8.043
G3 X-68.34 Y-8.325 I0.003 J-4
G1 X-70.736 Y-9.276
X-70.793 Y-9.292
X-70.851 Y-9.297
X-70.91 Y-9.291
X-70.966 Y-9.273
X-74.093 Y-7.922
X-74.154 Y-7.896 Z-13.992
X-74.212 Y-7.871 Z-13.97
X-74.265 Y-7.848 Z-13.935
X-74.308 Y-7.829 Z-13.887
X-74.341 Y-7.815 Z-13.83
X-74.361 Y-7.806 Z-13.767
X-74.368 Y-7.804 Z-13.7
G0 Z2
X-73.299 Y11.636
Z-10
G1 Z-13.73 F600
X-73.293 Y11.633 Z-13.79
X-73.276 Y11.623 Z-13.847
X-73.248 Y11.606 Z-13.898
X-73.211 Y11.585 Z-13.941
X-73.167 Y11.559 Z-13.973
X-73.118 Y11.53 Z-13.993
X-73.066 Y11.499 Z-14
X-73.027 Y11.472
G3 X-72.783 Y11.292 I1.906 J2.317
G1 X-72.493 Y11.099
G3 X-71.925 Y10.802 I1.662 J2.497
G1 X-67.958 Y9.25
G3 X-66.867 Y9.043 I1.094 J2.794
G1 X-34.001 Y9.018
X-34.003 Y7.331
X-34.015 Y-7.341
X-34.017 Y-9.018
X-66.867 Y-9.043
G3 X-67.971 Y-9.255 I0.002 J-3
G1 X-72.089 Y-10.889
G3 X-73.06 Y-11.513 I1.107 J-2.788
G2 X-73.409 Y-11.561 I-0.208 J0.216
G1 X-75.482 Y-10.451
X-75.541 Y-10.419 Z-13.992
X-75.597 Y-10.389 Z-13.97
X-75.647 Y-10.362 Z-13.935
X-75.689 Y-10.34 Z-13.887
X-75.72 Y-10.323 Z-13.83
X-75.74 Y-10.313 Z-13.767
X-75.746 Y-10.309 Z-13.7
G0 Z2
X-33.015 Y-6.996
G1 Z-10 F70
Z-13.7 F600
Y-7.004 Z-13.767
Y-7.026 Z-13.83
Y-7.061 Z-13.887
Y-7.109 Z-13.935
Y-7.166 Z-13.97
Y-7.229 Z-13.992
Y-7.296 Z-14
Y-7.326
X-33.017 Y-10.018
X-66.866 Y-10.043
G3 X-67.602 Y-10.184 I0.001 J-2
G1 X-71.72 Y-11.818
G3 X-72.385 Y-12.252 I0.738 J-1.859
G1 X-72.663 Y-12.525
G3 X-72.853 Y-12.742 I1.403 J-1.425
G1 X-73.474 Y-13.56
X-75.681 Y-16.06
G3 X-75.96 Y-16.468 I1.499 J-1.324
G1 X-76.834 Y-18.166
X-77.102 Y-18.602
X-79.192 Y-20.949
X-81.686 Y-21.731
X-255 Y-21.681
Y-20.603
X-254.996 Y-20.556
X-254.985 Y-20.51
X-254.967 Y-20.466
X-253.549 Y-17.682
X-253.518 Y-17.623 Z-13.992
X-253.489 Y-17.566 Z-13.97
X-253.464 Y-17.515 Z-13.935
X-253.442 Y-17.473 Z-13.887
X-253.426 Y-17.441 Z-13.83
X-253.416 Y-17.421 Z-13.767
X-253.412 Y-17.415 Z-13.7
G0 Z2
X-254.954 Y20.303
G1 Z-10 F70
Z-13.73 F600
X-254.955 Y20.31 Z-13.79
X-254.958 Y20.33 Z-13.847
X-254.963 Y20.362 Z-13.898
X-254.97 Y20.404 Z-13.941
X-254.978 Y20.454 Z-13.973
X-254.987 Y20.511 Z-13.993
X-254.996 Y20.57 Z-14
X-255 Y20.617
Y21.681
X-81.686 Y21.731
X-79.193 Y20.95
X-77.052 Y18.538
X-76.091 Y16.732
X-76.077 Y16.706
X-75.866 Y16.323
G3 X-75.611 Y15.961 I1.752 J0.965
G1 X-73.423 Y13.494
X-72.702 Y12.564
G3 X-72.229 Y12.124 I1.581 J1.225
G1 X-71.939 Y11.931
G3 X-71.56 Y11.734 I1.108 J1.665
G1 X-67.593 Y10.181
G3 X-66.866 Y10.043 I0.729 J1.862
G1 X-33 Y10.018
X-33.002 Y7.346
G3 X-32.503 Y6.595 I0.813 J-0.001
G2 X-32.004 Y5.845 I-0.313 J-0.75
G1 X-32.018 Y-10.299
X-32.119 Y-10.828
X-32.226 Y-10.988
X-32.303 Y-11.017
X-66.865 Y-11.043
G3 X-67.233 Y-11.114 I0.001 J-1
G1 X-71.351 Y-12.748
G3 X-71.684 Y-12.964 I0.369 J-0.929
G1 X-71.962 Y-13.238
X-72.011 Y-13.29
X-72.057 Y-13.346
X-72.7 Y-14.194
X-74.931 Y-16.722
X-75.007 Y-16.82
X-75.071 Y-16.926
X-75.963 Y-18.657
X-76.296 Y-19.2
X-78.629 Y-21.821
X-81.533 Y-22.731
X-256 Y-22.681
Y22.681
X-81.533 Y22.731
X-78.629 Y21.821
X-76.225 Y19.113
X-75.208 Y17.201
X-74.99 Y16.805
X-74.931 Y16.711
X-74.862 Y16.624
X-72.653 Y14.133
X-71.911 Y13.176
G3 X-71.675 Y12.956 I0.79 J0.613
G1 X-71.385 Y12.764
X-71.293 Y12.709
X-71.196 Y12.665
X-67.229 Y11.112
G3 X-66.865 Y11.043 I0.365 J0.931
G1 X-32.303 Y11.017
X-32.226 Y10.988
X-32.122 Y10.832
X-32 Y10.168
X-32.004 Y5.845
X-33.046 Y-6.702
X-33.055 Y-6.768 Z-14.008
X-33.064 Y-6.831 Z-14.03
X-33.071 Y-6.888 Z-14.065
X-33.078 Y-6.935 Z-14.113
X-33.083 Y-6.97 Z-14.17
X-33.086 Y-6.992 Z-14.233
X-33.087 Y-6.999 Z-14.3
Z-15.7
X-33.088 Y-7.007 Z-15.767
X-33.091 Y-7.029 Z-15.83
X-33.096 Y-7.064 Z-15.887
X-33.102 Y-7.111 Z-15.935
X-33.11 Y-7.168 Z-15.97
X-33.118 Y-7.231 Z-15.992
X-33.128 Y-7.297 Z-16
X-33.132 Y-7.332
X-33.145 Y-7.425
X-66.865 Y-7.439
G3 X-67.771 Y-7.657 I0.001 J-2
G1 X-68.181 Y-7.865
X-68.235 Y-7.894
X-68.278 Y-7.913
X-71.573 Y-9.093
X-71.636 Y-9.116 Z-15.992
X-71.696 Y-9.137 Z-15.97
X-71.749 Y-9.156 Z-15.935
X-71.794 Y-9.172 Z-15.887
X-71.828 Y-9.184 Z-15.83
X-71.849 Y-9.192 Z-15.767
X-71.856 Y-9.194 Z-15.7
G0 Z2
X-68.573 Y8.018
Z-12
G1 Z-15.76 F600
X-68.567 Y8.017 Z-15.813
X-68.55 Y8.012 Z-15.864
X-68.523 Y8.004 Z-15.91
X-68.486 Y7.994 Z-15.948
X-68.442 Y7.982 Z-15.976
X-68.393 Y7.968 Z-15.994
X-68.342 Y7.954 Z-16
X-68.298 Y7.937
X-68.257 Y7.914
X-68.11 Y7.817
G3 X-67.406 Y7.523 I1.109 J1.665
G1 X-67.132 Y7.466
G3 X-66.728 Y7.425 I0.405 J1.959
G1 X-33.135
X-33.127 Y7.347
G3 X-32.545 Y6.67 I0.784 J0.085
G2 X-32 Y5.963 I-0.187 J-0.707
G1 X-32.008 Y-6.496
X-32.204 Y-7.923
X-32.417 Y-8.386
X-32.48 Y-8.425
X-66.865 Y-8.439
G3 X-67.318 Y-8.548 I0 J-1
G1 X-67.728 Y-8.757
X-67.833 Y-8.818
X-68.541 Y-9.295
X-71.324 Y-10.502
G3 X-71.652 Y-10.732 I0.398 J-0.917
G1 X-71.977 Y-11.075
X-72.04 Y-11.149
X-72.095 Y-11.228
X-72.747 Y-12.259
X-74.182 Y-14.141
X-74.973 Y-15.058
G3 X-75.118 Y-15.279 I0.757 J-0.654
G1 X-76.187 Y-17.505
X-77.024 Y-18.494
X-78.595 Y-20.276
X-81.651 Y-21.211
X-161.66 Y-21.243
X-256 Y-21.208
Y21.208
X-98.19 Y21.231
X-81.518 Y21.193
X-78.636 Y20.29
X-77.975 Y19.573
X-76.257 Y17.624
X-75.692 Y16.514
X-75.014 Y15.12
G3 X-74.856 Y14.886 I0.899 J0.437
G1 X-74.177 Y14.134
X-72.581 Y12.015
X-72 Y11.093
G3 X-71.78 Y10.846 I0.846 J0.533
G1 X-71.457 Y10.587
G3 X-71.231 Y10.45 I0.626 J0.78
G1 X-68.412 Y9.219
X-67.556 Y8.649
G3 X-67.203 Y8.502 I0.554 J0.832
G1 X-66.93 Y8.445
X-66.829 Y8.43
X-66.728 Y8.425
X-32.499
X-32.423 Y8.386
X-32.171 Y7.809
X-32 Y6.238
Y5.963
X-32.004 Y5.916
X-32.554 Y2.459
X-32.564 Y2.393 Z-15.992
X-32.574 Y2.331 Z-15.97
X-32.583 Y2.274 Z-15.935
X-32.591 Y2.227 Z-15.887
X-32.596 Y2.192 Z-15.83
X-32.6 Y2.17 Z-15.767
X-32.601 Y2.163 Z-15.7
G0 Z2.245
X-72.112 Y0.522
Z-14
G1 Z-17.73 F600
X-72.105 Y0.519 Z-17.79
X-72.087 Y0.51 Z-17.847
X-72.058 Y0.497 Z-17.898
X-72.019 Y0.478 Z-17.941
X-71.973 Y0.457 Z-17.973
X-71.921 Y0.433 Z-17.993
X-71.867 Y0.407 Z-18
X-71.826 Y0.384
X-71.271 Y0.009
X-71.773 Y-0.337
G2 X-72.516 Y-0.123 I-0.284 J0.412
G1 X-73.17 Y1.397
G2 X-72.425 Y2.004 I0.459 J0.198
G1 X-72.076 Y1.761
X-72.004 Y1.711
X-70.362 Y0.601
G3 X-69.21 Y-0.007 I3.361 J4.97
X-69.585 Y-0.182 I2.346 J-5.523
G1 X-69.995 Y-0.39
G3 X-70.679 Y-0.798 I2.72 J-5.348
G1 X-72.416 Y-1.994
G2 X-73.199 Y-1.606 I-0.284 J0.412
G1 X-73.407 Y2.928
G2 X-72.622 Y3.361 I0.499 J0.023
G1 X-71.504 Y2.581
X-71.443 Y2.54
X-69.802 Y1.43
G3 X-68.013 Y0.675 I2.801 J4.142
G1 X-67.739 Y0.618
G3 X-66.73 Y0.515 I1.012 J4.897
G1 X-36.193 Y0.499
X-36.176 Y-0.45
X-36.179 Y-0.501
X-66.869 Y-0.53
G3 X-69.131 Y-1.073 I0.005 J-5
G1 X-69.542 Y-1.282
G3 X-70.112 Y-1.621 I2.267 J-4.457
G1 X-72.621 Y-3.35
G2 X-73.404 Y-2.965 I-0.284 J0.412
G1 X-73.796 Y4.415
G2 X-73.01 Y4.852 I0.499 J0.027
G1 X-70.932 Y3.401
X-70.883 Y3.368
X-69.242 Y2.258
G3 X-67.81 Y1.654 I2.241 J3.314
G1 X-67.537 Y1.598
G3 X-66.73 Y1.515 I0.809 J3.917
G1 X-35.275 Y1.499
X-35.202 Y1.026
X-35.175 Y-0.469
X-35.218 Y-1.213
X-35.263 Y-1.5
X-66.868 Y-1.53
G3 X-68.678 Y-1.964 I0.004 J-4
G1 X-69.088 Y-2.173
G3 X-69.544 Y-2.445 I1.813 J-3.565
G1 X-72.98 Y-4.812
G2 X-73.761 Y-4.444 I-0.284 J0.412
G1 X-74.754 Y6.795
G2 X-73.831 Y7.102 I0.498 J0.044
G1 X-73.656 Y6.82
G3 X-72.823 Y5.94 I2.55 J1.581
G1 X-70.359 Y4.221
X-70.323 Y4.196
X-68.682 Y3.086
G3 X-67.608 Y2.634 I1.68 J2.485
G1 X-67.334 Y2.577
G3 X-66.729 Y2.515 I0.607 J2.938
G1 X-34.417 Y2.499
X-34.204 Y1.111
X-34.175 Y-0.489
X-34.222 Y-1.32
X-34.409 Y-2.499
X-66.867 Y-2.53
G3 X-68.224 Y-2.856 I0.003 J-3
G1 X-68.635 Y-3.064
G3 X-68.977 Y-3.268 I1.36 J-2.674
G1 X-72.725 Y-5.85
G3 X-73.414 Y-6.509 I1.702 J-2.47
G1 X-73.742 Y-6.942
X-73.808 Y-7.033
X-75.815 Y-9.9
X-75.853 Y-9.955 Z-17.992
X-75.89 Y-10.007 Z-17.97
X-75.922 Y-10.053 Z-17.935
X-75.95 Y-10.092 Z-17.887
X-75.97 Y-10.121 Z-17.83
X-75.983 Y-10.14 Z-17.767
X-75.987 Y-10.146 Z-17.7
G0 Z2
X-162.302 Y-17.658
Z-14
G1 Z-17.76 F600
X-162.308 Y-17.66 Z-17.813
X-162.324 Y-17.666 Z-17.864
X-162.352 Y-17.674 Z-17.91
X-162.388 Y-17.686 Z-17.948
X-162.431 Y-17.7 Z-17.976
X-162.479 Y-17.716 Z-17.994
X-162.53 Y-17.733 Z-18
X-162.576 Y-17.744
X-162.623 Y-17.747
X-172.604 Y-17.755
X-254 Y-17.74
Y-17.693
Y-14.193
G19 G3 Y-13.893 Z-17.7 J0 K0.3
G0 Z2
Y17.348
Z-6
G1 Z-14 F70
Z-17.7 F600
G3 Y17.648 Z-18 J0.3 K0
G1 Y17.678
Y17.739
X-162.453 Y17.732
X-158.953
X-158.886 Z-17.992
X-158.823 Z-17.97
X-158.766 Z-17.935
X-158.719 Z-17.887
X-158.683 Z-17.83
X-158.661 Z-17.767
X-158.653 Z-17.7
G0 Z2
X-255 Y17.346
G1 Z-14 F70
Z-17.7 F600
G3 Y17.646 Z-18 J0.3 K0
G1 Y17.676
Y18.739
X-120.078 Y18.729
X-81.672 Y18.665
X-79.182 Y17.885
X-77.894 Y16.432
X-77.154 Y15.312
X-76.342 Y13.486
X-76.064 Y12.693
G17 G3 X-75.877 Y12.301 I1.887 J0.662
G1 X-72.806 Y7.347
G3 X-72.25 Y6.76 I1.7 J1.054
G1 X-69.787 Y5.041
X-69.763 Y5.025
X-68.121 Y3.915
G3 X-67.406 Y3.613 I1.12 J1.657
G1 X-67.132 Y3.556
G3 X-66.729 Y3.515 I0.405 J1.959
G1 X-33.559 Y3.498
X-33.205 Y1.197
X-33.174 Y-0.508
X-33.227 Y-1.427
X-33.555 Y-3.499
X-66.866 Y-3.53
G3 X-67.771 Y-3.747 I0.002 J-2
G1 X-68.181 Y-3.956
G3 X-68.41 Y-4.091 I0.907 J-1.783
G1 X-72.157 Y-6.674
G3 X-72.617 Y-7.113 I1.135 J-1.647
G1 X-72.945 Y-7.546
X-73.003 Y-7.627
X-73.057 Y-7.711
X-75.934 Y-12.419
G3 X-76.11 Y-12.787 I1.707 J-1.043
G1 X-76.455 Y-13.747
X-77.21 Y-15.418
X-78.045 Y-16.61
X-79.174 Y-17.878
X-81.801 Y-18.682
X-172.604 Y-18.755
X-255 Y-18.739
Y-17.708
G3 X-255.5 Y-16.958 I-0.813 J0
G2 X-256 Y-16.208 I0.313 J0.75
G1 Y19.739
X-120.077 Y19.729
X-81.518 Y19.665
X-78.617 Y18.756
X-77.098 Y17.042
X-76.274 Y15.794
X-75.412 Y13.855
X-75.12 Y13.024
X-75.079 Y12.923
X-75.027 Y12.828
X-71.956 Y7.873
G3 X-71.678 Y7.58 I0.85 J0.527
G1 X-69.215 Y5.861
X-67.561 Y4.743
G3 X-67.203 Y4.592 I0.56 J0.828
G1 X-66.93 Y4.536
X-66.83 Y4.52
X-66.728 Y4.515
X-32.73 Y4.498
X-32.692 Y4.436
X-32.206 Y1.282
X-32.174 Y-0.528
X-32.231 Y-1.534
X-32.69 Y-4.434
X-32.73 Y-4.498
X-66.865 Y-4.53
G3 X-67.318 Y-4.638 I0.001 J-1
G1 X-67.728 Y-4.847
X-67.786 Y-4.879
X-67.842 Y-4.915
X-71.59 Y-7.497
G3 X-71.82 Y-7.717 I0.567 J-0.823
G1 X-72.147 Y-8.15
X-72.203 Y-8.232
X-75.081 Y-12.941
X-75.13 Y-13.03
X-75.169 Y-13.124
X-75.527 Y-14.123
X-76.337 Y-15.916
X-77.259 Y-17.232
X-78.614 Y-18.753
X-81.651 Y-19.682
X-172.604 Y-19.755
X-256 Y-19.739
Y-16.208
X-255.996 Y-16.161
X-255.449 Y-12.704
X-255.438 Y-12.638 Z-17.992
X-255.428 Y-12.576 Z-17.97
X-255.42 Y-12.52 Z-17.935
X-255.412 Y-12.473 Z-17.887
X-255.407 Y-12.437 Z-17.83
X-255.403 Y-12.415 Z-17.767
X-255.402 Y-12.408 Z-17.7
G0 Z2.246
X-142.494 Y-5.089
Z-19.7
G18 G3 X-142.794 Z-20 I-0.3 K0 F600
G1 X-144.574
X-144.699
X-144.698 Y5.089
X-144.557 Y5.088
G17 G2 X-144.057 Y4.589 I0 J-0.5
G1 X-144.037 Y-5.588
G2 X-144.537 Y-6.089 I-0.5 J-0.001
G1 X-145.699
X-145.697 Y6.089
X-144.572 Y6.088
G2 X-144.073 Y5.588 I0 J-0.5
G1 X-144.083 Y-6.589
G2 X-144.583 Y-7.089 I-0.5 J0
G1 X-146.699
X-146.697 Y7.09
X-144.541 Y7.088
X-142.518 Y7.087
X-142.451 Z-19.992
X-142.388 Z-19.97
X-142.331 Z-19.935
X-142.283 Z-19.887
X-142.247 Z-19.83
X-142.225 Z-19.767
X-142.218 Z-19.7
G0 Z2
X-142.501 Y-8.089
Z-19.7
G18 G3 X-142.801 Z-20 I-0.3 K0 F600
G1 X-144.581
X-147.699
X-147.697 Y8.09
X-144.557 Y8.088
X-142.533 Y8.087
X-142.466 Z-19.992
X-142.403 Z-19.97
X-142.346 Z-19.935
X-142.299 Z-19.887
X-142.263 Z-19.83
X-142.241 Z-19.767
X-142.233 Z-19.7
G0 Z2
X-142.5 Y-9.089
Z-19.7
G3 X-142.8 Z-20 I-0.3 K0 F600
G1 X-144.58
X-148.699
X-148.697 Y9.091
X-144.572 Y9.088
X-142.549 Y9.087
X-142.482 Z-19.992
X-142.419 Z-19.97
X-142.362 Z-19.935
X-142.314 Z-19.887
X-142.278 Z-19.83
X-142.256 Z-19.767
X-142.249 Z-19.7
G0 Z2
X-142.499 Y-10.089
Z-19.7
G3 X-142.799 Z-20 I-0.3 K0 F600
G1 X-144.579
X-149.699
X-149.697 Y10.091
X-144.541 Y10.088
X-142.517 Y10.087
X-142.451 Z-19.992
X-142.387 Z-19.97
X-142.33 Z-19.935
X-142.283 Z-19.887
X-142.247 Z-19.83
X-142.225 Z-19.767
X-142.217 Z-19.7
G0 Z2
X-142.474 Y-10.759
Z-19.73
G1 X-142.481 Y-10.76 Z-19.79 F600
X-142.5 Y-10.763 Z-19.847
X-142.532 Y-10.768 Z-19.898
X-142.574 Y-10.775 Z-19.941
X-142.625 Y-10.783 Z-19.973
X-142.681 Y-10.792 Z-19.993
X-142.741 Y-10.801 Z-20
X-144.531 Y-11.085
X-144.578 Y-11.089
X-150.699
X-150.697 Y11.092
X-144.556 Y11.088
X-144.509 Y11.085
X-142.511 Y10.767
X-142.445 Y10.757 Z-19.992
X-142.382 Y10.747 Z-19.97
X-142.326 Y10.738 Z-19.935
X-142.279 Y10.73 Z-19.887
X-142.244 Y10.725 Z-19.83
X-142.222 Y10.721 Z-19.767
X-142.215 Y10.72 Z-19.7
G0 Z2
X-141.284 Y-11.034
Z-19.76
G1 X-141.289 Y-11.036 Z-19.813 F600
X-141.306 Y-11.041 Z-19.864
X-141.333 Y-11.05 Z-19.91
X-141.37 Y-11.062 Z-19.948
X-141.413 Y-11.076 Z-19.976
X-141.461 Y-11.092 Z-19.994
X-141.512 Y-11.108 Z-20
X-144.484 Y-12.074
X-144.53 Y-12.085
X-144.577 Y-12.089
X-151.699
X-151.697 Y12.092
X-144.572 Y12.088
X-144.525 Y12.085
X-144.479 Y12.074
X-144.436 Y12.056
X-142.633 Y11.136
X-142.574 Y11.106 Z-19.992
X-142.517 Y11.077 Z-19.97
X-142.467 Y11.051 Z-19.935
X-142.424 Y11.03 Z-19.887
X-142.392 Y11.013 Z-19.83
X-142.373 Y11.003 Z-19.767
X-142.366 Y11 Z-19.7
G0 Z2
X-82.076 Y-12.705
Z-16
G1 Z-19.76 F600
X-82.081 Y-12.709 Z-19.813
X-82.095 Y-12.721 Z-19.864
X-82.116 Y-12.739 Z-19.91
X-82.146 Y-12.763 Z-19.948
X-82.181 Y-12.792 Z-19.976
X-82.22 Y-12.825 Z-19.994
X-82.261 Y-12.859 Z-20
X-82.299 Y-12.886
X-82.341 Y-12.907
X-82.66 Y-13.034
X-105.857 Y-13.088
X-152.699 Y-13.089
X-152.697 Y13.093
X-86.171 Y13.059
X-82.677 Y13.038
X-82.352 Y12.908
G17 G2 X-82.173 Y12.702 I-0.112 J-0.278
G1 X-81.679 Y10.74
X-81.663 Y10.676 Z-19.992
X-81.648 Y10.614 Z-19.97
X-81.634 Y10.559 Z-19.935
X-81.622 Y10.513 Z-19.887
X-81.613 Y10.478 Z-19.83
X-81.608 Y10.457 Z-19.767
X-81.606 Y10.449 Z-19.7
G0 Z2
X-80.466 Y-12.182
Z-16
G1 Z-19.73 F600
X-80.469 Y-12.188 Z-19.79
X-80.478 Y-12.206 Z-19.847
X-80.491 Y-12.235 Z-19.898
X-80.509 Y-12.274 Z-19.941
X-80.531 Y-12.32 Z-19.973
X-80.555 Y-12.372 Z-19.993
X-80.581 Y-12.426 Z-20
X-80.604 Y-12.467
X-81.367 Y-13.595
X-82.467 Y-14.034
X-105.856 Y-14.088
X-153.7 Y-14.089
X-153.697 Y14.093
X-86.168 Y14.059
X-82.481 Y14.037
X-81.369 Y13.591
X-80.611 Y12.462
G3 X-79.778 Y12.119 I0.674 J0.453
G2 X-78.944 Y11.775 I0.159 J-0.797
G1 X-78.927 Y11.75
X-78.812 Y11.485
X-77.989 Y9
G3 X-77.607 Y8.174 I3.797 J1.257
G1 X-77.078 Y7.307
X-75.694 Y3.344
X-75.267 Y0
X-75.693 Y-3.343
X-77.088 Y-7.332
X-77.695 Y-8.358
G3 X-78.051 Y-9.144 I3.443 J-2.036
G1 X-78.86 Y-11.601
X-78.97 Y-11.836
X-80.71 Y-14.409
X-82.274 Y-15.033
X-105.854 Y-15.088
X-154.7 Y-15.089
X-154.697 Y15.094
X-86.165 Y15.059
X-82.285 Y15.036
X-80.711 Y14.404
X-78.944 Y11.775
G3 X-78.232 Y11.403 I0.699 J0.47
G2 X-77.578 Y10.937 I0.01 J-0.679
G1 X-77.04 Y9.314
G3 X-76.753 Y8.695 I2.848 J0.943
G1 X-76.169 Y7.737
X-74.715 Y3.575
X-74.258 Y0
X-74.715 Y-3.574
X-76.177 Y-7.756
X-76.834 Y-8.867
G3 X-77.101 Y-9.457 I2.582 J-1.527
G1 X-77.929 Y-11.97
X-78.097 Y-12.33
X-80.048 Y-15.215
X-80.21 Y-15.286
X-82.081 Y-16.033
X-105.853 Y-16.088
X-155.7 Y-16.089
X-155.696 Y16.088
X-155.57 Y16.094
X-86.161 Y16.059
X-82.089 Y16.035
X-80.053 Y15.217
X-78.046 Y12.232
X-77.877 Y11.842
X-77.578 Y10.937
G3 X-76.867 Y10.382 I0.771 J0.255
G2 X-76.157 Y9.827 I-0.061 J-0.81
G1 X-76.091 Y9.628
G3 X-75.9 Y9.216 I1.899 J0.629
G1 X-75.26 Y8.167
X-73.736 Y3.805
X-73.25 Y0
X-73.736 Y-3.805
X-75.265 Y-8.18
X-75.973 Y-9.376
G3 X-76.152 Y-9.769 I1.721 J-1.018
G1 X-76.998 Y-12.339
X-77.224 Y-12.825
X-79.382 Y-16.015
X-79.824 Y-16.209
X-81.887 Y-17.032
X-105.852 Y-17.088
X-156.128 Y-17.089
X-156.7 Y-17.054
X-156.696 Y17.041
X-155.594 Y17.094
X-86.158 Y17.059
X-81.893 Y17.034
X-79.394 Y16.03
X-77.165 Y12.713
X-76.942 Y12.199
X-76.157 Y9.827
G3 X-75.353 Y9.281 I0.758 J0.251
G2 X-74.493 Y8.829 I0.053 J-0.944
G1 X-74.351 Y8.597
X-72.758 Y4.036
X-72.242 Y0
X-72.758 Y-4.036
X-74.354 Y-8.603
X-75.113 Y-9.886
X-75.163 Y-9.981
X-75.202 Y-10.082
X-76.066 Y-12.708
X-76.351 Y-13.319
X-78.715 Y-16.815
X-79.437 Y-17.131
X-81.694 Y-18.032
X-105.851 Y-18.088
X-156.159 Y-18.089
X-157.7 Y-17.996
X-157.696 Y17.994
X-155.618 Y18.094
X-86.155 Y18.059
X-81.697 Y18.032
X-78.736 Y16.844
X-76.284 Y13.195
X-76.007 Y12.556
X-75.141 Y9.943
X-75.1 Y9.837
X-75.046 Y9.736
X-74.493 Y8.829
G2 X-74.521 Y8.478 I-0.256 J-0.156
G1 X-76.8 Y5.821
X-76.843 Y5.77 Z-19.992
X-76.884 Y5.722 Z-19.97
X-76.921 Y5.679 Z-19.935
X-76.952 Y5.643 Z-19.887
X-76.976 Y5.616 Z-19.83
X-76.99 Y5.599 Z-19.767
X-76.995 Y5.593 Z-19.7
G0 Z2
X-144.215 Y-11.774
Z-18
G1 Z-21.7 F600
X-144.223 Z-21.767
X-144.245 Z-21.83
X-144.281 Z-21.887
X-144.328 Z-21.935
X-144.385 Z-21.97
X-144.449 Y-11.775 Z-21.992
X-144.515 Z-22
X-144.545
X-145.187 Y-11.779
X-145.197 Y11.779
X-144.541 Y11.775
X-141.041 Y11.755
X-140.974 Z-21.992
X-140.911 Z-21.97
X-140.854 Y11.754 Z-21.935
X-140.806 Z-21.887
X-140.77 Z-21.83
X-140.748 Z-21.767
X-140.741 Z-21.7
G0 Z2
X-144.26 Y-12.685
Z-18
G1 Z-21.76 F600
X-144.266 Y-12.687 Z-21.813
X-144.283 Y-12.692 Z-21.864
X-144.31 Y-12.701 Z-21.91
X-144.346 Y-12.713 Z-21.948
X-144.389 Y-12.728 Z-21.976
X-144.437 Y-12.744 Z-21.994
X-144.488 Y-12.76 Z-22
X-144.534 Y-12.772
X-144.581 Y-12.776
X-146.186 Y-12.785
X-146.197 Y12.784
X-144.557 Y12.775
X-141.057 Y12.756
X-140.99 Y12.755 Z-21.992
X-140.927 Z-21.97
X-140.87 Z-21.935
X-140.822 Y12.754 Z-21.887
X-140.787 Z-21.83
X-140.764 Z-21.767
X-140.757 Z-21.7
G0 Z2
X-79.512 Y-11.728
Z-18
G1 Z-21.73 F600
X-79.515 Y-11.734 Z-21.79
X-79.524 Y-11.752 Z-21.847
X-79.538 Y-11.781 Z-21.898
X-79.556 Y-11.82 Z-21.941
X-79.578 Y-11.866 Z-21.973
X-79.602 Y-11.918 Z-21.993
X-79.628 Y-11.972 Z-22
X-79.651 Y-12.013
X-80.06 Y-12.613
X-82.089 Y-13.428
X-147.186 Y-13.79
X-147.198 Y13.79
X-82.089 Y13.428
X-80.066 Y12.616
G3 X-79.39 Y12.627 I0.324 J0.807
G2 X-78.74 Y12.44 I0.213 J-0.482
G1 X-78.07 Y11.448
X-77.347 Y9.735
X-76.723 Y7.491
X-76.168 Y4.324
G3 X-76.096 Y4.04 I1.97 J0.346
G1 X-75.707 Y2.866
X-75.659 Y2.368
X-75.673 Y-2.577
X-75.732 Y-2.957
X-76.167 Y-4.313
G3 X-76.233 Y-4.583 I1.905 J-0.61
G1 X-76.782 Y-7.755
X-77.392 Y-9.855
X-78.11 Y-11.528
X-79.405 Y-13.428
X-81.893 Y-14.427
X-148.185 Y-14.796
X-148.198 Y14.795
X-81.893 Y14.427
X-79.409 Y13.429
X-78.74 Y12.44
G3 X-77.907 Y12.129 I0.635 J0.429
G2 X-77.107 Y11.739 I0.176 J-0.654
G1 X-76.401 Y10.065
X-75.747 Y7.712
X-75.183 Y4.497
X-75.168 Y4.425
X-75.147 Y4.355
X-74.722 Y3.074
X-74.658 Y2.415
X-74.673 Y-2.656
X-74.756 Y-3.188
X-75.215 Y-4.619
X-75.233 Y-4.685
X-75.248 Y-4.753
X-75.806 Y-7.981
X-76.449 Y-10.193
X-77.23 Y-12.011
X-78.75 Y-14.242
X-81.697 Y-15.426
X-149.185 Y-15.801
X-149.199 Y15.801
X-81.697 Y15.426
X-78.752 Y14.243
X-77.186 Y11.927
X-77.107 Y11.739
X-77.089 Y11.679
X-77.083 Y11.616
X-77.091 Y11.554
X-77.886 Y8.145
X-77.901 Y8.08 Z-21.992
X-77.916 Y8.019 Z-21.97
X-77.929 Y7.963 Z-21.935
X-77.939 Y7.917 Z-21.887
X-77.948 Y7.882 Z-21.83
X-77.953 Y7.86 Z-21.767
X-77.954 Y7.853 Z-21.7
G0 Z2
X-81.778 Y-7.579
Z-20
G1 Z-23.73 F600
X-81.779 Y-7.586 Z-23.79
X-81.784 Y-7.605 Z-23.847
X-81.792 Y-7.636 Z-23.898
X-81.802 Y-7.678 Z-23.941
X-81.815 Y-7.728 Z-23.973
X-81.828 Y-7.783 Z-23.993
X-81.843 Y-7.841 Z-24
X-81.858 Y-7.886
X-82.151 Y-8.575
X-82.548 Y-8.834
X-102.577 Y-8.898
X-140.18 Y-8.928
Y8.926
X-86.174 Y8.858
X-82.542 Y8.83
X-82.151 Y8.575
X-81.857 Y7.885
G3 X-81.104 Y7.39 I0.748 J0.318
G2 X-80.35 Y6.895 I0.006 J-0.812
G1 X-79.642 Y5.229
X-79.399 Y3.385
X-79.146 Y0.646
X-79.154 Y-0.879
X-79.519 Y-4.432
X-79.631 Y-5.204
X-81.35 Y-9.246
X-82.237 Y-9.825
X-102.575 Y-9.898
X-141.18 Y-9.928
Y9.927
X-86.17 Y9.858
X-82.241 Y9.828
X-81.35 Y9.246
X-80.35 Y6.895
G3 X-79.597 Y6.401 I0.748 J0.318
G2 X-78.843 Y5.906 I0.006 J-0.812
G1 X-78.668 Y5.494
X-78.405 Y3.496
X-78.146 Y0.69
X-78.154 Y-0.933
X-78.527 Y-4.555
X-78.66 Y-5.476
X-80.548 Y-9.917
X-81.779 Y-10.721
X-82.071 Y-10.832
X-102.573 Y-10.898
X-142.18 Y-10.929
Y10.928
X-86.165 Y10.858
X-82.022 Y10.826
X-81.806 Y10.738
X-80.548 Y9.917
X-78.843 Y5.906
G3 X-78.173 Y5.422 I0.736 J0.313
G2 X-77.575 Y4.852 I-0.054 J-0.656
G1 X-77.411 Y3.607
X-77.146 Y0.733
X-77.154 Y-0.987
X-77.534 Y-4.678
X-77.689 Y-5.748
X-79.747 Y-10.589
X-81.322 Y-11.616
X-81.884 Y-11.832
X-102.571 Y-11.898
X-143.18 Y-11.93
Y11.929
X-86.161 Y11.858
X-81.822 Y11.824
X-81.34 Y11.628
X-79.747 Y10.589
X-77.694 Y5.76
X-77.575 Y4.852
G3 X-76.979 Y4.179 I0.797 J0.105
G2 X-76.396 Y3.494 I-0.195 J-0.756
G1 X-76.145 Y0.777
X-76.154 Y-1.04
X-76.541 Y-4.801
X-76.718 Y-6.02
X-78.946 Y-11.26
X-80.864 Y-12.511
X-81.697 Y-12.831
X-102.569 Y-12.898
X-144.18 Y-12.931
Y12.931
X-86.156 Y12.858
X-81.622 Y12.823
X-80.873 Y12.517
X-78.946 Y11.26
X-76.721 Y6.026
X-76.417 Y3.718
X-76.396 Y3.494
G2 X-76.535 Y3.213 I-0.299 J-0.028
G1 X-79.494 Y1.344
X-79.55 Y1.308 Z-23.992
X-79.604 Y1.275 Z-23.97
X-79.652 Y1.244 Z-23.935
X-79.692 Y1.219 Z-23.887
X-79.723 Y1.2 Z-23.83
X-79.741 Y1.188 Z-23.767
X-79.748 Y1.184 Z-23.7
G0 Z2
X-88.752 Y-0.076
Z-22
G1 Z-25.7 F600
X-88.745 Y-0.074 Z-25.767
X-88.725 Y-0.065 Z-25.83
X-88.691 Y-0.052 Z-25.887
X-88.647 Y-0.034 Z-25.935
X-88.595 Y-0.013 Z-25.97
X-88.536 Y0.011 Z-25.992
X-88.474 Y0.036 Z-26
G2 X-87 Y0.315 I1.438 J-3.565
G1 X-86.187 Y0.307
X-86.143 Y0
X-86.154 Y-0.076
X-86.187 Y-0.305
X-120.088 Y-0.616
X-130.749 Y-0.546
Y0.537
X-117.905 Y0.607
X-86.187 Y0.307
G3 X-85.71 Y0.545 I0.006 J0.587
G2 X-85.192 Y0.415 I0.232 J-0.171
G1 X-85.132 Y0
X-85.321 Y-1.297
X-120.086 Y-1.616
X-131.749 Y-1.539
Y1.532
X-117.903 Y1.607
X-85.321 Y1.299
X-85.192 Y0.415
G3 X-84.676 Y-0.222 I0.792 J0.115
G2 X-84.256 Y-0.926 I-0.224 J-0.611
G1 X-84.454 Y-2.29
X-120.085 Y-2.616
X-132.749 Y-2.533
Y2.526
X-117.901 Y2.607
X-84.455 Y2.291
X-84.122 Y0
X-84.256 Y-0.926
G3 X-83.869 Y-1.74 I0.804 J-0.117
G2 X-83.482 Y-2.554 I-0.417 J-0.697
G1 X-83.588 Y-3.282
X-120.084 Y-3.616
X-133.749 Y-3.526
Y3.521
X-117.899 Y3.607
X-83.588 Y3.282
X-83.111 Y0
X-83.482 Y-2.554
G3 X-83.052 Y-3.359 I0.762 J-0.111
G2 X-82.992 Y-4.271 I-0.225 J-0.472
G1 X-83.001 Y-4.276
X-120.082 Y-4.616
X-134.749 Y-4.52
Y4.515
X-117.897 Y4.607
X-83.001 Y4.277
X-82.693 Y4.077
X-82.101 Y0
X-82.693 Y-4.077
X-82.992 Y-4.271
G3 X-83.374 Y-4.842 I0.472 J-0.728
G2 X-83.9 Y-5.285 I-0.531 J0.097
G1 X-120.081 Y-5.616
X-135.749 Y-5.513
Y5.51
X-117.895 Y5.607
X-82.701 Y5.274
X-81.769 Y4.669
X-81.09 Y0
X-81.769 Y-4.669
X-82.701 Y-5.274
X-83.9 Y-5.285
G3 X-84.645 Y-5.792 I0.007 J-0.812
G2 X-85.39 Y-6.298 I-0.753 J0.306
G1 X-120.08 Y-6.616
X-136.749 Y-6.507
Y6.505
X-117.893 Y6.607
X-82.401 Y6.271
X-80.844 Y5.262
X-80.08 Y0
X-80.844 Y-5.262
X-82.401 Y-6.271
X-85.39 Y-6.298
G3 X-86.136 Y-6.805 I0.007 J-0.812
G2 X-86.881 Y-7.312 I-0.753 J0.306
G1 X-120.079 Y-7.616
X-137.22 Y-7.504
G3 X-137.58 Y-7.099 I-1.66 J-1.116
G1 X-137.737 Y-6.966
X-137.749 Y6.955
X-137.58 Y7.099
G3 X-137.221 Y7.502 I-1.299 J1.52
G1 X-117.891 Y7.607
X-82.101 Y7.268
X-79.92 Y5.854
X-79.069 Y0
X-79.92 Y-5.854
X-82.101 Y-7.268
X-86.881 Y-7.312
G3 X-87.627 Y-7.819 I0.007 J-0.812
G2 X-88.372 Y-8.326 I-0.753 J0.306
G1 X-120.077 Y-8.616
X-137.831 Y-8.5
G3 X-137.944 Y-8.233 I-0.967 J-0.254
G1 X-138.026 Y-8.1
G3 X-138.23 Y-7.86 I-0.854 J-0.52
G1 X-138.387 Y-7.726
G3 X-138.749 Y-7.528 I-0.65 J-0.76
G1 Y7.528
X-138.722 Y7.537
G3 X-138.387 Y7.726 I-0.314 J0.949
G1 X-138.23 Y7.86
G3 X-137.969 Y8.208 I-0.65 J0.76
G1 X-137.846 Y8.478
X-117.889 Y8.607
X-81.801 Y8.266
X-78.996 Y6.447
X-78.059 Y0
X-78.996 Y-6.447
X-81.801 Y-8.266
X-88.372 Y-8.326
X-88.425 Y-8.322 Z-25.978
X-88.476 Y-8.308 Z-25.956
X-88.524 Y-8.286 Z-25.934
X-88.568 Y-8.256 Z-25.912
X-88.599 Y-8.225 Z-25.806
X-88.626 Y-8.19 Z-25.7
G0 Z2

(Pocket8)
X-146.942 Y-23.962
Z2
G1 Z-0.7 F700
X-146.938 Y-23.968 Z-0.767
X-146.925 Y-23.986 Z-0.83
X-146.904 Y-24.015 Z-0.887
X-146.876 Y-24.053 Z-0.935
X-146.843 Y-24.099 Z-0.97
X-146.805 Y-24.151 Z-0.992
X-146.766 Y-24.205 Z-1
X-145.333 Y-26.177
G3 X-143.996 Y-26.857 I1.336 J0.971
G1 X-81.293 Y-26.849
X-79.06 Y-26.446
X-77.388 Y-25.525
X-75.75 Y-23.79
X-74.533 Y-21.975
X-74.496 Y-21.924
X-74.454 Y-21.876
X-72.811 Y-20.148
X-72.767 Y-20.106
X-72.72 Y-20.067
X-72.102 Y-19.599
X-72.05 Y-19.563
X-71.996 Y-19.532
X-70.084 Y-18.534
X-70.014 Y-18.502
X-69.942 Y-18.478
X-69.867 Y-18.461
X-67.747 Y-18.088
X-67.022 Y-17.877
X-66.918 Y-17.855
X-66.813 Y-17.847
X-32.106 Y-17.817
X-31.799 Y-17.735
X-31.627 Y-17.571
X-31.5 Y-17.054
X-31.505 Y17.159
X-31.618 Y17.563
X-31.797 Y17.732
X-32.22 Y17.842
X-66.812 Y17.847
X-66.876 Y17.85
X-66.94 Y17.858
X-69.284 Y18.264
X-69.348 Y18.278
X-69.41 Y18.297
X-70.216 Y18.588
X-70.268 Y18.609
X-70.318 Y18.634
X-72.155 Y19.626
X-72.219 Y19.665
X-72.278 Y19.709
X-72.917 Y20.241
X-72.989 Y20.31
X-74.576 Y22.033
X-74.613 Y22.077
X-74.647 Y22.124
X-75.836 Y23.903
X-77.478 Y25.599
X-79.147 Y26.47
X-81.409 Y26.868
X-256.5 Y26.872
Y-26.872
X-143.996 Y-26.857
G3 X-143.861 Y-26.642 I0 J0.15
G1 X-144.275 Y-25.788
X-145.465 Y-25.357
G3 X-145.634 Y-25.588 I-0.047 J-0.142
G1 X-145.594 Y-25.642 Z-1.008
X-145.557 Y-25.693 Z-1.03
X-145.524 Y-25.739 Z-1.065
X-145.496 Y-25.777 Z-1.113
X-145.475 Y-25.806 Z-1.17
X-145.462 Y-25.824 Z-1.233
X-145.457 Y-25.83 Z-1.3
Z-1.7
X-145.453 Y-25.836 Z-1.767
X-145.44 Y-25.854 Z-1.83
X-145.419 Y-25.883 Z-1.887
X-145.391 Y-25.922 Z-1.935
X-145.357 Y-25.968 Z-1.97
X-145.32 Y-26.019 Z-1.992
X-145.281 Y-26.073 Z-2
G3 X-143.996 Y-26.727 I1.284 J0.933
G1 X-81.288 Y-26.717
X-80.082 Y-26.518
X-78.916 Y-26.253
X-77.558 Y-25.514
X-76.673 Y-24.668
X-75.755 Y-23.665
X-74.5 Y-21.796
X-74.464 Y-21.746
X-74.424 Y-21.7
X-73.167 Y-20.365
X-73.091 Y-20.294
X-71.969 Y-19.394
X-71.912 Y-19.352
X-71.852 Y-19.316
X-70.446 Y-18.568
X-70.376 Y-18.536
X-70.304 Y-18.511
X-70.229 Y-18.493
X-68.628 Y-18.199
X-67.027 Y-17.721
X-66.921 Y-17.697
X-66.813 Y-17.689
X-32.106 Y-17.659
X-31.799 Y-17.577
X-31.624 Y-17.41
X-31.5 Y-16.933
X-31.516 Y17.041
X-31.618 Y17.405
X-31.797 Y17.574
X-32.22 Y17.683
X-66.812 Y17.689
X-66.876 Y17.692
X-66.939 Y17.7
X-68.814 Y18.021
X-68.874 Y18.033
X-68.933 Y18.051
X-70.456 Y18.579
X-70.514 Y18.602
X-70.571 Y18.629
X-71.946 Y19.382
X-72.006 Y19.418
X-72.063 Y19.461
X-73.194 Y20.394
X-73.269 Y20.466
X-74.574 Y21.886
X-74.611 Y21.93
X-74.645 Y21.977
X-75.854 Y23.792
X-76.715 Y24.713
X-77.678 Y25.593
X-78.913 Y26.253
X-80.082 Y26.518
X-81.405 Y26.737
X-256.5 Y26.745
Y-26.744
X-143.996 Y-26.727
G3 X-143.861 Y-26.513 I0 J0.15
G1 X-144.262 Y-25.672
X-145.433 Y-25.243
G3 X-145.602 Y-25.473 I-0.048 J-0.142
G1 X-145.563 Y-25.527 Z-2.008
X-145.526 Y-25.579 Z-2.03
X-145.492 Y-25.625 Z-2.065
X-145.464 Y-25.663 Z-2.113
X-145.443 Y-25.692 Z-2.17
X-145.43 Y-25.71 Z-2.233
X-145.426 Y-25.716 Z-2.3
Z-2.7
X-145.422 Y-25.722 Z-2.767
X-145.408 Y-25.74 Z-2.83
X-145.387 Y-25.769 Z-2.887
X-145.36 Y-25.807 Z-2.935
X-145.326 Y-25.853 Z-2.97
X-145.289 Y-25.905 Z-2.992
X-145.25 Y-25.959 Z-3
G3 X-143.997 Y-26.597 I1.253 J0.911
G1 X-81.293 Y-26.586
X-79.835 Y-26.326
X-78.692 Y-26.021
X-77.739 Y-25.509
X-76.716 Y-24.571
X-75.765 Y-23.548
X-74.501 Y-21.654
X-74.464 Y-21.603
X-74.422 Y-21.555
X-73.416 Y-20.494
X-73.343 Y-20.426
X-71.743 Y-19.135
X-71.684 Y-19.092
X-71.621 Y-19.055
X-70.677 Y-18.558
X-70.579 Y-18.515
X-70.476 Y-18.486
X-69.338 Y-18.258
X-67.028 Y-17.563
X-66.922 Y-17.539
X-66.813 Y-17.531
X-32.106 Y-17.5
X-31.807 Y-17.42
X-31.607 Y-17.222
X-31.5 Y-16.815
Y16.815
X-31.607 Y17.222
X-31.805 Y17.418
X-32.22 Y17.525
X-66.812 Y17.531
X-66.874 Y17.533
X-66.936 Y17.541
X-68.323 Y17.773
X-68.382 Y17.785
X-68.44 Y17.802
X-70.686 Y18.563
X-70.751 Y18.589
X-70.814 Y18.62
X-71.755 Y19.152
X-71.81 Y19.186
X-71.862 Y19.225
X-73.467 Y20.543
X-73.54 Y20.612
X-74.522 Y21.667
X-74.562 Y21.715
X-74.599 Y21.765
X-75.838 Y23.643
X-76.805 Y24.651
X-77.825 Y25.556
X-78.799 Y26.064
X-80.09 Y26.388
X-81.405 Y26.605
X-256.5 Y26.617
Y-26.617
X-143.997 Y-26.597
G3 X-143.879 Y-26.353 I0 J0.15
G1 X-144.499 Y-25.581
X-144.674 Y-25.448
X-145.713 Y-25.307
G3 X-145.827 Y-25.57 I-0.017 J-0.149
G1 X-145.776 Y-25.614 Z-3.008
X-145.728 Y-25.655 Z-3.03
X-145.685 Y-25.692 Z-3.065
X-145.649 Y-25.723 Z-3.113
X-145.622 Y-25.746 Z-3.17
X-145.605 Y-25.76 Z-3.233
X-145.599 Y-25.765 Z-3.3
Z-3.7
X-145.593 Y-25.77 Z-3.767
X-145.576 Y-25.784 Z-3.83
X-145.549 Y-25.808 Z-3.887
X-145.513 Y-25.838 Z-3.935
X-145.47 Y-25.875 Z-3.97
X-145.422 Y-25.916 Z-3.992
X-145.371 Y-25.96 Z-4
G3 X-143.997 Y-26.467 I1.374 J1.609
G1 X-81.296 Y-26.454
X-80.099 Y-26.23
X-78.576 Y-25.843
X-77.861 Y-25.446
X-76.053 Y-23.741
X-75.73 Y-23.364
X-74.503 Y-21.512
X-74.464 Y-21.459
X-74.42 Y-21.409
X-73.683 Y-20.636
X-73.609 Y-20.569
X-71.44 Y-18.83
X-71.373 Y-18.783
X-71.302 Y-18.743
X-70.894 Y-18.541
X-70.831 Y-18.514
X-70.767 Y-18.493
X-68.821 Y-17.941
X-67.027 Y-17.404
X-66.921 Y-17.38
X-66.813 Y-17.372
X-32.107 Y-17.342
X-31.801 Y-17.26
X-31.629 Y-17.097
X-31.5 Y-16.586
X-31.507 Y16.691
X-31.62 Y17.089
X-31.798 Y17.258
X-32.22 Y17.366
X-66.812 Y17.372
X-66.879 Y17.375
X-66.946 Y17.384
X-68 Y17.575
X-68.055 Y17.587
X-68.108 Y17.603
X-70.967 Y18.574
X-71.049 Y18.607
X-71.126 Y18.65
X-71.616 Y18.96
X-71.691 Y19.014
X-73.74 Y20.691
X-73.784 Y20.73
X-73.825 Y20.773
X-74.616 Y21.661
X-74.651 Y21.704
X-74.683 Y21.749
X-75.834 Y23.504
X-76.988 Y24.647
X-77.938 Y25.5
X-78.676 Y25.87
X-80.497 Y26.323
X-81.405 Y26.473
X-256.5 Y26.489
Y-26.489
X-143.997 Y-26.467
G3 X-143.862 Y-26.25 I0 J0.15
G1 X-144.289 Y-25.399
X-145.475 Y-24.97
G3 X-145.644 Y-25.2 I-0.048 J-0.142
G1 X-145.605 Y-25.254 Z-4.008
X-145.568 Y-25.306 Z-4.03
X-145.534 Y-25.352 Z-4.065
X-145.506 Y-25.39 Z-4.113
X-145.485 Y-25.419 Z-4.17
X-145.472 Y-25.437 Z-4.233
X-145.468 Y-25.443 Z-4.3
Z-4.7
X-145.463 Y-25.449 Z-4.767
X-145.45 Y-25.467 Z-4.83
X-145.429 Y-25.496 Z-4.887
X-145.401 Y-25.534 Z-4.935
X-145.368 Y-25.58 Z-4.97
X-145.331 Y-25.632 Z-4.992
X-145.291 Y-25.686 Z-5
G3 X-143.997 Y-26.345 I1.295 J0.941
G1 X-81.386 Y-26.336
X-80.109 Y-26.071
X-78.348 Y-25.605
X-78.019 Y-25.419
X-76.178 Y-23.729
X-75.747 Y-23.257
X-74.53 Y-21.399
X-74.487 Y-21.34
X-74.438 Y-21.285
X-73.91 Y-20.746
X-73.853 Y-20.694
X-71.996 Y-19.158
X-71.38 Y-18.579
G2 X-71.107 Y-18.415 I0.514 J-0.547
G1 X-70.803 Y-18.312
X-70.746 Y-18.295
X-69.329 Y-17.938
X-67.028 Y-17.246
X-66.922 Y-17.222
X-66.813 Y-17.214
X-32.142 Y-17.189
X-31.762 Y-17.071
X-31.61 Y-16.908
X-31.5 Y-16.469
X-31.518 Y16.579
X-31.605 Y16.903
X-31.762 Y17.071
X-32.142 Y17.189
X-66.813 Y17.214
X-66.889 Y17.218
X-66.964 Y17.23
X-67.667 Y17.375
X-67.75 Y17.397
X-69.829 Y18.084
X-70.938 Y18.348
G2 X-71.196 Y18.464 I0.174 J0.73
G1 X-71.5 Y18.677
X-71.548 Y18.714
X-71.593 Y18.755
X-72.236 Y19.383
X-74.053 Y20.881
X-74.132 Y20.957
X-74.554 Y21.423
X-74.593 Y21.469
X-74.627 Y21.518
X-75.83 Y23.366
X-77.173 Y24.642
X-78.08 Y25.463
X-78.443 Y25.649
X-81.012 Y26.276
X-81.525 Y26.342
X-256.5 Y26.361
Y-26.361
X-143.997 Y-26.345
G3 X-143.873 Y-26.11 I0 J0.15
G1 X-144.444 Y-25.281
X-144.471 Y-25.255
X-145.54 Y-25.009
G3 X-145.677 Y-25.262 I-0.03 J-0.147
G1 X-145.63 Y-25.309 Z-5.008
X-145.585 Y-25.354 Z-5.03
X-145.545 Y-25.394 Z-5.065
X-145.511 Y-25.428 Z-5.113
X-145.486 Y-25.453 Z-5.17
X-145.47 Y-25.469 Z-5.233
X-145.465 Y-25.474 Z-5.3
Z-5.7
X-145.459 Y-25.479 Z-5.767
X-145.444 Y-25.495 Z-5.83
X-145.418 Y-25.52 Z-5.887
X-145.385 Y-25.554 Z-5.935
X-145.345 Y-25.594 Z-5.97
X-145.3 Y-25.639 Z-5.992
X-145.253 Y-25.686 Z-6
G3 X-143.997 Y-26.206 I1.256 J1.256
G1 X-81.318 Y-26.191
X-78.229 Y-25.424
X-78.189 Y-25.401
X-75.753 Y-23.133
X-74.529 Y-21.254
X-74.467 Y-21.173
X-74.396 Y-21.101
X-73.528 Y-20.336
X-71.441 Y-18.272
G2 X-71.167 Y-18.1 I0.527 J-0.533
G1 X-70.765 Y-17.955
X-70.677 Y-17.929
X-66.86 Y-17.068
X-66.778 Y-17.054
X-66.695 Y-17.05
X-32.159 Y-17.037
X-31.845 Y-16.946
X-31.635 Y-16.714
X-31.5 Y-16.127
X-31.518 Y16.239
X-31.632 Y16.711
X-31.842 Y16.943
X-32.227 Y17.05
X-66.812 Y17.056
X-66.898 Y17.061
X-66.984 Y17.075
X-70.968 Y18.01
G2 X-71.225 Y18.125 I0.171 J0.73
G1 X-71.459 Y18.287
X-71.511 Y18.327
X-71.559 Y18.371
X-73.706 Y20.503
X-74.391 Y21.096
X-74.464 Y21.169
X-74.527 Y21.252
X-75.824 Y23.227
X-78.247 Y25.429
X-78.298 Y25.45
X-81.317 Y26.191
X-256.5 Y26.233
Y-26.233
X-143.997 Y-26.206
G3 X-143.7 Y-25.953 I0 J0.3
G1 X-143.311 Y-23.491
X-143.301 Y-23.425 Z-5.992
X-143.291 Y-23.363 Z-5.97
X-143.282 Y-23.307 Z-5.935
X-143.274 Y-23.26 Z-5.887
X-143.269 Y-23.224 Z-5.83
X-143.265 Y-23.202 Z-5.767
X-143.264 Y-23.195 Z-5.7
G0 Z2
X-69.272 Y-16.125
Z-4
G1 Z-6.76 F700
X-69.266 Z-6.813
X-69.249 Y-16.127 Z-6.864
X-69.22 Y-16.129 Z-6.91
X-69.182 Y-16.132 Z-6.948
X-69.137 Y-16.136 Z-6.976
X-69.086 Y-16.14 Z-6.994
X-69.033 Y-16.144 Z-7
X-68.986
X-68.94 Y-16.137
X-68.55 Y-16.044
X-67.371 Y-15.647
G2 X-66.812 Y-15.555 I0.559 J-1.658
G1 X-32.522 Y-15.549
X-32.511 Y-15.497
X-32.505 Y-15.439
X-32.51 Y-15.38
X-32.526 Y-15.324
X-32.553 Y-15.271
X-34.065 Y-12.946
X-34.101 Y-12.89 Z-6.992
X-34.135 Y-12.837 Z-6.97
X-34.166 Y-12.789 Z-6.935
X-34.192 Y-12.749 Z-6.887
X-34.212 Y-12.719 Z-6.83
X-34.224 Y-12.701 Z-6.767
X-34.228 Y-12.695 Z-6.7
G0 Z2
X-32.546 Y15.192
G1 Z-4 F100
Z-6.73 F700
X-32.545 Y15.199 Z-6.79
X-32.542 Y15.219 Z-6.847
X-32.537 Y15.251 Z-6.898
X-32.531 Y15.293 Z-6.941
X-32.523 Y15.343 Z-6.973
X-32.514 Y15.4 Z-6.993
X-32.504 Y15.459 Z-7
X-32.501 Y15.506
Y15.537
X-66.812 Y15.555
G2 X-67.357 Y15.642 I0 J1.75
G1 X-68.856 Y16.134
X-68.993 Y16.167
G2 X-69.604 Y16.829 I0.191 J0.79
G3 X-70.215 Y17.492 I-0.802 J-0.127
G1 X-71.027 Y17.688
G2 X-71.361 Y17.868 I0.177 J0.729
G1 X-72.011 Y18.472
X-74.204 Y20.626
X-74.509 Y20.925
X-74.565 Y20.986
X-74.614 Y21.054
X-75.833 Y22.944
X-78.216 Y25.247
X-78.745 Y25.402
X-81.436 Y26.078
X-256.5 Y26.106
Y-26.106
X-81.436 Y-26.078
X-78.247 Y-25.276
X-75.756 Y-22.848
X-74.547 Y-20.973
X-74.496 Y-20.903
X-74.437 Y-20.839
X-72.961 Y-19.42
X-71.449 Y-17.928
G2 X-71.192 Y-17.762 I0.527 J-0.534
G1 X-70.832 Y-17.623
X-70.736 Y-17.593
X-68.274 Y-17.006
X-67.052 Y-16.594
X-66.973 Y-16.573
X-66.893 Y-16.56
X-66.812 Y-16.555
X-32.231 Y-16.549
X-31.839 Y-16.435
X-31.64 Y-16.212
X-31.5 Y-15.55
X-31.501 Y15.656
X-31.633 Y16.204
X-31.839 Y16.435
X-32.231 Y16.549
X-66.812 Y16.555
X-66.891 Y16.559
X-66.969 Y16.572
X-67.046 Y16.592
X-68.582 Y17.096
X-70.215 Y17.492
G3 X-70.436 Y16.582 I-0.11 J-0.455
X-70.253 Y16.574 I0.11 J0.455
G1 X-69.293 Y16.726
G2 X-69.147 Y15.801 I0.073 J-0.462
X-69.371 Y15.82 I-0.073 J0.462
G1 X-69.434 Y15.842 Z-7.008
X-69.494 Y15.862 Z-7.03
X-69.548 Y15.881 Z-7.065
X-69.593 Y15.896 Z-7.113
X-69.627 Y15.908 Z-7.17
X-69.648 Y15.915 Z-7.233
X-69.655 Y15.917 Z-7.3
Z-7.7
X-69.662 Y15.92 Z-7.767
X-69.683 Y15.927 Z-7.83
X-69.717 Y15.939 Z-7.887
X-69.762 Y15.954 Z-7.935
X-69.816 Y15.972 Z-7.97
X-69.876 Y15.993 Z-7.992
X-69.939 Y16.014 Z-8
X-69.95 Y16.018
X-70.115 Y16.074
X-71.206 Y16.339
G2 X-71.783 Y16.596 I0.412 J1.701
G1 X-72.015 Y16.755
G2 X-72.247 Y16.945 I0.989 J1.444
G1 X-72.986 Y17.664
X-74.352 Y18.959
X-75.163 Y19.707
X-75.226 Y19.768
X-75.286 Y19.833
X-76.425 Y21.613
X-76.557 Y21.825
X-77.095 Y22.348
G3 X-77.401 Y22.417 I-0.209 J-0.215
G1 X-79.316 Y21.764
X-79.38 Y21.743 Z-7.992
X-79.44 Y21.722 Z-7.97
X-79.493 Y21.704 Z-7.935
X-79.538 Y21.688 Z-7.887
X-79.572 Y21.677 Z-7.83
X-79.593 Y21.67 Z-7.767
X-79.6 Y21.667 Z-7.7
G0 Z2
X-73.226 Y-17.891
Z1
G1 Z-5 F100
Z-7.7 F700
X-73.22 Y-17.886 Z-7.767
X-73.204 Y-17.87 Z-7.83
X-73.178 Y-17.846 Z-7.887
X-73.143 Y-17.813 Z-7.935
X-73.102 Y-17.775 Z-7.97
X-73.055 Y-17.731 Z-7.992
X-73.007 Y-17.685 Z-8
X-72.985 Y-17.665
X-72.705 Y-17.403
X-72.124 Y-16.843
G2 X-71.523 Y-16.464 I1.214 J-1.26
G1 X-71.176 Y-16.334
X-71.07 Y-16.298
X-70.961 Y-16.269
X-70.063 Y-16.058
G3 X-70.291 Y-15.085 I-0.114 J0.487
X-70.468 Y-15.165 I0.114 J-0.487
G1 X-75.959 Y-19.104
G3 X-76.038 Y-19.846 I0.291 J-0.406
X-75.292 Y-19.84 I0.37 J0.336
G1 X-75.234 Y-19.777
X-75.173 Y-19.717
X-74.353 Y-18.948
G2 X-73.463 Y-18.799 I0.556 J-0.593
G3 X-72.574 Y-18.651 I0.333 J0.741
G1 X-72.016 Y-18.128
X-71.43 Y-17.563
G2 X-71.173 Y-17.401 I0.52 J-0.54
G1 X-70.825 Y-17.27
X-70.733 Y-17.243
X-69.725 Y-17.006
X-67.051 Y-16.086
X-66.971 Y-16.063
X-66.889 Y-16.049
X-66.807 Y-16.045
X-32.231 Y-16.04
X-31.834 Y-15.924
X-31.66 Y-15.733
X-31.5 Y-15.073
X-31.511 Y15.182
X-31.654 Y15.727
X-31.834 Y15.924
X-32.231 Y16.04
X-66.812 Y16.046
X-66.894 Y16.05
X-66.975 Y16.064
X-67.055 Y16.086
X-69.835 Y17.035
X-70.971 Y17.311
G2 X-71.218 Y17.421 I0.177 J0.729
G1 X-71.45 Y17.58
X-71.501 Y17.618
X-71.549 Y17.661
X-72.975 Y19.05
X-74.485 Y20.442
X-74.554 Y20.515
X-74.613 Y20.597
X-75.773 Y22.458
X-78.301 Y24.914
X-81.558 Y25.771
X-256.5 Y25.75
Y-25.75
X-81.443 Y-25.761
X-78.302 Y-24.916
X-75.773 Y-22.458
X-74.613 Y-20.597
X-74.556 Y-20.518
X-74.489 Y-20.447
X-72.574 Y-18.651
G3 X-72.473 Y-18.179 I-0.29 J0.309
G1 X-72.782 Y-17.434
G2 X-72.677 Y-16.959 I0.391 J0.163
G1 X-72.628 Y-16.914 Z-8.008
X-72.581 Y-16.871 Z-8.03
X-72.539 Y-16.832 Z-8.065
X-72.504 Y-16.8 Z-8.113
X-72.478 Y-16.776 Z-8.17
X-72.461 Y-16.761 Z-8.233
X-72.456 Y-16.756 Z-8.3
Z-8.7
X-72.45 Y-16.751 Z-8.767
X-72.434 Y-16.736 Z-8.83
X-72.408 Y-16.712 Z-8.887
X-72.372 Y-16.68 Z-8.935
X-72.331 Y-16.642 Z-8.97
X-72.284 Y-16.599 Z-8.992
X-72.234 Y-16.554 Z-9
X-72.131 Y-16.459
X-72.107 Y-16.437
G2 X-71.542 Y-16.09 I1.181 J-1.291
G1 X-70.944 Y-15.865
X-70.9 Y-15.849
X-67.385 Y-14.632
G2 X-66.812 Y-14.536 I0.573 J-1.654
G1 X-32.516 Y-14.53
X-32.5 Y-14.471
X-32.491 Y-14.413
X-32.493 Y-14.354
X-32.507 Y-14.297
X-32.532 Y-14.244
X-34.122 Y-11.527
X-34.156 Y-11.469 Z-8.992
X-34.188 Y-11.414 Z-8.97
X-34.217 Y-11.365 Z-8.935
X-34.241 Y-11.324 Z-8.887
X-34.259 Y-11.294 Z-8.83
X-34.27 Y-11.274 Z-8.767
X-34.274 Y-11.268 Z-8.7
G0 Z2
X-32.521 Y14.138
G1 Z-6 F100
Z-8.7 F700
Y14.145 Z-8.767
Y14.167 Z-8.83
Y14.203 Z-8.887
Y14.251 Z-8.935
Y14.307 Z-8.97
Y14.371 Z-8.992
Y14.438 Z-9
Y14.468
Y14.53
X-66.812 Y14.536
G2 X-67.383 Y14.632 I0 J1.75
G1 X-71.405 Y16.019
G2 X-71.998 Y16.366 I0.57 J1.654
G1 X-72.122 Y16.477
G2 X-72.35 Y17.352 I0.541 J0.608
G3 X-72.571 Y18.229 I-0.777 J0.271
G1 X-74.475 Y19.974
X-74.548 Y20.051
X-74.609 Y20.137
X-75.731 Y21.979
X-75.82 Y22.104
X-78.259 Y24.48
X-81.559 Y25.356
X-256.5 Y25.349
Y-25.349
X-81.444 Y-25.346
X-78.263 Y-24.482
X-75.761 Y-22.024
X-74.784 Y-20.429
X-74.529 Y-20.04
X-74.473 Y-19.966
X-74.408 Y-19.898
X-71.432 Y-17.175
G2 X-71.189 Y-17.026 I0.506 J-0.553
G1 X-70.592 Y-16.801
X-67.058 Y-15.577
X-66.977 Y-15.555
X-66.895 Y-15.541
X-66.812 Y-15.536
X-32.231 Y-15.53
X-31.853 Y-15.42
X-31.662 Y-15.221
X-31.5 Y-14.599
X-31.521 Y14.711
X-31.66 Y15.218
X-31.853 Y15.42
X-32.231 Y15.53
X-66.812 Y15.536
X-66.895 Y15.541
X-66.977 Y15.554
X-67.057 Y15.577
X-71.079 Y16.964
G2 X-71.333 Y17.113 I0.244 J0.709
G1 X-71.998 Y17.704
X-72.571 Y18.229
G3 X-73.152 Y17.986 I-0.234 J-0.256
G1 X-73.161 Y17.729
G2 X-73.742 Y17.485 I-0.347 J0.012
G1 X-73.791 Y17.531 Z-9.008
X-73.838 Y17.573 Z-9.03
X-73.879 Y17.612 Z-9.065
X-73.914 Y17.644 Z-9.113
X-73.941 Y17.668 Z-9.17
X-73.957 Y17.683 Z-9.233
X-73.963 Y17.688 Z-9.3
Z-9.7
X-73.968 Y17.693 Z-9.767
X-73.985 Y17.708 Z-9.83
X-74.011 Y17.732 Z-9.887
X-74.046 Y17.764 Z-9.935
X-74.088 Y17.803 Z-9.97
X-74.135 Y17.846 Z-9.992
X-74.184 Y17.891 Z-10
X-74.192 Y17.899
X-75.143 Y18.771
X-75.212 Y18.837
X-75.276 Y18.906
X-75.319 Y18.946
X-75.369 Y18.977
X-75.424 Y18.998
X-75.482 Y19.008
X-77.501 Y19.139
X-77.568 Y19.143 Z-9.992
X-77.631 Y19.148 Z-9.97
X-77.688 Y19.151 Z-9.935
X-77.735 Y19.154 Z-9.887
X-77.771 Y19.157 Z-9.83
X-77.793 Y19.158 Z-9.767
X-77.801 Y19.159 Z-9.7
G0 Z2
X-75.557 Y-19.092
Z-7
G1 Z-9.76 F700
X-75.551 Y-19.089 Z-9.813
X-75.536 Y-19.08 Z-9.864
X-75.512 Y-19.065 Z-9.91
X-75.479 Y-19.046 Z-9.948
X-75.44 Y-19.022 Z-9.976
X-75.396 Y-18.996 Z-9.994
X-75.351 Y-18.969 Z-10
X-75.312 Y-18.942
X-75.278 Y-18.909
X-75.213 Y-18.838
X-75.144 Y-18.771
X-74.245 Y-17.947
G2 X-73.355 Y-17.809 I0.549 J-0.599
G3 X-72.464 Y-17.67 I0.342 J0.737
G1 X-72.456 Y-17.664
X-71.466 Y-16.584
G2 X-71.186 Y-16.393 I0.553 J-0.507
G1 X-70.835 Y-16.256
X-70.769 Y-16.233
X-68.912 Y-15.701
X-67.055 Y-15.067
X-66.976 Y-15.045
X-66.894 Y-15.031
X-66.812 Y-15.027
X-32.231 Y-15.021
X-31.841 Y-14.907
X-31.638 Y-14.676
X-31.5 Y-14.033
X-31.504 Y14.14
X-31.631 Y14.669
X-31.841 Y14.907
X-32.231 Y15.021
X-66.886 Y15.04
X-66.969 Y15.044
X-67.051 Y15.058
X-67.131 Y15.081
X-69.378 Y15.858
X-70.996 Y16.304
G2 X-71.225 Y16.411 I0.199 J0.723
G1 X-71.459 Y16.574
X-71.525 Y16.626
X-71.585 Y16.685
X-72.585 Y17.782
X-74.468 Y19.508
X-74.542 Y19.587
X-74.604 Y19.675
X-75.771 Y21.623
X-78.276 Y24.079
X-81.558 Y24.942
X-256.5 Y24.949
Y-24.949
X-81.558 Y-24.942
X-78.276 Y-24.079
X-75.77 Y-21.622
X-74.881 Y-20.143
X-74.606 Y-19.679
X-74.566 Y-19.617
X-74.519 Y-19.56
X-74.468 Y-19.508
X-72.464 Y-17.67
X-72.776 Y-17.321
X-73.466 Y-16.532
X-73.489 Y-16.497
X-73.502 Y-16.456
Y-16.414
X-73.491 Y-16.373
X-73.469 Y-16.337
X-73.437 Y-16.309
X-72.724 Y-15.825
X-72.678 Y-15.777 Z-10.008
X-72.634 Y-15.731 Z-10.03
X-72.594 Y-15.69 Z-10.065
X-72.561 Y-15.656 Z-10.113
X-72.536 Y-15.63 Z-10.17
X-72.521 Y-15.614 Z-10.233
X-72.516 Y-15.609 Z-10.3
Z-10.7
X-72.511 Y-15.603 Z-10.767
X-72.495 Y-15.587 Z-10.83
X-72.47 Y-15.562 Z-10.887
X-72.437 Y-15.527 Z-10.935
X-72.398 Y-15.486 Z-10.97
X-72.354 Y-15.441 Z-10.992
X-72.308 Y-15.393 Z-11
X-72.161 Y-15.241
G2 X-71.522 Y-14.819 I1.26 J-1.214
G1 X-71.183 Y-14.69
X-71.031 Y-14.64
X-67.777 Y-13.735
X-67.335 Y-13.597
G2 X-66.812 Y-13.517 I0.523 J-1.67
G1 X-32.566 Y-13.511
X-32.5 Y-13.141
Y-13.048
X-32.501 Y-9.548
Y-9.481 Z-10.992
Y-9.417 Z-10.97
Y-9.36 Z-10.935
Y-9.313 Z-10.887
Y-9.277 Z-10.83
Y-9.255 Z-10.767
Y-9.248 Z-10.7
G0 Z2
X-32.553 Y12.738
G1 Z-8 F100
Z-10.73 F700
X-32.552 Y12.745 Z-10.79
X-32.549 Y12.765 Z-10.847
X-32.544 Y12.796 Z-10.898
X-32.538 Y12.839 Z-10.941
X-32.53 Y12.889 Z-10.973
X-32.521 Y12.946 Z-10.993
X-32.511 Y13.005 Z-11
X-32.508 Y13.052
Y13.246
X-32.558 Y13.511
X-66.812 Y13.517
G2 X-67.346 Y13.6 I0 J1.75
G1 X-68.248 Y13.889
X-71.279 Y14.72
G2 X-71.909 Y15.04 I0.462 J1.688
G1 X-72.113 Y15.203
G2 X-72.349 Y16.135 I0.497 J0.622
G3 X-72.507 Y17.084 I-0.826 J0.35
G1 X-73.341 Y18.013
X-74.522 Y19.124
X-74.595 Y19.203
X-74.656 Y19.292
X-75.781 Y21.223
X-78.316 Y23.676
X-81.535 Y24.528
X-256.5 Y24.548
Y-24.548
X-81.535 Y-24.528
X-78.316 Y-23.676
X-75.78 Y-21.222
X-74.599 Y-19.214
X-74.538 Y-19.124
X-74.463 Y-19.044
X-73.202 Y-17.873
X-71.456 Y-15.951
G2 X-71.167 Y-15.754 I0.555 J-0.504
G1 X-70.828 Y-15.625
X-70.763 Y-15.603
X-67.493 Y-14.694
X-67.036 Y-14.551
X-66.963 Y-14.532
X-66.888 Y-14.521
X-66.812 Y-14.517
X-32.236 Y-14.511
X-31.828 Y-14.388
X-31.677 Y-14.215
X-31.5 Y-13.23
X-31.508 Y13.341
X-31.669 Y14.18
X-31.831 Y14.388
X-32.236 Y14.511
X-66.812 Y14.517
X-66.89 Y14.521
X-66.966 Y14.533
X-67.041 Y14.553
X-67.963 Y14.848
X-71.014 Y15.684
G2 X-71.284 Y15.821 I0.198 J0.723
G1 X-71.557 Y16.039
X-71.603 Y16.08
X-71.647 Y16.124
X-72.507 Y17.084
G3 X-72.762 Y17.027 I-0.112 J-0.1
G1 X-73.16 Y15.696
X-72.642 Y14.754
G3 X-72.363 Y14.821 I0.13 J0.075
G1 X-72.359 Y14.888 Z-11.008
X-72.356 Y14.951 Z-11.03
X-72.353 Y15.008 Z-11.065
X-72.35 Y15.055 Z-11.113
X-72.348 Y15.091 Z-11.17
X-72.347 Y15.113 Z-11.233
Y15.121 Z-11.3
Z-11.7
Y15.128 Z-11.767
X-72.345 Y15.15 Z-11.83
X-72.344 Y15.186 Z-11.887
X-72.341 Y15.233 Z-11.935
X-72.338 Y15.29 Z-11.97
X-72.335 Y15.353 Z-11.992
X-72.331 Y15.42 Z-12
G3 X-72.821 Y16.801 I-1.911 J0.099
G1 X-74.253 Y18.39
X-74.573 Y18.73
X-74.628 Y18.796
X-74.675 Y18.868
X-75.847 Y20.887
X-78.249 Y23.227
X-81.559 Y24.114
X-256.5 Y24.147
Y-24.147
X-81.444 Y-24.104
X-78.252 Y-23.229
X-75.767 Y-20.786
X-74.594 Y-18.753
X-74.538 Y-18.669
X-74.471 Y-18.593
X-73.917 Y-18.049
X-71.51 Y-15.361
G2 X-71.243 Y-15.171 I0.559 J-0.5
G1 X-70.854 Y-15.007
X-70.765 Y-14.976
X-68.566 Y-14.357
X-67.078 Y-13.792
G2 X-66.812 Y-13.744 I0.266 J-0.701
G1 X-32.26 Y-13.733
X-31.976 Y-13.627
X-31.683 Y-13.235
X-31.5 Y-12.291
X-31.52 Y12.406
X-31.683 Y13.234
X-31.976 Y13.627
X-32.26 Y13.733
X-66.812 Y13.744
G2 X-67.074 Y13.791 I0 J0.75
G1 X-68.92 Y14.478
X-71.056 Y15.076
G2 X-71.371 Y15.255 I0.202 J0.722
G1 X-71.751 Y15.617
X-71.791 Y15.658
X-72.821 Y16.801
X-72.877 Y16.854
X-72.941 Y16.898
X-76.014 Y18.685
G2 X-76.199 Y18.873 I0.251 J0.432
G1 X-76.232 Y18.932 Z-12.008
X-76.263 Y18.987 Z-12.03
X-76.291 Y19.037 Z-12.065
X-76.314 Y19.078 Z-12.113
X-76.331 Y19.109 Z-12.17
X-76.342 Y19.129 Z-12.233
X-76.346 Y19.135 Z-12.3
Z-12.7
X-76.349 Y19.142 Z-12.767
X-76.36 Y19.161 Z-12.83
X-76.377 Y19.193 Z-12.887
X-76.401 Y19.234 Z-12.935
X-76.428 Y19.284 Z-12.97
X-76.459 Y19.339 Z-12.992
X-76.492 Y19.397 Z-13
X-76.532 Y19.469
X-76.684 Y19.742
X-77.717 Y20.899
X-78.774 Y21.928
X-80.133 Y22.288
G3 X-80.484 Y22.119 I-0.077 J-0.29
G1 X-81.567 Y19.668
X-81.594 Y19.607 Z-12.992
X-81.62 Y19.549 Z-12.97
X-81.643 Y19.497 Z-12.935
X-81.662 Y19.453 Z-12.887
X-81.676 Y19.42 Z-12.83
X-81.685 Y19.4 Z-12.767
X-81.688 Y19.393 Z-12.7
G0 Z2
X-75.549 Y-17.499
Z-10
G1 Z-12.76 F700
X-75.543 Y-17.495 Z-12.813
X-75.528 Y-17.486 Z-12.864
X-75.504 Y-17.471 Z-12.91
X-75.471 Y-17.451 Z-12.948
X-75.433 Y-17.428 Z-12.976
X-75.389 Y-17.401 Z-12.994
X-75.344 Y-17.374 Z-13
X-75.306 Y-17.346
X-75.272 Y-17.313
X-75.24 Y-17.276
X-72.21 Y-13.937
G2 X-71.556 Y-13.485 I1.296 J-1.176
G1 X-67.455 Y-11.866
G2 X-66.813 Y-11.744 I0.643 J-1.628
G1 X-32.605 Y-11.734
X-32.5 Y-11.156
Y-11.062
X-32.503 Y-7.562
Y-7.495 Z-12.992
Y-7.432 Z-12.97
Y-7.375 Z-12.935
Y-7.328 Z-12.887
Y-7.292 Z-12.83
Y-7.27 Z-12.767
Y-7.262 Z-12.7
G0 Z2
X-32.622 Y10.727
G1 Z-10 F100
Z-12.73 F700
X-32.621 Y10.734 Z-12.79
X-32.618 Y10.754 Z-12.847
X-32.613 Y10.785 Z-12.898
X-32.606 Y10.828 Z-12.941
X-32.598 Y10.878 Z-12.973
X-32.589 Y10.935 Z-12.993
X-32.58 Y10.994 Z-13
X-32.577 Y11.041
X-32.578 Y11.593
X-32.608 Y11.734
X-66.813 Y11.744
G2 X-67.455 Y11.866 I0.001 J1.75
G1 X-71.556 Y13.485
G2 X-72.213 Y13.941 I0.643 J1.628
G1 X-75.296 Y17.359
G3 X-75.641 Y17.432 I-0.223 J-0.201
G1 X-77.489 Y16.608
X-77.55 Y16.581 Z-12.992
X-77.607 Y16.555 Z-12.97
X-77.659 Y16.532 Z-12.935
X-77.703 Y16.512 Z-12.887
X-77.735 Y16.498 Z-12.83
X-77.756 Y16.489 Z-12.767
X-77.763 Y16.486 Z-12.7
G0 Z2
X-80.733 Y-22.369
Z-10
G1 Z-12.76 F700
X-80.727 Z-12.813
X-80.709 Y-22.37 Z-12.864
X-80.681 Y-22.372 Z-12.91
X-80.643 Y-22.374 Z-12.948
X-80.597 Y-22.376 Z-12.976
X-80.547 Y-22.378 Z-12.994
X-80.493 Y-22.381 Z-13
X-80.446 Y-22.38
X-80.4 Y-22.371
X-78.784 Y-21.933
X-77.47 Y-20.634
X-76.62 Y-19.638
X-76.528 Y-19.475
G3 X-76.603 Y-19.093 I-0.261 J0.147
G1 X-78.318 Y-17.735
X-78.37 Y-17.693 Z-12.992
X-78.42 Y-17.654 Z-12.97
X-78.465 Y-17.619 Z-12.935
X-78.502 Y-17.589 Z-12.887
X-78.53 Y-17.567 Z-12.83
X-78.547 Y-17.553 Z-12.767
X-78.553 Y-17.548 Z-12.7
G0 Z2
X-138.037 Y22.587
Z-10
G1 Z-12.79 F700
X-138.044 Y22.59 Z-12.844
X-138.062 Y22.599 Z-12.895
X-138.092 Y22.615 Z-12.938
X-138.131 Y22.634 Z-12.972
X-138.176 Y22.657 Z-12.993
X-138.224 Y22.682 Z-13
X-138.268 Y22.7
X-138.314 Y22.711
X-138.36 Y22.715
X-255.438 Y22.746
Y22.699
X-255.434 Y22.652
X-255.423 Y22.606
X-255.405 Y22.563
X-253.954 Y19.716
X-253.924 Y19.656 Z-12.992
X-253.895 Y19.6 Z-12.97
X-253.869 Y19.549 Z-12.935
X-253.848 Y19.507 Z-12.887
X-253.831 Y19.475 Z-12.83
X-253.821 Y19.455 Z-12.767
X-253.818 Y19.449 Z-12.7
G0 Z2
X-255.438 Y-22.354
G1 Z-10 F100
Z-12.7 F700
G19 G2 Y-22.654 Z-13 J-0.3 K0
G1 Y-22.684
Y-22.746
X-149.453 Y-22.712
G17 G2 X-148.703 Y-23.211 I0 J-0.813
G3 X-147.953 Y-23.711 I0.75 J0.313
G1 X-81.443 Y-23.69
X-78.268 Y-22.83
X-76.737 Y-21.316
X-75.796 Y-20.214
X-74.597 Y-18.084
X-74.552 Y-18.013
X-74.499 Y-17.948
X-71.469 Y-14.609
G2 X-71.189 Y-14.415 I0.555 J-0.504
G1 X-67.088 Y-12.796
G2 X-66.812 Y-12.744 I0.275 J-0.698
G1 X-32.26 Y-12.733
X-31.967 Y-12.624
X-31.937 Y-12.592
X-31.673 Y-12.196
X-31.5 Y-11.246
X-31.511 Y3.42
X-31.545 Y3.576
X-31.557 Y3.653
X-31.561 Y3.731
X-31.578 Y11.7
X-31.698 Y12.262
X-31.954 Y12.619
X-32.26 Y12.733
X-66.812 Y12.744
G2 X-67.088 Y12.796 I0 J0.75
G1 X-71.189 Y14.415
G2 X-71.471 Y14.611 I0.275 J0.698
G1 X-74.576 Y18.054
X-74.629 Y18.12
X-74.674 Y18.191
X-75.864 Y20.326
X-76.995 Y21.591
X-78.264 Y22.827
X-81.558 Y23.7
X-256.438 Y23.746
Y-23.746
X-147.953 Y-23.711
G3 X-147.824 Y-23.485 I0 J0.15
G1 X-148.291 Y-22.697
X-148.545 Y-22.359
X-149.487 Y-21.998
G3 X-149.652 Y-22.237 I-0.05 J-0.141
G1 X-149.608 Y-22.287 Z-13.008
X-149.567 Y-22.336 Z-13.03
X-149.53 Y-22.379 Z-13.065
X-149.499 Y-22.415 Z-13.113
X-149.476 Y-22.442 Z-13.17
X-149.462 Y-22.459 Z-13.233
X-149.457 Y-22.465 Z-13.3
Z-13.7
X-149.452 Y-22.47 Z-13.767
X-149.437 Y-22.487 Z-13.83
X-149.414 Y-22.515 Z-13.887
X-149.383 Y-22.551 Z-13.935
X-149.346 Y-22.594 Z-13.97
X-149.305 Y-22.642 Z-13.992
X-149.262 Y-22.693 Z-14
G3 X-147.953 Y-23.296 I1.309 J1.118
G1 X-109 Y-23.294
X-81.447 Y-23.275
X-79.065 Y-22.607
X-78.399 Y-22.398
X-75.805 Y-19.46
X-74.978 Y-17.969
X-74.655 Y-17.304
X-74.604 Y-17.215
X-74.542 Y-17.134
X-72.158 Y-14.447
X-71.568 Y-13.698
G2 X-71.313 Y-13.491 I0.589 J-0.464
G1 X-70.897 Y-13.283
X-70.834 Y-13.256
X-67.084 Y-11.795
G2 X-66.812 Y-11.744 I0.272 J-0.699
G1 X-32.26 Y-11.733
X-31.966 Y-11.623
X-31.679 Y-11.22
X-31.563 Y-10.549
X-31.569 Y10.659
X-31.675 Y11.215
X-31.966 Y11.623
X-32.26 Y11.733
X-66.812 Y11.744
G2 X-67.086 Y11.795 I0 J0.75
G1 X-71.149 Y13.39
G2 X-71.368 Y13.524 I0.274 J0.698
G1 X-71.577 Y13.706
X-71.631 Y13.759
X-71.68 Y13.817
X-72.164 Y14.454
X-74.604 Y17.233
X-74.666 Y17.315
X-74.717 Y17.405
X-75.15 Y18.313
X-75.862 Y19.555
X-78.394 Y22.395
X-80.139 Y22.924
X-81.555 Y23.285
X-248.688 Y23.304
X-256.438 Y23.302
Y-23.301
X-147.953 Y-23.296
X-147.906 Y-23.293
X-147.86 Y-23.282
X-144.531 Y-22.2
X-144.468 Y-22.179 Z-13.992
X-144.408 Y-22.16 Z-13.97
X-144.354 Y-22.142 Z-13.935
X-144.308 Y-22.127 Z-13.887
X-144.274 Y-22.116 Z-13.83
X-144.253 Y-22.109 Z-13.767
X-144.246 Y-22.107 Z-13.7
G0 Z2
X-68.717 Y-9.19
Z-12
G1 Z-14.76 F700
X-68.711 Z-14.813
X-68.693 Y-9.189 Z-14.864
X-68.665 Y-9.187 Z-14.91
X-68.627 Y-9.185 Z-14.948
X-68.581 Y-9.182 Z-14.976
X-68.531 Y-9.179 Z-14.994
X-68.477 Y-9.176 Z-15
X-68.431 Y-9.169
X-68.386 Y-9.156
X-67.813 Y-8.932
G2 X-66.813 Y-8.744 I1.001 J-2.561
G1 X-33.564 Y-8.734
X-33.563 Y-8.437
X-33.543 Y-4.937
Y-4.87 Z-14.992
X-33.542 Y-4.807 Z-14.97
Y-4.75 Z-14.935
Y-4.702 Z-14.887
X-33.541 Y-4.667 Z-14.83
Y-4.645 Z-14.767
Y-4.637 Z-14.7
G0 Z2.005
X-32.201 Y7.623
G1 Z-12 F100
Z-14.7 F700
X-32.204 Y7.63 Z-14.767
X-32.212 Y7.65 Z-14.83
X-32.226 Y7.683 Z-14.887
X-32.244 Y7.727 Z-14.935
X-32.266 Y7.78 Z-14.97
X-32.29 Y7.838 Z-14.992
X-32.316 Y7.9 Z-15
G3 X-33.563 Y8.734 I-1.247 J-0.516
G1 X-66.813 Y8.744
G2 X-67.824 Y8.936 I0.001 J2.75
G1 X-68.347 Y9.143
X-70.438 Y8.796
X-70.48 Y8.794
X-70.52 Y8.804
X-70.556 Y8.825
X-70.585 Y8.854
X-76.667 Y17.14
X-76.685 Y17.173
X-76.695 Y17.209
Y17.246
X-76.686 Y17.283
X-76.496 Y17.776
X-76.487 Y17.819
X-76.49 Y17.863
X-76.506 Y17.904
X-76.678 Y18.202
X-78.931 Y20.748
X-81.694 Y21.606
X-255.438 Y21.565
Y21.236
X-255.434 Y21.19
X-255.423 Y21.144
X-255.405 Y21.1
X-253.954 Y18.253
X-253.924 Y18.194 Z-14.992
X-253.895 Y18.137 Z-14.97
X-253.869 Y18.087 Z-14.935
X-253.848 Y18.044 Z-14.887
X-253.831 Y18.012 Z-14.83
X-253.821 Y17.993 Z-14.767
X-253.818 Y17.986 Z-14.7
G0 Z2
X-255.438 Y-20.882
G1 Z-12 F100
Z-14.7 F700
G19 G2 Y-21.182 Z-15 J-0.3 K0
G1 Y-21.212
Y-21.565
X-81.694 Y-21.606
X-78.934 Y-20.749
X-76.659 Y-18.161
X-76.529 Y-17.911
X-75.292 Y-15.604
X-75.237 Y-15.54
X-73.69 Y-13.812
X-72.411 Y-12.138
G17 G2 X-72.038 Y-11.776 I1.39 J-1.063
G1 X-71.845 Y-11.639
G2 X-71.465 Y-11.433 I1.017 J-1.424
G1 X-67.449 Y-9.864
G2 X-66.813 Y-9.744 I0.637 J-1.63
G1 X-32.665 Y-9.734
X-32.563 Y-8.771
X-32.193 Y-5.291
X-32.185 Y-5.224 Z-14.992
X-32.179 Y-5.161 Z-14.97
X-32.173 Y-5.105 Z-14.935
