(1001)
(Machine)
(  vendor: Autodesk)
(  description: Generic 3-axis)
(T1  D=3 CR=0 - ZMIN=-4.498 - flat end mill)
G90 G94
G17
G21
G28 G91 Z0
G90

(Adaptive2)
T1
S15000 M3
G54
G0 X-0.299 Y-3.504
Z2.501
Z-0.9
G1 Z-1.2 F500
X-0.297 Y-3.497 Z-1.267
X-0.291 Y-3.475 Z-1.33
X-0.282 Y-3.441 Z-1.387
X-0.271 Y-3.395 Z-1.435
X-0.256 Y-3.339 Z-1.47
X-0.241 Y-3.278 Z-1.492
X-0.224 Y-3.213 Z-1.5
G3 X0.011 Y-1.58 I-7.419 J1.9
G1 Y-1.43
X-0.108 Y-0.818
X-0.178 Y-0.198
X-0.219 Y0.425
X-0.243 Y1.048
X-0.256 Y1.672
X-0.264 Y2.296
X-0.269 Y2.92
X-0.272 Y3.544
X-0.274 Y4.792
X-0.276 Y9.16
X-0.282 Y48.468
X-0.289 Y88.557
X-0.267 Y88.711
X-0.155 Y89.002
X0.038 Y89.247
X0.514 Y89.651
X1.085 Y89.902
X1.69 Y90.054
X2.307 Y90.144
X2.929 Y90.197
X3.552 Y90.227
X4.176 Y90.245
X4.8 Y90.255
X5.424 Y90.261
X6.048 Y90.265
X7.296 Y90.268
X9.167 Y90.269
X59.707 Y90.273
X110.247 Y90.276
X160.786 Y90.28
X211.326 Y90.283
X261.865 Y90.286
X268.573 Y90.287
X268.727 Y90.264
X269.017 Y90.15
X269.262 Y89.955
X269.664 Y89.479
X269.915 Y88.908
X270.067 Y88.302
X270.156 Y87.685
X270.209 Y87.063
X270.24 Y86.44
X270.257 Y85.816
X270.267 Y85.192
X270.273 Y84.569
X270.277 Y83.945
X270.28 Y82.697
X270.282 Y79.577
X270.285 Y47.132
X270.289 Y1.428
X270.262 Y1.274
X270.143 Y0.986
X269.947 Y0.743
X269.468 Y0.343
X268.896 Y0.094
X268.291 Y-0.057
X267.673 Y-0.146
X267.052 Y-0.198
X266.428 Y-0.228
X265.805 Y-0.245
X265.181 Y-0.256
X264.557 Y-0.262
X263.933 Y-0.265
X262.685 Y-0.268
X259.565 Y-0.27
X215.889 Y-0.273
X165.35 Y-0.277
X114.81 Y-0.281
X64.27 Y-0.285
X13.731 Y-0.289
X2.656
X2.352 Y-0.22
X2.088 Y-0.054
X1.644 Y0.385
X1.36 Y0.94
X1.185 Y1.539
X1.079 Y2.154
X1.015 Y2.775
X0.978 Y3.398
X0.956 Y4.021
X0.943 Y4.645
X0.935 Y5.269
X0.931 Y5.893
X0.928 Y6.517
X0.925 Y7.765
X0.923 Y12.132
X0.919 Y38.338
X0.911 Y87.006
X0.958 Y87.314
X1.083 Y87.6
X1.45 Y88.104
X1.966 Y88.456
X2.546 Y88.686
X3.152 Y88.833
X3.769 Y88.925
X4.39 Y88.982
X5.013 Y89.016
X5.637 Y89.037
X6.261 Y89.05
X6.885 Y89.058
X7.509 Y89.063
X8.133 Y89.065
X9.381 Y89.068
X13.124 Y89.07
X52.433 Y89.073
X102.972 Y89.076
X153.512 Y89.079
X204.051 Y89.083
X254.591 Y89.086
X267.07 Y89.087
X267.376 Y89.026
X267.657 Y88.89
X268.149 Y88.506
X268.489 Y87.984
X268.712 Y87.401
X268.854 Y86.793
X268.943 Y86.176
X268.997 Y85.554
X269.031 Y84.931
X269.051 Y84.307
X269.063 Y83.684
X269.07 Y83.06
X269.075 Y82.436
X269.078 Y81.812
X269.08 Y80.564
X269.082 Y76.82
X269.084 Y51.862
X269.089 Y3.195
X269.088 Y2.883
X269.012 Y2.58
X268.864 Y2.306
X268.463 Y1.827
X267.932 Y1.499
X267.347 Y1.284
X266.738 Y1.148
X266.12 Y1.063
X265.498 Y1.011
X264.875 Y0.979
X264.251 Y0.96
X263.627 Y0.948
X263.003 Y0.941
X262.379 Y0.937
X261.755 Y0.934
X260.507 Y0.932
X256.14 Y0.93
X218.079 Y0.927
X167.54 Y0.923
X117 Y0.919
X66.46 Y0.915
X15.921 Y0.912
X4.066 Y0.911
X3.765 Y0.995
X3.494 Y1.148
X3.019 Y1.553
X2.693 Y2.085
X2.48 Y2.671
X2.344 Y3.28
X2.259 Y3.898
X2.207 Y4.52
X2.174 Y5.143
X2.155 Y5.767
X2.143 Y6.391
X2.135 Y7.014
X2.131 Y7.638
X2.128 Y8.262
X2.125 Y9.51
X2.123 Y13.254
X2.119 Y38.836
X2.111 Y85.632
X2.147 Y85.941
X2.253 Y86.235
X2.418 Y86.5
X2.837 Y86.962
X3.371 Y87.284
X3.958 Y87.497
X4.566 Y87.636
X5.184 Y87.724
X5.805 Y87.779
X6.428 Y87.814
X7.052 Y87.835
X7.676 Y87.848
X8.3 Y87.857
X8.924 Y87.862
X9.547 Y87.865
X10.795 Y87.868
X13.915 Y87.87
X55.095 Y87.873
X105.635 Y87.876
X156.175 Y87.879
X206.714 Y87.883
X257.254 Y87.886
X265.677 Y87.887
X265.986 Y87.843
X266.277 Y87.73
X266.799 Y87.388
X267.176 Y86.891
X267.43 Y86.321
X267.597 Y85.72
X267.703 Y85.105
X267.771 Y84.485
X267.813 Y83.862
X267.839 Y83.239
X267.856 Y82.615
X267.866 Y81.991
X267.872 Y81.368
X267.876 Y80.744
X267.88 Y79.496
X267.882 Y77
X267.885 Y47.051
X267.889 Y4.31
X267.839 Y4.002
X267.721 Y3.714
X267.371 Y3.197
X266.87 Y2.825
X266.298 Y2.574
X265.696 Y2.41
X265.081 Y2.305
X264.461 Y2.239
X263.838 Y2.198
X263.215 Y2.172
X262.591 Y2.156
X261.967 Y2.146
X261.343 Y2.14
X260.72 Y2.136
X259.472 Y2.132
X256.976 Y2.13
X210.804 Y2.126
X160.264 Y2.123
X109.725 Y2.119
X59.185 Y2.115
X8.646 Y2.111
X5.526
X5.218 Y2.158
X4.928 Y2.273
X4.408 Y2.618
X4.032 Y3.117
X3.778 Y3.686
X3.611 Y4.288
X3.504 Y4.902
X3.436 Y5.523
X3.394 Y6.145
X3.367 Y6.768
X3.351 Y7.392
X3.34 Y8.016
X3.334 Y8.64
X3.33 Y9.264
X3.326 Y10.512
X3.324 Y13.008
X3.318 Y48.572
X3.312 Y84.137
X3.316 Y84.449
X3.373 Y84.756
X3.493 Y85.044
X3.841 Y85.562
X4.339 Y85.938
X4.907 Y86.196
X5.507 Y86.367
X6.121 Y86.478
X6.741 Y86.549
X7.363 Y86.594
X7.986 Y86.622
X8.61 Y86.64
X9.234 Y86.651
X9.858 Y86.658
X10.482 Y86.663
X11.106 Y86.665
X12.354 Y86.668
X15.473 Y86.67
X16.721
X67.261 Y86.673
X117.8 Y86.677
X168.34 Y86.68
X218.88 Y86.684
X264.428 Y86.687
X264.736 Y86.641
X265.028 Y86.53
X265.554 Y86.194
X265.938 Y85.702
X266.2 Y85.136
X266.374 Y84.537
X266.486 Y83.923
X266.559 Y83.304
X266.604 Y82.681
X266.633 Y82.058
X266.652 Y81.434
X266.663 Y80.811
X266.67 Y80.187
X266.675 Y79.563
X266.677 Y78.939
X266.68 Y77.691
X266.682 Y74.571
X266.686 Y32.143
X266.689 Y5.625
X266.65 Y5.316
X266.547 Y5.021
X266.224 Y4.488
X265.739 Y4.095
X265.176 Y3.825
X264.578 Y3.647
X263.965 Y3.531
X263.346 Y3.457
X262.724 Y3.41
X262.1 Y3.38
X261.477 Y3.361
X260.853 Y3.35
X260.229 Y3.342
X259.605 Y3.338
X258.981 Y3.335
X257.733 Y3.332
X254.613 Y3.33
X244.006 Y3.329
X193.467 Y3.325
X142.927 Y3.321
X92.388 Y3.317
X41.848 Y3.314
X6.907 Y3.311
X6.596 Y3.334
X6.296 Y3.42
X6.021 Y3.568
X5.533 Y3.957
X5.186 Y4.475
X4.951 Y5.053
X4.797 Y5.658
X4.697 Y6.273
X4.633 Y6.894
X4.592 Y7.517
X4.567 Y8.14
X4.551 Y8.764
X4.54 Y9.388
X4.534 Y10.012
X4.53 Y10.636
X4.526 Y11.883
X4.523 Y14.379
Y17.499
X4.514 Y68.039
X4.512 Y83.013
X4.532 Y83.325
X4.609 Y83.627
X4.747 Y83.907
X5.119 Y84.408
X5.629 Y84.768
X6.202 Y85.013
X6.805 Y85.176
X7.419 Y85.282
X8.04 Y85.351
X8.662 Y85.394
X9.285 Y85.422
X9.909 Y85.44
X10.533 Y85.451
X11.157 Y85.458
X11.781 Y85.462
X12.405 Y85.465
X13.653 Y85.468
X16.772 Y85.47
X38.61 Y85.472
X89.15 Y85.475
X139.69 Y85.478
X190.229 Y85.482
X240.769 Y85.485
X263.231 Y85.487
X263.538 Y85.434
X263.828 Y85.318
X264.35 Y84.976
X264.731 Y84.482
X264.993 Y83.915
X265.167 Y83.316
X265.281 Y82.703
X265.354 Y82.083
X265.401 Y81.461
X265.431 Y80.838
X265.45 Y80.214
X265.462 Y79.59
X265.469 Y78.966
X265.474 Y78.342
X265.477 Y77.718
X265.48 Y76.471
X265.482 Y73.351
X265.484 Y58.376
X265.489 Y7.837
Y6.589
X265.392 Y6.292
X265.085 Y5.749
X264.611 Y5.343
X264.054 Y5.062
X263.459 Y4.873
X262.848 Y4.75
X262.229 Y4.67
X261.607 Y4.619
X260.984 Y4.586
X260.36 Y4.565
X259.736 Y4.552
X259.112 Y4.544
X258.489 Y4.539
X257.865 Y4.535
X256.617 Y4.532
X254.121 Y4.53
X217.308 Y4.527
X166.769 Y4.523
X116.229 Y4.519
X65.689 Y4.515
X15.15 Y4.512
X8.286 Y4.511
X7.975 Y4.518
X7.668 Y4.576
X7.38 Y4.695
X6.859 Y5.039
X6.478 Y5.533
X6.215 Y6.099
X6.04 Y6.698
X5.926 Y7.311
X5.852 Y7.931
X5.805 Y8.553
X5.775 Y9.176
X5.756 Y9.8
X5.744 Y10.423
X5.736 Y11.047
X5.731 Y11.671
X5.728 Y12.295
X5.725 Y13.543
X5.723 Y16.663
X5.718 Y46.612
X5.712 Y81.553
X5.714 Y82.177
X5.809 Y82.474
X5.959 Y82.747
X6.35 Y83.234
X6.867 Y83.583
X7.443 Y83.822
X8.047 Y83.981
X8.662 Y84.084
X9.282 Y84.151
X9.905 Y84.194
X10.528 Y84.222
X11.152 Y84.24
X11.776 Y84.251
X12.4 Y84.258
X13.024 Y84.262
X13.647 Y84.265
X14.895 Y84.268
X18.015 Y84.27
X19.887
X70.427 Y84.274
X120.966 Y84.277
X171.506 Y84.28
X222.045 Y84.284
X261.978 Y84.286
X262.286 Y84.24
X262.578 Y84.13
X263.108 Y83.801
X263.5 Y83.315
X263.77 Y82.753
X263.951 Y82.156
X264.07 Y81.543
X264.146 Y80.924
X264.196 Y80.302
X264.227 Y79.679
X264.247 Y79.055
X264.26 Y78.431
X264.268 Y77.808
X264.273 Y77.184
X264.277 Y76.56
X264.28 Y75.312
X264.281 Y74.688
X264.283 Y70.32
X264.287 Y24.148
X264.289 Y7.926
X264.222 Y7.621
X264.092 Y7.337
X263.732 Y6.828
X263.229 Y6.459
X262.659 Y6.206
X262.058 Y6.037
X261.444 Y5.927
X260.824 Y5.856
X260.202 Y5.81
X259.578 Y5.781
X258.955 Y5.762
X258.331 Y5.75
X257.707 Y5.743
X257.083 Y5.738
X256.459 Y5.735
X255.211 Y5.732
X252.091 Y5.73
X230.877 Y5.728
X180.338 Y5.724
X129.798 Y5.72
X79.259 Y5.716
X28.719 Y5.713
X9.377 Y5.711
X9.066 Y5.736
X8.764 Y5.817
X8.486 Y5.958
X7.988 Y6.334
X7.63 Y6.844
X7.384 Y7.418
X7.221 Y8.02
X7.114 Y8.635
X7.045 Y9.255
X7.001 Y9.877
X6.973 Y10.501
X6.955 Y11.124
X6.943 Y11.748
X6.936 Y12.372
X6.931 Y12.996
X6.928 Y13.62
X6.925 Y14.868
X6.923 Y17.988
X6.92 Y35.458
X6.913 Y81.006
X7.015 Y81.301
X7.329 Y81.84
X7.805 Y82.243
X8.362 Y82.525
X8.956 Y82.715
X9.567 Y82.841
X10.186 Y82.923
X10.807 Y82.976
X11.43 Y83.01
X12.054 Y83.032
X12.678 Y83.046
X13.302 Y83.055
X13.925 Y83.06
X14.549 Y83.064
X15.797 Y83.068
X18.293 Y83.07
X61.345 Y83.073
X111.885 Y83.076
X162.424 Y83.08
X212.964 Y83.083
X261.008 Y83.086
X261.304 Y82.987
X261.846 Y82.678
X262.252 Y82.205
X262.536 Y81.649
X262.728 Y81.056
X262.853 Y80.444
X262.935 Y79.826
X262.988 Y79.204
X263.022 Y78.581
X263.044 Y77.958
X263.058 Y77.334
X263.067 Y76.71
X263.073 Y76.086
X263.076 Y75.462
X263.08 Y74.214
X263.082 Y71.718
X263.086 Y31.162
X263.088 Y9.324
X263.058 Y9.013
X262.964 Y8.716
X262.813 Y8.443
X262.421 Y7.958
X261.902 Y7.611
X261.325 Y7.374
X260.721 Y7.217
X260.106 Y7.114
X259.485 Y7.048
X258.863 Y7.005
X258.239 Y6.978
X257.616 Y6.96
X256.992 Y6.949
X256.368 Y6.942
X255.744 Y6.938
X255.12 Y6.935
X253.872 Y6.932
X250.752 Y6.93
X235.778 Y6.928
X185.238 Y6.925
X134.699 Y6.921
X84.159 Y6.917
X33.619 Y6.913
X10.533 Y6.911
X10.223 Y6.945
X9.925 Y7.038
X9.652 Y7.187
X9.164 Y7.576
X8.813 Y8.093
X8.574 Y8.669
X8.415 Y9.272
X8.311 Y9.887
X8.243 Y10.508
X8.2 Y11.13
X8.172 Y11.753
X8.154 Y12.377
X8.143 Y13.001
X8.136 Y13.625
X8.131 Y14.249
X8.128 Y14.873
X8.125 Y16.12
X8.123 Y19.24
X8.12 Y32.967
X8.112 Y79.763
X8.204 Y80.061
X8.502 Y80.609
X8.97 Y81.022
X9.523 Y81.311
X10.116 Y81.506
X10.726 Y81.635
X11.344 Y81.718
X11.966 Y81.773
X12.589 Y81.808
X13.212 Y81.83
X13.836 Y81.845
X14.46 Y81.854
X15.084 Y81.86
X15.708 Y81.864
X16.956 Y81.868
X19.452 Y81.87
X61.256 Y81.873
X111.795 Y81.876
X162.335 Y81.88
X212.875 Y81.883
X259.671 Y81.886
X259.975 Y81.819
X260.259 Y81.69
X260.77 Y81.332
X261.141 Y80.83
X261.397 Y80.261
X261.567 Y79.661
X261.679 Y79.047
X261.752 Y78.427
X261.799 Y77.805
X261.829 Y77.182
X261.848 Y76.558
X261.861 Y75.935
X261.869 Y75.311
X261.874 Y74.687
X261.877 Y74.063
X261.88 Y72.815
X261.882 Y70.319
X261.887 Y28.515
X261.888 Y10.42
X261.831 Y10.114
X261.715 Y9.824
X261.376 Y9.3
X260.887 Y8.913
X260.324 Y8.644
X259.727 Y8.464
X259.114 Y8.345
X258.495 Y8.268
X257.873 Y8.218
X257.25 Y8.186
X256.626 Y8.166
X256.002 Y8.153
X255.378 Y8.144
X254.755 Y8.139
X254.131 Y8.136
X252.883 Y8.132
X250.387 Y8.13
X230.421 Y8.128
X179.881 Y8.124
X129.342 Y8.12
X78.802 Y8.116
X28.262 Y8.113
X12.04 Y8.111
X11.416 Y8.113
X11.12 Y8.212
X10.576 Y8.518
X10.168 Y8.991
X9.882 Y9.545
X9.688 Y10.138
X9.559 Y10.748
X9.475 Y11.367
X9.421 Y11.988
X9.386 Y12.611
X9.363 Y13.235
X9.349 Y13.859
X9.339 Y14.482
X9.333 Y15.106
X9.329 Y15.73
X9.325 Y16.978
X9.323 Y19.474
X9.319 Y40.688
X9.313 Y78.125
X9.321 Y78.437
X9.383 Y78.743
X9.507 Y79.028
X9.86 Y79.543
X10.358 Y79.918
X10.926 Y80.177
X11.526 Y80.35
X12.139 Y80.464
X12.759 Y80.537
X13.381 Y80.585
X14.004 Y80.616
X14.628 Y80.635
X15.252 Y80.648
X15.876 Y80.656
X16.499 Y80.661
X17.123 Y80.664
X18.371 Y80.668
X20.867 Y80.67
X71.407 Y80.674
X121.946 Y80.677
X172.486 Y80.68
X223.025 Y80.684
X258.59 Y80.686
X258.887 Y80.589
X259.431 Y80.284
X259.84 Y79.813
X260.126 Y79.259
X260.32 Y78.666
X260.448 Y78.055
X260.532 Y77.437
X260.586 Y76.815
X260.621 Y76.192
X260.643 Y75.569
X260.657 Y74.945
X260.666 Y74.321
X260.672 Y73.697
X260.676 Y73.073
X260.68 Y71.825
X260.682 Y69.329
X260.683 Y66.834
X260.688 Y16.294
Y11.926
X260.679 Y11.615
X260.623 Y11.308
X260.507 Y11.018
X260.168 Y10.495
X259.677 Y10.109
X259.114 Y9.841
X258.516 Y9.662
X257.903 Y9.544
X257.284 Y9.468
X256.662 Y9.418
X256.039 Y9.386
X255.415 Y9.366
X254.791 Y9.353
X254.168 Y9.344
X253.544 Y9.339
X252.92 Y9.336
X251.672 Y9.332
X249.176 Y9.33
X216.107 Y9.327
X165.567 Y9.323
X115.028 Y9.319
X64.488 Y9.315
X13.949 Y9.311
X12.701 Y9.312
X12.399 Y9.389
X12.118 Y9.527
X11.617 Y9.898
X11.253 Y10.404
X11.002 Y10.976
X10.834 Y11.577
X10.724 Y12.191
X10.652 Y12.811
X10.606 Y13.433
X10.576 Y14.056
X10.557 Y14.68
X10.544 Y15.303
X10.537 Y15.927
X10.531 Y16.551
X10.528 Y17.175
X10.525 Y18.423
X10.522 Y20.919
X10.516 Y57.732
X10.513 Y77.074
X10.547 Y77.384
X10.642 Y77.681
X10.947 Y78.225
X11.419 Y78.633
X11.974 Y78.919
X12.568 Y79.112
X13.179 Y79.239
X13.797 Y79.321
X14.419 Y79.375
X15.042 Y79.409
X15.665 Y79.431
X16.289 Y79.445
X16.913 Y79.454
X17.537 Y79.46
X18.161 Y79.464
X19.409 Y79.468
X21.904 Y79.47
X40.623 Y79.472
X91.162 Y79.475
X141.702 Y79.478
X192.241 Y79.482
X242.781 Y79.485
X257.132 Y79.486
X257.441 Y79.448
X257.736 Y79.346
X258.273 Y79.029
X258.672 Y78.549
X258.949 Y77.99
X259.135 Y77.394
X259.258 Y76.782
X259.338 Y76.163
X259.39 Y75.542
X259.423 Y74.919
X259.445 Y74.295
X259.458 Y73.671
X259.467 Y73.047
X259.473 Y72.423
X259.476 Y71.799
X259.48 Y70.552
X259.482 Y68.056
X259.485 Y44.346
X259.488 Y13.149
X259.481 Y12.837
X259.429 Y12.529
X259.316 Y12.238
X258.982 Y11.711
X258.496 Y11.32
X257.934 Y11.05
X257.337 Y10.868
X256.724 Y10.748
X256.105 Y10.67
X255.484 Y10.62
X254.86 Y10.587
X254.237 Y10.567
X253.613 Y10.553
X252.989 Y10.545
X252.365 Y10.539
X251.741 Y10.536
X250.493 Y10.532
X247.998 Y10.53
X241.758 Y10.529
X191.219 Y10.525
X140.679 Y10.521
X90.139 Y10.517
X39.6 Y10.513
X14.018 Y10.511
X13.711 Y10.566
X13.421 Y10.682
X12.897 Y11.02
X12.509 Y11.509
X12.24 Y12.072
X12.059 Y12.669
X11.94 Y13.282
X11.862 Y13.901
X11.812 Y14.523
X11.78 Y15.146
X11.759 Y15.769
X11.746 Y16.393
X11.738 Y17.017
X11.732 Y17.641
X11.729 Y18.265
X11.725 Y19.513
X11.722 Y22.008
X11.72 Y34.487
X11.713 Y75.668
X11.721 Y75.98
X11.773 Y76.287
X11.888 Y76.577
X12.225 Y77.103
X12.715 Y77.489
X13.279 Y77.756
X13.876 Y77.936
X14.489 Y78.054
X15.108 Y78.131
X15.73 Y78.181
X16.353 Y78.213
X16.977 Y78.234
X17.6 Y78.247
X18.224 Y78.255
X18.848 Y78.261
X19.472 Y78.264
X20.72 Y78.268
X23.216 Y78.27
X70.012 Y78.274
X120.551 Y78.277
X171.091 Y78.28
X221.63 Y78.284
X255.947 Y78.286
X256.256 Y78.242
X256.55 Y78.136
X257.083 Y77.812
X257.479 Y77.33
X257.754 Y76.77
X257.938 Y76.174
X258.06 Y75.562
X258.139 Y74.943
X258.191 Y74.321
X258.224 Y73.698
X258.245 Y73.074
X258.259 Y72.451
X258.267 Y71.827
X258.273 Y71.203
X258.276 Y70.579
X258.28 Y69.331
X258.283 Y66.835
Y63.091
X258.288 Y14.424
X258.284 Y13.8
X258.181 Y13.505
X257.866 Y12.967
X257.391 Y12.563
X256.835 Y12.279
X256.241 Y12.088
X255.63 Y11.962
X255.011 Y11.879
X254.39 Y11.826
X253.767 Y11.791
X253.143 Y11.769
X252.52 Y11.755
X251.896 Y11.746
X251.272 Y11.74
X250.648 Y11.736
X249.4 Y11.732
X246.904 Y11.73
X207.596 Y11.726
X157.056 Y11.722
X106.516 Y11.719
X55.977 Y11.715
X15.42 Y11.712
X15.109 Y11.733
X14.806 Y11.808
X14.525 Y11.943
X14.021 Y12.31
X13.655 Y12.816
X13.403 Y13.387
X13.235 Y13.988
X13.124 Y14.602
X13.052 Y15.221
X13.006 Y15.844
X12.976 Y16.467
X12.957 Y17.09
X12.944 Y17.714
X12.936 Y18.338
X12.931 Y18.962
X12.928 Y19.586
X12.926 Y20.21
X12.923 Y22.082
X12.921 Y30.193
X12.914 Y70.75
X12.913 Y74.493
X12.925 Y74.805
X12.983 Y75.111
X13.103 Y75.4
X13.448 Y75.919
X13.942 Y76.301
X14.507 Y76.564
X15.106 Y76.741
X15.719 Y76.858
X16.338 Y76.933
X16.96 Y76.982
X17.583 Y77.014
X18.207 Y77.034
X18.831 Y77.047
X19.455 Y77.056
X20.079 Y77.061
X20.702 Y77.064
X21.95 Y77.068
X24.446 Y77.07
X58.139 Y77.073
X108.679 Y77.076
X159.218 Y77.08
X209.758 Y77.083
X254.682 Y77.086
X254.992 Y77.053
X255.29 Y76.958
X255.835 Y76.655
X256.244 Y76.184
X256.53 Y75.63
X256.723 Y75.036
X256.85 Y74.425
X256.933 Y73.807
X256.986 Y73.185
X257.021 Y72.562
X257.043 Y71.939
X257.057 Y71.315
X257.067 Y70.691
X257.072 Y70.067
X257.076 Y69.443
X257.08 Y68.195
X257.083 Y65.699
X257.087 Y22.023
X257.088 Y15.16
X257.022 Y14.855
X256.895 Y14.57
X256.541 Y14.056
X256.041 Y13.682
X255.473 Y13.424
X254.874 Y13.251
X254.26 Y13.138
X253.641 Y13.063
X253.019 Y13.015
X252.395 Y12.985
X251.772 Y12.965
X251.148 Y12.952
X250.524 Y12.944
X249.9 Y12.939
X249.276 Y12.935
X248.028 Y12.932
X245.533 Y12.93
X214.335 Y12.927
X163.796 Y12.923
X113.256 Y12.919
X62.717 Y12.915
X16.545 Y12.912
X16.234 Y12.945
X15.936 Y13.038
X15.662 Y13.187
X15.173 Y13.574
X14.822 Y14.089
X14.581 Y14.665
X14.42 Y15.268
X14.315 Y15.883
X14.246 Y16.503
X14.202 Y17.125
X14.173 Y17.749
X14.155 Y18.372
X14.143 Y18.996
X14.135 Y19.62
X14.131 Y20.244
X14.127 Y20.868
X14.124 Y22.116
X14.122 Y24.612
X14.115 Y66.416
X14.113 Y73.279
X14.124 Y73.591
X14.181 Y73.898
X14.299 Y74.187
X14.641 Y74.708
X15.132 Y75.093
X15.697 Y75.359
X16.295 Y75.538
X16.908 Y75.655
X17.527 Y75.732
X18.149 Y75.782
X18.772 Y75.813
X19.395 Y75.834
X20.019 Y75.847
X20.643 Y75.856
X21.267 Y75.861
X21.891 Y75.864
X23.139 Y75.868
X25.635 Y75.87
X56.208 Y75.873
X106.748 Y75.876
X157.287 Y75.879
X207.827 Y75.883
X253.375 Y75.886
X253.686 Y75.868
X253.99 Y75.795
X254.272 Y75.662
X254.778 Y75.298
X255.146 Y74.794
X255.399 Y74.223
X255.569 Y73.623
X255.68 Y73.009
X255.752 Y72.389
X255.799 Y71.767
X255.829 Y71.144
X255.849 Y70.52
X255.861 Y69.896
X255.869 Y69.272
X255.874 Y68.649
X255.877 Y68.025
X255.881 Y66.777
X255.883 Y64.281
X255.887 Y21.853
X255.888 Y16.237
X255.793 Y15.94
X255.492 Y15.393
X255.023 Y14.982
X254.47 Y14.693
X253.877 Y14.497
X253.267 Y14.368
X252.649 Y14.283
X252.027 Y14.228
X251.404 Y14.193
X250.781 Y14.17
X250.157 Y14.155
X249.533 Y14.146
X248.909 Y14.14
X248.285 Y14.136
X247.037 Y14.132
X244.542 Y14.129
X212.097 Y14.127
X161.557 Y14.123
X111.017 Y14.119
X60.478 Y14.115
X18.05 Y14.112
X17.426 Y14.114
X17.129 Y14.212
X16.585 Y14.516
X16.175 Y14.987
X15.887 Y15.541
X15.692 Y16.133
X15.562 Y16.744
X15.477 Y17.362
X15.422 Y17.983
X15.386 Y18.606
X15.363 Y19.23
X15.348 Y19.854
X15.339 Y20.477
X15.333 Y21.101
X15.329 Y21.725
X15.324 Y22.973
X15.322 Y25.469
X15.314 Y71.017
Y72.265
X15.348 Y72.575
X15.444 Y72.872
X15.747 Y73.417
X16.218 Y73.827
X16.772 Y74.114
X17.365 Y74.308
X17.975 Y74.436
X18.594 Y74.519
X19.215 Y74.573
X19.838 Y74.608
X20.462 Y74.631
X21.086 Y74.645
X21.71 Y74.654
X22.333 Y74.66
X22.957 Y74.664
X24.205 Y74.668
X26.701 Y74.67
X63.514 Y74.673
X114.053 Y74.677
X164.593 Y74.68
X215.133 Y74.683
X251.945 Y74.686
X252.569 Y74.684
X252.867 Y74.589
X253.414 Y74.289
X253.826 Y73.821
X254.116 Y73.268
X254.312 Y72.676
X254.443 Y72.066
X254.528 Y71.448
X254.583 Y70.826
X254.619 Y70.203
X254.642 Y69.58
X254.657 Y68.956
X254.666 Y68.332
X254.672 Y67.708
X254.676 Y67.084
X254.68 Y65.836
X254.683 Y63.341
Y62.717
X254.688 Y17.793
X254.669 Y17.481
X254.588 Y17.18
X254.447 Y16.902
X254.07 Y16.405
X253.56 Y16.045
X252.987 Y15.799
X252.385 Y15.634
X251.771 Y15.526
X251.151 Y15.456
X250.528 Y15.41
X249.905 Y15.381
X249.281 Y15.362
X248.658 Y15.35
X248.034 Y15.343
X247.41 Y15.338
X246.786 Y15.335
X245.538 Y15.331
X243.042 Y15.329
X199.99 Y15.326
X149.45 Y15.322
X98.911 Y15.318
X48.371 Y15.314
X19.046 Y15.312
X18.734 Y15.325
X18.43 Y15.394
X18.147 Y15.525
X17.638 Y15.887
X17.268 Y16.389
X17.012 Y16.958
X16.841 Y17.558
X16.728 Y18.172
X16.655 Y18.791
X16.607 Y19.413
X16.577 Y20.037
X16.557 Y20.66
X16.544 Y21.284
X16.536 Y21.908
X16.531 Y22.532
X16.528 Y23.156
X16.524 Y24.404
X16.521 Y26.9
X16.52 Y35.011
X16.514 Y71.2
X16.572 Y71.506
X16.693 Y71.794
X17.036 Y72.315
X17.529 Y72.697
X18.095 Y72.961
X18.693 Y73.139
X19.306 Y73.256
X19.925 Y73.332
X20.547 Y73.382
X21.17 Y73.414
X21.794 Y73.434
X22.417 Y73.447
X23.041 Y73.456
X23.665 Y73.461
X24.289 Y73.465
X25.537 Y73.468
X28.033 Y73.47
X29.905 Y73.471
X80.444 Y73.474
X130.984 Y73.478
X181.523 Y73.481
X232.063 Y73.484
X251.405 Y73.485
X251.701 Y73.386
X252.242 Y73.075
X252.648 Y72.601
X252.931 Y72.045
X253.123 Y71.451
X253.249 Y70.84
X253.332 Y70.222
X253.386 Y69.6
X253.421 Y68.977
X253.443 Y68.354
X253.457 Y67.73
X253.467 Y67.106
X253.473 Y66.482
X253.476 Y65.858
X253.48 Y64.61
X253.483 Y62.115
X253.485 Y43.396
X253.487 Y19.062
X253.47 Y18.751
X253.401 Y18.447
X253.272 Y18.162
X252.913 Y17.652
X252.414 Y17.278
X251.846 Y17.021
X251.246 Y16.849
X250.632 Y16.735
X250.013 Y16.662
X249.391 Y16.614
X248.767 Y16.584
X248.144 Y16.564
X247.52 Y16.551
X246.896 Y16.543
X246.272 Y16.538
X245.648 Y16.535
X244.4 Y16.531
X241.904 Y16.529
X228.802 Y16.528
X178.262 Y16.524
X127.722 Y16.52
X77.183 Y16.516
X26.643 Y16.512
X20.404
X19.78 Y16.514
X19.487 Y16.622
X18.951 Y16.942
X18.551 Y17.42
X18.27 Y17.977
X18.079 Y18.571
X17.954 Y19.182
X17.871 Y19.801
X17.818 Y20.423
X17.784 Y21.045
X17.761 Y21.669
X17.747 Y22.293
X17.738 Y22.917
X17.732 Y23.541
X17.728 Y24.165
X17.724 Y25.412
X17.721 Y27.908
X17.716 Y59.105
X17.714 Y69.713
X17.727 Y70.024
X17.789 Y70.33
X17.913 Y70.617
X18.264 Y71.132
X18.761 Y71.51
X19.328 Y71.77
X19.927 Y71.945
X20.54 Y72.06
X21.159 Y72.135
X21.781 Y72.184
X22.405 Y72.215
X23.028 Y72.235
X23.652 Y72.248
X24.276 Y72.256
X24.9 Y72.261
X25.524 Y72.265
X26.772 Y72.268
X29.267 Y72.271
X56.097 Y72.273
X106.637 Y72.276
X157.176 Y72.279
X207.716 Y72.283
X250.144 Y72.286
X250.444 Y72.201
X250.721 Y72.057
X251.215 Y71.675
X251.571 Y71.163
X251.816 Y70.589
X251.98 Y69.987
X252.087 Y69.372
X252.157 Y68.752
X252.202 Y68.13
X252.231 Y67.507
X252.25 Y66.883
X252.262 Y66.259
X252.27 Y65.635
X252.275 Y65.012
X252.278 Y64.388
X252.281 Y63.14
X252.283 Y60.644
X252.287 Y20.087
X252.242 Y19.779
X252.138 Y19.485
X251.818 Y18.949
X251.34 Y18.548
X250.782 Y18.269
X250.187 Y18.08
X249.576 Y17.956
X248.957 Y17.875
X248.335 Y17.823
X247.712 Y17.789
X247.089 Y17.768
X246.465 Y17.754
X245.841 Y17.745
X245.217 Y17.739
X244.593 Y17.735
X243.345 Y17.732
X240.85 Y17.729
X197.173 Y17.725
X146.634 Y17.722
X96.094 Y17.718
X45.555 Y17.714
X21.221 Y17.712
X20.913 Y17.762
X20.622 Y17.875
X20.096 Y18.21
X19.708 Y18.699
X19.44 Y19.263
X19.259 Y19.86
X19.14 Y20.472
X19.062 Y21.091
X19.012 Y21.713
X18.98 Y22.336
X18.959 Y22.96
X18.945 Y23.584
X18.937 Y24.208
X18.931 Y24.832
X18.927 Y25.456
X18.924 Y26.703
X18.921 Y29.199
X18.918 Y42.926
X18.914 Y68.508
X18.929 Y68.819
X18.991 Y69.125
X19.114 Y69.412
X19.465 Y69.928
X19.96 Y70.307
X20.527 Y70.569
X21.125 Y70.744
X21.739 Y70.859
X22.358 Y70.935
X22.98 Y70.983
X23.603 Y71.015
X24.227 Y71.035
X24.851 Y71.048
X25.475 Y71.056
X26.098 Y71.061
X26.722 Y71.065
X27.97 Y71.068
X30.466 Y71.071
X42.321 Y71.072
X92.861 Y71.075
X143.4 Y71.079
X193.94 Y71.082
X244.479 Y71.085
X248.847 Y71.086
X249.152 Y71.019
X249.437 Y70.893
X249.95 Y70.537
X250.326 Y70.04
X250.586 Y69.472
X250.76 Y68.873
X250.874 Y68.26
X250.949 Y67.64
X250.997 Y67.018
X251.028 Y66.395
X251.048 Y65.771
X251.061 Y65.148
X251.069 Y64.524
X251.074 Y63.9
X251.077 Y63.276
X251.081 Y62.028
X251.083 Y59.532
X251.087 Y25.839
Y21.472
X251.071 Y21.16
X251.004 Y20.855
X250.877 Y20.57
X250.523 Y20.057
X250.023 Y19.683
X249.455 Y19.424
X248.856 Y19.251
X248.242 Y19.137
X247.623 Y19.063
X247.001 Y19.015
X246.378 Y18.984
X245.754 Y18.964
X245.13 Y18.952
X244.506 Y18.943
X243.882 Y18.938
X243.258 Y18.935
X242.011 Y18.931
X239.515 Y18.929
X206.446 Y18.926
X155.906 Y18.922
X105.367 Y18.918
X54.827 Y18.915
X22.382 Y18.912
X22.076 Y18.972
X21.788 Y19.093
X21.27 Y19.441
X20.89 Y19.936
X20.627 Y20.502
X20.451 Y21.1
X20.334 Y21.713
X20.259 Y22.332
X20.21 Y22.954
X20.178 Y23.578
X20.158 Y24.201
X20.145 Y24.825
X20.136 Y25.449
X20.131 Y26.073
X20.127 Y26.697
X20.123 Y27.945
X20.121 Y30.44
X20.12 Y36.056
X20.114 Y67.253
X20.123 Y67.565
X20.176 Y67.872
X20.29 Y68.163
X20.625 Y68.689
X21.112 Y69.08
X21.674 Y69.35
X22.271 Y69.532
X22.883 Y69.651
X23.503 Y69.73
X24.124 Y69.78
X24.748 Y69.813
X25.371 Y69.834
X25.995 Y69.847
X26.619 Y69.856
X27.243 Y69.861
X27.867 Y69.865
X29.115 Y69.868
X31.61 Y69.871
X37.85 Y69.872
X88.389 Y69.875
X138.929 Y69.878
X189.468 Y69.882
X240.008 Y69.885
X247.495
X247.805 Y69.848
X248.101 Y69.75
X248.644 Y69.442
X249.05 Y68.968
X249.334 Y68.413
X249.526 Y67.819
X249.652 Y67.208
X249.734 Y66.589
X249.788 Y65.968
X249.822 Y65.345
X249.844 Y64.721
X249.858 Y64.097
X249.867 Y63.474
X249.873 Y62.85
X249.877 Y62.226
X249.881 Y60.978
X249.883 Y58.482
X249.887 Y27.909
Y22.917
X249.886 Y22.293
X249.802 Y21.993
X249.661 Y21.714
X249.286 Y21.216
X248.777 Y20.854
X248.205 Y20.605
X247.604 Y20.439
X246.99 Y20.329
X246.37 Y20.258
X245.748 Y20.212
X245.124 Y20.182
X244.501 Y20.163
X243.877 Y20.151
X243.253 Y20.143
X242.629 Y20.138
X242.005 Y20.135
X240.757 Y20.131
X238.261 Y20.129
X205.816 Y20.126
X155.277 Y20.122
X104.737 Y20.118
X54.198 Y20.115
X23.624 Y20.112
X23.317 Y20.165
X23.026 Y20.279
X22.5 Y20.615
X22.111 Y21.102
X21.841 Y21.665
X21.66 Y22.262
X21.54 Y22.874
X21.462 Y23.493
X21.412 Y24.115
X21.379 Y24.738
X21.358 Y25.362
X21.345 Y25.986
X21.336 Y26.609
X21.331 Y27.233
X21.327 Y27.857
X21.323 Y29.105
X21.321 Y31.601
X21.319 Y39.088
X21.315 Y65.918
X21.316 Y66.542
X21.408 Y66.84
X21.703 Y67.39
X22.168 Y67.806
X22.719 Y68.099
X23.311 Y68.297
X23.921 Y68.429
X24.539 Y68.515
X25.16 Y68.571
X25.783 Y68.606
X26.406 Y68.63
X27.03 Y68.644
X27.654 Y68.654
X28.278 Y68.66
X28.902 Y68.664
X30.15 Y68.668
X32.646 Y68.671
X43.253 Y68.672
X93.792 Y68.675
X144.332 Y68.679
X194.871 Y68.682
X245.411 Y68.685
X246.035
X246.347 Y68.681
X246.656 Y68.636
X246.949 Y68.53
X247.482 Y68.206
X247.878 Y67.723
X248.153 Y67.163
X248.338 Y66.567
X248.46 Y65.956
X248.539 Y65.337
X248.591 Y64.715
X248.624 Y64.092
X248.645 Y63.468
X248.659 Y62.844
X248.668 Y62.221
X248.674 Y61.597
X248.677 Y60.973
X248.681 Y59.725
X248.683 Y57.229
X248.687 Y23.536
X248.614 Y23.233
X248.481 Y22.95
X248.117 Y22.444
X247.615 Y22.073
X247.045 Y21.818
X246.445 Y21.647
X245.831 Y21.535
X245.212 Y21.461
X244.59 Y21.414
X243.966 Y21.383
X243.343 Y21.364
X242.719 Y21.351
X242.095 Y21.343
X241.471 Y21.338
X240.847 Y21.335
X239.599 Y21.331
X237.104 Y21.329
X195.923 Y21.325
X145.384 Y21.321
X94.844 Y21.318
X44.304 Y21.314
X24.962 Y21.312
X24.651 Y21.34
X24.352 Y21.427
X24.076 Y21.573
X23.583 Y21.956
X23.229 Y22.469
X22.985 Y23.043
X22.822 Y23.646
X22.716 Y24.261
X22.646 Y24.881
X22.601 Y25.503
X22.572 Y26.126
X22.554 Y26.75
X22.542 Y27.374
X22.534 Y27.998
X22.529 Y28.622
X22.526 Y29.246
X22.523 Y30.493
X22.52 Y32.989
X22.517 Y51.084
X22.515 Y65.122
X22.556 Y65.432
X22.659 Y65.726
X22.978 Y66.262
X23.459 Y66.66
X24.018 Y66.936
X24.614 Y67.122
X25.226 Y67.245
X25.844 Y67.325
X26.466 Y67.377
X27.089 Y67.411
X27.713 Y67.433
X28.337 Y67.446
X28.96 Y67.455
X29.584 Y67.461
X30.208 Y67.465
X31.456 Y67.468
X33.952 Y67.471
X57.662 Y67.473
X108.201 Y67.476
X158.741 Y67.48
X209.281 Y67.483
X244.846 Y67.485
X245.157 Y67.48
X245.466 Y67.433
X245.758 Y67.324
X246.289 Y66.996
X246.683 Y66.513
X246.956 Y65.952
X247.14 Y65.355
X247.261 Y64.743
X247.34 Y64.124
X247.392 Y63.503
X247.425 Y62.88
X247.446 Y62.256
X247.459 Y61.632
X247.468 Y61.008
X247.474 Y60.384
X247.477 Y59.76
X247.481 Y58.512
X247.484 Y56.017
Y54.145
X247.487 Y24.819
X247.43 Y24.513
X247.313 Y24.223
X246.973 Y23.7
X246.484 Y23.313
X245.921 Y23.045
X245.323 Y22.865
X244.711 Y22.746
X244.092 Y22.669
X243.47 Y22.619
X242.847 Y22.586
X242.223 Y22.566
X241.599 Y22.552
X240.975 Y22.544
X240.351 Y22.538
X239.727 Y22.535
X238.48 Y22.531
X235.984 Y22.529
X227.249 Y22.528
X176.709 Y22.524
X126.169 Y22.52
X75.63 Y22.516
X26.338 Y22.512
X26.026 Y22.52
X25.719 Y22.576
X25.429 Y22.691
X24.903 Y23.027
X24.514 Y23.514
X24.243 Y24.076
X24.061 Y24.673
X23.94 Y25.285
X23.862 Y25.904
X23.812 Y26.526
X23.779 Y27.149
X23.758 Y27.773
X23.744 Y28.397
X23.736 Y29.02
X23.73 Y29.644
X23.727 Y30.268
X23.723 Y31.516
X23.72 Y34.012
X23.715 Y63.961
X23.765 Y64.269
X23.876 Y64.561
X24.209 Y65.089
X24.696 Y65.479
X25.258 Y65.749
X25.855 Y65.931
X26.467 Y66.051
X27.086 Y66.129
X27.708 Y66.18
X28.331 Y66.213
X28.955 Y66.234
X29.578 Y66.247
X30.202 Y66.256
X30.826 Y66.261
X31.45 Y66.265
X32.698 Y66.269
X35.194 Y66.271
X81.99 Y66.274
X132.529 Y66.278
X183.069 Y66.281
X233.608 Y66.285
X243.592
X244.216 Y66.282
X244.51 Y66.179
X245.048 Y65.863
X245.452 Y65.387
X245.735 Y64.831
X245.925 Y64.237
X246.051 Y63.626
X246.134 Y63.007
X246.187 Y62.386
X246.222 Y61.763
X246.244 Y61.139
X246.258 Y60.515
X246.267 Y59.892
X246.273 Y59.268
X246.277 Y58.644
X246.281 Y57.396
X246.284 Y54.9
X246.287 Y27.446
Y26.199
X246.262 Y25.888
X246.18 Y25.586
X246.04 Y25.308
X245.665 Y24.809
X245.155 Y24.449
X244.583 Y24.201
X243.981 Y24.036
X243.367 Y23.927
X242.747 Y23.856
X242.125 Y23.811
X241.501 Y23.781
X240.878 Y23.762
X240.254 Y23.75
X239.63 Y23.742
X239.006 Y23.737
X238.382 Y23.734
X237.134 Y23.731
X234.638 Y23.729
X198.45 Y23.726
X147.91 Y23.722
X97.37 Y23.718
X46.831 Y23.714
X27.489 Y23.712
X27.177 Y23.728
X26.871 Y23.789
X26.584 Y23.912
X26.067 Y24.261
X25.688 Y24.757
X25.425 Y25.323
X25.249 Y25.921
X25.133 Y26.534
X25.057 Y27.154
X25.009 Y27.776
X24.977 Y28.399
X24.957 Y29.022
X24.944 Y29.646
X24.935 Y30.27
X24.93 Y30.894
X24.926 Y31.518
X24.923 Y32.766
X24.92 Y35.262
X24.917 Y53.356
X24.915 Y62.715
X24.958 Y63.024
X25.061 Y63.319
X25.38 Y63.855
X25.858 Y64.255
X26.417 Y64.534
X27.012 Y64.721
X27.624 Y64.844
X28.242 Y64.925
X28.864 Y64.977
X29.487 Y65.011
X30.111 Y65.033
X30.735 Y65.046
X31.358 Y65.055
X31.982 Y65.061
X32.606 Y65.065
X33.854 Y65.069
X36.35 Y65.071
X65.051 Y65.073
X115.591 Y65.077
X166.131 Y65.08
X216.67 Y65.083
X242.876 Y65.085
X243.18 Y65.015
X243.463 Y64.883
X243.971 Y64.522
X244.341 Y64.019
X244.596 Y63.449
X244.766 Y62.849
X244.879 Y62.235
X244.952 Y61.616
X244.999 Y60.994
X245.029 Y60.37
X245.049 Y59.747
X245.062 Y59.123
X245.07 Y58.499
X245.075 Y57.875
X245.078 Y57.251
X245.082 Y56.003
X245.084 Y53.508
X245.085 Y41.653
X245.087 Y27.302
X245.044 Y26.993
X244.942 Y26.698
X244.627 Y26.159
X244.15 Y25.757
X243.593 Y25.475
X242.999 Y25.285
X242.388 Y25.159
X241.77 Y25.077
X241.148 Y25.024
X240.525 Y24.99
X239.901 Y24.968
X239.277 Y24.954
X238.654 Y24.945
X238.03 Y24.939
X237.406 Y24.935
X236.158 Y24.931
X233.662 Y24.929
X209.952 Y24.926
X159.413 Y24.923
X108.873 Y24.919
X58.333 Y24.915
X28.384 Y24.913
X28.079 Y24.976
X27.792 Y25.098
X27.274 Y25.447
X26.893 Y25.94
X26.629 Y26.506
X26.452 Y27.104
X26.335 Y27.717
X26.259 Y28.336
X26.209 Y28.958
X26.177 Y29.581
X26.157 Y30.205
X26.144 Y30.829
X26.135 Y31.453
X26.13 Y32.076
X26.126 Y32.7
X26.122 Y33.948
X26.12 Y36.444
X26.118 Y44.555
X26.115 Y61.402
X26.139 Y61.713
X26.22 Y62.014
X26.36 Y62.293
X26.736 Y62.791
X27.245 Y63.151
X27.818 Y63.399
X28.419 Y63.564
X29.034 Y63.673
X29.654 Y63.744
X30.276 Y63.789
X30.899 Y63.819
X31.523 Y63.838
X32.147 Y63.85
X32.771 Y63.858
X33.395 Y63.863
X34.019 Y63.866
X35.266 Y63.869
X37.762 Y63.871
X58.352 Y63.873
X108.892 Y63.876
X159.432 Y63.88
X209.971 Y63.883
X241.792 Y63.885
X242.088 Y63.787
X242.632 Y63.48
X243.04 Y63.007
X243.326 Y62.453
X243.52 Y61.86
X243.648 Y61.249
X243.732 Y60.631
X243.786 Y60.009
X243.821 Y59.386
X243.844 Y58.763
X243.858 Y58.139
X243.867 Y57.515
X243.873 Y56.891
X243.877 Y56.267
X243.881 Y55.02
X243.884 Y52.524
X243.885 Y46.284
X243.887 Y28.814
X243.883 Y28.19
X243.778 Y27.896
X243.459 Y27.36
X242.982 Y26.957
X242.425 Y26.676
X241.831 Y26.486
X241.22 Y26.36
X240.601 Y26.278
X239.98 Y26.225
X239.357 Y26.19
X238.733 Y26.168
X238.109 Y26.154
X237.485 Y26.145
X236.862 Y26.139
X236.238 Y26.135
X234.99 Y26.131
X232.494 Y26.129
X212.528 Y26.127
X161.988 Y26.123
X111.449 Y26.119
X60.909 Y26.115
X29.712 Y26.113
X29.402 Y26.15
X29.106 Y26.248
X28.564 Y26.557
X28.157 Y27.03
X27.872 Y27.585
X27.68 Y28.179
X27.553 Y28.79
X27.47 Y29.408
X27.417 Y30.03
X27.382 Y30.653
X27.36 Y31.276
X27.345 Y31.9
X27.336 Y32.524
X27.33 Y33.148
X27.327 Y33.772
X27.322 Y35.02
X27.32 Y37.515
X27.318 Y44.379
X27.316 Y59.977
X27.319 Y60.601
X27.424 Y60.895
X27.74 Y61.433
X28.216 Y61.836
X28.772 Y62.119
X29.366 Y62.311
X29.977 Y62.437
X30.595 Y62.52
X31.217 Y62.574
X31.84 Y62.609
X32.463 Y62.631
X33.087 Y62.646
X33.711 Y62.655
X34.335 Y62.661
X34.959 Y62.665
X36.207 Y62.669
X38.703 Y62.671
X60.541 Y62.673
X111.08 Y62.676
X161.62 Y62.68
X212.159 Y62.683
X240.237 Y62.685
X240.548 Y62.663
X240.849 Y62.579
X241.125 Y62.436
X241.619 Y62.054
X241.975 Y61.542
X242.22 Y60.968
X242.383 Y60.365
X242.49 Y59.751
X242.559 Y59.131
X242.604 Y58.508
X242.633 Y57.885
X242.651 Y57.261
X242.663 Y56.637
X242.671 Y56.014
X242.676 Y55.39
X242.679 Y54.766
X242.682 Y53.518
X242.684 Y51.022
X242.685 Y41.663
X242.686 Y29.808
X242.669 Y29.496
X242.592 Y29.194
X242.453 Y28.915
X242.08 Y28.414
X241.572 Y28.052
X241 Y27.803
X240.399 Y27.637
X239.784 Y27.528
X239.165 Y27.457
X238.542 Y27.411
X237.919 Y27.381
X237.295 Y27.362
X236.672 Y27.35
X236.048 Y27.342
X235.424 Y27.337
X234.8 Y27.334
X233.552 Y27.331
X231.056 Y27.328
X205.474 Y27.326
X154.935 Y27.322
X104.395 Y27.318
X53.856 Y27.315
X30.77 Y27.313
X30.464 Y27.377
X30.178 Y27.501
X29.662 Y27.851
X29.284 Y28.348
X29.023 Y28.915
X28.848 Y29.513
X28.732 Y30.127
X28.657 Y30.746
X28.608 Y31.368
X28.576 Y31.991
X28.556 Y32.615
X28.543 Y33.239
X28.535 Y33.862
X28.529 Y34.486
X28.526 Y35.11
X28.522 Y36.358
X28.52 Y38.854
X28.517 Y53.829
X28.516 Y59.132
X28.559 Y59.441
X28.664 Y59.735
X28.987 Y60.269
X29.47 Y60.664
X30.03 Y60.939
X30.626 Y61.125
X31.237 Y61.247
X31.856 Y61.327
X32.478 Y61.378
X33.101 Y61.412
X33.725 Y61.433
X34.348 Y61.447
X34.972 Y61.456
X35.596 Y61.461
X36.22 Y61.465
X37.468 Y61.469
X39.964 Y61.471
X72.409 Y61.474
X122.949 Y61.477
X173.488 Y61.481
X224.028 Y61.484
X239.002 Y61.485
X239.313 Y61.46
X239.615 Y61.381
X239.895 Y61.244
X240.395 Y60.871
X240.759 Y60.364
X241.009 Y59.792
X241.175 Y59.19
X241.285 Y58.576
X241.356 Y57.956
X241.402 Y57.334
X241.431 Y56.711
X241.45 Y56.087
X241.463 Y55.463
X241.47 Y54.839
X241.475 Y54.215
X241.479 Y53.592
X241.482 Y52.344
X241.484 Y49.848
X241.486 Y31.13
X241.477 Y30.818
X241.421 Y30.511
X241.304 Y30.222
X240.964 Y29.698
X240.474 Y29.312
X239.911 Y29.043
X239.314 Y28.863
X238.701 Y28.745
X238.082 Y28.668
X237.46 Y28.618
X236.837 Y28.586
X236.213 Y28.565
X235.589 Y28.552
X234.966 Y28.543
X234.342 Y28.538
X233.718 Y28.534
X232.47 Y28.531
X229.974 Y28.528
X188.17 Y28.525
X137.63 Y28.521
X87.091 Y28.517
X36.551 Y28.513
X32.183
X31.872 Y28.538
X31.572 Y28.621
X31.294 Y28.763
X30.796 Y29.139
X30.437 Y29.65
X30.191 Y30.223
X30.026 Y30.825
X29.918 Y31.439
X29.847 Y32.059
X29.802 Y32.681
X29.772 Y33.304
X29.753 Y33.928
X29.741 Y34.552
X29.733 Y35.176
X29.728 Y35.8
X29.725 Y36.424
X29.722 Y37.672
X29.719 Y40.167
X29.716 Y57.638
X29.72 Y57.95
X29.768 Y58.258
X29.877 Y58.55
X30.206 Y59.081
X30.69 Y59.473
X31.252 Y59.746
X31.848 Y59.929
X32.46 Y60.05
X33.079 Y60.129
X33.701 Y60.18
X34.324 Y60.213
X34.948 Y60.234
X35.572 Y60.247
X36.196 Y60.256
X36.819 Y60.262
X37.443 Y60.265
X38.691 Y60.269
X41.187 Y60.271
X44.307 Y60.272
X94.846 Y60.275
X145.386 Y60.279
X195.926 Y60.282
X237.73 Y60.285
X238.041 Y60.268
X238.346 Y60.202
X238.632 Y60.076
X239.146 Y59.723
X239.524 Y59.226
X239.785 Y58.659
X239.959 Y58.06
X240.074 Y57.447
X240.149 Y56.828
X240.198 Y56.206
X240.229 Y55.583
X240.249 Y54.959
X240.262 Y54.335
X240.27 Y53.711
X240.275 Y53.087
X240.278 Y52.463
X240.282 Y51.215
X240.284 Y48.72
X240.286 Y32.497
X240.285 Y31.873
X240.197 Y31.574
X240.052 Y31.297
X239.672 Y30.803
X239.161 Y30.445
X238.587 Y30.199
X237.986 Y30.034
X237.371 Y29.926
X236.751 Y29.856
X236.129 Y29.81
X235.506 Y29.781
X234.882 Y29.762
X234.258 Y29.75
X233.634 Y29.742
X233.01 Y29.737
X232.386 Y29.734
X231.138 Y29.73
X228.643 Y29.728
X211.796 Y29.727
X161.257 Y29.723
X110.717 Y29.719
X60.177 Y29.715
X33.348 Y29.713
X33.038 Y29.747
X32.739 Y29.838
X32.465 Y29.986
X31.975 Y30.373
X31.622 Y30.887
X31.38 Y31.462
X31.219 Y32.065
X31.113 Y32.68
X31.044 Y33.3
X31 Y33.923
X30.971 Y34.546
X30.952 Y35.169
X30.94 Y35.793
X30.933 Y36.417
X30.928 Y37.041
X30.925 Y37.665
X30.921 Y38.913
X30.919 Y41.409
X30.917 Y52.016
X30.916 Y56.383
X30.919 Y57.007
X31.023 Y57.301
X31.34 Y57.839
X31.816 Y58.242
X32.373 Y58.524
X32.967 Y58.714
X33.578 Y58.84
X34.197 Y58.922
X34.819 Y58.975
X35.442 Y59.01
X36.065 Y59.032
X36.689 Y59.046
X37.313 Y59.055
X37.937 Y59.061
X38.561 Y59.065
X39.808 Y59.069
X42.304 Y59.071
X75.373 Y59.074
X125.913 Y59.077
X176.452 Y59.081
X226.992 Y59.084
X236.351 Y59.085
X236.975 Y59.082
X237.272 Y58.985
X237.818 Y58.683
X238.229 Y58.213
X238.518 Y57.661
X238.715 Y57.068
X238.845 Y56.458
X238.93 Y55.84
X238.985 Y55.219
X239.021 Y54.596
X239.043 Y53.972
X239.058 Y53.348
X239.068 Y52.725
X239.074 Y52.101
X239.078 Y51.477
X239.082 Y50.229
X239.084 Y47.733
X239.086 Y33.382
X239.059 Y33.071
X238.974 Y32.771
X238.831 Y32.494
X238.451 Y31.999
X237.94 Y31.641
X237.366 Y31.396
X236.764 Y31.232
X236.15 Y31.124
X235.53 Y31.054
X234.907 Y31.009
X234.284 Y30.98
X233.66 Y30.961
X233.036 Y30.949
X232.413 Y30.942
X231.789 Y30.937
X231.165 Y30.934
X229.917 Y30.93
X227.421 Y30.928
X226.173
X175.634 Y30.924
X125.094 Y30.92
X74.554 Y30.916
X34.622 Y30.913
X34.311 Y30.938
X34.009 Y31.015
X33.727 Y31.15
X33.224 Y31.519
X32.856 Y32.023
X32.603 Y32.593
X32.434 Y33.194
X32.323 Y33.808
X32.25 Y34.427
X32.203 Y35.05
X32.173 Y35.673
X32.154 Y36.297
X32.141 Y36.92
X32.133 Y37.544
X32.128 Y38.168
X32.125 Y38.792
X32.121 Y40.04
X32.119 Y42.536
X32.117 Y55.639
X32.181 Y55.944
X32.307 Y56.229
X32.661 Y56.743
X33.16 Y57.117
X33.728 Y57.376
X34.328 Y57.549
X34.941 Y57.663
X35.561 Y57.737
X36.183 Y57.785
X36.806 Y57.816
X37.43 Y57.836
X38.053 Y57.849
X38.677 Y57.857
X39.301 Y57.862
X39.925 Y57.866
X41.173 Y57.869
X43.669 Y57.872
X66.131 Y57.873
X116.67 Y57.877
X167.21 Y57.88
X217.75 Y57.884
X235.532
X235.841 Y57.844
X236.136 Y57.741
X236.672 Y57.422
X237.071 Y56.942
X237.348 Y56.383
X237.534 Y55.788
X237.658 Y55.176
X237.738 Y54.557
X237.791 Y53.936
X237.824 Y53.313
X237.846 Y52.689
X237.86 Y52.065
X237.869 Y51.441
X237.874 Y50.818
X237.878 Y50.194
X237.882 Y48.946
X237.884 Y46.45
X237.886 Y34.595
X237.857 Y34.284
X237.774 Y33.984
X237.633 Y33.705
X237.256 Y33.208
X236.747 Y32.848
X236.174 Y32.6
X235.572 Y32.435
X234.958 Y32.326
X234.338 Y32.256
X233.716 Y32.21
X233.093 Y32.181
X232.469 Y32.162
X231.845 Y32.149
X231.221 Y32.142
X230.597 Y32.137
X229.973 Y32.134
X228.725 Y32.13
X226.23 Y32.128
X180.058 Y32.124
X129.518 Y32.12
X78.979 Y32.116
X35.926 Y32.113
X35.615 Y32.125
X35.308 Y32.182
X35.019 Y32.299
X34.495 Y32.639
X34.107 Y33.127
X33.838 Y33.69
X33.657 Y34.287
X33.538 Y34.9
X33.46 Y35.519
X33.41 Y36.141
X33.377 Y36.764
X33.356 Y37.387
X33.343 Y38.011
X33.334 Y38.635
X33.329 Y39.259
X33.325 Y39.883
X33.321 Y41.131
X33.319 Y43.627
X33.317 Y54.234
X33.344 Y54.544
X33.431 Y54.844
X33.577 Y55.12
X33.96 Y55.612
X34.474 Y55.967
X35.048 Y56.21
X35.651 Y56.372
X36.266 Y56.478
X36.886 Y56.547
X37.508 Y56.592
X38.132 Y56.62
X38.755 Y56.639
X39.379 Y56.651
X40.003 Y56.658
X40.627 Y56.663
X41.251 Y56.666
X42.499 Y56.67
X44.994 Y56.672
X66.209 Y56.673
X116.748 Y56.677
X167.288 Y56.68
X217.827 Y56.684
X234.05 Y56.685
X234.362 Y56.68
X234.67 Y56.633
X234.963 Y56.524
X235.493 Y56.196
X235.886 Y55.711
X236.159 Y55.15
X236.342 Y54.554
X236.463 Y53.941
X236.542 Y53.322
X236.593 Y52.701
X236.626 Y52.078
X236.647 Y51.454
X236.66 Y50.83
X236.669 Y50.206
X236.675 Y49.582
X236.678 Y48.958
X236.682 Y47.711
X236.685 Y45.215
X236.686 Y35.856
X236.664 Y35.544
X236.593 Y35.241
X236.462 Y34.957
X236.101 Y34.449
X235.6 Y34.076
X235.032 Y33.819
X234.432 Y33.648
X233.818 Y33.535
X233.199 Y33.461
X232.576 Y33.413
X231.953 Y33.383
X231.33 Y33.363
X230.706 Y33.35
X230.082 Y33.342
X229.458 Y33.337
X228.834 Y33.334
X227.586 Y33.33
X225.714 Y33.328
X197.013 Y33.325
X175.175 Y33.324
X124.635 Y33.32
X74.096 Y33.316
X37.283 Y33.313
X36.659 Y33.315
X36.36 Y33.406
X36.085 Y33.552
X35.591 Y33.934
X35.235 Y34.446
X34.989 Y35.02
X34.825 Y35.622
X34.717 Y36.236
X34.647 Y36.856
X34.601 Y37.478
X34.572 Y38.102
X34.553 Y38.725
X34.54 Y39.349
X34.533 Y39.973
X34.528 Y40.597
X34.524 Y41.221
X34.521 Y42.469
X34.518 Y44.965
Y45.589
X34.517 Y53.076
X34.555 Y53.386
X34.653 Y53.682
X34.959 Y54.225
X35.432 Y54.632
X35.987 Y54.917
X36.581 Y55.11
X37.191 Y55.237
X37.81 Y55.321
X38.431 Y55.375
X39.054 Y55.409
X39.678 Y55.432
X40.302 Y55.446
X40.926 Y55.455
X41.55 Y55.461
X42.173 Y55.465
X43.421 Y55.469
X45.917 Y55.472
X76.49 Y55.474
X127.03 Y55.477
X177.57 Y55.481
X228.109 Y55.484
X233.101 Y55.485
X233.41 Y55.447
X233.706 Y55.349
X234.248 Y55.038
X234.654 Y54.565
X234.937 Y54.009
X235.128 Y53.414
X235.253 Y52.803
X235.336 Y52.185
X235.389 Y51.563
X235.423 Y50.94
X235.445 Y50.317
X235.46 Y49.693
X235.469 Y49.069
X235.474 Y48.445
X235.478 Y47.821
X235.482 Y46.573
X235.485 Y44.077
X235.486 Y37.214
X235.48 Y36.59
X235.372 Y36.297
X235.053 Y35.761
X234.576 Y35.359
X234.019 Y35.078
X233.425 Y34.887
X232.814 Y34.761
X232.195 Y34.678
X231.574 Y34.624
X230.951 Y34.59
X230.327 Y34.568
X229.703 Y34.553
X229.08 Y34.544
X228.456 Y34.538
X227.832 Y34.534
X226.584 Y34.53
X224.088 Y34.528
X210.985 Y34.526
X160.446 Y34.523
X109.906 Y34.519
X59.366 Y34.515
X38.152 Y34.513
X37.842 Y34.544
X37.543 Y34.634
X37.268 Y34.781
X36.777 Y35.166
X36.424 Y35.68
X36.181 Y36.255
X36.019 Y36.858
X35.913 Y37.473
X35.844 Y38.093
X35.799 Y38.715
X35.77 Y39.339
X35.752 Y39.962
X35.74 Y40.586
X35.732 Y41.21
X35.727 Y41.834
X35.724 Y42.458
X35.721 Y43.706
X35.718 Y46.201
X35.717 Y51.817
X35.742 Y52.128
X35.828 Y52.428
X35.971 Y52.705
X36.352 Y53.199
X36.863 Y53.557
X37.436 Y53.803
X38.038 Y53.967
X38.653 Y54.075
X39.273 Y54.145
X39.895 Y54.191
X40.518 Y54.22
X41.142 Y54.239
X41.766 Y54.251
X42.39 Y54.258
X43.014 Y54.263
X43.638 Y54.266
X44.886 Y54.27
X45.51 Y54.271
X49.877 Y54.272
X96.049 Y54.275
X146.589 Y54.279
X197.128 Y54.282
X232.069 Y54.284
X232.373 Y54.213
X232.656 Y54.083
X233.166 Y53.723
X233.537 Y53.221
X233.793 Y52.652
X233.965 Y52.052
X234.078 Y51.439
X234.151 Y50.819
X234.199 Y50.197
X234.23 Y49.574
X234.25 Y48.95
X234.262 Y48.326
X234.27 Y47.702
X234.276 Y47.078
X234.279 Y46.454
X234.283 Y45.207
X234.285 Y42.711
X234.286 Y39.591
Y38.343
X234.283 Y38.031
X234.233 Y37.723
X234.12 Y37.432
X233.786 Y36.905
X233.298 Y36.517
X232.735 Y36.248
X232.138 Y36.067
X231.526 Y35.947
X230.907 Y35.869
X230.285 Y35.819
X229.662 Y35.786
X229.038 Y35.765
X228.414 Y35.752
X227.79 Y35.743
X227.166 Y35.737
X226.543 Y35.734
X225.295 Y35.73
X222.799 Y35.728
X186.61 Y35.725
X136.07 Y35.721
X85.531 Y35.717
X39.359 Y35.713
X39.049 Y35.747
X38.75 Y35.836
X38.474 Y35.982
X37.983 Y36.366
X37.627 Y36.879
X37.383 Y37.453
X37.221 Y38.056
X37.114 Y38.67
X37.044 Y39.29
X36.999 Y39.913
X36.97 Y40.536
X36.952 Y41.16
X36.94 Y41.784
X36.932 Y42.407
X36.927 Y43.031
X36.924 Y43.655
X36.92 Y44.903
X36.918 Y47.399
X36.917 Y50.519
X36.934 Y50.83
X37.001 Y51.135
X37.128 Y51.42
X37.482 Y51.934
X37.979 Y52.311
X38.546 Y52.572
X39.145 Y52.747
X39.758 Y52.862
X40.377 Y52.937
X40.999 Y52.985
X41.623 Y53.016
X42.246 Y53.036
X42.87 Y53.049
X43.494 Y53.057
X44.118 Y53.063
X44.742 Y53.066
X45.99 Y53.07
X48.485 Y53.072
X74.067 Y53.074
X124.607 Y53.077
X175.146 Y53.081
X225.686 Y53.084
X230.678
X230.988 Y53.051
X231.285 Y52.957
X231.831 Y52.654
X232.24 Y52.184
X232.527 Y51.63
X232.721 Y51.037
X232.85 Y50.426
X232.933 Y49.808
X232.988 Y49.186
X233.022 Y48.563
X233.045 Y47.94
X233.059 Y47.316
X233.069 Y46.692
X233.075 Y46.068
X233.078 Y45.444
X233.082 Y44.196
X233.085 Y41.7
X233.086 Y39.205
X233.028 Y38.898
X232.91 Y38.609
X232.567 Y38.088
X232.075 Y37.704
X231.51 Y37.439
X230.912 Y37.261
X230.299 Y37.143
X229.68 Y37.067
X229.058 Y37.017
X228.435 Y36.985
X227.811 Y36.964
X227.188 Y36.951
X226.564 Y36.943
X225.94 Y36.937
X225.316 Y36.934
X224.068 Y36.93
X221.572 Y36.928
X203.478 Y36.926
X152.938 Y36.922
X102.399 Y36.918
X51.859 Y36.914
X40.628 Y36.913
X40.317 Y36.938
X40.014 Y37.013
X39.733 Y37.148
X39.228 Y37.515
X38.859 Y38.018
X38.605 Y38.588
X38.435 Y39.188
X38.323 Y39.802
X38.25 Y40.421
X38.203 Y41.044
X38.173 Y41.667
X38.153 Y42.29
X38.141 Y42.914
X38.132 Y43.538
X38.127 Y44.162
X38.124 Y44.786
X38.12 Y46.034
X38.118 Y48.53
Y49.154
X38.121 Y49.777
X38.221 Y50.073
X38.529 Y50.615
X39.001 Y51.024
X39.555 Y51.311
X40.148 Y51.505
X40.758 Y51.634
X41.376 Y51.719
X41.998 Y51.773
X42.621 Y51.809
X43.244 Y51.831
X43.868 Y51.846
X44.492 Y51.855
X45.116 Y51.861
X45.74 Y51.865
X46.988 Y51.869
X49.484 Y51.872
X62.586 Y51.873
X113.126 Y51.877
X163.666 Y51.88
X214.205 Y51.883
X229.18 Y51.884
X229.804 Y51.882
X230.099 Y51.782
X230.64 Y51.471
X231.047 Y50.998
X231.332 Y50.443
X231.524 Y49.849
X231.651 Y49.238
X231.734 Y48.62
X231.788 Y47.998
X231.823 Y47.375
X231.845 Y46.752
X231.859 Y46.128
X231.869 Y45.504
X231.875 Y44.88
X231.878 Y44.256
X231.883 Y43.008
X231.885 Y40.512
X231.848 Y40.203
X231.749 Y39.907
X231.439 Y39.365
X230.965 Y38.959
X230.409 Y38.676
X229.815 Y38.485
X229.204 Y38.359
X228.586 Y38.277
X227.964 Y38.223
X227.341 Y38.189
X226.717 Y38.167
X226.094 Y38.153
X225.47 Y38.144
X224.846 Y38.138
X224.222 Y38.134
X222.974 Y38.13
X220.478 Y38.128
X210.495 Y38.126
X159.956 Y38.123
X109.416 Y38.119
X58.876 Y38.115
X42.03 Y38.114
X41.406 Y38.118
X41.111 Y38.22
X40.57 Y38.531
X40.164 Y39.004
X39.878 Y39.559
X39.684 Y40.152
X39.556 Y40.763
X39.472 Y41.381
X39.417 Y42.002
X39.382 Y42.625
X39.359 Y43.249
X39.344 Y43.873
X39.335 Y44.497
X39.329 Y45.121
X39.325 Y45.744
X39.321 Y46.992
X39.319 Y48.24
X39.345 Y48.551
X39.433 Y48.85
X39.58 Y49.126
X39.966 Y49.616
X40.48 Y49.969
X41.055 Y50.211
X41.658 Y50.373
X42.272 Y50.479
X42.893 Y50.548
X43.515 Y50.593
X44.138 Y50.621
X44.762 Y50.639
X45.386 Y50.651
X46.01 Y50.659
X46.634 Y50.664
X47.257 Y50.667
X48.505 Y50.67
X51.001 Y50.672
X60.36 Y50.673
X110.9 Y50.676
X161.439 Y50.68
X211.979 Y50.683
X228.202 Y50.684
X228.513 Y50.668
X228.816 Y50.591
X229.096 Y50.454
X229.597 Y50.083
X229.96 Y49.575
X230.209 Y49.003
X230.376 Y48.402
X230.486 Y47.788
X230.557 Y47.168
X230.603 Y46.545
X230.632 Y45.922
X230.651 Y45.299
X230.664 Y44.675
X230.671 Y44.051
X230.676 Y43.427
X230.68 Y42.803
X230.683 Y41.555
X230.615 Y41.251
X230.486 Y40.966
X230.13 Y40.454
X229.63 Y40.081
X229.062 Y39.823
X228.463 Y39.65
X227.849 Y39.536
X227.23 Y39.462
X226.608 Y39.414
X225.984 Y39.383
X225.361 Y39.363
X224.737 Y39.35
X224.113 Y39.342
X223.489 Y39.337
X222.865 Y39.333
X221.617 Y39.33
X219.122 Y39.328
X207.891 Y39.326
X157.351 Y39.322
X106.811 Y39.319
X56.272 Y39.315
X42.857 Y39.314
X42.548 Y39.358
X42.255 Y39.463
X41.721 Y39.787
X41.326 Y40.27
X41.051 Y40.83
X40.866 Y41.426
X40.743 Y42.038
X40.663 Y42.657
X40.612 Y43.278
X40.578 Y43.901
X40.557 Y44.525
X40.543 Y45.149
X40.534 Y45.773
X40.528 Y46.397
X40.524 Y47.02
X40.554 Y47.331
X40.639 Y47.631
X40.782 Y47.908
X41.163 Y48.403
X41.674 Y48.76
X42.248 Y49.006
X42.85 Y49.169
X43.464 Y49.277
X44.084 Y49.346
X44.707 Y49.392
X45.33 Y49.421
X45.954 Y49.439
X46.577 Y49.451
X47.201 Y49.459
X47.825 Y49.464
X48.449 Y49.467
X49.697 Y49.47
X52.193 Y49.472
X67.792 Y49.474
X118.331 Y49.477
X168.871 Y49.48
X219.41 Y49.484
X226.898
X227.209 Y49.474
X227.516 Y49.415
X227.804 Y49.296
X228.325 Y48.952
X228.709 Y48.46
X228.975 Y47.896
X229.154 Y47.298
X229.271 Y46.685
X229.347 Y46.066
X229.397 Y45.444
X229.429 Y44.821
X229.449 Y44.197
X229.462 Y43.574
X229.47 Y42.95
X229.442 Y42.639
X229.352 Y42.34
X229.204 Y42.066
X228.816 Y41.577
X228.301 Y41.225
X227.725 Y40.985
X227.122 Y40.824
X226.507 Y40.719
X225.887 Y40.651
X225.265 Y40.606
X224.641 Y40.578
X224.018 Y40.56
X223.394 Y40.548
X222.77 Y40.541
X222.146 Y40.536
X221.522 Y40.533
X220.274 Y40.529
X217.778 Y40.527
X195.316 Y40.525
X144.777 Y40.521
X94.237 Y40.518
X44.322 Y40.514
X44.01 Y40.522
X43.702 Y40.575
X43.412 Y40.689
X42.888 Y41.027
X42.501 Y41.517
X42.234 Y42.081
X42.054 Y42.679
X41.936 Y43.291
X41.858 Y43.91
X41.808 Y44.532
X41.776 Y45.155
X41.755 Y45.779
X41.775 Y46.09
X41.849 Y46.393
X41.984 Y46.675
X42.353 Y47.178
X42.859 Y47.543
X43.43 Y47.794
X44.031 Y47.962
X44.645 Y48.072
X45.265 Y48.143
X45.887 Y48.19
X46.511 Y48.219
X47.134 Y48.238
X47.758 Y48.251
X48.382 Y48.258
X49.006 Y48.263
X49.63 Y48.267
X50.878 Y48.27
X53.374 Y48.272
X84.571 Y48.275
X135.11 Y48.278
X185.65 Y48.281
X225.582 Y48.284
X226.206 Y48.281
X226.501 Y48.179
X227.041 Y47.866
X227.447 Y47.392
X227.732 Y46.837
X227.924 Y46.243
X228.051 Y45.633
X228.135 Y45.014
X228.188 Y44.393
X228.203 Y44.081
X228.167 Y43.771
X228.066 Y43.476
X227.75 Y42.938
X227.27 Y42.538
X226.712 Y42.26
X226.116 Y42.074
X225.505 Y41.951
X224.886 Y41.871
X224.264 Y41.819
X223.641 Y41.786
X223.017 Y41.765
X222.394 Y41.751
X221.77 Y41.743
X221.146 Y41.737
X220.522 Y41.733
X219.274 Y41.73
X216.778 Y41.727
X173.726 Y41.724
X123.186 Y41.72
X72.647 Y41.716
X45.193 Y41.714
X44.887 Y41.773
X44.598 Y41.892
X44.078 Y42.236
X43.694 Y42.728
X43.429 Y43.293
X43.251 Y43.891
X43.133 Y44.503
X43.114 Y44.815
X43.155 Y45.124
X43.268 Y45.415
X43.607 Y45.938
X44.102 Y46.319
X44.668 Y46.58
X45.268 Y46.754
X45.881 Y46.867
X46.501 Y46.941
X47.123 Y46.988
X47.746 Y47.019
X48.37 Y47.038
X48.994 Y47.051
X49.617 Y47.058
X50.241 Y47.064
X50.865 Y47.067
X52.113 Y47.07
X54.609 Y47.072
X60.848 Y47.073
X111.388 Y47.076
X161.928 Y47.08
X212.467 Y47.083
X224.946 Y47.084
X225.246 Y46.997
X225.522 Y46.853
X226.016 Y46.471
X226.373 Y45.959
X226.618 Y45.386
X226.666 Y45.077
X226.622 Y44.768
X226.499 Y44.482
X226.137 Y43.974
X225.628 Y43.613
X225.053 Y43.369
X224.45 Y43.21
X223.835 Y43.107
X223.214 Y43.042
X222.592 Y43
X221.968 Y42.973
X221.344 Y42.956
X220.721 Y42.946
X220.097 Y42.939
X219.473 Y42.935
X218.225 Y42.93
X216.353 Y42.928
X203.874 Y42.926
X192.643 Y42.925
X142.104 Y42.921
X91.564 Y42.917
X90.94
X90.784 Y42.929
X90.619 Y42.939
X90.433 Y42.95
X90.219 Y42.961
X89.968 Y42.972
X89.666 Y42.983
X89.285 Y42.994
X88.773 Y43.004
X88.149 Y43.013
X87.525 Y43.018
X86.901 Y43.021
X85.653 Y43.024
X81.91 Y43.025
X46.345 Y43.022
X46.043 Y43.1
X45.764 Y43.24
X45.516 Y43.43
X45.409 Y43.543
X45.318 Y43.67
X45.258 Y43.814
X45.231 Y43.968
X45.238 Y44.123
X45.28 Y44.274
X45.428 Y44.548
X45.876 Y44.983
X46.43 Y45.269
X47.027 Y45.452
X47.64 Y45.569
X48.259 Y45.642
X48.882 Y45.688
X49.505 Y45.716
X50.129 Y45.734
X50.752 Y45.746
X51.376 Y45.753
X52 Y45.757
X52.624 Y45.76
X53.872 Y45.763
X56.992 Y45.765
X98.796 Y45.768
X149.336 Y45.771
X199.875 Y45.774
X223.585 Y45.776
X223.738 Y45.745
X223.813 Y45.722
X223.852 Y45.714
X223.892 Y45.711
G3 X224.185 Y45.946 I0 J0.3
G1 X224.192 Y46.011 Z-1.493
X224.178 Y46.066 Z-1.473
X224.165 Y46.115 Z-1.444
X224.154 Y46.158 Z-1.404
X224.133 Y46.186 Z-1.36
X224.118 Y46.206 Z-1.31
X224.109 Y46.218 Z-1.256
X224.106 Y46.222 Z-1.2
G0 Z2.501
X-0.299 Y-3.504
Z-2.4
G1 Z-2.7 F500
X-0.297 Y-3.497 Z-2.767
X-0.291 Y-3.475 Z-2.83
X-0.282 Y-3.441 Z-2.887
X-0.271 Y-3.395 Z-2.935
X-0.256 Y-3.339 Z-2.97
X-0.241 Y-3.278 Z-2.992
X-0.224 Y-3.213 Z-3
G3 X0.011 Y-1.58 I-7.419 J1.9
G1 Y-1.43
X-0.108 Y-0.818
X-0.178 Y-0.198
X-0.219 Y0.425
X-0.243 Y1.048
X-0.256 Y1.672
X-0.264 Y2.296
X-0.269 Y2.92
X-0.272 Y3.544
X-0.274 Y4.792
X-0.276 Y9.16
X-0.282 Y48.468
X-0.289 Y88.557
X-0.267 Y88.711
X-0.155 Y89.002
X0.038 Y89.247
X0.514 Y89.651
X1.085 Y89.902
X1.69 Y90.054
X2.307 Y90.144
X2.929 Y90.197
X3.552 Y90.227
X4.176 Y90.245
X4.8 Y90.255
X5.424 Y90.261
X6.048 Y90.265
X7.296 Y90.268
X9.167 Y90.269
X59.707 Y90.273
X110.247 Y90.276
X160.786 Y90.28
X211.326 Y90.283
X261.865 Y90.286
X268.573 Y90.287
X268.727 Y90.264
X269.017 Y90.15
X269.262 Y89.955
X269.664 Y89.479
X269.915 Y88.908
X270.067 Y88.302
X270.156 Y87.685
X270.209 Y87.063
X270.24 Y86.44
X270.257 Y85.816
X270.267 Y85.192
X270.273 Y84.569
X270.277 Y83.945
X270.28 Y82.697
X270.282 Y79.577
X270.285 Y47.132
X270.289 Y1.428
X270.262 Y1.274
X270.143 Y0.986
X269.947 Y0.743
X269.468 Y0.343
X268.896 Y0.094
X268.291 Y-0.057
X267.673 Y-0.146
X267.052 Y-0.198
X266.428 Y-0.228
X265.805 Y-0.245
X265.181 Y-0.256
X264.557 Y-0.262
X263.933 Y-0.265
X262.685 Y-0.268
X259.565 Y-0.27
X215.889 Y-0.273
X165.35 Y-0.277
X114.81 Y-0.281
X64.27 Y-0.285
X13.731 Y-0.289
X2.656
X2.352 Y-0.22
X2.088 Y-0.054
X1.644 Y0.385
X1.36 Y0.94
X1.185 Y1.539
X1.079 Y2.154
X1.015 Y2.775
X0.978 Y3.398
X0.956 Y4.021
X0.943 Y4.645
X0.935 Y5.269
X0.931 Y5.893
X0.928 Y6.517
X0.925 Y7.765
X0.923 Y12.132
X0.919 Y38.338
X0.911 Y87.006
X0.958 Y87.314
X1.083 Y87.6
X1.45 Y88.104
X1.966 Y88.456
X2.546 Y88.686
X3.152 Y88.833
X3.769 Y88.925
X4.39 Y88.982
X5.013 Y89.016
X5.637 Y89.037
X6.261 Y89.05
X6.885 Y89.058
X7.509 Y89.063
X8.133 Y89.065
X9.381 Y89.068
X13.124 Y89.07
X52.433 Y89.073
X102.972 Y89.076
X153.512 Y89.079
X204.051 Y89.083
X254.591 Y89.086
X267.07 Y89.087
X267.376 Y89.026
X267.657 Y88.89
X268.149 Y88.506
X268.489 Y87.984
X268.712 Y87.401
X268.854 Y86.793
X268.943 Y86.176
X268.997 Y85.554
X269.031 Y84.931
X269.051 Y84.307
X269.063 Y83.684
X269.07 Y83.06
X269.075 Y82.436
X269.078 Y81.812
X269.08 Y80.564
X269.082 Y76.82
X269.084 Y51.862
X269.089 Y3.195
X269.088 Y2.883
X269.012 Y2.58
X268.864 Y2.306
X268.463 Y1.827
X267.932 Y1.499
X267.347 Y1.284
X266.738 Y1.148
X266.12 Y1.063
X265.498 Y1.011
X264.875 Y0.979
X264.251 Y0.96
X263.627 Y0.948
X263.003 Y0.941
X262.379 Y0.937
X261.755 Y0.934
X260.507 Y0.932
X256.14 Y0.93
X218.079 Y0.927
X167.54 Y0.923
X117 Y0.919
X66.46 Y0.915
X15.921 Y0.912
X4.066 Y0.911
X3.765 Y0.995
X3.494 Y1.148
X3.019 Y1.553
X2.693 Y2.085
X2.48 Y2.671
X2.344 Y3.28
X2.259 Y3.898
X2.207 Y4.52
X2.174 Y5.143
X2.155 Y5.767
X2.143 Y6.391
X2.135 Y7.014
X2.131 Y7.638
X2.128 Y8.262
X2.125 Y9.51
X2.123 Y13.254
X2.119 Y38.836
X2.111 Y85.632
X2.147 Y85.941
X2.253 Y86.235
X2.418 Y86.5
X2.837 Y86.962
X3.371 Y87.284
X3.958 Y87.497
X4.566 Y87.636
X5.184 Y87.724
X5.805 Y87.779
X6.428 Y87.814
X7.052 Y87.835
X7.676 Y87.848
X8.3 Y87.857
X8.924 Y87.862
X9.547 Y87.865
X10.795 Y87.868
X13.915 Y87.87
X55.095 Y87.873
X105.635 Y87.876
X156.175 Y87.879
X206.714 Y87.883
X257.254 Y87.886
X265.677 Y87.887
X265.986 Y87.843
X266.277 Y87.73
X266.799 Y87.388
X267.176 Y86.891
X267.43 Y86.321
X267.597 Y85.72
X267.703 Y85.105
X267.771 Y84.485
X267.813 Y83.862
X267.839 Y83.239
X267.856 Y82.615
X267.866 Y81.991
X267.872 Y81.368
X267.876 Y80.744
X267.88 Y79.496
X267.882 Y77
X267.885 Y47.051
X267.889 Y4.31
X267.839 Y4.002
X267.721 Y3.714
X267.371 Y3.197
X266.87 Y2.825
X266.298 Y2.574
X265.696 Y2.41
X265.081 Y2.305
X264.461 Y2.239
X263.838 Y2.198
X263.215 Y2.172
X262.591 Y2.156
X261.967 Y2.146
X261.343 Y2.14
X260.72 Y2.136
X259.472 Y2.132
X256.976 Y2.13
X210.804 Y2.126
X160.264 Y2.123
X109.725 Y2.119
X59.185 Y2.115
X8.646 Y2.111
X5.526
X5.218 Y2.158
X4.928 Y2.273
X4.408 Y2.618
X4.032 Y3.117
X3.778 Y3.686
X3.611 Y4.288
X3.504 Y4.902
X3.436 Y5.523
X3.394 Y6.145
X3.367 Y6.768
X3.351 Y7.392
X3.34 Y8.016
X3.334 Y8.64
X3.33 Y9.264
X3.326 Y10.512
X3.324 Y13.008
X3.318 Y48.572
X3.312 Y84.137
X3.316 Y84.449
X3.373 Y84.756
X3.493 Y85.044
X3.841 Y85.562
X4.339 Y85.938
X4.907 Y86.196
X5.507 Y86.367
X6.121 Y86.478
X6.741 Y86.549
X7.363 Y86.594
X7.986 Y86.622
X8.61 Y86.64
X9.234 Y86.651
X9.858 Y86.658
X10.482 Y86.663
X11.106 Y86.665
X12.354 Y86.668
X15.473 Y86.67
X16.721
X67.261 Y86.673
X117.8 Y86.677
X168.34 Y86.68
X218.88 Y86.684
X264.428 Y86.687
X264.736 Y86.641
X265.028 Y86.53
X265.554 Y86.194
X265.938 Y85.702
X266.2 Y85.136
X266.374 Y84.537
X266.486 Y83.923
X266.559 Y83.304
X266.604 Y82.681
X266.633 Y82.058
X266.652 Y81.434
X266.663 Y80.811
X266.67 Y80.187
X266.675 Y79.563
X266.677 Y78.939
X266.68 Y77.691
X266.682 Y74.571
X266.686 Y32.143
X266.689 Y5.625
X266.65 Y5.316
X266.547 Y5.021
X266.224 Y4.488
X265.739 Y4.095
X265.176 Y3.825
X264.578 Y3.647
X263.965 Y3.531
X263.346 Y3.457
X262.724 Y3.41
X262.1 Y3.38
X261.477 Y3.361
X260.853 Y3.35
X260.229 Y3.342
X259.605 Y3.338
X258.981 Y3.335
X257.733 Y3.332
X254.613 Y3.33
X244.006 Y3.329
X193.467 Y3.325
X142.927 Y3.321
X92.388 Y3.317
X41.848 Y3.314
X6.907 Y3.311
X6.596 Y3.334
X6.296 Y3.42
X6.021 Y3.568
X5.533 Y3.957
X5.186 Y4.475
X4.951 Y5.053
X4.797 Y5.658
X4.697 Y6.273
X4.633 Y6.894
X4.592 Y7.517
X4.567 Y8.14
X4.551 Y8.764
X4.54 Y9.388
X4.534 Y10.012
X4.53 Y10.636
X4.526 Y11.883
X4.523 Y14.379
Y17.499
X4.514 Y68.039
X4.512 Y83.013
X4.532 Y83.325
X4.609 Y83.627
X4.747 Y83.907
X5.119 Y84.408
X5.629 Y84.768
X6.202 Y85.013
X6.805 Y85.176
X7.419 Y85.282
X8.04 Y85.351
X8.662 Y85.394
X9.285 Y85.422
X9.909 Y85.44
X10.533 Y85.451
X11.157 Y85.458
X11.781 Y85.462
X12.405 Y85.465
X13.653 Y85.468
X16.772 Y85.47
X38.61 Y85.472
X89.15 Y85.475
X139.69 Y85.478
X190.229 Y85.482
X240.769 Y85.485
X263.231 Y85.487
X263.538 Y85.434
X263.828 Y85.318
X264.35 Y84.976
X264.731 Y84.482
X264.993 Y83.915
X265.167 Y83.316
X265.281 Y82.703
X265.354 Y82.083
X265.401 Y81.461
X265.431 Y80.838
X265.45 Y80.214
X265.462 Y79.59
X265.469 Y78.966
X265.474 Y78.342
X265.477 Y77.718
X265.48 Y76.471
X265.482 Y73.351
X265.484 Y58.376
X265.489 Y7.837
Y6.589
X265.392 Y6.292
X265.085 Y5.749
X264.611 Y5.343
X264.054 Y5.062
X263.459 Y4.873
X262.848 Y4.75
X262.229 Y4.67
X261.607 Y4.619
X260.984 Y4.586
X260.36 Y4.565
X259.736 Y4.552
X259.112 Y4.544
X258.489 Y4.539
X257.865 Y4.535
X256.617 Y4.532
X254.121 Y4.53
X217.308 Y4.527
X166.769 Y4.523
X116.229 Y4.519
X65.689 Y4.515
X15.15 Y4.512
X8.286 Y4.511
X7.975 Y4.518
X7.668 Y4.576
X7.38 Y4.695
X6.859 Y5.039
X6.478 Y5.533
X6.215 Y6.099
X6.04 Y6.698
X5.926 Y7.311
X5.852 Y7.931
X5.805 Y8.553
X5.775 Y9.176
X5.756 Y9.8
X5.744 Y10.423
X5.736 Y11.047
X5.731 Y11.671
X5.728 Y12.295
X5.725 Y13.543
X5.723 Y16.663
X5.718 Y46.612
X5.712 Y81.553
X5.714 Y82.177
X5.809 Y82.474
X5.959 Y82.747
X6.35 Y83.234
X6.867 Y83.583
X7.443 Y83.822
X8.047 Y83.981
X8.662 Y84.084
X9.282 Y84.151
X9.905 Y84.194
X10.528 Y84.222
X11.152 Y84.24
X11.776 Y84.251
X12.4 Y84.258
X13.024 Y84.262
X13.647 Y84.265
X14.895 Y84.268
X18.015 Y84.27
X19.887
X70.427 Y84.274
X120.966 Y84.277
X171.506 Y84.28
X222.045 Y84.284
X261.978 Y84.286
X262.286 Y84.24
X262.578 Y84.13
X263.108 Y83.801
X263.5 Y83.315
X263.77 Y82.753
X263.951 Y82.156
X264.07 Y81.543
X264.146 Y80.924
X264.196 Y80.302
X264.227 Y79.679
X264.247 Y79.055
X264.26 Y78.431
X264.268 Y77.808
X264.273 Y77.184
X264.277 Y76.56
X264.28 Y75.312
X264.281 Y74.688
X264.283 Y70.32
X264.287 Y24.148
X264.289 Y7.926
X264.222 Y7.621
X264.092 Y7.337
X263.732 Y6.828
X263.229 Y6.459
X262.659 Y6.206
X262.058 Y6.037
X261.444 Y5.927
X260.824 Y5.856
X260.202 Y5.81
X259.578 Y5.781
X258.955 Y5.762
X258.331 Y5.75
X257.707 Y5.743
X257.083 Y5.738
X256.459 Y5.735
X255.211 Y5.732
X252.091 Y5.73
X230.877 Y5.728
X180.338 Y5.724
X129.798 Y5.72
X79.259 Y5.716
X28.719 Y5.713
X9.377 Y5.711
X9.066 Y5.736
X8.764 Y5.817
X8.486 Y5.958
X7.988 Y6.334
X7.63 Y6.844
X7.384 Y7.418
X7.221 Y8.02
X7.114 Y8.635
X7.045 Y9.255
X7.001 Y9.877
X6.973 Y10.501
X6.955 Y11.124
X6.943 Y11.748
X6.936 Y12.372
X6.931 Y12.996
X6.928 Y13.62
X6.925 Y14.868
X6.923 Y17.988
X6.92 Y35.458
X6.913 Y81.006
X7.015 Y81.301
X7.329 Y81.84
X7.805 Y82.243
X8.362 Y82.525
X8.956 Y82.715
X9.567 Y82.841
X10.186 Y82.923
X10.807 Y82.976
X11.43 Y83.01
X12.054 Y83.032
X12.678 Y83.046
X13.302 Y83.055
X13.925 Y83.06
X14.549 Y83.064
X15.797 Y83.068
X18.293 Y83.07
X61.345 Y83.073
X111.885 Y83.076
X162.424 Y83.08
X212.964 Y83.083
X261.008 Y83.086
X261.304 Y82.987
X261.846 Y82.678
X262.252 Y82.205
X262.536 Y81.649
X262.728 Y81.056
X262.853 Y80.444
X262.935 Y79.826
X262.988 Y79.204
X263.022 Y78.581
X263.044 Y77.958
X263.058 Y77.334
X263.067 Y76.71
X263.073 Y76.086
X263.076 Y75.462
X263.08 Y74.214
X263.082 Y71.718
X263.086 Y31.162
X263.088 Y9.324
X263.058 Y9.013
X262.964 Y8.716
X262.813 Y8.443
X262.421 Y7.958
X261.902 Y7.611
X261.325 Y7.374
X260.721 Y7.217
X260.106 Y7.114
X259.485 Y7.048
X258.863 Y7.005
X258.239 Y6.978
X257.616 Y6.96
X256.992 Y6.949
X256.368 Y6.942
X255.744 Y6.938
X255.12 Y6.935
X253.872 Y6.932
X250.752 Y6.93
X235.778 Y6.928
X185.238 Y6.925
X134.699 Y6.921
X84.159 Y6.917
X33.619 Y6.913
X10.533 Y6.911
X10.223 Y6.945
X9.925 Y7.038
X9.652 Y7.187
X9.164 Y7.576
X8.813 Y8.093
X8.574 Y8.669
X8.415 Y9.272
X8.311 Y9.887
X8.243 Y10.508
X8.2 Y11.13
X8.172 Y11.753
X8.154 Y12.377
X8.143 Y13.001
X8.136 Y13.625
X8.131 Y14.249
X8.128 Y14.873
X8.125 Y16.12
X8.123 Y19.24
X8.12 Y32.967
X8.112 Y79.763
X8.204 Y80.061
X8.502 Y80.609
X8.97 Y81.022
X9.523 Y81.311
X10.116 Y81.506
X10.726 Y81.635
X11.344 Y81.718
X11.966 Y81.773
X12.589 Y81.808
X13.212 Y81.83
X13.836 Y81.845
X14.46 Y81.854
X15.084 Y81.86
X15.708 Y81.864
X16.956 Y81.868
X19.452 Y81.87
X61.256 Y81.873
X111.795 Y81.876
X162.335 Y81.88
X212.875 Y81.883
X259.671 Y81.886
X259.975 Y81.819
X260.259 Y81.69
X260.77 Y81.332
X261.141 Y80.83
X261.397 Y80.261
X261.567 Y79.661
X261.679 Y79.047
X261.752 Y78.427
X261.799 Y77.805
X261.829 Y77.182
X261.848 Y76.558
X261.861 Y75.935
X261.869 Y75.311
X261.874 Y74.687
X261.877 Y74.063
X261.88 Y72.815
X261.882 Y70.319
X261.887 Y28.515
X261.888 Y10.42
X261.831 Y10.114
X261.715 Y9.824
X261.376 Y9.3
X260.887 Y8.913
X260.324 Y8.644
X259.727 Y8.464
X259.114 Y8.345
X258.495 Y8.268
X257.873 Y8.218
X257.25 Y8.186
X256.626 Y8.166
X256.002 Y8.153
X255.378 Y8.144
X254.755 Y8.139
X254.131 Y8.136
X252.883 Y8.132
X250.387 Y8.13
X230.421 Y8.128
X179.881 Y8.124
X129.342 Y8.12
X78.802 Y8.116
X28.262 Y8.113
X12.04 Y8.111
X11.416 Y8.113
X11.12 Y8.212
X10.576 Y8.518
X10.168 Y8.991
X9.882 Y9.545
X9.688 Y10.138
X9.559 Y10.748
X9.475 Y11.367
X9.421 Y11.988
X9.386 Y12.611
X9.363 Y13.235
X9.349 Y13.859
X9.339 Y14.482
X9.333 Y15.106
X9.329 Y15.73
X9.325 Y16.978
X9.323 Y19.474
X9.319 Y40.688
X9.313 Y78.125
X9.321 Y78.437
X9.383 Y78.743
X9.507 Y79.028
X9.86 Y79.543
X10.358 Y79.918
X10.926 Y80.177
X11.526 Y80.35
X12.139 Y80.464
X12.759 Y80.537
X13.381 Y80.585
X14.004 Y80.616
X14.628 Y80.635
X15.252 Y80.648
X15.876 Y80.656
X16.499 Y80.661
X17.123 Y80.664
X18.371 Y80.668
X20.867 Y80.67
X71.407 Y80.674
X121.946 Y80.677
X172.486 Y80.68
X223.025 Y80.684
X258.59 Y80.686
X258.887 Y80.589
X259.431 Y80.284
X259.84 Y79.813
X260.126 Y79.259
X260.32 Y78.666
X260.448 Y78.055
X260.532 Y77.437
X260.586 Y76.815
X260.621 Y76.192
X260.643 Y75.569
X260.657 Y74.945
X260.666 Y74.321
X260.672 Y73.697
X260.676 Y73.073
X260.68 Y71.825
X260.682 Y69.329
X260.683 Y66.834
X260.688 Y16.294
Y11.926
X260.679 Y11.615
X260.623 Y11.308
X260.507 Y11.018
X260.168 Y10.495
X259.677 Y10.109
X259.114 Y9.841
X258.516 Y9.662
X257.903 Y9.544
X257.284 Y9.468
X256.662 Y9.418
X256.039 Y9.386
X255.415 Y9.366
X254.791 Y9.353
X254.168 Y9.344
X253.544 Y9.339
X252.92 Y9.336
X251.672 Y9.332
X249.176 Y9.33
X216.107 Y9.327
X165.567 Y9.323
X115.028 Y9.319
X64.488 Y9.315
X13.949 Y9.311
X12.701 Y9.312
X12.399 Y9.389
X12.118 Y9.527
X11.617 Y9.898
X11.253 Y10.404
X11.002 Y10.976
X10.834 Y11.577
X10.724 Y12.191
X10.652 Y12.811
X10.606 Y13.433
X10.576 Y14.056
X10.557 Y14.68
X10.544 Y15.303
X10.537 Y15.927
X10.531 Y16.551
X10.528 Y17.175
X10.525 Y18.423
X10.522 Y20.919
X10.516 Y57.732
X10.513 Y77.074
X10.547 Y77.384
X10.642 Y77.681
X10.947 Y78.225
X11.419 Y78.633
X11.974 Y78.919
X12.568 Y79.112
X13.179 Y79.239
X13.797 Y79.321
X14.419 Y79.375
X15.042 Y79.409
X15.665 Y79.431
X16.289 Y79.445
X16.913 Y79.454
X17.537 Y79.46
X18.161 Y79.464
X19.409 Y79.468
X21.904 Y79.47
X40.623 Y79.472
X91.162 Y79.475
X141.702 Y79.478
X192.241 Y79.482
X242.781 Y79.485
X257.132 Y79.486
X257.441 Y79.448
X257.736 Y79.346
X258.273 Y79.029
X258.672 Y78.549
X258.949 Y77.99
X259.135 Y77.394
X259.258 Y76.782
X259.338 Y76.163
X259.39 Y75.542
X259.423 Y74.919
X259.445 Y74.295
X259.458 Y73.671
X259.467 Y73.047
X259.473 Y72.423
X259.476 Y71.799
X259.48 Y70.552
X259.482 Y68.056
X259.485 Y44.346
X259.488 Y13.149
X259.481 Y12.837
X259.429 Y12.529
X259.316 Y12.238
X258.982 Y11.711
X258.496 Y11.32
X257.934 Y11.05
X257.337 Y10.868
X256.724 Y10.748
X256.105 Y10.67
X255.484 Y10.62
X254.86 Y10.587
X254.237 Y10.567
X253.613 Y10.553
X252.989 Y10.545
X252.365 Y10.539
X251.741 Y10.536
X250.493 Y10.532
X247.998 Y10.53
X241.758 Y10.529
X191.219 Y10.525
X140.679 Y10.521
X90.139 Y10.517
X39.6 Y10.513
X14.018 Y10.511
X13.711 Y10.566
X13.421 Y10.682
X12.897 Y11.02
X12.509 Y11.509
X12.24 Y12.072
X12.059 Y12.669
X11.94 Y13.282
X11.862 Y13.901
X11.812 Y14.523
X11.78 Y15.146
X11.759 Y15.769
X11.746 Y16.393
X11.738 Y17.017
X11.732 Y17.641
X11.729 Y18.265
X11.725 Y19.513
X11.722 Y22.008
X11.72 Y34.487
X11.713 Y75.668
X11.721 Y75.98
X11.773 Y76.287
X11.888 Y76.577
X12.225 Y77.103
X12.715 Y77.489
X13.279 Y77.756
X13.876 Y77.936
X14.489 Y78.054
X15.108 Y78.131
X15.73 Y78.181
X16.353 Y78.213
X16.977 Y78.234
X17.6 Y78.247
X18.224 Y78.255
X18.848 Y78.261
X19.472 Y78.264
X20.72 Y78.268
X23.216 Y78.27
X70.012 Y78.274
X120.551 Y78.277
X171.091 Y78.28
X221.63 Y78.284
X255.947 Y78.286
X256.256 Y78.242
X256.55 Y78.136
X257.083 Y77.812
X257.479 Y77.33
X257.754 Y76.77
X257.938 Y76.174
X258.06 Y75.562
X258.139 Y74.943
X258.191 Y74.321
X258.224 Y73.698
X258.245 Y73.074
X258.259 Y72.451
X258.267 Y71.827
X258.273 Y71.203
X258.276 Y70.579
X258.28 Y69.331
X258.283 Y66.835
Y63.091
X258.288 Y14.424
X258.284 Y13.8
X258.181 Y13.505
X257.866 Y12.967
X257.391 Y12.563
X256.835 Y12.279
X256.241 Y12.088
X255.63 Y11.962
X255.011 Y11.879
X254.39 Y11.826
X253.767 Y11.791
X253.143 Y11.769
X252.52 Y11.755
X251.896 Y11.746
X251.272 Y11.74
X250.648 Y11.736
X249.4 Y11.732
X246.904 Y11.73
X207.596 Y11.726
X157.056 Y11.722
X106.516 Y11.719
X55.977 Y11.715
X15.42 Y11.712
X15.109 Y11.733
X14.806 Y11.808
X14.525 Y11.943
X14.021 Y12.31
X13.655 Y12.816
X13.403 Y13.387
X13.235 Y13.988
X13.124 Y14.602
X13.052 Y15.221
X13.006 Y15.844
X12.976 Y16.467
X12.957 Y17.09
X12.944 Y17.714
X12.936 Y18.338
X12.931 Y18.962
X12.928 Y19.586
X12.926 Y20.21
X12.923 Y22.082
X12.921 Y30.193
X12.914 Y70.75
X12.913 Y74.493
X12.925 Y74.805
X12.983 Y75.111
X13.103 Y75.4
X13.448 Y75.919
X13.942 Y76.301
X14.507 Y76.564
X15.106 Y76.741
X15.719 Y76.858
X16.338 Y76.933
X16.96 Y76.982
X17.583 Y77.014
X18.207 Y77.034
X18.831 Y77.047
X19.455 Y77.056
X20.079 Y77.061
X20.702 Y77.064
X21.95 Y77.068
X24.446 Y77.07
X58.139 Y77.073
X108.679 Y77.076
X159.218 Y77.08
X209.758 Y77.083
X254.682 Y77.086
X254.992 Y77.053
X255.29 Y76.958
X255.835 Y76.655
X256.244 Y76.184
X256.53 Y75.63
X256.723 Y75.036
X256.85 Y74.425
X256.933 Y73.807
X256.986 Y73.185
X257.021 Y72.562
X257.043 Y71.939
X257.057 Y71.315
X257.067 Y70.691
X257.072 Y70.067
X257.076 Y69.443
X257.08 Y68.195
X257.083 Y65.699
X257.087 Y22.023
X257.088 Y15.16
X257.022 Y14.855
X256.895 Y14.57
X256.541 Y14.056
X256.041 Y13.682
X255.473 Y13.424
X254.874 Y13.251
X254.26 Y13.138
X253.641 Y13.063
X253.019 Y13.015
X252.395 Y12.985
X251.772 Y12.965
X251.148 Y12.952
X250.524 Y12.944
X249.9 Y12.939
X249.276 Y12.935
X248.028 Y12.932
X245.533 Y12.93
X214.335 Y12.927
X163.796 Y12.923
X113.256 Y12.919
X62.717 Y12.915
X16.545 Y12.912
X16.234 Y12.945
X15.936 Y13.038
X15.662 Y13.187
X15.173 Y13.574
X14.822 Y14.089
X14.581 Y14.665
X14.42 Y15.268
X14.315 Y15.883
X14.246 Y16.503
X14.202 Y17.125
X14.173 Y17.749
X14.155 Y18.372
X14.143 Y18.996
X14.135 Y19.62
X14.131 Y20.244
X14.127 Y20.868
X14.124 Y22.116
X14.122 Y24.612
X14.115 Y66.416
X14.113 Y73.279
X14.124 Y73.591
X14.181 Y73.898
X14.299 Y74.187
X14.641 Y74.708
X15.132 Y75.093
X15.697 Y75.359
X16.295 Y75.538
X16.908 Y75.655
X17.527 Y75.732
X18.149 Y75.782
X18.772 Y75.813
X19.395 Y75.834
X20.019 Y75.847
X20.643 Y75.856
X21.267 Y75.861
X21.891 Y75.864
X23.139 Y75.868
X25.635 Y75.87
X56.208 Y75.873
X106.748 Y75.876
X157.287 Y75.879
X207.827 Y75.883
X253.375 Y75.886
X253.686 Y75.868
X253.99 Y75.795
X254.272 Y75.662
X254.778 Y75.298
X255.146 Y74.794
X255.399 Y74.223
X255.569 Y73.623
X255.68 Y73.009
X255.752 Y72.389
X255.799 Y71.767
X255.829 Y71.144
X255.849 Y70.52
X255.861 Y69.896
X255.869 Y69.272
X255.874 Y68.649
X255.877 Y68.025
X255.881 Y66.777
X255.883 Y64.281
X255.887 Y21.853
X255.888 Y16.237
X255.793 Y15.94
X255.492 Y15.393
X255.023 Y14.982
X254.47 Y14.693
X253.877 Y14.497
X253.267 Y14.368
X252.649 Y14.283
X252.027 Y14.228
X251.404 Y14.193
X250.781 Y14.17
X250.157 Y14.155
X249.533 Y14.146
X248.909 Y14.14
X248.285 Y14.136
X247.037 Y14.132
X244.542 Y14.129
X212.097 Y14.127
X161.557 Y14.123
X111.017 Y14.119
X60.478 Y14.115
X18.05 Y14.112
X17.426 Y14.114
X17.129 Y14.212
X16.585 Y14.516
X16.175 Y14.987
X15.887 Y15.541
X15.692 Y16.133
X15.562 Y16.744
X15.477 Y17.362
X15.422 Y17.983
X15.386 Y18.606
X15.363 Y19.23
X15.348 Y19.854
X15.339 Y20.477
X15.333 Y21.101
X15.329 Y21.725
X15.324 Y22.973
X15.322 Y25.469
X15.314 Y71.017
Y72.265
X15.348 Y72.575
X15.444 Y72.872
X15.747 Y73.417
X16.218 Y73.827
X16.772 Y74.114
X17.365 Y74.308
X17.975 Y74.436
X18.594 Y74.519
X19.215 Y74.573
X19.838 Y74.608
X20.462 Y74.631
X21.086 Y74.645
X21.71 Y74.654
X22.333 Y74.66
X22.957 Y74.664
X24.205 Y74.668
X26.701 Y74.67
X63.514 Y74.673
X114.053 Y74.677
X164.593 Y74.68
X215.133 Y74.683
X251.945 Y74.686
X252.569 Y74.684
X252.867 Y74.589
X253.414 Y74.289
X253.826 Y73.821
X254.116 Y73.268
X254.312 Y72.676
X254.443 Y72.066
X254.528 Y71.448
X254.583 Y70.826
X254.619 Y70.203
X254.642 Y69.58
X254.657 Y68.956
X254.666 Y68.332
X254.672 Y67.708
X254.676 Y67.084
X254.68 Y65.836
X254.683 Y63.341
Y62.717
X254.688 Y17.793
X254.669 Y17.481
X254.588 Y17.18
X254.447 Y16.902
X254.07 Y16.405
X253.56 Y16.045
X252.987 Y15.799
X252.385 Y15.634
X251.771 Y15.526
X251.151 Y15.456
X250.528 Y15.41
X249.905 Y15.381
X249.281 Y15.362
X248.658 Y15.35
X248.034 Y15.343
X247.41 Y15.338
X246.786 Y15.335
X245.538 Y15.331
X243.042 Y15.329
X199.99 Y15.326
X149.45 Y15.322
X98.911 Y15.318
X48.371 Y15.314
X19.046 Y15.312
X18.734 Y15.325
X18.43 Y15.394
X18.147 Y15.525
X17.638 Y15.887
X17.268 Y16.389
X17.012 Y16.958
X16.841 Y17.558
X16.728 Y18.172
X16.655 Y18.791
X16.607 Y19.413
X16.577 Y20.037
X16.557 Y20.66
X16.544 Y21.284
X16.536 Y21.908
X16.531 Y22.532
X16.528 Y23.156
X16.524 Y24.404
X16.521 Y26.9
X16.52 Y35.011
X16.514 Y71.2
X16.572 Y71.506
X16.693 Y71.794
X17.036 Y72.315
X17.529 Y72.697
X18.095 Y72.961
X18.693 Y73.139
X19.306 Y73.256
X19.925 Y73.332
X20.547 Y73.382
X21.17 Y73.414
X21.794 Y73.434
X22.417 Y73.447
X23.041 Y73.456
X23.665 Y73.461
X24.289 Y73.465
X25.537 Y73.468
X28.033 Y73.47
X29.905 Y73.471
X80.444 Y73.474
X130.984 Y73.478
X181.523 Y73.481
X232.063 Y73.484
X251.405 Y73.485
X251.701 Y73.386
X252.242 Y73.075
X252.648 Y72.601
X252.931 Y72.045
X253.123 Y71.451
X253.249 Y70.84
X253.332 Y70.222
X253.386 Y69.6
X253.421 Y68.977
X253.443 Y68.354
X253.457 Y67.73
X253.467 Y67.106
X253.473 Y66.482
X253.476 Y65.858
X253.48 Y64.61
X253.483 Y62.115
X253.485 Y43.396
X253.487 Y19.062
X253.47 Y18.751
X253.401 Y18.447
X253.272 Y18.162
X252.913 Y17.652
X252.414 Y17.278
X251.846 Y17.021
X251.246 Y16.849
X250.632 Y16.735
X250.013 Y16.662
X249.391 Y16.614
X248.767 Y16.584
X248.144 Y16.564
X247.52 Y16.551
X246.896 Y16.543
X246.272 Y16.538
X245.648 Y16.535
X244.4 Y16.531
X241.904 Y16.529
X228.802 Y16.528
X178.262 Y16.524
X127.722 Y16.52
X77.183 Y16.516
X26.643 Y16.512
X20.404
X19.78 Y16.514
X19.487 Y16.622
X18.951 Y16.942
X18.551 Y17.42
X18.27 Y17.977
X18.079 Y18.571
X17.954 Y19.182
X17.871 Y19.801
X17.818 Y20.423
X17.784 Y21.045
X17.761 Y21.669
X17.747 Y22.293
X17.738 Y22.917
X17.732 Y23.541
X17.728 Y24.165
X17.724 Y25.412
X17.721 Y27.908
X17.716 Y59.105
X17.714 Y69.713
X17.727 Y70.024
X17.789 Y70.33
X17.913 Y70.617
X18.264 Y71.132
X18.761 Y71.51
X19.328 Y71.77
X19.927 Y71.945
X20.54 Y72.06
X21.159 Y72.135
X21.781 Y72.184
X22.405 Y72.215
X23.028 Y72.235
X23.652 Y72.248
X24.276 Y72.256
X24.9 Y72.261
X25.524 Y72.265
X26.772 Y72.268
X29.267 Y72.271
X56.097 Y72.273
X106.637 Y72.276
X157.176 Y72.279
X207.716 Y72.283
X250.144 Y72.286
X250.444 Y72.201
X250.721 Y72.057
X251.215 Y71.675
X251.571 Y71.163
X251.816 Y70.589
X251.98 Y69.987
X252.087 Y69.372
X252.157 Y68.752
X252.202 Y68.13
X252.231 Y67.507
X252.25 Y66.883
X252.262 Y66.259
X252.27 Y65.635
X252.275 Y65.012
X252.278 Y64.388
X252.281 Y63.14
X252.283 Y60.644
X252.287 Y20.087
X252.242 Y19.779
X252.138 Y19.485
X251.818 Y18.949
X251.34 Y18.548
X250.782 Y18.269
X250.187 Y18.08
X249.576 Y17.956
X248.957 Y17.875
X248.335 Y17.823
X247.712 Y17.789
X247.089 Y17.768
X246.465 Y17.754
X245.841 Y17.745
X245.217 Y17.739
X244.593 Y17.735
X243.345 Y17.732
X240.85 Y17.729
X197.173 Y17.725
X146.634 Y17.722
X96.094 Y17.718
X45.555 Y17.714
X21.221 Y17.712
X20.913 Y17.762
X20.622 Y17.875
X20.096 Y18.21
X19.708 Y18.699
X19.44 Y19.263
X19.259 Y19.86
X19.14 Y20.472
X19.062 Y21.091
X19.012 Y21.713
X18.98 Y22.336
X18.959 Y22.96
X18.945 Y23.584
X18.937 Y24.208
X18.931 Y24.832
X18.927 Y25.456
X18.924 Y26.703
X18.921 Y29.199
X18.918 Y42.926
X18.914 Y68.508
X18.929 Y68.819
X18.991 Y69.125
X19.114 Y69.412
X19.465 Y69.928
X19.96 Y70.307
X20.527 Y70.569
X21.125 Y70.744
X21.739 Y70.859
X22.358 Y70.935
X22.98 Y70.983
X23.603 Y71.015
X24.227 Y71.035
X24.851 Y71.048
X25.475 Y71.056
X26.098 Y71.061
X26.722 Y71.065
X27.97 Y71.068
X30.466 Y71.071
X42.321 Y71.072
X92.861 Y71.075
X143.4 Y71.079
X193.94 Y71.082
X244.479 Y71.085
X248.847 Y71.086
X249.152 Y71.019
X249.437 Y70.893
X249.95 Y70.537
X250.326 Y70.04
X250.586 Y69.472
X250.76 Y68.873
X250.874 Y68.26
X250.949 Y67.64
X250.997 Y67.018
X251.028 Y66.395
X251.048 Y65.771
X251.061 Y65.148
X251.069 Y64.524
X251.074 Y63.9
X251.077 Y63.276
X251.081 Y62.028
X251.083 Y59.532
X251.087 Y25.839
Y21.472
X251.071 Y21.16
X251.004 Y20.855
X250.877 Y20.57
X250.523 Y20.057
X250.023 Y19.683
X249.455 Y19.424
X248.856 Y19.251
X248.242 Y19.137
X247.623 Y19.063
X247.001 Y19.015
X246.378 Y18.984
X245.754 Y18.964
X245.13 Y18.952
X244.506 Y18.943
X243.882 Y18.938
X243.258 Y18.935
X242.011 Y18.931
X239.515 Y18.929
X206.446 Y18.926
X155.906 Y18.922
X105.367 Y18.918
X54.827 Y18.915
X22.382 Y18.912
X22.076 Y18.972
X21.788 Y19.093
X21.27 Y19.441
X20.89 Y19.936
X20.627 Y20.502
X20.451 Y21.1
X20.334 Y21.713
X20.259 Y22.332
X20.21 Y22.954
X20.178 Y23.578
X20.158 Y24.201
X20.145 Y24.825
X20.136 Y25.449
X20.131 Y26.073
X20.127 Y26.697
X20.123 Y27.945
X20.121 Y30.44
X20.12 Y36.056
X20.114 Y67.253
X20.123 Y67.565
X20.176 Y67.872
X20.29 Y68.163
X20.625 Y68.689
X21.112 Y69.08
X21.674 Y69.35
X22.271 Y69.532
X22.883 Y69.651
X23.503 Y69.73
X24.124 Y69.78
X24.748 Y69.813
X25.371 Y69.834
X25.995 Y69.847
X26.619 Y69.856
X27.243 Y69.861
X27.867 Y69.865
X29.115 Y69.868
X31.61 Y69.871
X37.85 Y69.872
X88.389 Y69.875
X138.929 Y69.878
X189.468 Y69.882
X240.008 Y69.885
X247.495
X247.805 Y69.848
X248.101 Y69.75
X248.644 Y69.442
X249.05 Y68.968
X249.334 Y68.413
X249.526 Y67.819
X249.652 Y67.208
X249.734 Y66.589
X249.788 Y65.968
X249.822 Y65.345
X249.844 Y64.721
X249.858 Y64.097
X249.867 Y63.474
X249.873 Y62.85
X249.877 Y62.226
X249.881 Y60.978
X249.883 Y58.482
X249.887 Y27.909
Y22.917
X249.886 Y22.293
X249.802 Y21.993
X249.661 Y21.714
X249.286 Y21.216
X248.777 Y20.854
X248.205 Y20.605
X247.604 Y20.439
X246.99 Y20.329
X246.37 Y20.258
X245.748 Y20.212
X245.124 Y20.182
X244.501 Y20.163
X243.877 Y20.151
X243.253 Y20.143
X242.629 Y20.138
X242.005 Y20.135
X240.757 Y20.131
X238.261 Y20.129
X205.816 Y20.126
X155.277 Y20.122
X104.737 Y20.118
X54.198 Y20.115
X23.624 Y20.112
X23.317 Y20.165
X23.026 Y20.279
X22.5 Y20.615
X22.111 Y21.102
X21.841 Y21.665
X21.66 Y22.262
X21.54 Y22.874
X21.462 Y23.493
X21.412 Y24.115
X21.379 Y24.738
X21.358 Y25.362
X21.345 Y25.986
X21.336 Y26.609
X21.331 Y27.233
X21.327 Y27.857
X21.323 Y29.105
X21.321 Y31.601
X21.319 Y39.088
X21.315 Y65.918
X21.316 Y66.542
X21.408 Y66.84
X21.703 Y67.39
X22.168 Y67.806
X22.719 Y68.099
X23.311 Y68.297
X23.921 Y68.429
X24.539 Y68.515
X25.16 Y68.571
X25.783 Y68.606
X26.406 Y68.63
X27.03 Y68.644
X27.654 Y68.654
X28.278 Y68.66
X28.902 Y68.664
X30.15 Y68.668
X32.646 Y68.671
X43.253 Y68.672
X93.792 Y68.675
X144.332 Y68.679
X194.871 Y68.682
X245.411 Y68.685
X246.035
X246.347 Y68.681
X246.656 Y68.636
X246.949 Y68.53
X247.482 Y68.206
X247.878 Y67.723
X248.153 Y67.163
X248.338 Y66.567
X248.46 Y65.956
X248.539 Y65.337
X248.591 Y64.715
X248.624 Y64.092
X248.645 Y63.468
X248.659 Y62.844
X248.668 Y62.221
X248.674 Y61.597
X248.677 Y60.973
X248.681 Y59.725
X248.683 Y57.229
X248.687 Y23.536
X248.614 Y23.233
X248.481 Y22.95
X248.117 Y22.444
X247.615 Y22.073
X247.045 Y21.818
X246.445 Y21.647
X245.831 Y21.535
X245.212 Y21.461
X244.59 Y21.414
X243.966 Y21.383
X243.343 Y21.364
X242.719 Y21.351
X242.095 Y21.343
X241.471 Y21.338
X240.847 Y21.335
X239.599 Y21.331
X237.104 Y21.329
X195.923 Y21.325
X145.384 Y21.321
X94.844 Y21.318
X44.304 Y21.314
X24.962 Y21.312
X24.651 Y21.34
X24.352 Y21.427
X24.076 Y21.573
X23.583 Y21.956
X23.229 Y22.469
X22.985 Y23.043
X22.822 Y23.646
X22.716 Y24.261
X22.646 Y24.881
X22.601 Y25.503
X22.572 Y26.126
X22.554 Y26.75
X22.542 Y27.374
X22.534 Y27.998
X22.529 Y28.622
X22.526 Y29.246
X22.523 Y30.493
X22.52 Y32.989
X22.517 Y51.084
X22.515 Y65.122
X22.556 Y65.432
X22.659 Y65.726
X22.978 Y66.262
X23.459 Y66.66
X24.018 Y66.936
X24.614 Y67.122
X25.226 Y67.245
X25.844 Y67.325
X26.466 Y67.377
X27.089 Y67.411
X27.713 Y67.433
X28.337 Y67.446
X28.96 Y67.455
X29.584 Y67.461
X30.208 Y67.465
X31.456 Y67.468
X33.952 Y67.471
X57.662 Y67.473
X108.201 Y67.476
X158.741 Y67.48
X209.281 Y67.483
X244.846 Y67.485
X245.157 Y67.48
X245.466 Y67.433
X245.758 Y67.324
X246.289 Y66.996
X246.683 Y66.513
X246.956 Y65.952
X247.14 Y65.355
X247.261 Y64.743
X247.34 Y64.124
X247.392 Y63.503
X247.425 Y62.88
X247.446 Y62.256
X247.459 Y61.632
X247.468 Y61.008
X247.474 Y60.384
X247.477 Y59.76
X247.481 Y58.512
X247.484 Y56.017
Y54.145
X247.487 Y24.819
X247.43 Y24.513
X247.313 Y24.223
X246.973 Y23.7
X246.484 Y23.313
X245.921 Y23.045
X245.323 Y22.865
X244.711 Y22.746
X244.092 Y22.669
X243.47 Y22.619
X242.847 Y22.586
X242.223 Y22.566
X241.599 Y22.552
X240.975 Y22.544
X240.351 Y22.538
X239.727 Y22.535
X238.48 Y22.531
X235.984 Y22.529
X227.249 Y22.528
X176.709 Y22.524
X126.169 Y22.52
X75.63 Y22.516
X26.338 Y22.512
X26.026 Y22.52
X25.719 Y22.576
X25.429 Y22.691
X24.903 Y23.027
X24.514 Y23.514
X24.243 Y24.076
X24.061 Y24.673
X23.94 Y25.285
X23.862 Y25.904
X23.812 Y26.526
X23.779 Y27.149
X23.758 Y27.773
X23.744 Y28.397
X23.736 Y29.02
X23.73 Y29.644
X23.727 Y30.268
X23.723 Y31.516
X23.72 Y34.012
X23.715 Y63.961
X23.765 Y64.269
X23.876 Y64.561
X24.209 Y65.089
X24.696 Y65.479
X25.258 Y65.749
X25.855 Y65.931
X26.467 Y66.051
X27.086 Y66.129
X27.708 Y66.18
X28.331 Y66.213
X28.955 Y66.234
X29.578 Y66.247
X30.202 Y66.256
X30.826 Y66.261
X31.45 Y66.265
X32.698 Y66.269
X35.194 Y66.271
X81.99 Y66.274
X132.529 Y66.278
X183.069 Y66.281
X233.608 Y66.285
X243.592
X244.216 Y66.282
X244.51 Y66.179
X245.048 Y65.863
X245.452 Y65.387
X245.735 Y64.831
X245.925 Y64.237
X246.051 Y63.626
X246.134 Y63.007
X246.187 Y62.386
X246.222 Y61.763
X246.244 Y61.139
X246.258 Y60.515
X246.267 Y59.892
X246.273 Y59.268
X246.277 Y58.644
X246.281 Y57.396
X246.284 Y54.9
X246.287 Y27.446
Y26.199
X246.262 Y25.888
X246.18 Y25.586
X246.04 Y25.308
X245.665 Y24.809
X245.155 Y24.449
X244.583 Y24.201
X243.981 Y24.036
X243.367 Y23.927
X242.747 Y23.856
X242.125 Y23.811
X241.501 Y23.781
X240.878 Y23.762
X240.254 Y23.75
X239.63 Y23.742
X239.006 Y23.737
X238.382 Y23.734
X237.134 Y23.731
X234.638 Y23.729
X198.45 Y23.726
X147.91 Y23.722
X97.37 Y23.718
X46.831 Y23.714
X27.489 Y23.712
X27.177 Y23.728
X26.871 Y23.789
X26.584 Y23.912
X26.067 Y24.261
X25.688 Y24.757
X25.425 Y25.323
X25.249 Y25.921
X25.133 Y26.534
X25.057 Y27.154
X25.009 Y27.776
X24.977 Y28.399
X24.957 Y29.022
X24.944 Y29.646
X24.935 Y30.27
X24.93 Y30.894
X24.926 Y31.518
X24.923 Y32.766
X24.92 Y35.262
X24.917 Y53.356
X24.915 Y62.715
X24.958 Y63.024
X25.061 Y63.319
X25.38 Y63.855
X25.858 Y64.255
X26.417 Y64.534
X27.012 Y64.721
X27.624 Y64.844
X28.242 Y64.925
X28.864 Y64.977
X29.487 Y65.011
X30.111 Y65.033
X30.735 Y65.046
X31.358 Y65.055
X31.982 Y65.061
X32.606 Y65.065
X33.854 Y65.069
X36.35 Y65.071
X65.051 Y65.073
X115.591 Y65.077
X166.131 Y65.08
X216.67 Y65.083
X242.876 Y65.085
X243.18 Y65.015
X243.463 Y64.883
X243.971 Y64.522
X244.341 Y64.019
X244.596 Y63.449
X244.766 Y62.849
X244.879 Y62.235
X244.952 Y61.616
X244.999 Y60.994
X245.029 Y60.37
X245.049 Y59.747
X245.062 Y59.123
X245.07 Y58.499
X245.075 Y57.875
X245.078 Y57.251
X245.082 Y56.003
X245.084 Y53.508
X245.085 Y41.653
X245.087 Y27.302
X245.044 Y26.993
X244.942 Y26.698
X244.627 Y26.159
X244.15 Y25.757
X243.593 Y25.475
X242.999 Y25.285
X242.388 Y25.159
X241.77 Y25.077
X241.148 Y25.024
X240.525 Y24.99
X239.901 Y24.968
X239.277 Y24.954
X238.654 Y24.945
X238.03 Y24.939
X237.406 Y24.935
X236.158 Y24.931
X233.662 Y24.929
X209.952 Y24.926
X159.413 Y24.923
X108.873 Y24.919
X58.333 Y24.915
X28.384 Y24.913
X28.079 Y24.976
X27.792 Y25.098
X27.274 Y25.447
X26.893 Y25.94
X26.629 Y26.506
X26.452 Y27.104
X26.335 Y27.717
X26.259 Y28.336
X26.209 Y28.958
X26.177 Y29.581
X26.157 Y30.205
X26.144 Y30.829
X26.135 Y31.453
X26.13 Y32.076
X26.126 Y32.7
X26.122 Y33.948
X26.12 Y36.444
X26.118 Y44.555
X26.115 Y61.402
X26.139 Y61.713
X26.22 Y62.014
X26.36 Y62.293
X26.736 Y62.791
X27.245 Y63.151
X27.818 Y63.399
X28.419 Y63.564
X29.034 Y63.673
X29.654 Y63.744
X30.276 Y63.789
X30.899 Y63.819
X31.523 Y63.838
X32.147 Y63.85
X32.771 Y63.858
X33.395 Y63.863
X34.019 Y63.866
X35.266 Y63.869
X37.762 Y63.871
X58.352 Y63.873
X108.892 Y63.876
X159.432 Y63.88
X209.971 Y63.883
X241.792 Y63.885
X242.088 Y63.787
X242.632 Y63.48
X243.04 Y63.007
X243.326 Y62.453
X243.52 Y61.86
X243.648 Y61.249
X243.732 Y60.631
X243.786 Y60.009
X243.821 Y59.386
X243.844 Y58.763
X243.858 Y58.139
X243.867 Y57.515
X243.873 Y56.891
X243.877 Y56.267
X243.881 Y55.02
X243.884 Y52.524
X243.885 Y46.284
X243.887 Y28.814
X243.883 Y28.19
X243.778 Y27.896
X243.459 Y27.36
X242.982 Y26.957
X242.425 Y26.676
X241.831 Y26.486
X241.22 Y26.36
X240.601 Y26.278
X239.98 Y26.225
X239.357 Y26.19
X238.733 Y26.168
X238.109 Y26.154
X237.485 Y26.145
X236.862 Y26.139
X236.238 Y26.135
X234.99 Y26.131
X232.494 Y26.129
X212.528 Y26.127
X161.988 Y26.123
X111.449 Y26.119
X60.909 Y26.115
X29.712 Y26.113
X29.402 Y26.15
X29.106 Y26.248
X28.564 Y26.557
X28.157 Y27.03
X27.872 Y27.585
X27.68 Y28.179
X27.553 Y28.79
X27.47 Y29.408
X27.417 Y30.03
X27.382 Y30.653
X27.36 Y31.276
X27.345 Y31.9
X27.336 Y32.524
X27.33 Y33.148
X27.327 Y33.772
X27.322 Y35.02
X27.32 Y37.515
X27.318 Y44.379
X27.316 Y59.977
X27.319 Y60.601
X27.424 Y60.895
X27.74 Y61.433
X28.216 Y61.836
X28.772 Y62.119
X29.366 Y62.311
X29.977 Y62.437
X30.595 Y62.52
X31.217 Y62.574
X31.84 Y62.609
X32.463 Y62.631
X33.087 Y62.646
X33.711 Y62.655
X34.335 Y62.661
X34.959 Y62.665
X36.207 Y62.669
X38.703 Y62.671
X60.541 Y62.673
X111.08 Y62.676
X161.62 Y62.68
X212.159 Y62.683
X240.237 Y62.685
X240.548 Y62.663
X240.849 Y62.579
X241.125 Y62.436
X241.619 Y62.054
X241.975 Y61.542
X242.22 Y60.968
X242.383 Y60.365
X242.49 Y59.751
X242.559 Y59.131
X242.604 Y58.508
X242.633 Y57.885
X242.651 Y57.261
X242.663 Y56.637
X242.671 Y56.014
X242.676 Y55.39
X242.679 Y54.766
X242.682 Y53.518
X242.684 Y51.022
X242.685 Y41.663
X242.686 Y29.808
X242.669 Y29.496
X242.592 Y29.194
X242.453 Y28.915
X242.08 Y28.414
X241.572 Y28.052
X241 Y27.803
X240.399 Y27.637
X239.784 Y27.528
X239.165 Y27.457
X238.542 Y27.411
X237.919 Y27.381
X237.295 Y27.362
X236.672 Y27.35
X236.048 Y27.342
X235.424 Y27.337
X234.8 Y27.334
X233.552 Y27.331
X231.056 Y27.328
X205.474 Y27.326
X154.935 Y27.322
X104.395 Y27.318
X53.856 Y27.315
X30.77 Y27.313
X30.464 Y27.377
X30.178 Y27.501
X29.662 Y27.851
X29.284 Y28.348
X29.023 Y28.915
X28.848 Y29.513
X28.732 Y30.127
X28.657 Y30.746
X28.608 Y31.368
X28.576 Y31.991
X28.556 Y32.615
X28.543 Y33.239
X28.535 Y33.862
X28.529 Y34.486
X28.526 Y35.11
X28.522 Y36.358
X28.52 Y38.854
X28.517 Y53.829
X28.516 Y59.132
X28.559 Y59.441
X28.664 Y59.735
X28.987 Y60.269
X29.47 Y60.664
X30.03 Y60.939
X30.626 Y61.125
X31.237 Y61.247
X31.856 Y61.327
X32.478 Y61.378
X33.101 Y61.412
X33.725 Y61.433
X34.348 Y61.447
X34.972 Y61.456
X35.596 Y61.461
X36.22 Y61.465
X37.468 Y61.469
X39.964 Y61.471
X72.409 Y61.474
X122.949 Y61.477
X173.488 Y61.481
X224.028 Y61.484
X239.002 Y61.485
X239.313 Y61.46
X239.615 Y61.381
X239.895 Y61.244
X240.395 Y60.871
X240.759 Y60.364
X241.009 Y59.792
X241.175 Y59.19
X241.285 Y58.576
X241.356 Y57.956
X241.402 Y57.334
X241.431 Y56.711
X241.45 Y56.087
X241.463 Y55.463
X241.47 Y54.839
X241.475 Y54.215
X241.479 Y53.592
X241.482 Y52.344
X241.484 Y49.848
X241.486 Y31.13
X241.477 Y30.818
X241.421 Y30.511
X241.304 Y30.222
X240.964 Y29.698
X240.474 Y29.312
X239.911 Y29.043
X239.314 Y28.863
X238.701 Y28.745
X238.082 Y28.668
X237.46 Y28.618
X236.837 Y28.586
X236.213 Y28.565
X235.589 Y28.552
X234.966 Y28.543
X234.342 Y28.538
X233.718 Y28.534
X232.47 Y28.531
X229.974 Y28.528
X188.17 Y28.525
X137.63 Y28.521
X87.091 Y28.517
X36.551 Y28.513
X32.183
X31.872 Y28.538
X31.572 Y28.621
X31.294 Y28.763
X30.796 Y29.139
X30.437 Y29.65
X30.191 Y30.223
X30.026 Y30.825
X29.918 Y31.439
X29.847 Y32.059
X29.802 Y32.681
X29.772 Y33.304
X29.753 Y33.928
X29.741 Y34.552
X29.733 Y35.176
X29.728 Y35.8
X29.725 Y36.424
X29.722 Y37.672
X29.719 Y40.167
X29.716 Y57.638
X29.72 Y57.95
X29.768 Y58.258
X29.877 Y58.55
X30.206 Y59.081
X30.69 Y59.473
X31.252 Y59.746
X31.848 Y59.929
X32.46 Y60.05
X33.079 Y60.129
X33.701 Y60.18
X34.324 Y60.213
X34.948 Y60.234
X35.572 Y60.247
X36.196 Y60.256
X36.819 Y60.262
X37.443 Y60.265
X38.691 Y60.269
X41.187 Y60.271
X44.307 Y60.272
X94.846 Y60.275
X145.386 Y60.279
X195.926 Y60.282
X237.73 Y60.285
X238.041 Y60.268
X238.346 Y60.202
X238.632 Y60.076
X239.146 Y59.723
X239.524 Y59.226
X239.785 Y58.659
X239.959 Y58.06
X240.074 Y57.447
X240.149 Y56.828
X240.198 Y56.206
X240.229 Y55.583
X240.249 Y54.959
X240.262 Y54.335
X240.27 Y53.711
X240.275 Y53.087
X240.278 Y52.463
X240.282 Y51.215
X240.284 Y48.72
X240.286 Y32.497
X240.285 Y31.873
X240.197 Y31.574
X240.052 Y31.297
X239.672 Y30.803
X239.161 Y30.445
X238.587 Y30.199
X237.986 Y30.034
X237.371 Y29.926
X236.751 Y29.856
X236.129 Y29.81
X235.506 Y29.781
X234.882 Y29.762
X234.258 Y29.75
X233.634 Y29.742
X233.01 Y29.737
X232.386 Y29.734
X231.138 Y29.73
X228.643 Y29.728
X211.796 Y29.727
X161.257 Y29.723
X110.717 Y29.719
X60.177 Y29.715
X33.348 Y29.713
X33.038 Y29.747
X32.739 Y29.838
X32.465 Y29.986
X31.975 Y30.373
X31.622 Y30.887
X31.38 Y31.462
X31.219 Y32.065
X31.113 Y32.68
X31.044 Y33.3
X31 Y33.923
X30.971 Y34.546
X30.952 Y35.169
X30.94 Y35.793
X30.933 Y36.417
X30.928 Y37.041
X30.925 Y37.665
X30.921 Y38.913
X30.919 Y41.409
X30.917 Y52.016
X30.916 Y56.383
X30.919 Y57.007
X31.023 Y57.301
X31.34 Y57.839
X31.816 Y58.242
X32.373 Y58.524
X32.967 Y58.714
X33.578 Y58.84
X34.197 Y58.922
X34.819 Y58.975
X35.442 Y59.01
X36.065 Y59.032
X36.689 Y59.046
X37.313 Y59.055
X37.937 Y59.061
X38.561 Y59.065
X39.808 Y59.069
X42.304 Y59.071
X75.373 Y59.074
X125.913 Y59.077
X176.452 Y59.081
X226.992 Y59.084
X236.351 Y59.085
X236.975 Y59.082
X237.272 Y58.985
X237.818 Y58.683
X238.229 Y58.213
X238.518 Y57.661
X238.715 Y57.068
X238.845 Y56.458
X238.93 Y55.84
X238.985 Y55.219
X239.021 Y54.596
X239.043 Y53.972
X239.058 Y53.348
X239.068 Y52.725
X239.074 Y52.101
X239.078 Y51.477
X239.082 Y50.229
X239.084 Y47.733
X239.086 Y33.382
X239.059 Y33.071
X238.974 Y32.771
X238.831 Y32.494
X238.451 Y31.999
X237.94 Y31.641
X237.366 Y31.396
X236.764 Y31.232
X236.15 Y31.124
X235.53 Y31.054
X234.907 Y31.009
X234.284 Y30.98
X233.66 Y30.961
X233.036 Y30.949
X232.413 Y30.942
X231.789 Y30.937
X231.165 Y30.934
X229.917 Y30.93
X227.421 Y30.928
X226.173
X175.634 Y30.924
X125.094 Y30.92
X74.554 Y30.916
X34.622 Y30.913
X34.311 Y30.938
X34.009 Y31.015
X33.727 Y31.15
X33.224 Y31.519
X32.856 Y32.023
X32.603 Y32.593
X32.434 Y33.194
X32.323 Y33.808
X32.25 Y34.427
X32.203 Y35.05
X32.173 Y35.673
X32.154 Y36.297
X32.141 Y36.92
X32.133 Y37.544
X32.128 Y38.168
X32.125 Y38.792
X32.121 Y40.04
X32.119 Y42.536
X32.117 Y55.639
X32.181 Y55.944
X32.307 Y56.229
X32.661 Y56.743
X33.16 Y57.117
X33.728 Y57.376
X34.328 Y57.549
X34.941 Y57.663
X35.561 Y57.737
X36.183 Y57.785
X36.806 Y57.816
X37.43 Y57.836
X38.053 Y57.849
X38.677 Y57.857
X39.301 Y57.862
X39.925 Y57.866
X41.173 Y57.869
X43.669 Y57.872
X66.131 Y57.873
X116.67 Y57.877
X167.21 Y57.88
X217.75 Y57.884
X235.532
X235.841 Y57.844
X236.136 Y57.741
X236.672 Y57.422
X237.071 Y56.942
X237.348 Y56.383
X237.534 Y55.788
X237.658 Y55.176
X237.738 Y54.557
X237.791 Y53.936
X237.824 Y53.313
X237.846 Y52.689
X237.86 Y52.065
X237.869 Y51.441
X237.874 Y50.818
X237.878 Y50.194
X237.882 Y48.946
X237.884 Y46.45
X237.886 Y34.595
X237.857 Y34.284
X237.774 Y33.984
X237.633 Y33.705
X237.256 Y33.208
X236.747 Y32.848
X236.174 Y32.6
X235.572 Y32.435
X234.958 Y32.326
X234.338 Y32.256
X233.716 Y32.21
X233.093 Y32.181
X232.469 Y32.162
X231.845 Y32.149
X231.221 Y32.142
X230.597 Y32.137
X229.973 Y32.134
X228.725 Y32.13
X226.23 Y32.128
X180.058 Y32.124
X129.518 Y32.12
X78.979 Y32.116
X35.926 Y32.113
X35.615 Y32.125
X35.308 Y32.182
X35.019 Y32.299
X34.495 Y32.639
X34.107 Y33.127
X33.838 Y33.69
X33.657 Y34.287
X33.538 Y34.9
X33.46 Y35.519
X33.41 Y36.141
X33.377 Y36.764
X33.356 Y37.387
X33.343 Y38.011
X33.334 Y38.635
X33.329 Y39.259
X33.325 Y39.883
X33.321 Y41.131
X33.319 Y43.627
X33.317 Y54.234
X33.344 Y54.544
X33.431 Y54.844
X33.577 Y55.12
X33.96 Y55.612
X34.474 Y55.967
X35.048 Y56.21
X35.651 Y56.372
X36.266 Y56.478
X36.886 Y56.547
X37.508 Y56.592
X38.132 Y56.62
X38.755 Y56.639
X39.379 Y56.651
X40.003 Y56.658
X40.627 Y56.663
X41.251 Y56.666
X42.499 Y56.67
X44.994 Y56.672
X66.209 Y56.673
X116.748 Y56.677
X167.288 Y56.68
X217.827 Y56.684
X234.05 Y56.685
X234.362 Y56.68
X234.67 Y56.633
X234.963 Y56.524
X235.493 Y56.196
X235.886 Y55.711
X236.159 Y55.15
X236.342 Y54.554
X236.463 Y53.941
X236.542 Y53.322
X236.593 Y52.701
X236.626 Y52.078
X236.647 Y51.454
X236.66 Y50.83
X236.669 Y50.206
X236.675 Y49.582
X236.678 Y48.958
X236.682 Y47.711
X236.685 Y45.215
X236.686 Y35.856
X236.664 Y35.544
X236.593 Y35.241
X236.462 Y34.957
X236.101 Y34.449
X235.6 Y34.076
X235.032 Y33.819
X234.432 Y33.648
X233.818 Y33.535
X233.199 Y33.461
X232.576 Y33.413
X231.953 Y33.383
X231.33 Y33.363
X230.706 Y33.35
X230.082 Y33.342
X229.458 Y33.337
X228.834 Y33.334
X227.586 Y33.33
X225.714 Y33.328
X197.013 Y33.325
X175.175 Y33.324
X124.635 Y33.32
X74.096 Y33.316
X37.283 Y33.313
X36.659 Y33.315
X36.36 Y33.406
X36.085 Y33.552
X35.591 Y33.934
X35.235 Y34.446
X34.989 Y35.02
X34.825 Y35.622
X34.717 Y36.236
X34.647 Y36.856
X34.601 Y37.478
X34.572 Y38.102
X34.553 Y38.725
X34.54 Y39.349
X34.533 Y39.973
X34.528 Y40.597
X34.524 Y41.221
X34.521 Y42.469
X34.518 Y44.965
Y45.589
X34.517 Y53.076
X34.555 Y53.386
X34.653 Y53.682
X34.959 Y54.225
X35.432 Y54.632
X35.987 Y54.917
X36.581 Y55.11
X37.191 Y55.237
X37.81 Y55.321
X38.431 Y55.375
X39.054 Y55.409
X39.678 Y55.432
X40.302 Y55.446
X40.926 Y55.455
X41.55 Y55.461
X42.173 Y55.465
X43.421 Y55.469
X45.917 Y55.472
X76.49 Y55.474
X127.03 Y55.477
X177.57 Y55.481
X228.109 Y55.484
X233.101 Y55.485
X233.41 Y55.447
X233.706 Y55.349
X234.248 Y55.038
X234.654 Y54.565
X234.937 Y54.009
X235.128 Y53.414
X235.253 Y52.803
X235.336 Y52.185
X235.389 Y51.563
X235.423 Y50.94
X235.445 Y50.317
X235.46 Y49.693
X235.469 Y49.069
X235.474 Y48.445
X235.478 Y47.821
X235.482 Y46.573
X235.485 Y44.077
X235.486 Y37.214
X235.48 Y36.59
X235.372 Y36.297
X235.053 Y35.761
X234.576 Y35.359
X234.019 Y35.078
X233.425 Y34.887
X232.814 Y34.761
X232.195 Y34.678
X231.574 Y34.624
X230.951 Y34.59
X230.327 Y34.568
X229.703 Y34.553
X229.08 Y34.544
X228.456 Y34.538
X227.832 Y34.534
X226.584 Y34.53
X224.088 Y34.528
X210.985 Y34.526
X160.446 Y34.523
X109.906 Y34.519
X59.366 Y34.515
X38.152 Y34.513
X37.842 Y34.544
X37.543 Y34.634
X37.268 Y34.781
X36.777 Y35.166
X36.424 Y35.68
X36.181 Y36.255
X36.019 Y36.858
X35.913 Y37.473
X35.844 Y38.093
X35.799 Y38.715
X35.77 Y39.339
X35.752 Y39.962
X35.74 Y40.586
X35.732 Y41.21
X35.727 Y41.834
X35.724 Y42.458
X35.721 Y43.706
X35.718 Y46.201
X35.717 Y51.817
X35.742 Y52.128
X35.828 Y52.428
X35.971 Y52.705
X36.352 Y53.199
X36.863 Y53.557
X37.436 Y53.803
X38.038 Y53.967
X38.653 Y54.075
X39.273 Y54.145
X39.895 Y54.191
X40.518 Y54.22
X41.142 Y54.239
X41.766 Y54.251
X42.39 Y54.258
X43.014 Y54.263
X43.638 Y54.266
X44.886 Y54.27
X45.51 Y54.271
X49.877 Y54.272
X96.049 Y54.275
X146.589 Y54.279
X197.128 Y54.282
X232.069 Y54.284
X232.373 Y54.213
X232.656 Y54.083
X233.166 Y53.723
X233.537 Y53.221
X233.793 Y52.652
X233.965 Y52.052
X234.078 Y51.439
X234.151 Y50.819
X234.199 Y50.197
X234.23 Y49.574
X234.25 Y48.95
X234.262 Y48.326
X234.27 Y47.702
X234.276 Y47.078
X234.279 Y46.454
X234.283 Y45.207
X234.285 Y42.711
X234.286 Y39.591
Y38.343
X234.283 Y38.031
X234.233 Y37.723
X234.12 Y37.432
X233.786 Y36.905
X233.298 Y36.517
X232.735 Y36.248
X232.138 Y36.067
X231.526 Y35.947
X230.907 Y35.869
X230.285 Y35.819
X229.662 Y35.786
X229.038 Y35.765
X228.414 Y35.752
X227.79 Y35.743
X227.166 Y35.737
X226.543 Y35.734
X225.295 Y35.73
X222.799 Y35.728
X186.61 Y35.725
X136.07 Y35.721
X85.531 Y35.717
X39.359 Y35.713
X39.049 Y35.747
X38.75 Y35.836
X38.474 Y35.982
X37.983 Y36.366
X37.627 Y36.879
X37.383 Y37.453
X37.221 Y38.056
X37.114 Y38.67
X37.044 Y39.29
X36.999 Y39.913
X36.97 Y40.536
X36.952 Y41.16
X36.94 Y41.784
X36.932 Y42.407
X36.927 Y43.031
X36.924 Y43.655
X36.92 Y44.903
X36.918 Y47.399
X36.917 Y50.519
X36.934 Y50.83
X37.001 Y51.135
X37.128 Y51.42
X37.482 Y51.934
X37.979 Y52.311
X38.546 Y52.572
X39.145 Y52.747
X39.758 Y52.862
X40.377 Y52.937
X40.999 Y52.985
X41.623 Y53.016
X42.246 Y53.036
X42.87 Y53.049
X43.494 Y53.057
X44.118 Y53.063
X44.742 Y53.066
X45.99 Y53.07
X48.485 Y53.072
X74.067 Y53.074
X124.607 Y53.077
X175.146 Y53.081
X225.686 Y53.084
X230.678
X230.988 Y53.051
X231.285 Y52.957
X231.831 Y52.654
X232.24 Y52.184
X232.527 Y51.63
X232.721 Y51.037
X232.85 Y50.426
X232.933 Y49.808
X232.988 Y49.186
X233.022 Y48.563
X233.045 Y47.94
X233.059 Y47.316
X233.069 Y46.692
X233.075 Y46.068
X233.078 Y45.444
X233.082 Y44.196
X233.085 Y41.7
X233.086 Y39.205
X233.028 Y38.898
X232.91 Y38.609
X232.567 Y38.088
X232.075 Y37.704
X231.51 Y37.439
X230.912 Y37.261
X230.299 Y37.143
X229.68 Y37.067
X229.058 Y37.017
X228.435 Y36.985
X227.811 Y36.964
X227.188 Y36.951
X226.564 Y36.943
X225.94 Y36.937
X225.316 Y36.934
X224.068 Y36.93
X221.572 Y36.928
X203.478 Y36.926
X152.938 Y36.922
X102.399 Y36.918
X51.859 Y36.914
X40.628 Y36.913
X40.317 Y36.938
X40.014 Y37.013
X39.733 Y37.148
X39.228 Y37.515
X38.859 Y38.018
X38.605 Y38.588
X38.435 Y39.188
X38.323 Y39.802
X38.25 Y40.421
X38.203 Y41.044
X38.173 Y41.667
X38.153 Y42.29
X38.141 Y42.914
X38.132 Y43.538
X38.127 Y44.162
X38.124 Y44.786
X38.12 Y46.034
X38.118 Y48.53
Y49.154
X38.121 Y49.777
X38.221 Y50.073
X38.529 Y50.615
X39.001 Y51.024
X39.555 Y51.311
X40.148 Y51.505
X40.758 Y51.634
X41.376 Y51.719
X41.998 Y51.773
X42.621 Y51.809
X43.244 Y51.831
X43.868 Y51.846
X44.492 Y51.855
X45.116 Y51.861
X45.74 Y51.865
X46.988 Y51.869
X49.484 Y51.872
X62.586 Y51.873
X113.126 Y51.877
X163.666 Y51.88
X214.205 Y51.883
X229.18 Y51.884
X229.804 Y51.882
X230.099 Y51.782
X230.64 Y51.471
X231.047 Y50.998
X231.332 Y50.443
X231.524 Y49.849
X231.651 Y49.238
X231.734 Y48.62
X231.788 Y47.998
X231.823 Y47.375
X231.845 Y46.752
X231.859 Y46.128
X231.869 Y45.504
X231.875 Y44.88
X231.878 Y44.256
X231.883 Y43.008
X231.885 Y40.512
X231.848 Y40.203
X231.749 Y39.907
X231.439 Y39.365
X230.965 Y38.959
X230.409 Y38.676
X229.815 Y38.485
X229.204 Y38.359
X228.586 Y38.277
X227.964 Y38.223
X227.341 Y38.189
X226.717 Y38.167
X226.094 Y38.153
X225.47 Y38.144
X224.846 Y38.138
X224.222 Y38.134
X222.974 Y38.13
X220.478 Y38.128
X210.495 Y38.126
X159.956 Y38.123
X109.416 Y38.119
X58.876 Y38.115
X42.03 Y38.114
X41.406 Y38.118
X41.111 Y38.22
X40.57 Y38.531
X40.164 Y39.004
X39.878 Y39.559
X39.684 Y40.152
X39.556 Y40.763
X39.472 Y41.381
X39.417 Y42.002
X39.382 Y42.625
X39.359 Y43.249
X39.344 Y43.873
X39.335 Y44.497
X39.329 Y45.121
X39.325 Y45.744
X39.321 Y46.992
X39.319 Y48.24
X39.345 Y48.551
X39.433 Y48.85
X39.58 Y49.126
X39.966 Y49.616
X40.48 Y49.969
X41.055 Y50.211
X41.658 Y50.373
X42.272 Y50.479
X42.893 Y50.548
X43.515 Y50.593
X44.138 Y50.621
X44.762 Y50.639
X45.386 Y50.651
X46.01 Y50.659
X46.634 Y50.664
X47.257 Y50.667
X48.505 Y50.67
X51.001 Y50.672
X60.36 Y50.673
X110.9 Y50.676
X161.439 Y50.68
X211.979 Y50.683
X228.202 Y50.684
X228.513 Y50.668
X228.816 Y50.591
X229.096 Y50.454
X229.597 Y50.083
X229.96 Y49.575
X230.209 Y49.003
X230.376 Y48.402
X230.486 Y47.788
X230.557 Y47.168
X230.603 Y46.545
X230.632 Y45.922
X230.651 Y45.299
X230.664 Y44.675
X230.671 Y44.051
X230.676 Y43.427
X230.68 Y42.803
X230.683 Y41.555
X230.615 Y41.251
X230.486 Y40.966
X230.13 Y40.454
X229.63 Y40.081
X229.062 Y39.823
X228.463 Y39.65
X227.849 Y39.536
X227.23 Y39.462
X226.608 Y39.414
X225.984 Y39.383
X225.361 Y39.363
X224.737 Y39.35
X224.113 Y39.342
X223.489 Y39.337
X222.865 Y39.333
X221.617 Y39.33
X219.122 Y39.328
X207.891 Y39.326
X157.351 Y39.322
X106.811 Y39.319
X56.272 Y39.315
X42.857 Y39.314
X42.548 Y39.358
X42.255 Y39.463
X41.721 Y39.787
X41.326 Y40.27
X41.051 Y40.83
X40.866 Y41.426
X40.743 Y42.038
X40.663 Y42.657
X40.612 Y43.278
X40.578 Y43.901
X40.557 Y44.525
X40.543 Y45.149
X40.534 Y45.773
X40.528 Y46.397
X40.524 Y47.02
X40.554 Y47.331
X40.639 Y47.631
X40.782 Y47.908
X41.163 Y48.403
X41.674 Y48.76
X42.248 Y49.006
X42.85 Y49.169
X43.464 Y49.277
X44.084 Y49.346
X44.707 Y49.392
X45.33 Y49.421
X45.954 Y49.439
X46.577 Y49.451
X47.201 Y49.459
X47.825 Y49.464
X48.449 Y49.467
X49.697 Y49.47
X52.193 Y49.472
X67.792 Y49.474
X118.331 Y49.477
X168.871 Y49.48
X219.41 Y49.484
X226.898
X227.209 Y49.474
X227.516 Y49.415
X227.804 Y49.296
X228.325 Y48.952
X228.709 Y48.46
X228.975 Y47.896
X229.154 Y47.298
X229.271 Y46.685
X229.347 Y46.066
X229.397 Y45.444
X229.429 Y44.821
X229.449 Y44.197
X229.462 Y43.574
X229.47 Y42.95
X229.442 Y42.639
X229.352 Y42.34
X229.204 Y42.066
X228.816 Y41.577
X228.301 Y41.225
X227.725 Y40.985
X227.122 Y40.824
X226.507 Y40.719
X225.887 Y40.651
X225.265 Y40.606
X224.641 Y40.578
X224.018 Y40.56
X223.394 Y40.548
X222.77 Y40.541
X222.146 Y40.536
X221.522 Y40.533
X220.274 Y40.529
X217.778 Y40.527
X195.316 Y40.525
X144.777 Y40.521
X94.237 Y40.518
X44.322 Y40.514
X44.01 Y40.522
X43.702 Y40.575
X43.412 Y40.689
X42.888 Y41.027
X42.501 Y41.517
X42.234 Y42.081
X42.054 Y42.679
X41.936 Y43.291
X41.858 Y43.91
X41.808 Y44.532
X41.776 Y45.155
X41.755 Y45.779
X41.775 Y46.09
X41.849 Y46.393
X41.984 Y46.675
X42.353 Y47.178
X42.859 Y47.543
X43.43 Y47.794
X44.031 Y47.962
X44.645 Y48.072
X45.265 Y48.143
X45.887 Y48.19
X46.511 Y48.219
X47.134 Y48.238
X47.758 Y48.251
X48.382 Y48.258
X49.006 Y48.263
X49.63 Y48.267
X50.878 Y48.27
X53.374 Y48.272
X84.571 Y48.275
X135.11 Y48.278
X185.65 Y48.281
X225.582 Y48.284
X226.206 Y48.281
X226.501 Y48.179
X227.041 Y47.866
X227.447 Y47.392
X227.732 Y46.837
X227.924 Y46.243
X228.051 Y45.633
X228.135 Y45.014
X228.188 Y44.393
X228.203 Y44.081
X228.167 Y43.771
X228.066 Y43.476
X227.75 Y42.938
X227.27 Y42.538
X226.712 Y42.26
X226.116 Y42.074
X225.505 Y41.951
X224.886 Y41.871
X224.264 Y41.819
X223.641 Y41.786
X223.017 Y41.765
X222.394 Y41.751
X221.77 Y41.743
X221.146 Y41.737
X220.522 Y41.733
X219.274 Y41.73
X216.778 Y41.727
X173.726 Y41.724
X123.186 Y41.72
X72.647 Y41.716
X45.193 Y41.714
X44.887 Y41.773
X44.598 Y41.892
X44.078 Y42.236
X43.694 Y42.728
X43.429 Y43.293
X43.251 Y43.891
X43.133 Y44.503
X43.114 Y44.815
X43.155 Y45.124
X43.268 Y45.415
X43.607 Y45.938
X44.102 Y46.319
X44.668 Y46.58
X45.268 Y46.754
X45.881 Y46.867
X46.501 Y46.941
X47.123 Y46.988
X47.746 Y47.019
X48.37 Y47.038
X48.994 Y47.051
X49.617 Y47.058
X50.241 Y47.064
X50.865 Y47.067
X52.113 Y47.07
X54.609 Y47.072
X60.848 Y47.073
X111.388 Y47.076
X161.928 Y47.08
X212.467 Y47.083
X224.946 Y47.084
X225.246 Y46.997
X225.522 Y46.853
X226.016 Y46.471
X226.373 Y45.959
X226.618 Y45.386
X226.666 Y45.077
X226.622 Y44.768
X226.499 Y44.482
X226.137 Y43.974
X225.628 Y43.613
X225.053 Y43.369
X224.45 Y43.21
X223.835 Y43.107
X223.214 Y43.042
X222.592 Y43
X221.968 Y42.973
X221.344 Y42.956
X220.721 Y42.946
X220.097 Y42.939
X219.473 Y42.935
X218.225 Y42.93
X216.353 Y42.928
X203.874 Y42.926
X192.643 Y42.925
X142.104 Y42.921
X91.564 Y42.917
X90.94
X90.784 Y42.929
X90.619 Y42.939
X90.433 Y42.95
X90.219 Y42.961
X89.968 Y42.972
X89.666 Y42.983
X89.285 Y42.994
X88.773 Y43.004
X88.149 Y43.013
X87.525 Y43.018
X86.901 Y43.021
X85.653 Y43.024
X81.91 Y43.025
X46.345 Y43.022
X46.043 Y43.1
X45.764 Y43.24
X45.516 Y43.43
X45.409 Y43.543
X45.318 Y43.67
X45.258 Y43.814
X45.231 Y43.968
X45.238 Y44.123
X45.28 Y44.274
X45.428 Y44.548
X45.876 Y44.983
X46.43 Y45.269
X47.027 Y45.452
X47.64 Y45.569
X48.259 Y45.642
X48.882 Y45.688
X49.505 Y45.716
X50.129 Y45.734
X50.752 Y45.746
X51.376 Y45.753
X52 Y45.757
X52.624 Y45.76
X53.872 Y45.763
X56.992 Y45.765
X98.796 Y45.768
X149.336 Y45.771
X199.875 Y45.774
X223.585 Y45.776
X223.738 Y45.745
X223.813 Y45.722
X223.852 Y45.714
X223.892 Y45.711
G3 X224.185 Y45.946 I0 J0.3
G1 X224.192 Y46.011 Z-2.993
X224.178 Y46.066 Z-2.973
X224.165 Y46.115 Z-2.944
X224.154 Y46.158 Z-2.904
X224.133 Y46.186 Z-2.86
X224.118 Y46.206 Z-2.81
X224.109 Y46.218 Z-2.756
X224.106 Y46.222 Z-2.7
G0 Z2.501
X-0.299 Y-3.504
Z-3.898
G1 Z-4.199 F500
X-0.297 Y-3.497 Z-4.265
X-0.291 Y-3.475 Z-4.329
X-0.282 Y-3.441 Z-4.386
X-0.271 Y-3.395 Z-4.433
X-0.256 Y-3.339 Z-4.469
X-0.241 Y-3.278 Z-4.491
X-0.224 Y-3.213 Z-4.498
G3 X0.011 Y-1.58 I-7.419 J1.9
G1 Y-1.43
X-0.108 Y-0.818
X-0.178 Y-0.198
X-0.219 Y0.425
X-0.243 Y1.048
X-0.256 Y1.672
X-0.264 Y2.296
X-0.269 Y2.92
X-0.272 Y3.544
X-0.274 Y4.792
X-0.276 Y9.16
X-0.282 Y48.468
X-0.289 Y88.557
X-0.267 Y88.711
X-0.155 Y89.002
X0.038 Y89.247
X0.514 Y89.651
X1.085 Y89.902
X1.69 Y90.054
X2.307 Y90.144
X2.929 Y90.197
X3.552 Y90.227
X4.176 Y90.245
X4.8 Y90.255
X5.424 Y90.261
X6.048 Y90.265
X7.296 Y90.268
X9.167 Y90.269
X59.707 Y90.273
X110.247 Y90.276
X160.786 Y90.28
X211.326 Y90.283
X261.865 Y90.286
X268.573 Y90.287
X268.727 Y90.264
