(faceoff)
(Machine)
(  vendor: Autodesk)
(  description: Generic 3-axis)
(T1  D=3 CR=0 - ZMIN=-3.99 - flat end mill)
G90 G94
G17
G21
G28 G91 Z0
G90

(Adaptive1)
T1
S18000 M3
G54
G0 X3.912 Y0.309
Z2.01
Z-3.39
G1 Z-3.69 F600
X3.905 Y0.307 Z-3.757
X3.883 Y0.302 Z-3.82
X3.849 Y0.293 Z-3.877
X3.803 Y0.281 Z-3.925
X3.748 Y0.267 Z-3.96
X3.686 Y0.251 Z-3.982
X3.622 Y0.235 Z-3.99
G2 X1.988 Y0 I-1.9 J7.419
G1 X1.723
X1.355 Y0.259
G2 X0.848 Y2.411 I4.347 J2.16
G1 X0.794 Y3.472
X0.783 Y4.535
X0.779 Y6.659
X0.78 Y50.21
X0.781 Y93.762
X0.772 Y94.027
G3 X-0.207 Y95.213 I-1.634 J-0.353
G1 X-1.191 Y95.612
G3 X-5.432 Y95.776 I-3.294 J-30.256
G1 X-56.419 Y95.78
X-107.406 Y95.781
X-158.393
X-209.38 Y95.782
X-260.367
X-272.052
G3 X-273.222 Y94.781 I0.412 J-1.666
G1 X-273.615 Y93.794
X-273.735 Y92.738
X-273.768 Y91.677
X-273.776 Y90.615
X-273.779 Y86.366
X-273.78 Y57.685
X-273.781 Y6.698
Y1.122
X-273.757 Y0.857
X-273.66 Y0.61
X-273.362 Y0.17
X-272.938 Y-0.149
X-271.971 Y-0.589
X-270.918 Y-0.729
X-269.856 Y-0.767
X-268.794 Y-0.777
X-265.608 Y-0.78
X-229.492 Y-0.781
X-178.505 Y-0.782
X-127.518 Y-0.783
X-76.531 Y-0.784
X-25.544 Y-0.785
X-1.378
X-1.247 Y-0.764
X-1.121 Y-0.722
X-1.003 Y-0.661
X-0.896 Y-0.582
X-0.711 Y-0.392
X-0.464 Y0.078
X-0.182 Y1.103
G3 X-0.218 Y5.351 I-351.858 J-0.857
G1 X-0.221 Y10.662
Y25.533
X-0.219 Y76.52
Y92.454
G3 X-1.072 Y94.019 I-1.801 J0.034
G1 X-2.009 Y94.52
X-3.055 Y94.702
X-4.116 Y94.758
X-5.178 Y94.774
X-6.24 Y94.778
X-33.858 Y94.78
X-84.846 Y94.781
X-135.833
X-186.82 Y94.782
X-237.807
X-270.736
X-271.246 Y94.635
X-271.688 Y94.34
X-272.026 Y93.931
X-272.522 Y92.991
X-272.702 Y91.944
X-272.757 Y90.884
X-272.773 Y89.821
X-272.777 Y88.759
X-272.779 Y78.137
X-272.781 Y27.15
Y2.187
X-272.612 Y1.684
X-272.296 Y1.257
X-271.878 Y0.929
X-270.925 Y0.46
X-269.877 Y0.291
X-268.816 Y0.24
X-267.753 Y0.225
X-265.629 Y0.22
X-247.571
X-196.584 Y0.219
X-145.597 Y0.218
X-94.61 Y0.217
X-43.623 Y0.216
X-2.993 Y0.215
G3 X-1.769 Y1.155 I-0.341 J1.71
G1 X-1.358 Y2.134
X-1.244 Y3.19
X-1.222 Y4.252
X-1.22 Y6.376
X-1.221 Y9.563
X-1.22 Y60.55
X-1.219 Y91.355
G3 X-2.256 Y93.086 I-1.881 J0.049
G1 X-3.216 Y93.54
G3 X-7.451 Y93.778 I-3.332 J-21.512
G1 X-20.198 Y93.78
X-71.185 Y93.781
X-122.172
X-173.159
X-224.146 Y93.782
X-269.29
G3 X-271.053 Y92.807 I-0.132 J-1.843
G1 X-271.526 Y91.856
X-271.7 Y90.808
X-271.756 Y89.748
X-271.772 Y88.685
X-271.777 Y87.623
X-271.779 Y70.628
X-271.78 Y38.761
X-271.781 Y3.707
G3 X-270.807 Y1.946 I1.826 J-0.14
G1 X-269.856 Y1.473
X-268.809 Y1.299
X-267.748 Y1.243
X-266.686 Y1.227
X-265.623 Y1.222
X-257.126 Y1.22
X-206.139 Y1.219
X-155.152 Y1.218
X-104.164 Y1.217
X-53.177 Y1.216
X-4.315 Y1.215
X-3.796 Y1.328
X-3.34 Y1.6
X-2.987 Y1.997
X-2.472 Y2.926
X-2.289 Y3.972
X-2.237 Y5.033
X-2.225 Y6.095
X-2.221 Y8.22
X-2.22 Y52.834
X-2.219 Y90.012
G3 X-3 Y91.886 I-1.931 J0.295
G1 X-3.9 Y92.45
X-4.938 Y92.674
X-5.998 Y92.748
X-7.06 Y92.77
X-8.122 Y92.777
X-13.433 Y92.78
X-14.496
X-65.483 Y92.781
X-116.47
X-167.457
X-218.444 Y92.782
X-268.369
X-268.895 Y92.714
X-269.374 Y92.484
X-269.776 Y92.137
X-270.087 Y91.706
X-270.534 Y90.743
X-270.701 Y89.694
X-270.756 Y88.633
X-270.772 Y87.571
X-270.777 Y86.509
X-270.779 Y74.824
X-270.78 Y42.957
X-270.781 Y4.717
G3 X-269.781 Y2.961 I1.905 J-0.078
G1 X-268.833 Y2.483
X-267.786 Y2.304
X-266.725 Y2.245
X-265.663 Y2.227
X-264.601 Y2.222
X-259.29 Y2.22
X-208.303 Y2.219
X-157.316 Y2.218
X-106.329 Y2.217
X-55.342 Y2.216
X-5.417 Y2.215
X-4.898 Y2.329
X-4.433 Y2.586
X-4.066 Y2.969
X-3.52 Y3.881
X-3.312 Y4.923
X-3.247 Y5.983
X-3.228 Y7.045
X-3.223 Y8.107
X-3.22 Y36.787
Y52.721
Y89.368
G3 X-4.304 Y91.082 I-1.978 J-0.051
G1 X-5.265 Y91.534
G3 X-9.499 Y91.778 I-3.348 J-21.291
G1 X-15.873 Y91.78
X-66.86 Y91.781
X-117.847
X-168.834
X-219.821 Y91.782
X-267.621
X-268.127 Y91.622
X-268.57 Y91.328
X-268.925 Y90.933
X-269.464 Y90.018
X-269.676 Y88.977
X-269.747 Y87.917
X-269.77 Y86.855
X-269.776 Y85.793
X-269.779 Y80.482
X-269.78 Y39.055
X-269.781 Y6.125
G3 X-268.656 Y3.899 I2.111 J-0.33
G1 X-267.689 Y3.461
G3 X-263.454 Y3.222 I3.351 J21.708
G1 X-253.894 Y3.22
X-202.907 Y3.219
X-151.92 Y3.218
X-100.933 Y3.217
X-49.946 Y3.216
X-6.394 Y3.215
X-5.881 Y3.353
X-5.425 Y3.626
X-5.063 Y4.014
X-4.526 Y4.931
X-4.318 Y5.972
X-4.25 Y7.032
X-4.229 Y8.094
X-4.223 Y9.156
X-4.221 Y16.592
X-4.22 Y60.144
X-4.219 Y88.293
G3 X-5.254 Y90.036 I-1.973 J0.008
G1 X-6.203 Y90.513
X-7.25 Y90.694
X-8.311 Y90.753
X-9.373 Y90.772
X-10.435 Y90.778
X-16.808 Y90.78
X-25.306
X-76.293 Y90.781
X-127.28
X-178.267 Y90.782
X-229.254
X-266.432
G3 X-268.109 Y89.632 I0.153 J-2.021
G1 X-268.544 Y88.663
X-268.704 Y87.613
X-268.756 Y86.552
X-268.772 Y85.49
X-268.777 Y84.428
X-268.779 Y78.054
X-268.781 Y27.067
Y6.885
G3 X-267.888 Y5.064 I1.958 J-0.169
G1 X-266.97 Y4.531
X-265.928 Y4.321
X-264.868 Y4.251
X-263.806 Y4.229
X-262.744 Y4.223
X-257.433 Y4.22
X-239.375 Y4.219
X-188.388 Y4.218
X-137.401
X-86.414 Y4.217
X-35.427 Y4.216
X-7.809 Y4.215
G3 X-6.005 Y5.133 I0.158 J1.922
G1 X-5.504 Y6.069
X-5.312 Y7.114
X-5.249 Y8.174
X-5.229 Y9.236
X-5.223 Y10.299
X-5.221 Y17.734
Y26.232
X-5.219 Y77.219
Y87.31
G3 X-6.277 Y89.043 I-2.003 J-0.033
G1 X-7.229 Y89.514
G3 X-11.461 Y89.778 I-3.357 J-19.816
G1 X-17.834 Y89.78
X-44.39
X-95.377 Y89.781
X-146.364
X-197.351 Y89.782
X-248.338
X-265.334
G3 X-267.057 Y88.706 I0.07 J-2.03
G1 X-267.519 Y87.749
X-267.695 Y86.702
X-267.753 Y85.641
X-267.771 Y84.579
X-267.777 Y83.517
X-267.779 Y76.081
X-267.78 Y56.961
X-267.781 Y8.098
X-267.777 Y7.567
X-267.671 Y7.047
X-267.422 Y6.578
X-267.06 Y6.189
X-266.621 Y5.889
X-265.651 Y5.458
G3 X-261.416 Y5.222 I3.355 J22.12
G1 X-251.856 Y5.22
X-216.802 Y5.219
X-165.815 Y5.218
X-114.828 Y5.217
X-63.841 Y5.216
X-12.854 Y5.215
X-8.605
G3 X-6.907 Y6.327 I-0.087 J1.984
G1 X-6.463 Y7.291
G3 X-6.223 Y11.526 I-21.651 J3.351
G1 X-6.221 Y22.148
X-6.22 Y50.829
X-6.219 Y85.882
G3 X-7.372 Y88.096 I-2.128 J0.299
G1 X-8.339 Y88.535
G3 X-12.573 Y88.778 I-3.359 J-21.52
G1 X-20.009 Y88.78
X-70.996 Y88.781
X-121.983
X-172.97
X-223.957 Y88.782
X-264.322
G3 X-266.046 Y87.708 I0.059 J-2.016
G1 X-266.515 Y86.755
X-266.693 Y85.707
G3 X-266.777 Y79.336 I95.57 J-4.449
G1 X-266.781 Y28.349
X-266.78 Y8.697
G3 X-265.726 Y6.96 I2.04 J0.05
G1 X-264.774 Y6.488
X-263.727 Y6.307
X-262.667 Y6.247
X-261.605 Y6.228
X-260.542 Y6.222
X-254.169 Y6.22
X-237.173 Y6.219
X-186.186 Y6.218
X-135.199 Y6.217
X-84.212
X-33.225 Y6.216
X-9.856 Y6.215
G3 X-8.047 Y7.128 I0.153 J1.946
G1 X-7.524 Y8.052
X-7.32 Y9.095
X-7.251 Y10.155
X-7.23 Y11.217
X-7.224 Y12.279
X-7.221 Y17.59
X-7.22 Y32.461
X-7.219 Y83.448
Y85.573
X-7.373 Y86.081
X-7.664 Y86.526
X-8.051 Y86.888
X-8.957 Y87.444
X-9.995 Y87.668
G3 X-16.365 Y87.78 I-4.507 J-75.015
G1 X-54.606
X-105.593 Y87.781
X-156.58
X-207.567 Y87.782
X-258.554
X-263.334
G3 X-265.052 Y86.694 I0.084 J-2.032
G1 X-265.516 Y85.739
X-265.693 Y84.691
X-265.752 Y83.631
X-265.771 Y82.569
X-265.777 Y81.507
X-265.779 Y75.133
X-265.78 Y43.266
X-265.781 Y9.806
G3 X-264.816 Y8.018 I2.007 J-0.071
G1 X-263.881 Y7.514
X-262.837 Y7.316
X-261.777 Y7.25
X-260.715 Y7.229
X-259.653 Y7.223
X-254.342 Y7.22
X-250.093
X-199.106 Y7.219
X-148.119 Y7.218
X-97.132 Y7.217
X-46.145 Y7.216
X-11.091 Y7.215
G3 X-8.888 Y8.382 I0.294 J2.109
G1 X-8.457 Y9.353
G3 X-8.223 Y13.588 I-22.27 J3.356
G1 X-8.221 Y21.024
X-8.219 Y72.011
Y84.226
G3 X-9.204 Y86.004 I-2.017 J0.044
G1 X-10.145 Y86.496
X-11.19 Y86.686
X-12.251 Y86.75
X-13.313 Y86.771
X-14.375 Y86.777
X-19.686 Y86.78
X-45.179
X-96.166 Y86.781
X-147.154
X-198.141 Y86.782
X-249.128
X-261.874
G3 X-264.089 Y85.629 I-0.296 J-2.134
G1 X-264.531 Y84.663
X-264.698 Y83.614
X-264.754 Y82.554
X-264.771 Y81.492
X-264.777 Y80.429
X-264.779 Y72.994
X-264.78 Y50.687
X-264.781 Y10.853
G3 X-263.859 Y9.042 I2.012 J-0.115
G1 X-262.931 Y8.525
X-261.888 Y8.321
G3 X-255.518 Y8.222 I4.451 J81.793
G1 X-204.531 Y8.219
X-153.543 Y8.218
X-102.556 Y8.217
X-51.569 Y8.216
X-11.736
G3 X-9.983 Y9.241 I0.009 J1.995
G1 X-9.498 Y10.185
X-9.311 Y11.231
G3 X-9.223 Y17.602 I-91.272 J4.447
G1 X-9.219 Y68.59
Y83.461
G3 X-10.405 Y85.117 I-2.061 J-0.223
G1 X-11.377 Y85.545
G3 X-15.613 Y85.778 I-3.362 J-22.471
G1 X-24.11 Y85.78
X-44.293
X-95.28 Y85.781
X-146.267
X-197.254 Y85.782
X-248.241
X-260.988
G3 X-262.855 Y84.975 I-0.236 J-2.019
G1 X-263.427 Y84.08
X-263.66 Y83.044
G3 X-263.779 Y76.674 I71.104 J-4.512
G1 X-263.78 Y49.056
X-263.781 Y11.878
G3 X-262.883 Y10.055 I2.011 J-0.142
G1 X-261.958 Y9.531
X-260.917 Y9.323
X-259.857 Y9.252
G3 X-251.359 Y9.22 I5.469 J318.38
G1 X-200.372 Y9.219
X-149.385 Y9.218
X-98.398 Y9.217
X-47.411 Y9.216
X-12.358 Y9.215
X-11.857 Y9.394
X-11.418 Y9.693
X-11.068 Y10.092
X-10.537 Y11.012
X-10.325 Y12.053
X-10.254 Y13.113
G3 X-10.221 Y23.735 I-390.934 J6.524
G1 X-10.219 Y74.722
Y82.157
G3 X-11.157 Y83.955 I-1.961 J0.121
G1 X-12.082 Y84.476
X-13.124 Y84.68
X-14.184 Y84.749
X-15.246 Y84.771
X-16.309 Y84.777
X-21.62 Y84.78
X-52.424
X-103.411 Y84.781
X-154.399
X-205.386 Y84.782
X-256.373
X-260.622
X-261.124 Y84.609
X-261.569 Y84.32
X-261.926 Y83.926
X-262.458 Y83.007
X-262.671 Y81.966
X-262.745 Y80.907
X-262.768 Y79.845
X-262.776 Y78.783
X-262.779 Y74.534
X-262.78 Y39.48
X-262.781 Y12.924
G3 X-261.925 Y11.079 I2.016 J-0.186
G1 X-261.009 Y10.542
X-259.969 Y10.327
X-258.909 Y10.254
X-257.847 Y10.23
X-256.785 Y10.223
X-252.536 Y10.22
X-239.789 Y10.219
X-188.802 Y10.218
X-137.815
X-86.828 Y10.217
X-35.841 Y10.216
X-13.534 Y10.215
G3 X-11.879 Y11.402 I-0.219 J2.053
G1 X-11.453 Y12.375
G3 X-11.223 Y16.61 I-22.737 J3.358
G1 X-11.221 Y26.17
X-11.22 Y37.855
X-11.219 Y81.406
G3 X-12.364 Y83.092 I-2.067 J-0.173
G1 X-13.329 Y83.534
X-14.378 Y83.7
X-15.439 Y83.755
X-16.501 Y83.772
X-17.563 Y83.778
X-24.999 Y83.78
X-68.55 Y83.781
X-119.537
X-170.524
X-221.511 Y83.782
X-259.221
G3 X-261 Y82.808 I-0.075 J-1.975
G1 X-261.493 Y81.867
X-261.684 Y80.822
X-261.749 Y79.762
X-261.77 Y78.7
X-261.776 Y77.638
X-261.779 Y72.327
X-261.781 Y21.34
Y13.904
G3 X-260.911 Y12.067 I2.007 J-0.174
G1 X-259.991 Y11.536
X-258.95 Y11.325
X-257.89 Y11.253
X-256.828 Y11.23
X-255.766 Y11.223
X-251.517 Y11.22
X-219.65 Y11.219
X-168.663 Y11.218
X-117.676 Y11.217
X-66.689 Y11.216
X-15.702 Y11.215
X-14.64
G3 X-12.936 Y12.322 I-0.097 J2.015
G1 X-12.477 Y13.28
G3 X-12.223 Y17.513 I-20.546 J3.358
G1 X-12.221 Y24.949
X-12.22 Y60.002
X-12.219 Y80.185
G3 X-13.181 Y81.972 I-1.988 J0.083
G1 X-14.112 Y82.483
X-15.155 Y82.683
X-16.215 Y82.75
X-17.277 Y82.771
X-18.34 Y82.777
X-23.651 Y82.78
X-41.709
X-92.696 Y82.781
X-143.683
X-194.67 Y82.782
X-245.657
X-258.404
G3 X-260.09 Y81.645 I0.148 J-2.039
G1 X-260.533 Y80.679
X-260.699 Y79.63
X-260.754 Y78.569
X-260.771 Y77.507
X-260.777 Y76.445
X-260.779 Y69.009
X-260.78 Y45.64
X-260.781 Y14.835
G3 X-259.852 Y13.029 I1.995 J-0.116
G1 X-258.921 Y12.519
X-257.878 Y12.319
X-256.818 Y12.251
X-255.756 Y12.229
X-254.693 Y12.223
X-249.382 Y12.22
X-241.947 Y12.219
X-190.96
X-139.972 Y12.218
X-88.985 Y12.217
X-37.998 Y12.216
X-15.692 Y12.215
G3 X-13.962 Y13.282 I-0.05 J2.017
G1 X-13.489 Y14.233
X-13.309 Y15.28
X-13.248 Y16.34
X-13.229 Y17.402
X-13.223 Y18.464
X-13.221 Y24.838
X-13.22 Y39.709
X-13.219 Y79.012
G3 X-14.034 Y80.877 I-2.033 J0.223
G1 X-14.935 Y81.439
X-15.973 Y81.667
X-17.032 Y81.744
X-18.094 Y81.769
X-19.156 Y81.777
X-23.405 Y81.78
X-74.392 Y81.781
X-125.379
X-176.366
X-227.353 Y81.782
X-257.096
G3 X-258.921 Y80.896 I-0.171 J-1.971
G1 X-259.461 Y79.981
X-259.674 Y78.941
X-259.746 Y77.881
X-259.769 Y76.819
X-259.776 Y75.757
X-259.779 Y71.508
X-259.78 Y61.948
Y15.741
G3 X-258.769 Y13.981 I1.991 J-0.026
G1 X-257.823 Y13.497
X-256.778 Y13.311
X-255.717 Y13.248
X-254.655 Y13.229
X-253.593 Y13.222
X-248.282 Y13.22
X-205.793 Y13.219
X-154.805 Y13.218
X-103.818 Y13.217
X-52.831 Y13.216
X-16.716 Y13.215
G3 X-14.971 Y14.26 I-0.043 J2.052
G1 X-14.495 Y15.21
X-14.311 Y16.256
X-14.249 Y17.317
X-14.229 Y18.379
X-14.223 Y19.441
X-14.221 Y24.752
Y26.877
X-14.219 Y77.864
G3 X-14.911 Y79.787 I-2.093 J0.333
G1 X-15.346 Y80.092
X-16.312 Y80.534
G3 X-20.546 Y80.778 I-3.358 J-21.469
G1 X-27.981 Y80.78
X-63.035 Y80.781
X-114.022
X-165.009
X-215.996 Y80.782
X-256.361
G3 X-258.071 Y79.678 I0.111 J-2.048
G1 X-258.525 Y78.718
X-258.696 Y77.67
G3 X-258.777 Y71.298 I99.673 J-4.453
G1 X-258.781 Y20.311
Y17.124
G3 X-257.637 Y14.905 I2.133 J-0.305
G1 X-256.669 Y14.466
G3 X-252.435 Y14.222 I3.362 J21.479
G1 X-244.999 Y14.22
X-213.133 Y14.219
X-162.146 Y14.218
X-111.158 Y14.217
X-60.171 Y14.216
X-17.682 Y14.215
G3 X-15.956 Y15.291 I-0.069 J2.034
G1 X-15.488 Y16.244
X-15.308 Y17.291
G3 X-15.223 Y21.538 I-62.364 J3.378
G1 X-15.219 Y72.525
X-15.22 Y77.305
G3 X-16.276 Y79.042 I-2.037 J-0.05
G1 X-17.228 Y79.512
X-18.275 Y79.693
X-19.336 Y79.753
X-20.398 Y79.772
X-21.46 Y79.778
X-27.833 Y79.78
X-59.7
X-110.687 Y79.781
X-161.674
X-212.661 Y79.782
X-255.151
G3 X-256.954 Y78.852 I-0.12 J-1.982
G1 X-257.475 Y77.926
X-257.679 Y76.884
G3 X-257.777 Y72.637 I54.334 J-3.376
G1 X-257.781 Y21.65
X-257.78 Y17.401
X-257.619 Y16.895
X-257.323 Y16.454
X-256.931 Y16.096
X-256.022 Y15.547
X-254.982 Y15.329
X-253.922 Y15.254
X-252.86 Y15.23
X-251.798 Y15.223
X-247.549 Y15.22
X-212.496 Y15.219
X-161.509 Y15.218
X-110.522 Y15.217
X-59.535 Y15.216
X-19.17 Y15.215
G3 X-16.931 Y16.329 I0.324 J2.155
G1 X-16.479 Y17.29
X-16.305 Y18.338
G3 X-16.224 Y23.647 I-78.956 J3.867
G1 X-16.219 Y74.634
Y76.228
G3 X-17.214 Y77.999 I-2.008 J0.038
G1 X-18.154 Y78.494
X-19.198 Y78.686
X-20.259 Y78.751
X-21.321 Y78.771
X-22.383 Y78.777
X-27.694 Y78.78
X-63.81 Y78.781
X-114.797
X-165.784
X-216.771 Y78.782
X-253.949
G3 X-256.127 Y77.573 I-0.258 J-2.101
G1 X-256.549 Y76.599
G3 X-256.777 Y72.363 I23.899 J-3.413
G1 X-256.779 Y67.052
X-256.781 Y18.72
G3 X-255.75 Y16.968 I2.021 J0.01
G1 X-254.801 Y16.491
X-253.755 Y16.309
X-252.694 Y16.248
X-251.632 Y16.228
X-250.57 Y16.222
X-245.259 Y16.22
X-204.894 Y16.219
X-153.907 Y16.218
X-102.92 Y16.217
X-51.933 Y16.216
X-20.066 Y16.215
G3 X-17.886 Y17.424 I0.253 J2.115
G1 X-17.458 Y18.396
G3 X-17.223 Y22.631 I-22.313 J3.362
G1 X-17.22 Y31.129
Y33.253
X-17.219 Y75.212
G3 X-18.199 Y76.991 I-2.012 J0.052
G1 X-19.137 Y77.49
X-20.181 Y77.685
G3 X-24.428 Y77.778 I-3.376 J-57.064
G1 X-75.415 Y77.781
X-126.402
X-177.389 Y77.782
X-228.376
X-253.339 Y77.781
G3 X-255.056 Y76.69 I0.103 J-2.059
G1 X-255.517 Y75.734
X-255.694 Y74.686
X-255.753 Y73.626
X-255.771 Y72.563
X-255.777 Y71.501
X-255.78 Y65.128
Y53.443
X-255.781 Y19.452
X-255.638 Y18.941
X-255.358 Y18.489
X-254.974 Y18.122
X-254.073 Y17.559
X-253.035 Y17.333
X-251.976 Y17.255
X-250.914 Y17.231
X-249.852 Y17.223
X-245.603 Y17.22
X-240.292 Y17.219
X-189.305 Y17.218
X-138.318
X-87.331 Y17.217
X-36.344 Y17.216
X-20.41
X-19.905 Y17.378
X-19.464 Y17.675
X-19.105 Y18.066
X-18.556 Y18.976
X-18.334 Y20.014
G3 X-18.221 Y26.385 I-74.834 J4.513
G1 X-18.22 Y50.816
X-18.219 Y74.185
G3 X-19.176 Y75.978 I-2.011 J0.079
G1 X-20.11 Y76.484
X-21.153 Y76.682
X-22.213 Y76.749
X-23.275 Y76.771
X-24.337 Y76.777
X-29.649 Y76.78
X-44.52
X-95.507 Y76.781
X-146.494
X-197.481 Y76.782
X-248.468
X-252.186
G3 X-253.974 Y75.817 I-0.071 J-2.007
G1 X-254.482 Y74.885
X-254.682 Y73.842
X-254.749 Y72.781
X-254.77 Y71.719
X-254.777 Y70.657
X-254.78 Y65.346
X-254.781 Y31.355
Y20.732
G3 X-253.765 Y18.973 I2.007 J-0.014
G1 X-252.818 Y18.493
X-251.772 Y18.309
X-250.711 Y18.248
X-249.649 Y18.228
X-248.587 Y18.222
X-243.276 Y18.22
X-215.658 Y18.219
X-164.671 Y18.218
X-113.684 Y18.217
X-62.697 Y18.216
X-21.801 Y18.215
G3 X-20.014 Y19.182 I0.066 J2.013
G1 X-19.514 Y20.119
X-19.318 Y21.164
G3 X-19.224 Y26.472 I-68.724 J3.873
G1 X-19.219 Y73.211
G3 X-20.196 Y74.992 I-2.008 J0.057
G1 X-21.134 Y75.49
X-22.179 Y75.684
X-23.239 Y75.75
X-24.301 Y75.771
X-25.363 Y75.777
X-30.674 Y75.78
X-73.163 Y75.781
X-124.15
X-175.137
X-226.125 Y75.782
X-251.618
X-252.121 Y75.61
X-252.565 Y75.319
X-252.92 Y74.924
X-253.457 Y74.007
X-253.672 Y72.967
X-253.746 Y71.907
X-253.769 Y70.845
X-253.776 Y69.783
X-253.78 Y65.534
Y51.725
X-253.781 Y21.983
G3 X-252.969 Y20.119 I2.004 J-0.236
G1 X-252.067 Y19.558
X-251.029 Y19.332
X-249.969 Y19.255
X-248.907 Y19.23
X-247.845 Y19.223
X-243.596 Y19.22
X-234.036 Y19.219
X-183.049 Y19.218
X-132.062 Y19.217
X-81.075 Y19.216
X-30.088
X-22.652 Y19.215
G3 X-20.938 Y20.31 I-0.094 J2.036
G1 X-20.48 Y21.268
G3 X-20.223 Y25.501 I-20.458 J3.365
G1 X-20.22 Y31.875
Y61.617
X-20.219 Y72.239
G3 X-21.221 Y74.006 I-2.007 J0.03
G1 X-22.163 Y74.497
X-23.208 Y74.687
X-24.269 Y74.751
X-25.331 Y74.771
X-26.393 Y74.777
X-31.704 Y74.78
X-59.322
X-110.309 Y74.781
X-161.296
X-212.283 Y74.782
X-250.523
X-251.037 Y74.645
X-251.497 Y74.38
X-251.868 Y74
X-252.434 Y73.101
X-252.664 Y72.064
G3 X-252.766 Y63.57 I106.071 J-5.527
G1 X-252.781 Y23.205
X-252.779 Y22.674
G3 X-251.713 Y20.943 I2.015 J0.048
G1 X-250.758 Y20.479
X-249.71 Y20.304
G3 X-244.401 Y20.223 I3.864 J78.61
G1 X-193.414 Y20.219
X-142.427 Y20.218
X-91.44 Y20.217
X-40.453 Y20.216
X-23.457 Y20.215
X-22.946 Y20.359
X-22.496 Y20.641
X-22.128 Y21.024
X-21.563 Y21.924
X-21.335 Y22.961
G3 X-21.221 Y29.331 I-73.746 J4.51
G1 X-21.22 Y52.7
Y71.289
G3 X-22.265 Y73.032 I-2.014 J-0.024
G1 X-23.215 Y73.508
X-24.261 Y73.691
X-25.322 Y73.752
X-26.384 Y73.772
X-27.446 Y73.778
X-32.757 Y73.78
X-51.877
X-102.864 Y73.781
X-153.851
X-204.838 Y73.782
X-249.452
G3 X-251.118 Y72.615 I0.179 J-2.028
G1 X-251.547 Y71.643
X-251.705 Y70.593
X-251.756 Y69.532
X-251.772 Y68.47
X-251.777 Y67.408
X-251.78 Y57.847
X-251.781 Y23.856
G3 X-250.863 Y22.046 I1.976 J-0.135
G1 X-249.938 Y21.525
X-248.895 Y21.32
X-247.835 Y21.251
X-246.773 Y21.229
X-245.711 Y21.222
X-240.4 Y21.219
X-195.786
X-144.799 Y21.218
X-93.812 Y21.217
X-42.825 Y21.216
X-24.767 Y21.215
G3 X-22.992 Y22.205 I0.041 J2.015
G1 X-22.502 Y23.147
X-22.314 Y24.192
X-22.25 Y25.253
X-22.23 Y26.315
X-22.223 Y27.377
X-22.22 Y32.688
Y52.871
X-22.219 Y69.866
G3 X-23.361 Y72.088 I-2.14 J0.304
G1 X-24.327 Y72.531
G3 X-28.561 Y72.778 I-3.362 J-21.204
G1 X-35.996 Y72.78
X-54.054
X-105.041 Y72.781
X-156.028
X-207.015 Y72.782
X-248.442
G3 X-250.105 Y71.609 I0.198 J-2.045
G1 X-250.54 Y70.64
X-250.702 Y69.59
G3 X-250.777 Y64.28 I85.89 J-3.863
G1 X-250.781 Y24.978
G3 X-249.965 Y23.113 I2.028 J-0.224
G1 X-249.061 Y22.556
X-248.022 Y22.332
X-246.963 Y22.255
X-245.901 Y22.23
X-244.839 Y22.223
X-240.59 Y22.219
X-189.603
X-138.616 Y22.218
X-87.629 Y22.217
X-36.642 Y22.216
X-26.019 Y22.215
G3 X-23.86 Y23.449 I0.243 J2.082
G1 X-23.446 Y24.428
G3 X-23.223 Y28.664 I-23.504 J3.361
G1 X-23.22 Y38.224
Y60.531
X-23.219 Y69.029
G3 X-24.055 Y70.881 I-1.995 J0.214
G1 X-24.957 Y71.442
X-25.995 Y71.667
G3 X-32.366 Y71.78 I-4.508 J-74.511
G1 X-64.232 Y71.781
X-115.219
X-166.207
X-217.194 Y71.782
X-246.936
G3 X-249.114 Y70.576 I-0.263 J-2.095
G1 X-249.543 Y69.605
G3 X-249.777 Y65.369 I23.312 J-3.413
G1 X-249.78 Y56.872
Y52.623
X-249.781 Y26.067
G3 X-248.597 Y23.874 I2.101 J-0.282
G1 X-247.623 Y23.45
G3 X-243.387 Y23.222 I3.356 J22.819
G1 X-233.827 Y23.219
X-227.454
X-176.467 Y23.218
X-125.48 Y23.217
X-74.493 Y23.216
X-26.692 Y23.215
G3 X-24.961 Y24.281 I-0.062 J2.041
G1 X-24.489 Y25.233
X-24.308 Y26.279
X-24.248 Y27.34
X-24.229 Y28.402
X-24.223 Y29.464
X-24.22 Y35.838
X-24.221 Y68.236
G3 X-25.217 Y70.009 I-2.034 J0.024
G1 X-26.16 Y70.498
X-27.205 Y70.687
X-28.265 Y70.751
X-29.327 Y70.771
X-30.39 Y70.777
X-35.701 Y70.78
X-81.377 Y70.781
X-132.364
X-183.351 Y70.782
X-234.338
X-246.022
G3 X-247.875 Y69.948 I-0.218 J-1.989
G1 X-248.436 Y69.046
X-248.664 Y68.009
G3 X-248.78 Y61.638 I72.828 J-4.511
G1 Y32.958
X-248.781 Y26.585
G3 X-247.63 Y24.904 I2.076 J0.187
G1 X-246.663 Y24.465
G3 X-242.429 Y24.222 I3.357 J21.48
G1 X-234.993 Y24.219
X-205.251
X-154.264 Y24.218
X-103.277 Y24.217
X-52.289 Y24.216
X-27.858
G3 X-26.051 Y25.143 I0.115 J2.002
G1 X-25.528 Y26.067
X-25.322 Y27.109
X-25.252 Y28.169
X-25.23 Y29.231
X-25.223 Y30.293
X-25.22 Y34.542
Y49.414
Y67.472
G3 X-26.416 Y69.121 I-2.071 J-0.244
G1 X-27.39 Y69.546
G3 X-31.625 Y69.778 I-3.362 J-22.633
G1 X-40.123 Y69.78
X-57.119
X-108.106 Y69.781
X-159.093
X-210.08 Y69.782
X-245.134
G3 X-246.951 Y68.868 I-0.118 J-2.03
G1 X-247.47 Y67.942
X-247.676 Y66.9
X-247.747 Y65.84
G3 X-247.78 Y55.218 I390.918 J-6.53
G1 X-247.781 Y27.6
G3 X-246.635 Y25.917 I2.058 J0.17
G1 X-245.671 Y25.469
G3 X-241.438 Y25.222 I3.359 J21.123
G1 X-234.002 Y25.219
X-225.504
X-174.517 Y25.218
X-123.53 Y25.217
X-72.543 Y25.216
X-28.992
G3 X-27.124 Y26.027 I0.222 J2.044
G1 X-26.562 Y26.929
X-26.335 Y27.966
X-26.256 Y29.025
X-26.231 Y30.087
X-26.224 Y31.15
X-26.22 Y34.336
X-26.219 Y66.203
G3 X-27.198 Y67.98 I-1.976 J0.07
G1 X-28.131 Y68.487
X-29.175 Y68.684
X-30.235 Y68.75
X-31.297 Y68.771
X-32.359 Y68.777
X-37.671 Y68.78
X-40.857
X-91.844 Y68.781
X-142.831
X-193.818 Y68.782
X-243.743
X-244.274 Y68.78
G3 X-246.026 Y67.751 I0.005 J-2.014
G1 X-246.505 Y66.803
X-246.689 Y65.756
X-246.751 Y64.696
X-246.771 Y63.634
X-246.777 Y62.572
X-246.78 Y57.261
X-246.781 Y28.58
G3 X-245.615 Y26.909 I2.077 J0.206
G1 X-244.649 Y26.466
X-243.6 Y26.3
G3 X-238.291 Y26.222 I3.864 J82.757
G1 X-187.304 Y26.218
X-136.317
X-85.33 Y26.217
X-34.343 Y26.216
X-30.094
G3 X-27.888 Y27.379 I0.295 J2.115
G1 X-27.457 Y28.35
G3 X-27.223 Y32.585 I-22.286 J3.358
G1 X-27.22 Y41.083
X-27.219 Y65.514
X-27.357 Y66.027
X-27.629 Y66.484
X-28.007 Y66.857
X-28.901 Y67.43
X-29.937 Y67.663
X-30.996 Y67.744
X-32.058 Y67.769
X-33.12 Y67.777
X-36.307 Y67.78
X-83.045 Y67.781
X-134.032
X-185.019 Y67.782
X-236.006
X-243.442
G3 X-245.106 Y66.606 I0.216 J-2.071
G1 X-245.539 Y65.636
X-245.701 Y64.586
X-245.755 Y63.526
X-245.772 Y62.463
X-245.777 Y61.401
X-245.78 Y53.966
X-245.781 Y29.534
G3 X-244.575 Y27.888 I2.103 J0.276
G1 X-243.604 Y27.458
X-242.554 Y27.297
X-241.493 Y27.244
X-240.431 Y27.227
X-239.368 Y27.222
X-230.871 Y27.219
X-191.568
X-140.581 Y27.218
X-89.594 Y27.217
X-38.607 Y27.216
X-30.64
G3 X-28.932 Y28.32 I-0.116 J2.054
G1 X-28.477 Y29.28
G3 X-28.223 Y33.513 I-20.551 J3.358
G1 X-28.22 Y40.949
X-28.219 Y64.318
G3 X-29.28 Y66.052 I-2.018 J-0.043
G1 X-30.234 Y66.518
X-31.282 Y66.695
X-32.342 Y66.754
X-33.404 Y66.772
X-34.466 Y66.778
X-40.84 Y66.78
X-82.267 Y66.781
X-133.254
X-184.241 Y66.782
X-235.228
X-242.132
G3 X-243.94 Y65.861 I-0.134 J-1.971
G1 X-244.469 Y64.94
X-244.677 Y63.899
X-244.748 Y62.839
X-244.77 Y61.777
X-244.777 Y60.715
X-244.78 Y56.466
X-244.781 Y30.972
G3 X-243.94 Y29.123 I1.99 J-0.211
G1 X-243.038 Y28.562
X-242 Y28.335
X-240.941 Y28.256
X-239.879 Y28.231
X-238.817 Y28.223
X-235.63 Y28.219
X-188.892 Y28.218
X-137.905
X-86.918 Y28.217
X-35.931 Y28.216
X-31.682
G3 X-29.953 Y29.288 I-0.079 J2.057
G1 X-29.487 Y30.243
G3 X-29.223 Y34.474 I-19.807 J3.36
G1 X-29.22 Y40.848
X-29.219 Y63.155
G3 X-30.146 Y64.96 I-1.98 J0.124
G1 X-31.074 Y65.478
X-32.116 Y65.681
G3 X-38.487 Y65.778 I-4.449 J-82.768
G1 X-89.474 Y65.781
X-140.462
X-191.449 Y65.782
X-241.373
X-241.896 Y65.687
X-242.37 Y65.448
X-242.768 Y65.096
X-243.079 Y64.666
X-243.527 Y63.702
X-243.697 Y62.654
X-243.754 Y61.593
X-243.772 Y60.531
X-243.777 Y59.469
X-243.78 Y53.096
X-243.781 Y31.851
G3 X-242.853 Y30.041 I2.031 J-0.102
G1 X-241.924 Y29.525
X-240.882 Y29.322
X-239.822 Y29.252
G3 X-229.2 Y29.219 I6.526 J394.756
G1 X-178.213 Y29.218
X-127.226 Y29.217
X-76.239 Y29.216
X-32.687
G3 X-30.959 Y30.287 I-0.061 J2.028
G1 X-30.488 Y31.239
X-30.308 Y32.286
X-30.248 Y33.346
X-30.229 Y34.408
X-30.223 Y35.471
X-30.22 Y41.844
Y62.026
G3 X-31.039 Y63.889 I-2.026 J0.221
G1 X-31.944 Y64.444
X-32.983 Y64.669
X-34.042 Y64.745
X-35.104 Y64.769
X-36.166 Y64.777
X-40.415 Y64.78
X-53.162
X-104.149 Y64.781
X-155.136
X-206.123 Y64.782
X-240.114
G3 X-241.933 Y63.879 I-0.147 J-1.986
G1 X-242.465 Y62.96
X-242.676 Y61.919
X-242.747 Y60.859
X-242.77 Y59.797
X-242.777 Y58.735
X-242.78 Y54.486
Y49.174
Y33.241
X-242.778 Y32.71
G3 X-241.735 Y30.966 I2.02 J0.025
G1 X-240.785 Y30.491
X-239.738 Y30.309
X-238.678 Y30.248
X-237.616 Y30.228
X-236.553 Y30.222
X-231.242 Y30.219
X-209.998
X-159.011 Y30.218
X-108.023 Y30.217
X-57.036 Y30.216
X-33.667
G3 X-31.949 Y31.305 I-0.089 J2.039
G1 X-31.484 Y32.26
G3 X-31.223 Y36.492 I-20.034 J3.362
G1 X-31.22 Y42.865
Y56.674
Y60.923
G3 X-32.395 Y63.121 I-2.104 J0.288
G1 X-33.368 Y63.547
G3 X-37.603 Y63.778 I-3.357 J-22.613
G1 X-47.163 Y63.78
X-75.844 Y63.781
X-126.831
X-177.818 Y63.782
X-228.805
X-239.427
G3 X-241.102 Y62.622 I0.19 J-2.063
G1 X-241.539 Y61.654
X-241.701 Y60.604
X-241.755 Y59.544
X-241.772 Y58.481
X-241.777 Y57.419
X-241.78 Y49.984
Y34.05
G3 X-240.567 Y31.875 I2.106 J-0.252
G1 X-239.592 Y31.452
G3 X-235.357 Y31.226 I3.381 J23.491
G1 X-234.294 Y31.22
X-183.307 Y31.218
X-132.32 Y31.217
X-81.333
X-34.595 Y31.216
G3 X-32.915 Y32.368 I-0.186 J2.073
G1 X-32.47 Y33.332
X-32.302 Y34.381
X-32.246 Y35.442
X-32.228 Y36.504
X-32.223 Y37.566
X-32.22 Y45.002
X-32.221 Y60.404
G3 X-33.362 Y62.091 I-2.071 J-0.172
G1 X-34.328 Y62.533
G3 X-38.562 Y62.778 I-3.357 J-21.298
G1 X-45.997 Y62.78
X-55.557
X-106.544 Y62.781
X-157.531
X-208.518 Y62.782
X-238.261
G3 X-240.017 Y61.759 I0.009 J-2.033
G1 X-240.501 Y60.813
X-240.689 Y59.768
X-240.751 Y58.707
X-240.771 Y57.645
X-240.777 Y56.583
X-240.78 Y51.272
Y42.774
Y34.807
G3 X-239.806 Y33.027 I1.982 J-0.073
G1 X-238.875 Y32.516
X-237.832 Y32.317
X-236.772 Y32.25
X-235.71 Y32.229
X-234.647 Y32.222
X-229.336 Y32.219
X-199.594
X-148.607 Y32.218
X-97.62 Y32.217
X-46.633 Y32.216
X-36.01
G3 X-34.144 Y33.023 I0.237 J2.013
G1 X-33.572 Y33.918
X-33.339 Y34.955
G3 X-33.22 Y41.325 I-71.104 J4.512
G1 Y59.383
G3 X-34.351 Y61.075 I-2.05 J-0.146
G1 X-35.312 Y61.527
X-36.36 Y61.698
G3 X-43.794 Y61.779 I-5.01 J-118.509
G1 X-94.781 Y61.781
X-145.768
X-196.755 Y61.782
X-237.12
G3 X-238.939 Y60.877 I-0.139 J-2.002
G1 X-239.467 Y59.956
X-239.676 Y58.914
G3 X-239.777 Y52.544 I79.788 J-4.451
G1 X-239.78 Y35.548
G3 X-238.594 Y33.888 I2.092 J0.242
G1 X-237.624 Y33.457
G3 X-233.388 Y33.222 I3.361 J22.217
G1 X-224.89 Y33.219
X-206.833
X-155.846 Y33.218
X-104.858 Y33.217
X-53.871 Y33.216
X-36.876
G3 X-35.053 Y34.119 I0.127 J2.033
G1 X-34.531 Y35.044
X-34.324 Y36.086
X-34.253 Y37.146
X-34.23 Y38.208
X-34.223 Y39.27
X-34.22 Y43.519
Y58.39
G3 X-35.36 Y60.078 I-2.064 J-0.166
G1 X-36.322 Y60.528
X-37.371 Y60.698
X-38.432 Y60.755
X-39.494 Y60.772
X-40.556 Y60.778
X-47.991 Y60.78
X-91.543 Y60.781
X-142.53
X-193.517 Y60.782
X-236.006
G3 X-237.877 Y59.976 I-0.228 J-2.046
G1 X-238.438 Y59.074
X-238.666 Y58.037
G3 X-238.777 Y53.791 I47.825 J-3.378
G1 X-238.78 Y36.795
G3 X-237.798 Y35.019 I1.991 J-0.059
G1 X-236.865 Y34.512
X-235.821 Y34.315
X-234.761 Y34.249
X-233.699 Y34.228
X-232.636 Y34.222
X-227.325 Y34.219
X-206.081
X-155.094 Y34.218
X-104.107 Y34.217
X-53.12 Y34.216
X-38.248
X-37.717 Y34.218
G3 X-35.969 Y35.253 I-0.011 J2.013
G1 X-35.493 Y36.202
X-35.31 Y37.249
X-35.249 Y38.309
X-35.229 Y39.371
X-35.223 Y40.433
X-35.22 Y45.744
Y57.429
G3 X-36.394 Y59.095 I-2.086 J-0.223
G1 X-37.361 Y59.535
X-38.41 Y59.7
G3 X-44.782 Y59.778 I-4.45 J-103.174
G1 X-95.769 Y59.781
X-146.756
X-197.743 Y59.782
X-234.921
G3 X-237.12 Y58.607 I-0.287 J-2.108
G1 X-237.547 Y57.634
G3 X-237.778 Y53.399 I23.592 J-3.411
G1 X-237.78 Y48.088
Y37.465
X-237.635 Y36.954
X-237.359 Y36.5
X-236.978 Y36.131
X-236.08 Y35.564
X-235.042 Y35.334
G3 X-228.672 Y35.219 I4.503 J72.994
G1 X-198.93
X-147.943 Y35.218
X-96.956 Y35.217
X-45.969 Y35.216
X-38.533
G3 X-36.882 Y36.411 I-0.246 J2.077
G1 X-36.456 Y37.384
G3 X-36.222 Y41.619 I-22.513 J3.363
G1 X-36.22 Y50.117
Y56.491
X-36.352 Y57.005
X-36.626 Y57.46
X-37 Y57.837
X-37.89 Y58.417
X-38.925 Y58.656
G3 X-45.295 Y58.78 I-4.513 J-68.179
G1 X-55.917
X-106.904 Y58.781
X-157.891
X-208.878 Y58.782
X-234.372
G3 X-236.074 Y57.668 I0.13 J-2.058
G1 X-236.526 Y56.707
X-236.697 Y55.659
X-236.754 Y54.598
X-236.772 Y53.536
X-236.778 Y52.474
X-236.78 Y45.038
Y38.665
G3 X-235.705 Y36.939 I2.021 J0.062
G1 X-234.748 Y36.478
X-233.7 Y36.304
X-232.64 Y36.246
X-231.578 Y36.227
X-230.516 Y36.222
X-224.142 Y36.219
X-182.715 Y36.218
X-131.728 Y36.217
X-80.741 Y36.216
X-39.845
G3 X-38.048 Y37.154 I0.118 J1.965
G1 X-37.525 Y38.079
X-37.32 Y39.121
G3 X-37.224 Y44.43 I-66.384 J3.866
G1 X-37.22 Y55.052
G3 X-38.061 Y56.906 I-2.04 J0.192
G1 X-38.974 Y57.449
X-40.013 Y57.669
G3 X-46.384 Y57.78 I-4.511 J-75.669
G1 X-76.126 Y57.781
X-127.113
X-178.1 Y57.782
X-229.087
X-233.336
G3 X-235.056 Y56.694 I0.101 J-2.063
G1 X-235.517 Y55.737
X-235.694 Y54.69
X-235.753 Y53.629
X-235.772 Y52.567
X-235.777 Y51.505
X-235.78 Y45.131
Y39.82
G3 X-234.832 Y38.026 I1.984 J-0.099
G1 X-233.9 Y37.516
X-232.857 Y37.317
X-231.796 Y37.25
X-230.734 Y37.229
X-229.672 Y37.222
X-224.361 Y37.219
X-209.49
X-158.503 Y37.218
X-107.516 Y37.217
X-56.529 Y37.216
X-40.595
G3 X-38.91 Y38.36 I-0.175 J2.071
G1 X-38.466 Y39.326
G3 X-38.222 Y43.56 I-21.46 J3.361
G1 X-38.22 Y50.996
Y54.182
G3 X-39.167 Y55.98 I-2.003 J0.093
G1 X-40.101 Y56.484
X-41.145 Y56.682
G3 X-48.578 Y56.78 I-5.053 J-100.775
G1 X-53.889
X-104.876 Y56.781
X-155.863
X-206.85 Y56.782
X-232.344
G3 X-234.056 Y55.683 I0.102 J-2.042
G1 X-234.518 Y54.727
X-234.694 Y53.679
X-234.753 Y52.619
X-234.772 Y51.557
X-234.777 Y50.495
X-234.78 Y44.121
Y40.935
G3 X-233.928 Y39.088 I2.012 J-0.191
G1 X-233.016 Y38.545
X-231.976 Y38.327
G3 X-227.73 Y38.222 I3.376 J50.429
G1 X-176.743 Y38.218
X-125.756 Y38.217
X-74.769 Y38.216
X-41.84
G3 X-40.042 Y39.158 I0.107 J1.982
G1 X-39.523 Y40.085
X-39.32 Y41.127
X-39.251 Y42.187
X-39.23 Y43.249
X-39.223 Y44.311
X-39.22 Y49.623
Y52.809
X-39.223 Y53.34
X-39.302 Y53.866
X-39.532 Y54.344
X-39.877 Y54.748
X-40.304 Y55.064
X-41.263 Y55.52
G3 X-45.496 Y55.778 I-3.364 J-20.386
G1 X-51.869 Y55.78
X-90.11 Y55.781
X-141.097
X-192.084 Y55.782
X-231.386
G3 X-233.076 Y54.646 I0.161 J-2.064
G1 X-233.527 Y53.684
X-233.697 Y52.635
G3 X-233.779 Y45.201 I118.344 J-5.014
G1 X-233.78 Y42.015
G3 X-232.999 Y40.132 I2.059 J-0.248
G1 X-232.1 Y39.566
X-231.063 Y39.335
G3 X-224.693 Y39.219 I4.505 J72.452
G1 X-187.515 Y39.218
X-136.528
X-85.541 Y39.217
X-43.051 Y39.216
G3 X-40.874 Y40.426 I0.255 J2.105
G1 X-40.451 Y41.4
G3 X-40.226 Y45.636 I-23.589 J3.377
G1 X-40.22 Y52.01
G3 X-41.034 Y53.873 I-2 J0.236
G1 X-41.932 Y54.439
X-42.97 Y54.667
G3 X-49.34 Y54.78 I-4.507 J-74.064
G1 X-83.331 Y54.781
X-134.318
X-185.306 Y54.782
X-229.919
G3 X-232.107 Y53.586 I-0.264 J-2.116
G1 X-232.539 Y52.616
X-232.702 Y51.566
X-232.755 Y50.505
X-232.772 Y49.443
X-232.778 Y48.381
X-232.78 Y43.07
G3 X-231.603 Y40.874 I2.067 J-0.306
G1 X-230.629 Y40.45
G3 X-226.393 Y40.221 I3.356 J22.837
G1 X-216.833 Y40.219
X-191.34
X-140.353 Y40.218
X-89.365 Y40.217
X-43.69 Y40.216
G3 X-41.959 Y41.284 I-0.073 J2.055
G1 X-41.488 Y42.236
X-41.308 Y43.283
X-41.247 Y44.344
G3 X-41.259 Y51.777 I-118.593 J3.536
G1 X-41.484 Y52.266
X-41.808 Y52.687
X-42.222 Y53.019
X-43.168 Y53.502
X-44.214 Y53.689
X-45.274 Y53.752
X-46.336 Y53.771
X-47.399 Y53.778
X-52.71 Y53.78
X-83.514 Y53.781
X-134.501
X-185.488 Y53.782
X-229.04
G3 X-230.885 Y52.931 I-0.198 J-1.995
G1 X-231.442 Y52.026
X-231.666 Y50.988
X-231.744 Y49.929
X-231.769 Y48.867
X-231.777 Y47.804
X-231.78 Y44.618
Y43.556
G3 X-230.605 Y41.894 I2.05 J0.203
G1 X-229.636 Y41.458
G3 X-225.401 Y41.221 I3.357 J22.029
G1 X-216.903 Y41.219
X-186.098 Y41.218
X-135.111 Y41.217
X-84.124
X-44.822 Y41.216
G3 X-43.029 Y42.173 I0.078 J2.012
G1 X-42.519 Y43.104
X-42.318 Y44.148
G3 X-42.223 Y50.519 I-83.649 J4.446
G1 X-42.353 Y51.033
X-42.626 Y51.489
X-43.004 Y51.861
X-43.899 Y52.433
X-44.936 Y52.665
G3 X-51.306 Y52.78 I-4.503 J-72.548
G1 X-92.733 Y52.781
X-143.72
X-194.707 Y52.782
X-228.168 Y52.781
G3 X-229.969 Y51.838 I-0.085 J-2.03
G1 X-230.479 Y50.906
X-230.68 Y49.863
G3 X-230.777 Y44.555 I66.746 J-3.873
X-229.596 Y42.896 I2.06 J0.217
G1 X-228.627 Y42.46
X-227.577 Y42.297
X-226.517 Y42.243
X-225.455 Y42.227
X-224.392 Y42.221
X-215.894 Y42.219
X-173.405 Y42.218
X-122.418 Y42.217
X-71.431 Y42.216
X-45.938
G3 X-44.092 Y43.071 I0.183 J2.025
G1 X-43.547 Y43.983
X-43.329 Y45.023
G3 X-43.268 Y49.797 I-35.575 J2.84
G1 X-43.488 Y50.286
X-43.817 Y50.703
X-44.234 Y51.031
X-45.184 Y51.508
X-46.23 Y51.691
X-47.29 Y51.752
X-48.352 Y51.772
X-49.415 Y51.778
X-54.726 Y51.78
X-58.975
X-109.962 Y51.781
X-160.949
X-211.936 Y51.782
X-226.807
X-227.338 Y51.779
G3 X-229.058 Y50.693 I0.081 J-2.035
G1 X-229.519 Y49.736
X-229.694 Y48.689
X-229.753 Y47.628
X-229.772 Y46.566
X-229.778 Y45.504
X-229.646 Y44.989
X-229.37 Y44.535
X-228.996 Y44.158
X-228.105 Y43.581
X-227.07 Y43.342
G3 X-220.7 Y43.219 I4.512 J68.699
G1 X-202.642
X-151.655 Y43.218
X-100.668 Y43.217
X-49.681 Y43.216
X-46.494
X-45.98 Y43.35
X-45.518 Y43.612
X-45.143 Y43.988
X-44.571 Y44.883
G3 X-44.251 Y48.57 I-11.243 J2.834
G1 X-44.388 Y49.082
X-44.669 Y49.533
X-45.056 Y49.896
X-45.963 Y50.449
X-47.002 Y50.671
X-48.062 Y50.746
X-49.123 Y50.77
X-50.186 Y50.777
X-54.435 Y50.78
X-84.177 Y50.781
X-135.164
X-186.151 Y50.782
X-226.516
G3 X-228.138 Y49.543 I0.323 J-2.105
G1 X-228.553 Y48.565
X-228.706 Y47.514
X-228.757 Y46.453
X-228.612 Y45.942
X-228.344 Y45.483
X-227.962 Y45.114
X-227.056 Y44.559
X-226.018 Y44.334
X-224.959 Y44.256
X-223.897 Y44.231
X-222.835 Y44.223
X-219.648 Y44.219
X-173.972 Y44.218
X-122.985 Y44.217
X-71.998 Y44.216
X-47.567
G3 X-45.89 Y45.368 I-0.158 J2.026
G1 X-45.456 Y46.337
X-45.296 Y47.387
G3 X-46.39 Y49.092 I-1.942 J-0.043
G1 X-47.354 Y49.538
G3 X-51.588 Y49.778 I-3.354 J-21.655
G1 X-60.086 Y49.78
X-66.459 Y49.781
X-117.446
X-168.433
X-219.421 Y49.782
X-225.263
G3 X-227.257 Y48.278 I0.1 J-2.207
X-226.341 Y45.845 I1.553 J-0.805
G1 X-225.364 Y45.428
X-224.311 Y45.283
X-223.25 Y45.238
X-222.188 Y45.225
X-220.063 Y45.22
X-187.134 Y45.218
X-136.147
X-85.16 Y45.217
X-49.044 Y45.216
G3 X-46.914 Y46.453 I0.297 J1.941
X-47.751 Y48.025 I-1.769 J0.068
G1 X-48.69 Y48.521
X-49.737 Y48.7
G3 X-57.171 Y48.779 I-4.99 J-120.539
G1 X-108.158 Y48.781
X-159.145
X-210.132 Y48.782
G2 X-215.313 Y48.693 I-7.628 J294.887
G1 X-223.811 Y48.692
X-224.342 Y48.689
X-224.864 Y48.59
X-224.98 Y48.526
X-225.084 Y48.444
X-225.174 Y48.346
X-225.248 Y48.236
X-225.302 Y48.115
X-225.337 Y47.987
X-225.352 Y47.855
X-225.345 Y47.722
X-225.317 Y47.592
X-225.269 Y47.469
X-225.202 Y47.354
X-225.117 Y47.252
X-224.718 Y46.901
X-223.734 Y46.502
X-222.68 Y46.367
X-221.619 Y46.326
X-220.556 Y46.314
X-218.432 Y46.309
X-190.814
X-139.827 Y46.308
X-88.84 Y46.307
X-50.068 Y46.306
X-49.803 Y46.309
G2 X-49.665 Y45.747 I-0.006 J-0.3
G1 X-49.724 Y45.714 Z-3.982
X-49.779 Y45.684 Z-3.96
X-49.829 Y45.657 Z-3.925
X-49.871 Y45.634 Z-3.877
X-49.902 Y45.616 Z-3.82
X-49.921 Y45.606 Z-3.757
X-49.928 Y45.602 Z-3.69
G0 Z2
G28 G91 Z0
G90
G28 G91 X0 Y0
G90
M5
M30
