(1001)
(Machine)
(  vendor: Autodesk)
(  description: Generic 3-axis)
(T1  D=3 CR=0 - ZMIN=-28 - flat end mill)
G90 G94
G17
G21
G28 G91 Z0
G90

(Adaptive4)
T1
S18000 M3
G54
G0 X-261.532 Y18.857
Z2
Z-7.4
G1 Z-7.7 F450
X-261.525 Y18.859 Z-7.767
X-261.503 Y18.865 Z-7.83
X-261.468 Y18.874 Z-7.887
X-261.422 Y18.885 Z-7.935
X-261.367 Y18.899 Z-7.97
X-261.306 Y18.915 Z-7.992
X-261.241 Y18.932 Z-8
G2 X-259.608 Y19.167 I1.9 J-7.419
G1 X-259.533
X-259.409 Y19.082
X-259.307 Y18.972
X-259.221 Y18.849
X-259.146 Y18.719
X-259.07 Y18.561
X-258.99 Y18.359
X-258.905 Y18.093
X-258.816 Y17.73
X-258.724 Y17.195
X-258.628 Y16.257
X-258.593 Y15.171
X-258.586 Y14.084
X-258.584 Y12.998
X-258.583 Y-22.101
X-258.612 Y-22.318
X-258.696 Y-22.52
X-258.829 Y-22.693
X-259.003 Y-22.825
X-259.206 Y-22.907
G2 X-259.505 Y-22.803 Z-7.289 I-0.066 J0.293
G1 X-259.542 Y-22.745 Z-7.145 F1200
X-259.564 Y-22.681 Z-7
G2 X-258.979 Y-22.549 I0.293 J0.066
X-259.232 Y-22.912 I-0.293 J-0.066
X-259.571 Y-22.628 I-0.04 J0.297
G1 X-261.543 Y23.057
G2 X-261.215 Y23.369 I0.3 J0.013
X-260.051 Y23.168 I-0.717 J-7.625
G1 X-259.919 Y23.133 Z-7.289
G2 X-259.598 Y23.038 Z-8 I-2.012 J-7.39 F450
G1 X-259.481 Y22.996
X-259.343 Y22.939
X-259.251 Y22.82
X-259.173 Y22.692
X-259.099 Y22.548
X-259.02 Y22.363
X-258.936 Y22.123
X-258.849 Y21.801
X-258.758 Y21.342
X-258.62 Y20.264
X-258.253 Y19.241
X-258.049 Y18.599
X-257.886 Y17.923
X-257.748 Y17.109
X-257.641 Y16.028
X-257.601 Y14.942
X-257.588 Y13.855
X-257.585 Y12.768
X-257.583 Y10.595
Y-20.922
X-257.59 Y-21.396
X-257.612 Y-21.671
X-257.646 Y-21.893
X-257.687 Y-22.073
X-257.72 Y-22.184
X-257.822 Y-22.402
X-257.981 Y-22.582
X-258.186 Y-22.709
X-258.418 Y-22.773
G2 X-258.701 Y-22.628 Z-7.289 I-0.026 J0.299
G1 X-258.729 Y-22.566 Z-7.145 F1200
X-258.742 Y-22.5 Z-7
X-258.743 Y-22.481
X-259.873 Y22.703
X-259.87 Y22.753
X-259.858 Y22.802
X-259.83 Y22.864 Z-7.145
X-259.789 Y22.918 Z-7.289
G2 X-259.481 Y22.996 Z-8 I0.216 J-0.208 F450
G1 X-259.309 Y22.935
X-259.062 Y22.87
X-258.917 Y22.832
X-258.794 Y22.747
X-258.681 Y22.648
X-258.579 Y22.539
X-258.483 Y22.418
X-258.391 Y22.285
X-258.29 Y22.113
X-258.177 Y21.887
X-257.76 Y20.883
X-257.407 Y19.856
X-257.121 Y18.912
X-256.912 Y18.001
X-256.743 Y16.928
X-256.649 Y15.845
X-256.608 Y14.759
X-256.591 Y13.673
X-256.586 Y12.586
X-256.584 Y11.499
X-256.583 Y4.978
Y-20.018
X-256.587 Y-20.82
X-256.621 Y-21.271
X-256.664 Y-21.573
X-256.717 Y-21.816
X-256.768 Y-21.995
X-256.838 Y-22.185
X-256.864 Y-22.244
X-256.992 Y-22.445
X-257.171 Y-22.602
X-257.387 Y-22.702
X-257.623 Y-22.737
X-258.075 Y-22.738
X-258.322 Y-22.761
X-258.418 Y-22.773
G2 X-258.701 Y-22.628 Z-7.289 I-0.026 J0.299
G1 X-258.729 Y-22.566 Z-7.145 F1200
X-258.742 Y-22.5 Z-7
X-258.744 Y-22.478
X-259.411 Y22.569
X-259.407 Y22.622
X-259.388 Y22.688 Z-7.145
X-259.355 Y22.747 Z-7.289
G2 X-259.062 Y22.87 Z-8 I0.245 J-0.173 F450
G1 X-258.816 Y22.821
X-258.569 Y22.791
X-258.421 Y22.765
X-258.281 Y22.712
X-258.149 Y22.641
X-258.026 Y22.555
X-257.905 Y22.456
X-257.766 Y22.324
X-257.61 Y22.154
X-257.456 Y21.96
X-257.272 Y21.693
X-257.047 Y21.312
X-256.803 Y20.826
X-256.524 Y20.16
X-256.257 Y19.368
X-256.016 Y18.455
X-255.834 Y17.493
X-255.705 Y16.414
X-255.637 Y15.33
X-255.605 Y14.243
X-255.591 Y13.157
X-255.586 Y12.07
X-255.584 Y10.983
X-255.583 Y5.549
Y-19.447
X-255.586 Y-20.403
X-255.626 Y-20.952
X-255.684 Y-21.361
X-255.744 Y-21.641
X-255.818 Y-21.898
X-255.884 Y-22.077
X-255.958 Y-22.245
X-255.984 Y-22.294
X-256.116 Y-22.476
X-256.291 Y-22.617
X-256.498 Y-22.706
X-256.72 Y-22.736
X-257.335
X-257.623 Y-22.737
G2 X-257.887 Y-22.56 Z-7.289 I0.01 J0.3
G1 X-257.906 Y-22.503 Z-7.162 F1200
X-257.913 Y-22.444 Z-7.034
Y-22.428 Z-7
X-258.895 Y22.486
X-258.894 Y22.518
X-258.88 Y22.585 Z-7.145
X-258.852 Y22.647 Z-7.289
G2 X-258.569 Y22.791 Z-8 I0.257 J-0.155 F450
G1 X-258.322 Y22.761
X-258.075 Y22.738
X-257.94
X-257.79 Y22.73
X-257.643 Y22.698
X-257.502 Y22.648
X-257.366 Y22.585
X-257.236 Y22.509
X-257.102 Y22.418
X-256.96 Y22.307
X-256.794 Y22.156
X-256.634 Y21.989
X-256.449 Y21.768
X-256.246 Y21.487
X-256.04 Y21.156
X-255.806 Y20.716
X-255.571 Y20.19
X-255.337 Y19.546
X-255.104 Y18.739
X-254.9 Y17.783
X-254.746 Y16.707
X-254.66 Y15.623
X-254.617 Y14.537
X-254.597 Y13.451
X-254.588 Y12.364
X-254.585 Y11.277
X-254.583 Y9.104
Y-19.153
X-254.591 Y-20.139
X-254.638 Y-20.747
X-254.708 Y-21.218
X-254.786 Y-21.578
X-254.86 Y-21.83
X-254.944 Y-22.057
X-255.018 Y-22.219
X-255.059 Y-22.297
X-255.191 Y-22.479
X-255.366 Y-22.618
X-255.572 Y-22.706
X-255.794 Y-22.736
X-256.72
G2 X-256.984 Y-22.559 Z-7.289 I0.01 J0.3
G1 X-257.002 Y-22.503 Z-7.164 F1200
X-257.01 Y-22.445 Z-7.039
Y-22.426 Z-7
X-258.23 Y22.429
Y22.43 Z-7.002
X-258.224 Y22.497 Z-7.146
X-258.203 Y22.561 Z-7.289
G2 X-257.94 Y22.738 Z-8 I0.273 J-0.123 F450
G1 X-257.138 Y22.736
X-256.988 Y22.729
X-256.84 Y22.703
X-256.697 Y22.661
X-256.557 Y22.605
X-256.423 Y22.538
X-256.286 Y22.456
X-256.131 Y22.349
X-255.977 Y22.226
X-255.795 Y22.059
X-255.621 Y21.876
X-255.415 Y21.625
X-255.222 Y21.355
X-254.993 Y20.983
X-254.782 Y20.579
X-254.545 Y20.037
X-254.304 Y19.362
X-254.098 Y18.625
X-253.896 Y17.653
X-253.75 Y16.576
X-253.666 Y15.492
X-253.622 Y14.406
X-253.6 Y13.32
X-253.59 Y12.233
X-253.586 Y11.146
X-253.584 Y10.059
X-253.583 Y4.625
Y-18.197
X-253.586 Y-19.284
X-253.614 Y-20.156
X-253.677 Y-20.784
X-253.757 Y-21.247
X-253.846 Y-21.612
X-253.93 Y-21.874
X-254.016 Y-22.093
X-254.095 Y-22.257
X-254.128 Y-22.315
X-254.26 Y-22.489
X-254.433 Y-22.623
X-254.635 Y-22.708
X-254.853 Y-22.736
X-255.794
G2 X-256.057 Y-22.559 Z-7.289 I0.011 J0.3
G1 X-256.076 Y-22.503 Z-7.165 F1200
X-256.083 Y-22.445 Z-7.041
X-256.084 Y-22.426 Z-7
X-257.427 Y22.426
Y22.427 Z-7.003
X-257.422 Y22.495 Z-7.146
X-257.401 Y22.559 Z-7.289
G2 X-257.138 Y22.736 Z-8 I0.274 J-0.122 F450
G1 X-256.212
X-256.062 Y22.729
X-255.915 Y22.701
X-255.771 Y22.658
X-255.632 Y22.602
X-255.494 Y22.534
X-255.351 Y22.451
X-255.195 Y22.345
X-255.024 Y22.211
X-254.849 Y22.052
X-254.661 Y21.856
X-254.463 Y21.62
X-254.255 Y21.332
X-254.031 Y20.975
X-253.81 Y20.559
X-253.571 Y20.023
X-253.35 Y19.419
X-253.133 Y18.665
X-252.926 Y17.702
X-252.771 Y16.627
X-252.681 Y15.544
X-252.631 Y14.458
X-252.605 Y13.371
X-252.593 Y12.285
X-252.587 Y11.198
X-252.585 Y10.111
X-252.583 Y6.851
Y-17.059
X-252.584 Y-18.145
X-252.592 Y-19.232
X-252.634 Y-20.144
X-252.707 Y-20.768
X-252.799 Y-21.26
X-252.896 Y-21.634
X-252.983 Y-21.894
X-253.075 Y-22.116
X-253.157 Y-22.28
X-253.183 Y-22.325
X-253.316 Y-22.496
X-253.488 Y-22.627
X-253.688 Y-22.709
X-253.902 Y-22.737
X-254.853 Y-22.736
G2 X-255.116 Y-22.559 Z-7.289 I0.01 J0.3
G1 X-255.135 Y-22.504 Z-7.165 F1200
X-255.142 Y-22.446 Z-7.041
X-255.143 Y-22.426 Z-7
X-256.501 Y22.426
Y22.427 Z-7.003
X-256.496 Y22.495 Z-7.146
X-256.475 Y22.559 Z-7.289
G2 X-256.212 Y22.736 Z-8 I0.274 J-0.122 F450
G1 X-255.286
X-255.136 Y22.729
X-254.988 Y22.703
X-254.844 Y22.662
X-254.704 Y22.608
X-254.568 Y22.543
X-254.419 Y22.459
X-254.264 Y22.357
X-254.091 Y22.224
X-253.916 Y22.07
X-253.722 Y21.874
X-253.526 Y21.646
X-253.311 Y21.358
X-253.09 Y21.013
X-252.872 Y20.616
X-252.63 Y20.092
X-252.41 Y19.516
X-252.185 Y18.774
X-251.97 Y17.835
X-251.802 Y16.761
X-251.701 Y15.679
X-251.643 Y14.594
X-251.612 Y13.507
X-251.596 Y12.421
X-251.589 Y11.334
X-251.586 Y10.247
X-251.584 Y8.073
X-251.583 Y-16.923
X-251.585 Y-18.01
X-251.596 Y-19.096
X-251.645 Y-20.042
X-251.726 Y-20.713
X-251.826 Y-21.233
X-251.929 Y-21.623
X-252.019 Y-21.887
X-252.117 Y-22.118
X-252.2 Y-22.284
X-252.227 Y-22.329
X-252.36 Y-22.498
X-252.532 Y-22.628
X-252.73 Y-22.709
X-252.944 Y-22.737
X-253.902
G2 X-254.165 Y-22.559 Z-7.289 I0.01 J0.3
G1 X-254.184 Y-22.504 Z-7.165 F1200
X-254.191 Y-22.446 Z-7.041
X-254.192 Y-22.426 Z-7
X-255.575 Y22.426
Y22.427 Z-7.002
X-255.57 Y22.495 Z-7.146
X-255.549 Y22.559 Z-7.289
G2 X-255.286 Y22.736 Z-8 I0.274 J-0.122 F450
G1 X-254.373
X-254.223 Y22.729
X-254.075 Y22.708
X-253.929 Y22.672
X-253.788 Y22.622
X-253.651 Y22.56
X-253.503 Y22.481
X-253.35 Y22.385
X-253.177 Y22.259
X-253.005 Y22.115
X-252.813 Y21.928
X-252.619 Y21.714
X-252.404 Y21.439
X-252.186 Y21.115
X-251.967 Y20.738
X-251.721 Y20.238
X-251.504 Y19.704
X-251.269 Y18.989
X-251.041 Y18.089
X-250.851 Y17.036
X-250.732 Y15.956
X-250.662 Y14.871
X-250.623 Y13.785
X-250.602 Y12.699
X-250.592 Y11.612
X-250.587 Y10.525
X-250.585 Y9.438
X-250.583 Y6.178
Y-16.645
X-250.585 Y-17.731
X-250.594 Y-18.818
X-250.639 Y-19.804
X-250.73 Y-20.588
X-250.83 Y-21.127
X-250.943 Y-21.562
X-251.038 Y-21.845
X-251.14 Y-22.092
X-251.225 Y-22.263
X-251.261 Y-22.325
X-251.394 Y-22.496
X-251.566 Y-22.627
X-251.766 Y-22.709
X-251.98 Y-22.737
X-252.944
G2 X-253.207 Y-22.559 Z-7.289 I0.01 J0.3
G1 X-253.225 Y-22.504 Z-7.166 F1200
X-253.233 Y-22.446 Z-7.042
X-253.234 Y-22.427 Z-7
X-254.663 Y22.426
Y22.427 Z-7.002
X-254.657 Y22.495 Z-7.145
X-254.637 Y22.559 Z-7.289
G2 X-254.373 Y22.736 Z-8 I0.274 J-0.122 F450
G1 X-253.386 Y22.737
X-253.236 Y22.729
X-253.088 Y22.705
X-252.943 Y22.666
X-252.803 Y22.614
X-252.659 Y22.547
X-252.516 Y22.469
X-252.35 Y22.361
X-252.187 Y22.24
X-251.997 Y22.077
X-251.816 Y21.897
X-251.6 Y21.652
X-251.397 Y21.387
X-251.173 Y21.047
X-250.944 Y20.641
X-250.716 Y20.162
X-250.461 Y19.516
X-250.237 Y18.806
X-250.024 Y17.923
X-249.843 Y16.851
X-249.73 Y15.77
X-249.663 Y14.685
X-249.625 Y13.599
X-249.604 Y12.513
X-249.593 Y11.426
X-249.587 Y10.339
X-249.585 Y9.252
X-249.583 Y7.079
Y-15.744
X-249.584 Y-16.831
X-249.588 Y-17.917
X-249.61 Y-19.004
X-249.675 Y-20.002
X-249.768 Y-20.686
X-249.882 Y-21.233
X-249.994 Y-21.635
X-250.092 Y-21.908
X-250.192 Y-22.137
X-250.279 Y-22.305
X-250.301 Y-22.34
X-250.434 Y-22.505
X-250.604 Y-22.631
X-250.801 Y-22.71
X-251.011 Y-22.737
X-251.98
G2 X-252.244 Y-22.559 Z-7.289 I0.01 J0.3
G1 X-252.262 Y-22.504 Z-7.166 F1200
X-252.27 Y-22.446 Z-7.042
Y-22.427 Z-7
X-253.675 Y22.427
Z-7.002
X-253.67 Y22.495 Z-7.146
X-253.649 Y22.559 Z-7.289
G2 X-253.386 Y22.737 Z-8 I0.274 J-0.122 F450
G1 X-252.399
X-252.249 Y22.729
X-252.101 Y22.703
X-251.957 Y22.661
X-251.817 Y22.608
X-251.672 Y22.539
X-251.527 Y22.457
X-251.361 Y22.348
X-251.192 Y22.22
X-251.003 Y22.055
X-250.814 Y21.864
X-250.599 Y21.616
X-250.397 Y21.346
X-250.155 Y20.972
X-249.932 Y20.569
X-249.693 Y20.055
X-249.439 Y19.393
X-249.226 Y18.695
X-249.009 Y17.761
X-248.838 Y16.688
X-248.73 Y15.606
X-248.665 Y14.522
X-248.626 Y13.435
X-248.605 Y12.349
X-248.594 Y11.262
X-248.588 Y10.175
X-248.585 Y9.089
X-248.584 Y6.915
X-248.583 Y-15.908
X-248.585 Y-16.994
X-248.595 Y-18.081
X-248.629 Y-19.167
X-248.706 Y-20.11
X-248.806 Y-20.776
X-248.925 Y-21.306
X-249.04 Y-21.693
X-249.138 Y-21.956
X-249.237 Y-22.174
X-249.327 Y-22.338
X-249.334 Y-22.351
X-249.468 Y-22.511
X-249.636 Y-22.634
X-249.831 Y-22.711
X-250.038 Y-22.737
X-251.011
G2 X-251.275 Y-22.559 Z-7.289 I0.011 J0.3
G1 X-251.293 Y-22.504 Z-7.165 F1200
X-251.301 Y-22.446 Z-7.041
Y-22.427 Z-7
X-252.688 Y22.427
Y22.428 Z-7.002
X-252.683 Y22.495 Z-7.146
X-252.662 Y22.559 Z-7.289
G2 X-252.399 Y22.737 Z-8 I0.274 J-0.122 F450
G1 X-251.412
X-251.262 Y22.729
X-251.115 Y22.701
X-250.971 Y22.657
X-250.831 Y22.603
X-250.687 Y22.533
X-250.538 Y22.447
X-250.373 Y22.337
X-250.196 Y22.2
X-250.009 Y22.034
X-249.813 Y21.834
X-249.601 Y21.584
X-249.389 Y21.297
X-249.144 Y20.911
X-248.92 Y20.5
X-248.68 Y19.972
X-248.427 Y19.296
X-248.215 Y18.585
X-247.997 Y17.608
X-247.834 Y16.533
X-247.73 Y15.451
X-247.666 Y14.366
X-247.628 Y13.28
X-247.606 Y12.194
X-247.595 Y11.107
X-247.589 Y10.02
X-247.586 Y8.933
X-247.584 Y6.76
X-247.583 Y-14.976
X-247.584 Y-16.063
X-247.588 Y-17.15
X-247.604 Y-18.236
X-247.651 Y-19.322
X-247.739 Y-20.23
X-247.847 Y-20.876
X-247.969 Y-21.386
X-248.085 Y-21.754
X-248.185 Y-22.008
X-248.282 Y-22.212
X-248.338 Y-22.312
X-248.47 Y-22.488
X-248.644 Y-22.623
X-248.847 Y-22.708
X-249.065 Y-22.737
X-250.038
G2 X-250.301 Y-22.56 Z-7.289 I0.01 J0.3
G1 X-250.32 Y-22.504 Z-7.165 F1200
X-250.327 Y-22.446 Z-7.041
X-250.328 Y-22.427 Z-7
X-251.701 Y22.427
Y22.428 Z-7.002
X-251.696 Y22.495 Z-7.146
X-251.675 Y22.559 Z-7.289
G2 X-251.412 Y22.737 Z-8 I0.274 J-0.122 F450
G1 X-250.474
X-250.325 Y22.729
X-250.177 Y22.705
X-250.032 Y22.666
X-249.891 Y22.614
X-249.755 Y22.551
X-249.599 Y22.466
X-249.446 Y22.368
X-249.264 Y22.233
X-249.087 Y22.082
X-248.882 Y21.88
X-248.687 Y21.66
X-248.462 Y21.367
X-248.242 Y21.037
X-248.001 Y20.612
X-247.749 Y20.087
X-247.53 Y19.535
X-247.288 Y18.779
X-247.059 Y17.843
X-246.875 Y16.772
X-246.758 Y15.691
X-246.684 Y14.607
X-246.64 Y13.521
X-246.613 Y12.435
X-246.599 Y11.348
X-246.591 Y10.261
X-246.587 Y9.174
X-246.585 Y8.088
X-246.583 Y4.827
Y-14.735
X-246.584 Y-15.822
X-246.588 Y-16.909
X-246.603 Y-17.995
X-246.642 Y-19.081
X-246.726 Y-20.023
X-246.846 Y-20.78
X-246.967 Y-21.304
X-247.086 Y-21.695
X-247.194 Y-21.977
X-247.289 Y-22.18
X-247.386 Y-22.356
X-247.519 Y-22.515
X-247.687 Y-22.636
X-247.88 Y-22.711
X-248.086 Y-22.737
X-249.065
G2 X-249.328 Y-22.56 Z-7.289 I0.011 J0.3
G1 X-249.346 Y-22.504 Z-7.166 F1200
X-249.354 Y-22.447 Z-7.042
Y-22.427 Z-7
X-250.764 Y22.427
Y22.428 Z-7.002
X-250.758 Y22.495 Z-7.146
X-250.738 Y22.56 Z-7.289
G2 X-250.474 Y22.737 Z-8 I0.274 J-0.122 F450
G1 X-249.487
X-249.337 Y22.73
X-249.19 Y22.704
X-249.045 Y22.663
X-248.905 Y22.61
X-248.76 Y22.542
X-248.611 Y22.459
X-248.445 Y22.351
X-248.274 Y22.223
X-248.085 Y22.059
X-247.891 Y21.864
X-247.675 Y21.617
X-247.46 Y21.333
X-247.223 Y20.969
X-247 Y20.57
X-246.756 Y20.052
X-246.495 Y19.38
X-246.275 Y18.675
X-246.049 Y17.717
X-245.873 Y16.644
X-245.759 Y15.563
X-245.686 Y14.479
X-245.642 Y13.393
X-245.615 Y12.307
X-245.6 Y11.22
X-245.592 Y10.133
X-245.587 Y9.046
X-245.585 Y7.96
X-245.583 Y4.699
X-245.584 Y-14.863
X-245.585 Y-15.95
X-245.592 Y-17.037
X-245.612 Y-18.123
X-245.663 Y-19.209
X-245.762 Y-20.183
X-245.878 Y-20.852
X-246.007 Y-21.381
X-246.128 Y-21.758
X-246.23 Y-22.013
X-246.328 Y-22.219
X-246.384 Y-22.316
X-246.516 Y-22.491
X-246.689 Y-22.624
X-246.891 Y-22.709
X-247.108 Y-22.737
X-248.086
G2 X-248.349 Y-22.56 Z-7.289 I0.011 J0.3
G1 X-248.368 Y-22.505 Z-7.166 F1200
X-248.375 Y-22.447 Z-7.042
X-248.376 Y-22.427 Z-7
X-249.777 Y22.427
Y22.428 Z-7.002
X-249.771 Y22.495 Z-7.146
X-249.751 Y22.56 Z-7.289
G2 X-249.487 Y22.737 Z-8 I0.274 J-0.122 F450
G1 X-248.561
X-248.411 Y22.73
X-248.263 Y22.71
X-248.117 Y22.674
X-247.975 Y22.626
X-247.838 Y22.566
X-247.684 Y22.486
X-247.532 Y22.392
X-247.352 Y22.265
X-247.178 Y22.121
X-246.977 Y21.93
X-246.784 Y21.72
X-246.56 Y21.441
X-246.342 Y21.125
X-246.099 Y20.715
X-245.845 Y20.212
X-245.622 Y19.679
X-245.372 Y18.944
X-245.132 Y18.036
X-244.927 Y16.969
X-244.796 Y15.89
X-244.711 Y14.807
X-244.657 Y13.721
X-244.625 Y12.635
X-244.606 Y11.548
X-244.595 Y10.462
X-244.589 Y9.375
X-244.586 Y8.288
X-244.584 Y6.114
X-244.583 Y-13.448
Y-14.535
X-244.585 Y-15.621
X-244.59 Y-16.708
X-244.607 Y-17.795
X-244.649 Y-18.881
X-244.733 Y-19.873
X-244.855 Y-20.664
X-244.985 Y-21.24
X-245.112 Y-21.661
X-245.22 Y-21.948
X-245.32 Y-22.165
X-245.415 Y-22.338
X-245.424 Y-22.353
X-245.558 Y-22.513
X-245.726 Y-22.635
X-245.92 Y-22.711
X-246.126 Y-22.737
X-247.108
G2 X-247.372 Y-22.56 Z-7.289 I0.011 J0.3
G1 X-247.39 Y-22.505 Z-7.166 F1200
X-247.398 Y-22.447 Z-7.042
Y-22.427 Z-7
X-248.851 Y22.427
Y22.428 Z-7.001
X-248.845 Y22.495 Z-7.145
X-248.825 Y22.56 Z-7.289
G2 X-248.561 Y22.737 Z-8 I0.274 J-0.122 F450
G1 X-247.574
X-247.424 Y22.73
X-247.276 Y22.709
X-247.13 Y22.672
X-246.989 Y22.623
X-246.844 Y22.559
X-246.702 Y22.484
X-246.535 Y22.38
X-246.371 Y22.262
X-246.181 Y22.104
X-245.993 Y21.924
X-245.775 Y21.685
X-245.566 Y21.421
X-245.332 Y21.079
X-245.104 Y20.691
X-244.86 Y20.2
X-244.593 Y19.554
X-244.366 Y18.878
X-244.13 Y17.968
X-243.931 Y16.899
X-243.801 Y15.82
X-243.716 Y14.737
X-243.661 Y13.651
X-243.628 Y12.565
X-243.608 Y11.479
X-243.596 Y10.392
X-243.59 Y9.305
X-243.586 Y8.218
X-243.584 Y6.045
X-243.583 Y-6.997
X-243.584 Y-14.604
X-243.586 Y-15.691
X-243.594 Y-16.778
X-243.615 Y-17.865
X-243.664 Y-18.95
X-243.758 Y-19.965
X-243.884 Y-20.734
X-244.015 Y-21.291
X-244.143 Y-21.704
X-244.246 Y-21.968
X-244.35 Y-22.191
X-244.445 Y-22.359
X-244.578 Y-22.517
X-244.746 Y-22.637
X-244.938 Y-22.712
X-245.143 Y-22.738
X-246.126 Y-22.737
G2 X-246.39 Y-22.56 Z-7.289 I0.011 J0.3
G1 X-246.408 Y-22.505 Z-7.166 F1200
X-246.416 Y-22.447 Z-7.042
Y-22.427 Z-7
X-247.863 Y22.427
Y22.428 Z-7.001
X-247.858 Y22.495 Z-7.145
X-247.837 Y22.56 Z-7.289
G2 X-247.574 Y22.737 Z-8 I0.274 J-0.122 F450
G1 X-246.587
X-246.437 Y22.73
X-246.289 Y22.708
X-246.143 Y22.67
X-246.002 Y22.62
X-245.858 Y22.556
X-245.714 Y22.479
X-245.548 Y22.375
X-245.379 Y22.252
X-245.19 Y22.094
X-245 Y21.912
X-244.784 Y21.673
X-244.577 Y21.409
X-244.329 Y21.043
X-244.102 Y20.654
X-243.856 Y20.155
X-243.592 Y19.509
X-243.367 Y18.83
X-243.13 Y17.901
X-242.935 Y16.832
X-242.805 Y15.753
X-242.72 Y14.669
X-242.665 Y13.584
X-242.631 Y12.498
X-242.61 Y11.411
X-242.598 Y10.324
X-242.591 Y9.237
X-242.587 Y8.151
X-242.584 Y5.977
X-242.583 Y-2.717
Y-13.585
X-242.584 Y-14.672
X-242.588 Y-15.759
X-242.598 Y-16.845
X-242.624 Y-17.932
X-242.679 Y-19.017
X-242.779 Y-20.021
X-242.908 Y-20.782
X-243.04 Y-21.326
X-243.169 Y-21.731
X-243.271 Y-21.99
X-243.375 Y-22.207
X-243.436 Y-22.315
X-243.568 Y-22.49
X-243.741 Y-22.624
X-243.943 Y-22.709
X-244.161 Y-22.738
X-245.143
G2 X-245.406 Y-22.56 Z-7.289 I0.01 J0.3
G1 X-245.425 Y-22.505 Z-7.166 F1200
X-245.432 Y-22.447 Z-7.042
X-245.433 Y-22.428 Z-7
X-246.876 Y22.427
Y22.428 Z-7.001
X-246.871 Y22.495 Z-7.145
X-246.85 Y22.56 Z-7.289
G2 X-246.587 Y22.737 Z-8 I0.274 J-0.122 F450
G1 X-245.6 Y22.738
X-245.45 Y22.73
X-245.302 Y22.707
X-245.157 Y22.669
X-245.015 Y22.618
X-244.871 Y22.553
X-244.726 Y22.475
X-244.561 Y22.371
X-244.387 Y22.244
X-244.198 Y22.085
X-244.005 Y21.897
X-243.79 Y21.658
X-243.579 Y21.386
X-243.33 Y21.017
X-243.103 Y20.624
X-242.856 Y20.118
X-242.594 Y19.471
X-242.367 Y18.777
X-242.129 Y17.83
X-241.937 Y16.76
X-241.809 Y15.681
X-241.724 Y14.598
X-241.669 Y13.512
X-241.633 Y12.426
X-241.612 Y11.339
X-241.599 Y10.253
X-241.591 Y9.166
X-241.587 Y8.079
X-241.585 Y6.992
X-241.583 Y3.732
X-241.584 Y-13.657
X-241.585 Y-14.744
X-241.59 Y-15.83
X-241.603 Y-16.917
X-241.634 Y-18.003
X-241.695 Y-19.088
X-241.801 Y-20.085
X-241.932 Y-20.829
X-242.066 Y-21.366
X-242.186 Y-21.737
X-242.301 Y-22.02
X-242.394 Y-22.213
X-242.456 Y-22.32
X-242.588 Y-22.493
X-242.761 Y-22.626
X-242.962 Y-22.709
X-243.178 Y-22.738
X-244.161
G2 X-244.424 Y-22.56 Z-7.289 I0.011 J0.3
G1 X-244.443 Y-22.505 Z-7.166 F1200
X-244.45 Y-22.447 Z-7.042
X-244.451 Y-22.428 Z-7
X-245.889 Y22.427
Y22.428 Z-7.001
X-245.883 Y22.496 Z-7.145
X-245.863 Y22.56 Z-7.289
G2 X-245.6 Y22.738 Z-8 I0.274 J-0.122 F450
G1 X-244.612
X-244.463 Y22.73
X-244.315 Y22.706
X-244.17 Y22.667
X-244.029 Y22.616
X-243.885 Y22.551
X-243.737 Y22.471
X-243.573 Y22.367
X-243.396 Y22.236
X-243.208 Y22.077
X-243.012 Y21.886
X-242.798 Y21.647
X-242.583 Y21.369
X-242.336 Y21
X-242.108 Y20.602
X-241.858 Y20.087
X-241.599 Y19.443
X-241.368 Y18.73
X-241.129 Y17.767
X-240.94 Y16.697
X-240.813 Y15.618
X-240.728 Y14.534
X-240.672 Y13.449
X-240.636 Y12.363
X-240.614 Y11.276
X-240.6 Y10.19
X-240.592 Y9.103
X-240.588 Y8.016
X-240.586 Y6.929
X-240.584 Y4.756
X-240.583 Y-12.633
X-240.584 Y-13.72
X-240.586 Y-14.807
X-240.593 Y-15.893
X-240.609 Y-16.98
X-240.644 Y-18.066
X-240.71 Y-19.151
X-240.821 Y-20.137
X-240.953 Y-20.862
X-241.09 Y-21.397
X-241.209 Y-21.756
X-241.323 Y-22.036
X-241.417 Y-22.226
X-241.474 Y-22.324
X-241.607 Y-22.495
X-241.779 Y-22.627
X-241.979 Y-22.71
X-242.194 Y-22.738
X-243.178
G2 X-243.442 Y-22.56 Z-7.289 I0.01 J0.3
G1 X-243.46 Y-22.505 Z-7.166 F1200
X-243.468 Y-22.448 Z-7.042
Y-22.428 Z-7
X-244.902 Y22.428
Z-7.001
X-244.896 Y22.496 Z-7.145
X-244.876 Y22.56 Z-7.289
G2 X-244.612 Y22.738 Z-8 I0.274 J-0.122 F450
G1 X-243.625
X-243.475 Y22.73
X-243.327 Y22.706
X-243.183 Y22.666
X-243.042 Y22.615
X-242.898 Y22.549
X-242.749 Y22.468
X-242.585 Y22.363
X-242.406 Y22.231
X-242.219 Y22.072
X-242.021 Y21.878
X-241.808 Y21.639
X-241.59 Y21.356
X-241.344 Y20.987
X-241.115 Y20.585
X-240.862 Y20.061
X-240.606 Y19.42
X-240.371 Y18.688
X-240.131 Y17.713
X-239.944 Y16.642
X-239.818 Y15.563
X-239.733 Y14.479
X-239.676 Y13.394
X-239.639 Y12.308
X-239.616 Y11.221
X-239.602 Y10.134
X-239.593 Y9.048
X-239.589 Y7.961
X-239.586 Y6.874
X-239.584 Y4.7
X-239.583 Y-11.601
X-239.585 Y-13.775
X-239.588 Y-14.862
X-239.596 Y-15.949
X-239.615 Y-17.035
X-239.653 Y-18.121
X-239.725 Y-19.206
X-239.839 Y-20.18
X-239.974 Y-20.895
X-240.112 Y-21.424
X-240.23 Y-21.774
X-240.345 Y-22.051
X-240.438 Y-22.238
X-240.491 Y-22.328
X-240.624 Y-22.498
X-240.796 Y-22.628
X-240.995 Y-22.71
X-241.209 Y-22.738
X-242.194
G2 X-242.458 Y-22.561 Z-7.289 I0.011 J0.3
G1 X-242.476 Y-22.505 Z-7.166 F1200
X-242.484 Y-22.448 Z-7.042
Y-22.428 Z-7
X-243.915 Y22.428
Z-7.001
X-243.909 Y22.496 Z-7.145
X-243.889 Y22.56 Z-7.289
G2 X-243.625 Y22.738 Z-8 I0.274 J-0.122 F450
G1 X-242.638
X-242.488 Y22.73
X-242.34 Y22.705
X-242.196 Y22.666
X-242.055 Y22.614
X-241.912 Y22.548
X-241.76 Y22.465
X-241.597 Y22.36
X-241.417 Y22.227
X-241.23 Y22.068
X-241.031 Y21.871
X-240.819 Y21.632
X-240.598 Y21.345
X-240.353 Y20.976
X-240.122 Y20.57
X-239.867 Y20.038
X-239.613 Y19.397
X-239.374 Y18.65
X-239.133 Y17.662
X-238.949 Y16.591
X-238.823 Y15.512
X-238.737 Y14.429
X-238.68 Y13.343
X-238.642 Y12.257
X-238.618 Y11.171
X-238.603 Y10.084
X-238.594 Y8.997
X-238.589 Y7.91
X-238.586 Y6.824
X-238.584 Y4.65
X-238.583 Y-6.218
X-238.584 Y-12.739
X-238.585 Y-13.826
X-238.589 Y-14.912
X-238.599 Y-15.999
X-238.621 Y-17.086
X-238.663 Y-18.172
X-238.739 Y-19.256
X-238.857 Y-20.222
X-238.994 Y-20.927
X-239.133 Y-21.45
X-239.25 Y-21.792
X-239.365 Y-22.065
X-239.459 Y-22.25
X-239.507 Y-22.332
X-239.64 Y-22.5
X-239.812 Y-22.629
X-240.01 Y-22.711
X-240.223 Y-22.738
X-241.209
G2 X-241.473 Y-22.561 Z-7.289 I0.01 J0.3
G1 X-241.491 Y-22.505 Z-7.166 F1200
X-241.499 Y-22.448 Z-7.042
Y-22.428 Z-7
X-242.927 Y22.428
Y22.429 Z-7.002
X-242.922 Y22.496 Z-7.145
X-242.901 Y22.56 Z-7.289
G2 X-242.638 Y22.738 Z-8 I0.274 J-0.122 F450
G1 X-241.651
X-241.501 Y22.731
X-241.353 Y22.705
X-241.209 Y22.665
X-241.068 Y22.613
X-240.925 Y22.547
X-240.772 Y22.463
X-240.609 Y22.358
X-240.428 Y22.223
X-240.242 Y22.064
X-240.041 Y21.865
X-239.829 Y21.626
X-239.607 Y21.335
X-239.362 Y20.966
X-239.13 Y20.556
X-238.872 Y20.016
X-238.619 Y19.376
X-238.378 Y18.615
X-238.136 Y17.616
X-237.953 Y16.545
X-237.828 Y15.465
X-237.742 Y14.382
X-237.684 Y13.297
X-237.645 Y12.211
X-237.62 Y11.124
X-237.605 Y10.037
X-237.595 Y8.951
X-237.59 Y7.864
X-237.587 Y6.777
X-237.584 Y4.603
X-237.583 Y-4.091
Y-11.698
X-237.584 Y-12.785
X-237.586 Y-13.872
X-237.591 Y-14.959
X-237.603 Y-16.046
X-237.627 Y-17.132
X-237.673 Y-18.218
X-237.752 Y-19.302
X-237.874 Y-20.26
X-238.013 Y-20.957
X-238.153 Y-21.474
X-238.269 Y-21.809
X-238.385 Y-22.079
X-238.478 Y-22.26
X-238.523 Y-22.335
X-238.656 Y-22.502
X-238.827 Y-22.631
X-239.025 Y-22.711
X-239.237 Y-22.738
X-240.223
G2 X-240.487 Y-22.561 Z-7.289 I0.011 J0.3
G1 X-240.505 Y-22.506 Z-7.166 F1200
X-240.513 Y-22.448 Z-7.042
Y-22.428 Z-7
X-241.94 Y22.428
Y22.429 Z-7.002
X-241.935 Y22.496 Z-7.146
X-241.914 Y22.561 Z-7.289
G2 X-241.651 Y22.738 Z-8 I0.274 J-0.122 F450
G1 X-240.664
X-240.514 Y22.731
X-240.366 Y22.705
X-240.222 Y22.664
X-240.081 Y22.612
X-239.938 Y22.546
X-239.784 Y22.461
X-239.621 Y22.356
X-239.439 Y22.22
X-239.254 Y22.06
X-239.051 Y21.86
X-238.84 Y21.62
X-238.615 Y21.325
X-238.372 Y20.956
X-238.138 Y20.542
X-237.878 Y19.996
X-237.626 Y19.356
X-237.382 Y18.583
X-237.139 Y17.574
X-236.958 Y16.502
X-236.833 Y15.423
X-236.746 Y14.339
X-236.688 Y13.254
X-236.648 Y12.168
X-236.623 Y11.082
X-236.606 Y9.995
X-236.597 Y8.908
X-236.591 Y7.821
X-236.587 Y6.735
X-236.584 Y4.561
X-236.583 Y-1.96
X-236.584 Y-11.741
Y-12.828
X-236.587 Y-13.914
X-236.593 Y-15.001
X-236.607 Y-16.088
X-236.634 Y-17.174
X-236.682 Y-18.26
X-236.765 Y-19.344
X-236.891 Y-20.296
X-237.031 Y-20.984
X-237.172 Y-21.496
X-237.288 Y-21.824
X-237.403 Y-22.091
X-237.496 Y-22.271
X-237.537 Y-22.338
X-237.67 Y-22.504
X-237.841 Y-22.632
X-238.038 Y-22.711
X-238.249 Y-22.738
X-239.237
G2 X-239.5 Y-22.561 Z-7.289 I0.01 J0.3
G1 X-239.518 Y-22.506 Z-7.166 F1200
X-239.526 Y-22.448 Z-7.042
X-239.527 Y-22.428 Z-7
X-240.953 Y22.428
Y22.429 Z-7.002
X-240.948 Y22.496 Z-7.146
X-240.927 Y22.561 Z-7.289
G2 X-240.664 Y22.738 Z-8 I0.274 J-0.122 F450
G1 X-239.676
X-239.527 Y22.731
X-239.379 Y22.705
X-239.235 Y22.664
X-239.094 Y22.611
X-238.951 Y22.545
X-238.796 Y22.459
X-238.633 Y22.354
X-238.45 Y22.217
X-238.265 Y22.057
X-238.061 Y21.855
X-237.851 Y21.616
X-237.624 Y21.317
X-237.381 Y20.948
X-237.146 Y20.531
X-236.884 Y19.978
X-236.633 Y19.339
X-236.386 Y18.554
X-236.142 Y17.536
X-235.963 Y16.464
X-235.838 Y15.385
X-235.751 Y14.301
X-235.692 Y13.216
X-235.651 Y12.13
X-235.625 Y11.044
X-235.608 Y9.957
X-235.598 Y8.87
X-235.591 Y7.784
X-235.588 Y6.697
X-235.584 Y4.523
X-235.583 Y-0.911
X-235.584 Y-11.779
X-235.585 Y-12.866
X-235.588 Y-13.952
X-235.595 Y-15.039
X-235.611 Y-16.126
X-235.64 Y-17.212
X-235.692 Y-18.298
X-235.778 Y-19.381
X-235.906 Y-20.327
X-236.047 Y-21.008
X-236.19 Y-21.515
X-236.305 Y-21.838
X-236.42 Y-22.101
X-236.513 Y-22.28
X-236.551 Y-22.341
X-236.684 Y-22.506
X-236.854 Y-22.632
X-237.051 Y-22.712
X-237.261 Y-22.739
X-238.249 Y-22.738
G2 X-238.512 Y-22.561 Z-7.289 I0.01 J0.3
G1 X-238.531 Y-22.506 Z-7.166 F1200
X-238.538 Y-22.448 Z-7.042
X-238.539 Y-22.428 Z-7
X-239.966 Y22.428
Y22.429 Z-7.002
X-239.96 Y22.496 Z-7.146
X-239.94 Y22.561 Z-7.289
G2 X-239.676 Y22.738 Z-8 I0.274 J-0.122 F450
G1 X-238.689
X-238.539 Y22.731
X-238.392 Y22.704
X-238.247 Y22.664
X-238.107 Y22.611
X-237.965 Y22.544
X-237.808 Y22.458
X-237.646 Y22.353
X-237.462 Y22.215
X-237.277 Y22.055
X-237.072 Y21.851
X-236.862 Y21.612
X-236.633 Y21.31
X-236.391 Y20.941
X-236.155 Y20.521
X-235.89 Y19.962
X-235.641 Y19.324
X-235.391 Y18.528
X-235.147 Y17.503
X-234.968 Y16.431
X-234.843 Y15.352
X-234.756 Y14.268
X-234.696 Y13.183
X-234.655 Y12.097
X-234.627 Y11.011
X-234.61 Y9.924
X-234.599 Y8.837
X-234.592 Y7.75
X-234.588 Y6.664
X-234.586 Y5.577
X-234.584 Y2.317
X-234.583 Y-10.725
X-234.585 Y-12.899
X-234.589 Y-13.985
X-234.598 Y-15.072
X-234.615 Y-16.159
X-234.647 Y-17.245
X-234.701 Y-18.331
X-234.79 Y-19.414
X-234.921 Y-20.354
X-235.063 Y-21.03
X-235.206 Y-21.533
X-235.321 Y-21.85
X-235.436 Y-22.111
X-235.529 Y-22.288
X-235.563 Y-22.344
X-235.696 Y-22.508
X-235.866 Y-22.633
X-236.063 Y-22.712
X-236.272 Y-22.739
X-237.261
G2 X-237.524 Y-22.561 Z-7.289 I0.011 J0.3
G1 X-237.543 Y-22.506 Z-7.166 F1200
X-237.55 Y-22.448 Z-7.042
X-237.551 Y-22.428 Z-7
X-238.979 Y22.428
Y22.429 Z-7.002
X-238.973 Y22.496 Z-7.146
X-238.953 Y22.561 Z-7.289
G2 X-238.689 Y22.738 Z-8 I0.274 J-0.122 F450
G1 X-237.702
X-237.552 Y22.731
X-237.405 Y22.704
X-237.26 Y22.663
X-237.12 Y22.61
X-236.978 Y22.544
X-236.821 Y22.457
X-236.658 Y22.351
X-236.474 Y22.213
X-236.289 Y22.053
X-236.083 Y21.848
X-235.873 Y21.608
X-235.642 Y21.304
X-235.401 Y20.936
X-235.164 Y20.513
X-234.897 Y19.948
X-234.649 Y19.312
X-234.397 Y18.507
X-234.152 Y17.475
X-233.974 Y16.403
X-233.849 Y15.323
X-233.761 Y14.24
X-233.7 Y13.155
X-233.658 Y12.069
X-233.63 Y10.983
X-233.612 Y9.896
X-233.6 Y8.809
X-233.593 Y7.722
X-233.589 Y6.636
X-233.586 Y5.549
X-233.584 Y3.375
X-233.583 Y-7.493
X-233.584 Y-11.84
X-233.586 Y-12.927
X-233.591 Y-14.013
X-233.6 Y-15.1
X-233.619 Y-16.187
X-233.653 Y-17.273
X-233.709 Y-18.358
X-233.801 Y-19.441
X-233.934 Y-20.378
X-234.078 Y-21.049
X-234.221 Y-21.548
X-234.335 Y-21.861
X-234.45 Y-22.12
X-234.544 Y-22.295
X-234.575 Y-22.346
X-234.708 Y-22.509
X-234.878 Y-22.634
X-235.074 Y-22.712
X-235.283 Y-22.739
X-236.272
G2 X-236.535 Y-22.561 Z-7.289 I0.01 J0.3
G1 X-236.554 Y-22.506 Z-7.166 F1200
X-236.561 Y-22.448 Z-7.042
X-236.562 Y-22.429 Z-7
X-237.991 Y22.428
Y22.429 Z-7.002
X-237.986 Y22.497 Z-7.145
X-237.965 Y22.561 Z-7.289
G2 X-237.702 Y22.738 Z-8 I0.274 J-0.122 F450
G1 X-236.715 Y22.739
X-236.565 Y22.731
X-236.417 Y22.704
X-236.273 Y22.663
X-236.133 Y22.61
X-235.991 Y22.543
X-235.833 Y22.456
X-235.671 Y22.351
X-235.485 Y22.211
X-235.301 Y22.052
X-235.094 Y21.845
X-234.885 Y21.606
X-234.652 Y21.3
X-234.412 Y20.932
X-234.173 Y20.506
X-233.905 Y19.937
X-233.657 Y19.302
X-233.404 Y18.489
X-233.157 Y17.452
X-232.98 Y16.38
X-232.855 Y15.3
X-232.766 Y14.217
X-232.704 Y13.132
X-232.662 Y12.046
X-232.633 Y10.96
X-232.614 Y9.873
X-232.601 Y8.786
X-232.594 Y7.699
X-232.589 Y6.613
X-232.587 Y5.526
X-232.584 Y3.352
X-232.583 Y-5.342
X-232.584 Y-10.776
X-232.585 Y-11.863
X-232.587 Y-12.95
X-232.592 Y-14.036
X-232.603 Y-15.123
X-232.623 Y-16.21
X-232.659 Y-17.296
X-232.718 Y-18.381
X-232.812 Y-19.464
X-232.947 Y-20.397
X-233.092 Y-21.065
X-233.235 Y-21.56
X-233.349 Y-21.87
X-233.464 Y-22.127
X-233.557 Y-22.301
X-233.586 Y-22.348
X-233.72 Y-22.511
X-233.889 Y-22.635
X-234.084 Y-22.712
X-234.293 Y-22.739
X-235.283
G2 X-235.546 Y-22.561 Z-7.289 I0.011 J0.3
G1 X-235.565 Y-22.506 Z-7.166 F1200
X-235.572 Y-22.448 Z-7.042
X-235.573 Y-22.429 Z-7
X-237.004 Y22.428
Y22.429 Z-7.001
X-236.999 Y22.497 Z-7.145
X-236.978 Y22.561 Z-7.289
G2 X-236.715 Y22.739 Z-8 I0.274 J-0.122 F450
G1 X-235.728
X-235.578 Y22.731
X-235.43 Y22.704
X-235.286 Y22.663
X-235.146 Y22.61
X-235.004 Y22.543
X-234.845 Y22.456
X-234.683 Y22.35
X-234.497 Y22.21
X-234.313 Y22.051
X-234.105 Y21.844
X-233.897 Y21.605
X-233.663 Y21.296
X-233.422 Y20.929
X-233.183 Y20.501
X-232.913 Y19.929
X-232.666 Y19.295
X-232.411 Y18.475
X-232.164 Y17.434
X-231.986 Y16.361
X-231.861 Y15.282
X-231.772 Y14.199
X-231.709 Y13.114
X-231.665 Y12.028
X-231.635 Y10.941
X-231.616 Y9.855
X-231.603 Y8.768
X-231.595 Y7.681
X-231.59 Y6.595
X-231.587 Y5.508
X-231.584 Y3.334
X-231.583 Y-3.187
X-231.584 Y-10.794
X-231.585 Y-11.881
X-231.588 Y-12.968
X-231.594 Y-14.055
X-231.606 Y-15.141
X-231.628 Y-16.228
X-231.665 Y-17.314
X-231.725 Y-18.399
X-231.821 Y-19.482
X-231.958 Y-20.412
X-232.104 Y-21.078
X-232.248 Y-21.571
X-232.362 Y-21.878
X-232.477 Y-22.133
X-232.57 Y-22.307
X-232.597 Y-22.35
X-232.73 Y-22.512
X-232.9 Y-22.635
X-233.094 Y-22.713
X-233.302 Y-22.739
X-234.293
G2 X-234.556 Y-22.561 Z-7.289 I0.01 J0.3
G1 X-234.575 Y-22.506 Z-7.166 F1200
X-234.582 Y-22.449 Z-7.042
X-234.583 Y-22.429 Z-7
X-236.017 Y22.429
Z-7.001
X-236.012 Y22.497 Z-7.145
X-235.991 Y22.561 Z-7.289
G2 X-235.728 Y22.739 Z-8 I0.274 J-0.122 F450
G1 X-234.741
X-234.591 Y22.731
X-234.443 Y22.704
X-234.299 Y22.663
X-234.159 Y22.61
X-234.017 Y22.544
X-233.858 Y22.455
X-233.696 Y22.35
X-233.509 Y22.21
X-233.326 Y22.051
X-233.117 Y21.843
X-232.908 Y21.604
X-232.673 Y21.294
X-232.433 Y20.927
X-232.193 Y20.498
X-231.922 Y19.923
X-231.676 Y19.29
X-231.418 Y18.465
X-231.17 Y17.42
X-230.993 Y16.348
X-230.867 Y15.268
X-230.777 Y14.185
X-230.713 Y13.1
X-230.669 Y12.014
X-230.638 Y10.928
X-230.618 Y9.841
X-230.604 Y8.755
X-230.596 Y7.668
X-230.591 Y6.581
X-230.587 Y5.494
X-230.584 Y3.321
X-230.583 Y-2.113
Y-9.721
X-230.585 Y-11.894
X-230.589 Y-12.981
X-230.595 Y-14.068
X-230.608 Y-15.155
X-230.632 Y-16.241
X-230.67 Y-17.327
X-230.733 Y-18.412
X-230.83 Y-19.495
X-230.969 Y-20.424
X-231.115 Y-21.088
X-231.26 Y-21.58
X-231.374 Y-21.884
X-231.488 Y-22.138
X-231.582 Y-22.311
X-231.607 Y-22.351
X-231.74 Y-22.512
X-231.909 Y-22.636
X-232.104 Y-22.713
X-232.312 Y-22.739
X-233.302
G2 X-233.566 Y-22.562 Z-7.289 I0.01 J0.3
G1 X-233.584 Y-22.506 Z-7.166 F1200
X-233.592 Y-22.449 Z-7.042
Y-22.429 Z-7
X-235.03 Y22.429
Z-7.001
X-235.024 Y22.497 Z-7.145
X-235.004 Y22.561 Z-7.289
G2 X-234.741 Y22.739 Z-8 I0.274 J-0.122 F450
G1 X-233.753
X-233.604 Y22.731
X-233.456 Y22.705
X-233.312 Y22.663
X-233.171 Y22.61
X-233.029 Y22.544
X-232.87 Y22.455
X-232.708 Y22.35
X-232.522 Y22.21
X-232.338 Y22.051
X-232.129 Y21.843
X-231.921 Y21.604
X-231.685 Y21.293
X-231.445 Y20.926
X-231.204 Y20.497
X-230.932 Y19.92
X-230.685 Y19.288
X-230.427 Y18.458
X-230.178 Y17.411
X-230.001 Y16.339
X-229.874 Y15.259
X-229.783 Y14.176
X-229.718 Y13.091
X-229.673 Y12.006
X-229.641 Y10.919
X-229.62 Y9.833
X-229.606 Y8.746
X-229.597 Y7.659
X-229.591 Y6.572
X-229.588 Y5.486
X-229.585 Y3.312
X-229.583 Y-2.122
X-229.584 Y-9.729
X-229.586 Y-11.903
X-229.59 Y-12.99
X-229.597 Y-14.077
X-229.611 Y-15.163
X-229.636 Y-16.25
X-229.676 Y-17.336
X-229.739 Y-18.421
X-229.838 Y-19.503
X-229.978 Y-20.432
X-230.126 Y-21.096
X-230.271 Y-21.586
X-230.384 Y-21.889
X-230.499 Y-22.141
X-230.592 Y-22.314
X-230.616 Y-22.352
X-230.75 Y-22.513
X-230.919 Y-22.636
X-231.113 Y-22.713
X-231.32 Y-22.739
X-232.312
G2 X-232.575 Y-22.562 Z-7.289 I0.011 J0.3
G1 X-232.593 Y-22.507 Z-7.166 F1200
X-232.601 Y-22.449 Z-7.042
X-232.602 Y-22.429 Z-7
X-234.043 Y22.429
Z-7.001
X-234.037 Y22.497 Z-7.145
X-234.017 Y22.561 Z-7.289
G2 X-233.753 Y22.739 Z-8 I0.274 J-0.122 F450
G1 X-232.766
X-232.616 Y22.732
X-232.469 Y22.705
X-232.324 Y22.664
X-232.184 Y22.61
X-232.042 Y22.544
X-231.883 Y22.456
X-231.721 Y22.351
X-231.534 Y22.211
X-231.351 Y22.052
X-231.141 Y21.843
X-230.933 Y21.605
X-230.696 Y21.293
X-230.456 Y20.927
X-230.215 Y20.497
X-229.942 Y19.918
X-229.696 Y19.287
X-229.436 Y18.455
X-229.186 Y17.406
X-229.008 Y16.334
X-228.881 Y15.254
X-228.789 Y14.172
X-228.723 Y13.087
X-228.677 Y12.001
X-228.644 Y10.915
X-228.622 Y9.828
X-228.608 Y8.741
X-228.598 Y7.655
X-228.592 Y6.568
X-228.588 Y5.481
X-228.585 Y3.307
X-228.583 Y-1.04
X-228.584 Y-9.734
X-228.585 Y-10.821
X-228.586 Y-11.908
X-228.591 Y-12.994
X-228.599 Y-14.081
X-228.614 Y-15.168
X-228.639 Y-16.254
X-228.681 Y-17.34
X-228.746 Y-18.425
X-228.846 Y-19.507
X-228.987 Y-20.436
X-229.135 Y-21.101
X-229.281 Y-21.591
X-229.394 Y-21.893
X-229.509 Y-22.144
X-229.602 Y-22.317
X-229.625 Y-22.353
X-229.759 Y-22.514
X-229.928 Y-22.636
X-230.122 Y-22.713
X-230.329 Y-22.739
X-231.32
G2 X-231.584 Y-22.562 Z-7.289 I0.01 J0.3
G1 X-231.602 Y-22.507 Z-7.166 F1200
X-231.61 Y-22.449 Z-7.042
Y-22.429 Z-7
X-233.055 Y22.429
Y22.43 Z-7.001
X-233.05 Y22.497 Z-7.145
X-233.03 Y22.562 Z-7.289
G2 X-232.766 Y22.739 Z-8 I0.274 J-0.122 F450
G1 X-231.779
X-231.629 Y22.732
X-231.482 Y22.705
X-231.337 Y22.664
X-231.197 Y22.611
X-231.055 Y22.545
X-230.895 Y22.456
X-230.733 Y22.352
X-230.547 Y22.212
X-230.363 Y22.053
X-230.154 Y21.844
X-229.945 Y21.606
X-229.708 Y21.294
X-229.468 Y20.929
X-229.227 Y20.499
X-228.953 Y19.919
X-228.706 Y19.289
X-228.445 Y18.455
X-228.195 Y17.405
X-228.016 Y16.333
X-227.888 Y15.254
X-227.795 Y14.171
X-227.728 Y13.086
X-227.681 Y12
X-227.647 Y10.914
X-227.625 Y9.827
X-227.609 Y8.741
X-227.599 Y7.654
X-227.593 Y6.567
X-227.589 Y5.48
X-227.585 Y3.307
X-227.583 Y-1.04
X-227.584 Y-9.735
X-227.585 Y-10.821
X-227.587 Y-11.908
X-227.592 Y-12.995
X-227.601 Y-14.082
X-227.617 Y-15.169
X-227.643 Y-16.255
X-227.686 Y-17.341
X-227.752 Y-18.426
X-227.853 Y-19.508
X-227.994 Y-20.437
X-228.144 Y-21.104
X-228.29 Y-21.593
X-228.403 Y-21.895
X-228.518 Y-22.146
X-228.611 Y-22.318
X-228.634 Y-22.354
X-228.767 Y-22.514
X-228.936 Y-22.637
X-229.13 Y-22.713
X-229.337 Y-22.739
X-230.329
G2 X-230.592 Y-22.562 Z-7.289 I0.011 J0.3
G1 X-230.611 Y-22.507 Z-7.166 F1200
X-230.618 Y-22.449 Z-7.042
X-230.619 Y-22.429 Z-7
X-232.068 Y22.429
Y22.43 Z-7.001
X-232.063 Y22.497 Z-7.145
X-232.042 Y22.562 Z-7.289
G2 X-231.779 Y22.739 Z-8 I0.274 J-0.122 F450
G1 X-230.792
X-230.642 Y22.732
X-230.494 Y22.705
X-230.35 Y22.664
X-230.21 Y22.611
X-230.068 Y22.545
X-229.908 Y22.457
X-229.746 Y22.353
X-229.56 Y22.213
X-229.376 Y22.054
X-229.166 Y21.846
X-228.958 Y21.608
X-228.72 Y21.296
X-228.48 Y20.931
X-228.239 Y20.502
X-227.964 Y19.922
X-227.717 Y19.293
X-227.455 Y18.457
X-227.204 Y17.407
X-227.025 Y16.335
X-226.895 Y15.256
X-226.801 Y14.174
X-226.733 Y13.089
X-226.685 Y12.003
X-226.651 Y10.917
X-226.627 Y9.83
X-226.611 Y8.744
X-226.6 Y7.657
X-226.594 Y6.57
X-226.589 Y5.483
X-226.587 Y4.397
X-226.584 Y2.223
X-226.583 Y-5.385
X-226.584 Y-9.732
X-226.585 Y-10.819
X-226.588 Y-11.905
X-226.593 Y-12.992
X-226.602 Y-14.079
X-226.619 Y-15.166
X-226.647 Y-16.252
X-226.69 Y-17.338
X-226.757 Y-18.423
X-226.859 Y-19.505
X-227.001 Y-20.436
X-227.152 Y-21.105
X-227.298 Y-21.594
X-227.411 Y-21.896
X-227.526 Y-22.147
X-227.62 Y-22.319
X-227.642 Y-22.354
X-227.775 Y-22.515
X-227.944 Y-22.637
X-228.138 Y-22.713
X-228.345 Y-22.74
X-229.337 Y-22.739
G2 X-229.6 Y-22.562 Z-7.289 I0.011 J0.3
G1 X-229.619 Y-22.507 Z-7.166 F1200
X-229.626 Y-22.449 Z-7.042
X-229.627 Y-22.429 Z-7
X-231.081 Y22.429
Y22.43 Z-7.001
X-231.076 Y22.497 Z-7.145
X-231.055 Y22.562 Z-7.289
G2 X-230.792 Y22.739 Z-8 I0.274 J-0.122 F450
G1 X-229.805
X-229.655 Y22.732
X-229.507 Y22.706
X-229.363 Y22.665
X-229.222 Y22.612
X-229.08 Y22.546
X-228.921 Y22.458
X-228.759 Y22.354
X-228.573 Y22.214
X-228.389 Y22.056
X-228.179 Y21.849
X-227.971 Y21.611
X-227.733 Y21.299
X-227.493 Y20.935
X-227.251 Y20.506
X-226.976 Y19.926
X-226.729 Y19.298
X-226.466 Y18.463
X-226.213 Y17.413
X-226.033 Y16.341
X-225.903 Y15.262
X-225.808 Y14.18
X-225.739 Y13.095
X-225.689 Y12.009
X-225.654 Y10.923
X-225.63 Y9.837
X-225.613 Y8.75
X-225.602 Y7.663
X-225.595 Y6.576
X-225.59 Y5.49
X-225.587 Y4.403
X-225.584 Y2.229
X-225.583 Y-4.292
X-225.584 Y-9.725
X-225.585 Y-10.812
X-225.588 Y-11.899
X-225.594 Y-12.986
X-225.604 Y-14.073
X-225.622 Y-15.159
X-225.65 Y-16.246
X-225.695 Y-17.332
X-225.762 Y-18.416
X-225.864 Y-19.498
X-226.007 Y-20.431
X-226.159 Y-21.104
X-226.305 Y-21.594
X-226.419 Y-21.896
X-226.534 Y-22.147
X-226.628 Y-22.32
X-226.65 Y-22.354
X-226.783 Y-22.515
X-226.952 Y-22.637
X-227.146 Y-22.714
X-227.352 Y-22.74
X-228.345
G2 X-228.608 Y-22.562 Z-7.289 I0.01 J0.3
G1 X-228.627 Y-22.507 Z-7.166 F1200
X-228.634 Y-22.449 Z-7.043
X-228.635 Y-22.429 Z-7
X-230.094 Y22.429
Y22.43 Z-7.001
X-230.088 Y22.497 Z-7.145
X-230.068 Y22.562 Z-7.289
G2 X-229.805 Y22.739 Z-8 I0.274 J-0.122 F450
G1 X-228.817
X-228.668 Y22.732
X-228.52 Y22.706
X-228.375 Y22.665
X-228.235 Y22.613
X-228.093 Y22.547
X-227.934 Y22.46
X-227.772 Y22.355
X-227.586 Y22.216
X-227.402 Y22.058
X-227.192 Y21.851
X-226.984 Y21.614
X-226.746 Y21.303
X-226.506 Y20.939
X-226.264 Y20.511
X-225.988 Y19.932
X-225.741 Y19.305
X-225.477 Y18.47
X-225.223 Y17.422
X-225.042 Y16.35
X-224.911 Y15.271
X-224.814 Y14.189
X-224.744 Y13.104
X-224.694 Y12.019
X-224.657 Y10.932
X-224.632 Y9.846
X-224.615 Y8.759
X-224.603 Y7.672
X-224.596 Y6.586
X-224.591 Y5.499
X-224.588 Y4.412
X-224.585 Y2.239
X-224.583 Y-3.195
X-224.584 Y-8.629
X-224.586 Y-10.803
X-224.589 Y-11.89
X-224.595 Y-12.977
X-224.606 Y-14.063
X-224.624 Y-15.15
X-224.653 Y-16.236
X-224.699 Y-17.322
X-224.767 Y-18.407
X-224.87 Y-19.489
X-225.013 Y-20.425
X-225.165 Y-21.101
X-225.312 Y-21.592
X-225.426 Y-21.895
X-225.541 Y-22.147
X-225.635 Y-22.319
X-225.657 Y-22.354
X-225.79 Y-22.515
X-225.959 Y-22.637
X-226.153 Y-22.714
X-226.36 Y-22.74
X-227.352
G2 X-227.616 Y-22.562 Z-7.289 I0.01 J0.3
G1 X-227.634 Y-22.507 Z-7.166 F1200
X-227.642 Y-22.45 Z-7.043
Y-22.43 Z-7
X-229.107 Y22.429
Y22.43 Z-7.001
X-229.101 Y22.497 Z-7.145
X-229.081 Y22.562 Z-7.289
G2 X-228.817 Y22.739 Z-8 I0.274 J-0.122 F450
G1 X-227.83 Y22.74
X-227.68 Y22.732
X-227.533 Y22.706
X-227.388 Y22.666
X-227.248 Y22.614
X-227.106 Y22.548
X-226.947 Y22.461
X-226.785 Y22.357
X-226.599 Y22.219
X-226.415 Y22.061
X-226.206 Y21.855
X-225.997 Y21.618
X-225.759 Y21.308
X-225.519 Y20.945
X-225.277 Y20.517
X-225.001 Y19.94
X-224.753 Y19.314
X-224.488 Y18.48
X-224.234 Y17.433
X-224.051 Y16.362
X-223.919 Y15.283
X-223.821 Y14.201
X-223.75 Y13.116
X-223.698 Y12.031
X-223.661 Y10.944
X-223.635 Y9.858
X-223.617 Y8.771
X-223.605 Y7.685
X-223.597 Y6.598
X-223.591 Y5.511
X-223.588 Y4.424
X-223.585 Y2.251
X-223.583 Y-2.097
X-223.584 Y-8.617
X-223.586 Y-10.791
X-223.59 Y-11.878
X-223.596 Y-12.964
X-223.608 Y-14.051
X-223.627 Y-15.138
X-223.657 Y-16.224
X-223.703 Y-17.31
X-223.771 Y-18.395
X-223.874 Y-19.477
X-224.018 Y-20.416
X-224.171 Y-21.096
X-224.318 Y-21.589
X-224.432 Y-21.894
X-224.547 Y-22.146
X-224.641 Y-22.318
X-224.664 Y-22.354
X-224.797 Y-22.515
X-224.966 Y-22.637
X-225.16 Y-22.714
X-225.367 Y-22.74
X-226.36
G2 X-226.623 Y-22.562 Z-7.289 I0.01 J0.3
G1 X-226.642 Y-22.507 Z-7.166 F1200
X-226.649 Y-22.45 Z-7.043
X-226.65 Y-22.43 Z-7
X-228.119 Y22.43
X-228.12 Z-7.001
X-228.114 Y22.498 Z-7.145
X-228.094 Y22.562 Z-7.289
G2 X-227.83 Y22.74 Z-8 I0.274 J-0.122 F450
G1 X-226.843
X-226.693 Y22.732
X-226.545 Y22.707
X-226.401 Y22.667
X-226.26 Y22.614
X-226.118 Y22.549
X-225.96 Y22.463
X-225.798 Y22.359
X-225.612 Y22.221
X-225.428 Y22.064
X-225.219 Y21.858
X-225.01 Y21.622
X-224.773 Y21.313
X-224.532 Y20.95
X-224.29 Y20.525
X-224.014 Y19.949
X-223.765 Y19.324
X-223.5 Y18.492
X-223.245 Y17.447
X-223.061 Y16.376
X-222.927 Y15.297
X-222.828 Y14.215
X-222.756 Y13.131
X-222.703 Y12.045
X-222.665 Y10.959
X-222.638 Y9.872
X-222.619 Y8.786
X-222.606 Y7.699
X-222.598 Y6.612
X-222.592 Y5.526
X-222.589 Y4.439
X-222.585 Y2.265
X-222.583 Y-2.082
X-222.584 Y-8.603
X-222.585 Y-9.69
X-222.587 Y-10.776
X-222.59 Y-11.863
X-222.597 Y-12.95
X-222.609 Y-14.037
X-222.629 Y-15.123
X-222.66 Y-16.21
X-222.706 Y-17.295
X-222.775 Y-18.38
X-222.878 Y-19.462
X-223.022 Y-20.405
X-223.176 Y-21.09
X-223.323 Y-21.585
X-223.438 Y-21.891
X-223.553 Y-22.144
X-223.647 Y-22.317
X-223.671 Y-22.354
X-223.804 Y-22.515
X-223.973 Y-22.637
X-224.167 Y-22.714
X-224.374 Y-22.74
X-225.367
G2 X-225.631 Y-22.562 Z-7.289 I0.011 J0.3
G1 X-225.649 Y-22.507 Z-7.166 F1200
X-225.656 Y-22.45 Z-7.043
X-225.657 Y-22.43 Z-7
X-227.132 Y22.43
Z-7.001
X-227.127 Y22.498 Z-7.145
X-227.106 Y22.562 Z-7.289
G2 X-226.843 Y22.74 Z-8 I0.274 J-0.122 F450
G1 X-225.856
X-225.706 Y22.732
X-225.558 Y22.707
X-225.413 Y22.667
X-225.273 Y22.615
X-225.131 Y22.55
X-224.973 Y22.464
X-224.81 Y22.361
X-224.625 Y22.224
X-224.441 Y22.067
X-224.233 Y21.862
X-224.023 Y21.627
X-223.786 Y21.319
X-223.545 Y20.957
X-223.304 Y20.533
X-223.027 Y19.959
X-222.778 Y19.335
X-222.512 Y18.506
X-222.256 Y17.463
X-222.07 Y16.392
X-221.935 Y15.314
X-221.835 Y14.232
X-221.761 Y13.147
X-221.707 Y12.062
X-221.668 Y10.976
X-221.64 Y9.889
X-221.621 Y8.803
X-221.608 Y7.716
X-221.599 Y6.629
X-221.593 Y5.542
X-221.589 Y4.456
X-221.585 Y2.282
X-221.583 Y-2.065
X-221.584 Y-8.586
X-221.585 Y-9.673
X-221.587 Y-10.759
X-221.591 Y-11.846
X-221.598 Y-12.933
X-221.611 Y-14.02
X-221.631 Y-15.106
X-221.663 Y-16.193
X-221.71 Y-17.278
X-221.779 Y-18.363
X-221.882 Y-19.445
X-222.026 Y-20.392
X-222.18 Y-21.083
X-222.328 Y-21.58
X-222.443 Y-21.888
X-222.559 Y-22.142
X-222.653 Y-22.315
X-222.678 Y-22.354
X-222.811 Y-22.515
X-222.98 Y-22.637
X-223.174 Y-22.714
X-223.381 Y-22.74
X-224.374
G2 X-224.638 Y-22.563 Z-7.289 I0.011 J0.3
G1 X-224.656 Y-22.508 Z-7.166 F1200
X-224.663 Y-22.45 Z-7.043
X-224.664 Y-22.43 Z-7
X-226.145 Y22.43
Z-7.001
X-226.14 Y22.498 Z-7.145
X-226.119 Y22.562 Z-7.289
G2 X-225.856 Y22.74 Z-8 I0.274 J-0.122 F450
G1 X-224.869
X-224.719 Y22.732
X-224.571 Y22.708
X-224.426 Y22.668
X-224.285 Y22.616
X-224.143 Y22.552
X-223.986 Y22.466
X-223.823 Y22.363
X-223.639 Y22.227
X-223.454 Y22.07
X-223.246 Y21.867
X-223.037 Y21.632
X-222.8 Y21.326
X-222.559 Y20.964
X-222.317 Y20.542
X-222.041 Y19.97
X-221.791 Y19.347
X-221.525 Y18.522
X-221.268 Y17.481
X-221.08 Y16.411
X-220.943 Y15.332
X-220.842 Y14.25
X-220.767 Y13.166
X-220.712 Y12.081
X-220.672 Y10.995
X-220.643 Y9.908
X-220.623 Y8.822
X-220.609 Y7.735
X-220.6 Y6.648
X-220.594 Y5.561
X-220.59 Y4.475
X-220.585 Y2.301
X-220.584 Y-0.959
Y-7.48
X-220.585 Y-9.654
X-220.588 Y-10.74
X-220.592 Y-11.827
X-220.6 Y-12.914
X-220.613 Y-14.001
X-220.633 Y-15.087
X-220.665 Y-16.174
X-220.713 Y-17.259
X-220.783 Y-18.344
X-220.885 Y-19.426
X-221.029 Y-20.377
X-221.184 Y-21.075
X-221.332 Y-21.574
X-221.448 Y-21.884
X-221.564 Y-22.139
X-221.658 Y-22.313
X-221.684 Y-22.353
X-221.817 Y-22.514
X-221.986 Y-22.637
X-222.18 Y-22.714
X-222.388 Y-22.74
X-223.381
G2 X-223.644 Y-22.563 Z-7.289 I0.01 J0.3
G1 X-223.663 Y-22.508 Z-7.166 F1200
X-223.67 Y-22.45 Z-7.043
X-223.671 Y-22.43 Z-7
X-225.158 Y22.43
Z-7.001
X-225.152 Y22.498 Z-7.145
X-225.132 Y22.563 Z-7.289
G2 X-224.869 Y22.74 Z-8 I0.274 J-0.122 F450
G1 X-223.881
X-223.732 Y22.733
X-223.584 Y22.708
X-223.439 Y22.669
X-223.298 Y22.618
X-223.156 Y22.553
X-222.999 Y22.468
X-222.836 Y22.365
X-222.652 Y22.23
X-222.468 Y22.074
X-222.26 Y21.872
X-222.051 Y21.637
X-221.815 Y21.333
X-221.573 Y20.972
X-221.331 Y20.552
X-221.055 Y19.983
X-220.804 Y19.361
X-220.538 Y18.539
X-220.279 Y17.501
X-220.09 Y16.431
X-219.952 Y15.353
X-219.849 Y14.271
X-219.773 Y13.187
X-219.717 Y12.102
X-219.676 Y11.016
X-219.646 Y9.929
X-219.625 Y8.843
X-219.611 Y7.756
X-219.601 Y6.669
X-219.594 Y5.582
X-219.59 Y4.496
X-219.587 Y3.409
X-219.585 Y1.235
X-219.583 Y-4.199
X-219.584 Y-8.546
X-219.585 Y-9.633
X-219.588 Y-10.72
X-219.593 Y-11.806
X-219.601 Y-12.893
X-219.614 Y-13.98
X-219.635 Y-15.066
X-219.668 Y-16.153
X-219.716 Y-17.238
X-219.786 Y-18.323
X-219.888 Y-19.405
X-220.032 Y-20.361
X-220.188 Y-21.065
X-220.336 Y-21.566
X-220.453 Y-21.88
X-220.569 Y-22.136
X-220.663 Y-22.311
X-220.69 Y-22.353
X-220.823 Y-22.514
X-220.992 Y-22.637
X-221.187 Y-22.714
X-221.394 Y-22.74
X-222.388
G2 X-222.651 Y-22.563 Z-7.289 I0.011 J0.3
G1 X-222.669 Y-22.508 Z-7.166 F1200
X-222.677 Y-22.45 Z-7.043
X-222.678 Y-22.43 Z-7
X-224.171 Y22.43
Z-7.001
X-224.165 Y22.498 Z-7.145
X-224.145 Y22.563 Z-7.289
G2 X-223.881 Y22.74 Z-8 I0.274 J-0.122 F450
G1 X-222.894
X-222.744 Y22.733
X-222.596 Y22.709
X-222.451 Y22.67
X-222.31 Y22.619
X-222.168 Y22.554
X-222.012 Y22.471
X-221.849 Y22.368
X-221.666 Y22.234
X-221.481 Y22.078
X-221.274 Y21.877
X-221.064 Y21.643
X-220.829 Y21.341
X-220.586 Y20.98
X-220.346 Y20.563
X-220.069 Y19.996
X-219.818 Y19.375
X-219.551 Y18.557
X-219.292 Y17.523
X-219.1 Y16.453
X-218.961 Y15.375
X-218.857 Y14.294
X-218.779 Y13.21
X-218.722 Y12.124
X-218.68 Y11.038
X-218.65 Y9.952
X-218.628 Y8.865
X-218.613 Y7.779
X-218.602 Y6.692
X-218.595 Y5.605
X-218.591 Y4.518
X-218.588 Y3.432
X-218.585 Y1.258
X-218.583 Y-4.176
X-218.584 Y-8.523
X-218.586 Y-9.61
X-218.588 Y-10.697
X-218.593 Y-11.784
X-218.602 Y-12.87
X-218.616 Y-13.957
X-218.638 Y-15.044
X-218.671 Y-16.13
X-218.719 Y-17.216
X-218.789 Y-18.3
X-218.891 Y-19.382
X-219.034 Y-20.344
X-219.191 Y-21.054
X-219.339 Y-21.558
X-219.457 Y-21.875
X-219.573 Y-22.132
X-219.668 Y-22.308
X-219.696 Y-22.352
X-219.829 Y-22.514
X-219.998 Y-22.637
X-220.193 Y-22.714
X-220.4 Y-22.74
X-221.394
G2 X-221.658 Y-22.563 Z-7.289 I0.011 J0.3
G1 X-221.676 Y-22.508 Z-7.166 F1200
X-221.683 Y-22.451 Z-7.043
X-221.684 Y-22.43 Z-7
X-223.184 Y22.43
Z-7.001
X-223.178 Y22.498 Z-7.145
X-223.158 Y22.563 Z-7.289
G2 X-222.894 Y22.74 Z-8 I0.274 J-0.122 F450
G1 X-221.907
X-221.757 Y22.733
X-221.609 Y22.709
X-221.464 Y22.671
X-221.323 Y22.62
X-221.181 Y22.556
X-221.025 Y22.473
X-220.863 Y22.371
X-220.68 Y22.237
X-220.495 Y22.082
X-220.289 Y21.882
X-220.078 Y21.648
X-219.844 Y21.349
X-219.601 Y20.989
X-219.36 Y20.574
X-219.084 Y20.011
X-218.832 Y19.39
X-218.565 Y18.577
X-218.304 Y17.547
X-218.111 Y16.477
X-217.97 Y15.399
X-217.864 Y14.318
X-217.786 Y13.234
X-217.727 Y12.149
X-217.684 Y11.063
X-217.653 Y9.976
X-217.63 Y8.89
X-217.615 Y7.803
X-217.604 Y6.716
X-217.596 Y5.63
X-217.591 Y4.543
X-217.588 Y3.456
X-217.585 Y1.282
X-217.583 Y-3.065
X-217.584 Y-7.412
X-217.586 Y-9.585
X-217.589 Y-10.672
X-217.594 Y-11.759
X-217.603 Y-12.846
X-217.617 Y-13.933
X-217.64 Y-15.019
X-217.673 Y-16.105
X-217.722 Y-17.191
X-217.792 Y-18.276
X-217.894 Y-19.358
X-218.036 Y-20.325
X-218.194 Y-21.042
X-218.342 Y-21.549
X-218.46 Y-21.869
X-218.577 Y-22.128
X-218.672 Y-22.304
X-218.701 Y-22.351
X-218.835 Y-22.513
X-219.004 Y-22.637
X-219.199 Y-22.714
X-219.407 Y-22.741
X-220.4 Y-22.74
G2 X-220.664 Y-22.563 Z-7.289 I0.01 J0.3
G1 X-220.682 Y-22.508 Z-7.166 F1200
X-220.69 Y-22.451 Z-7.043
Y-22.43 Z-7
X-222.196 Y22.43
X-222.191 Y22.498 Z-7.145
X-222.17 Y22.563 Z-7.289
G2 X-221.907 Y22.74 Z-8 I0.274 J-0.122 F450
G1 X-220.92
X-220.77 Y22.733
X-220.622 Y22.71
X-220.477 Y22.672
X-220.335 Y22.621
X-220.193 Y22.558
X-220.039 Y22.475
X-219.876 Y22.373
X-219.693 Y22.241
X-219.508 Y22.086
X-219.303 Y21.888
X-219.092 Y21.655
X-218.859 Y21.357
X-218.615 Y20.998
X-218.375 Y20.586
X-218.099 Y20.026
X-217.846 Y19.406
X-217.579 Y18.598
X-217.317 Y17.572
X-217.122 Y16.503
X-216.979 Y15.425
X-216.872 Y14.344
X-216.792 Y13.26
X-216.732 Y12.175
X-216.688 Y11.089
X-216.656 Y10.002
X-216.633 Y8.916
X-216.616 Y7.829
X-216.605 Y6.742
X-216.597 Y5.656
X-216.592 Y4.569
X-216.589 Y3.482
X-216.585 Y1.309
X-216.583 Y-3.039
X-216.584 Y-7.386
X-216.586 Y-9.559
X-216.589 Y-10.646
X-216.595 Y-11.733
X-216.604 Y-12.82
X-216.619 Y-13.906
X-216.641 Y-14.993
X-216.675 Y-16.079
X-216.724 Y-17.165
X-216.794 Y-18.249
X-216.896 Y-19.331
X-217.038 Y-20.304
X-217.196 Y-21.03
X-217.345 Y-21.54
X-217.464 Y-21.863
X-217.581 Y-22.124
X-217.676 Y-22.301
X-217.707 Y-22.351
X-217.84 Y-22.513
X-218.009 Y-22.637
X-218.204 Y-22.714
X-218.413 Y-22.741
X-219.407
G2 X-219.67 Y-22.563 Z-7.289 I0.011 J0.3
G1 X-219.688 Y-22.508 Z-7.166 F1200
X-219.696 Y-22.451 Z-7.043
X-219.697 Y-22.431 Z-7
X-221.209 Y22.43
X-221.204 Y22.498 Z-7.145
X-221.183 Y22.563 Z-7.289
G2 X-220.92 Y22.74 Z-8 I0.274 J-0.122 F450
G1 X-219.933 Y22.741
X-219.783 Y22.733
X-219.635 Y22.71
X-219.489 Y22.673
X-219.348 Y22.623
X-219.206 Y22.559
X-219.052 Y22.478
X-218.889 Y22.376
X-218.707 Y22.245
X-218.522 Y22.09
X-218.317 Y21.894
X-218.106 Y21.661
X-217.874 Y21.366
X-217.629 Y21.008
X-217.39 Y20.598
X-217.114 Y20.042
X-216.86 Y19.423
X-216.593 Y18.621
X-216.33 Y17.598
X-216.132 Y16.53
X-215.988 Y15.452
X-215.88 Y14.371
X-215.798 Y13.287
X-215.738 Y12.202
X-215.692 Y11.116
X-215.659 Y10.03
X-215.635 Y8.944
X-215.618 Y7.857
X-215.606 Y6.77
X-215.598 Y5.683
X-215.593 Y4.597
X-215.589 Y3.51
X-215.585 Y1.336
X-215.583 Y-3.011
X-215.584 Y-7.358
X-215.587 Y-9.532
X-215.59 Y-10.618
X-215.596 Y-11.705
X-215.605 Y-12.792
X-215.62 Y-13.879
X-215.643 Y-14.965
X-215.677 Y-16.051
X-215.727 Y-17.137
X-215.797 Y-18.222
X-215.898 Y-19.304
X-216.039 Y-20.283
X-216.198 Y-21.016
X-216.347 Y-21.529
X-216.467 Y-21.857
X-216.584 Y-22.119
X-216.679 Y-22.297
X-216.712 Y-22.35
X-216.845 Y-22.512
X-217.015 Y-22.636
X-217.21 Y-22.714
X-217.418 Y-22.741
X-218.413
G2 X-218.676 Y-22.563 Z-7.289 I0.011 J0.3
G1 X-218.694 Y-22.508 Z-7.166 F1200
X-218.702 Y-22.451 Z-7.043
X-218.703 Y-22.431 Z-7
X-220.222 Y22.43
Y22.431
X-220.217 Y22.498 Z-7.145
X-220.196 Y22.563 Z-7.289
G2 X-219.933 Y22.741 Z-8 I0.274 J-0.122 F450
G1 X-218.945
X-218.796 Y22.733
X-218.647 Y22.711
X-218.502 Y22.674
X-218.36 Y22.624
X-218.218 Y22.561
X-218.065 Y22.48
X-217.902 Y22.379
X-217.721 Y22.249
X-217.535 Y22.095
X-217.332 Y21.9
X-217.12 Y21.668
X-216.889 Y21.376
X-216.644 Y21.018
X-216.405 Y20.611
X-216.13 Y20.059
X-215.874 Y19.441
X-215.607 Y18.644
X-215.343 Y17.626
X-215.144 Y16.558
X-214.997 Y15.481
X-214.887 Y14.4
X-214.805 Y13.316
X-214.743 Y12.231
X-214.697 Y11.146
X-214.663 Y10.059
X-214.638 Y8.973
X-214.62 Y7.886
X-214.608 Y6.799
X-214.599 Y5.713
X-214.594 Y4.626
X-214.59 Y3.539
X-214.586 Y1.365
X-214.584 Y-1.895
Y-7.329
X-214.587 Y-9.502
X-214.59 Y-10.589
X-214.596 Y-11.676
X-214.606 Y-12.763
X-214.622 Y-13.849
X-214.645 Y-14.936
X-214.679 Y-16.022
X-214.729 Y-17.108
X-214.799 Y-18.192
X-214.899 Y-19.275
X-215.04 Y-20.26
X-215.199 Y-21.002
X-215.348 Y-21.518
X-215.47 Y-21.85
X-215.587 Y-22.114
X-215.682 Y-22.293
X-215.717 Y-22.348
X-215.85 Y-22.511
X-216.02 Y-22.636
X-216.215 Y-22.714
X-216.424 Y-22.741
X-217.418
G2 X-217.682 Y-22.563 Z-7.289 I0.01 J0.3
G1 X-217.7 Y-22.509 Z-7.166 F1200
X-217.708 Y-22.451 Z-7.043
Y-22.431 Z-7
X-219.235 Y22.431
X-219.229 Y22.498 Z-7.145
X-219.209 Y22.563 Z-7.289
G2 X-218.945 Y22.741 Z-8 I0.274 J-0.122 F450
G1 X-217.958
X-217.808 Y22.733
X-217.66 Y22.712
X-217.515 Y22.675
X-217.373 Y22.625
X-217.23 Y22.563
X-217.079 Y22.483
X-216.915 Y22.382
X-216.735 Y22.253
X-216.549 Y22.099
X-216.347 Y21.907
X-216.135 Y21.675
X-215.904 Y21.385
X-215.658 Y21.028
X-215.42 Y20.625
X-215.146 Y20.076
X-214.889 Y19.46
X-214.622 Y18.669
X-214.357 Y17.656
X-214.155 Y16.588
X-214.006 Y15.512
X-213.895 Y14.43
X-213.812 Y13.347
X-213.748 Y12.262
X-213.701 Y11.176
X-213.666 Y10.09
X-213.641 Y9.003
X-213.622 Y7.917
X-213.609 Y6.83
X-213.6 Y5.743
X-213.594 Y4.657
X-213.59 Y3.57
X-213.586 Y1.396
X-213.584 Y-1.864
Y-6.211
X-213.585 Y-8.385
X-213.587 Y-9.472
X-213.591 Y-10.559
X-213.597 Y-11.645
X-213.607 Y-12.732
X-213.623 Y-13.819
X-213.647 Y-14.905
X-213.681 Y-15.992
X-213.731 Y-17.077
X-213.801 Y-18.162
X-213.901 Y-19.244
X-214.041 Y-20.236
X-214.201 Y-20.986
X-214.349 Y-21.505
X-214.472 Y-21.843
X-214.59 Y-22.108
X-214.685 Y-22.289
X-214.722 Y-22.347
X-214.855 Y-22.511
X-215.025 Y-22.635
X-215.22 Y-22.714
X-215.429 Y-22.74
X-216.424 Y-22.741
G2 X-216.687 Y-22.563 Z-7.289 I0.01 J0.3
G1 X-216.706 Y-22.508 Z-7.166 F1200
X-216.713 Y-22.451 Z-7.043
X-216.714 Y-22.431 Z-7
X-218.248 Y22.431
X-218.242 Y22.499 Z-7.145
X-218.222 Y22.563 Z-7.289
G2 X-217.958 Y22.741 Z-8 I0.274 J-0.122 F450
G1 X-216.971
X-216.821 Y22.733
X-216.673 Y22.712
X-216.527 Y22.676
X-216.385 Y22.627
X-216.243 Y22.564
X-216.092 Y22.486
X-215.928 Y22.386
X-215.749 Y22.258
X-215.563 Y22.104
X-215.362 Y21.914
X-215.149 Y21.683
X-214.92 Y21.396
X-214.674 Y21.039
X-214.436 Y20.639
X-214.162 Y20.095
X-213.904 Y19.48
X-213.637 Y18.696
X-213.371 Y17.688
X-213.166 Y16.621
X-213.016 Y15.544
X-212.903 Y14.464
X-212.818 Y13.38
X-212.754 Y12.295
X-212.706 Y11.209
X-212.67 Y10.123
X-212.644 Y9.037
X-212.625 Y7.95
X-212.611 Y6.863
X-212.602 Y5.777
X-212.595 Y4.69
X-212.591 Y3.603
X-212.588 Y2.516
X-212.585 Y0.343
X-212.583 Y-4.004
X-212.584 Y-7.265
X-212.585 Y-8.352
X-212.588 Y-9.438
X-212.591 Y-10.525
X-212.598 Y-11.612
X-212.608 Y-12.699
X-212.624 Y-13.785
X-212.648 Y-14.872
X-212.683 Y-15.958
X-212.733 Y-17.044
X-212.802 Y-18.128
X-212.902 Y-19.211
X-213.041 Y-20.21
X-213.201 Y-20.969
X-213.35 Y-21.491
X-213.474 Y-21.835
X-213.592 Y-22.102
X-213.688 Y-22.284
X-213.726 Y-22.346
X-213.859 Y-22.51
X-214.029 Y-22.635
X-214.225 Y-22.714
X-214.435 Y-22.74
X-215.429
G2 X-215.693 Y-22.563 Z-7.289 I0.01 J0.3
G1 X-215.711 Y-22.508 Z-7.166 F1200
X-215.719 Y-22.451 Z-7.043
Y-22.43 Z-7
X-217.26 Y22.431
X-217.255 Y22.499 Z-7.145
X-217.235 Y22.563 Z-7.289
G2 X-216.971 Y22.741 Z-8 I0.274 J-0.122 F450
G1 X-215.984
X-215.834 Y22.733
X-215.685 Y22.713
X-215.54 Y22.677
X-215.398 Y22.628
X-215.255 Y22.566
X-215.105 Y22.489
X-214.942 Y22.389
X-214.764 Y22.262
X-214.577 Y22.11
X-214.377 Y21.921
X-214.164 Y21.69
X-213.936 Y21.407
X-213.689 Y21.051
X-213.452 Y20.654
X-213.179 Y20.115
X-212.919 Y19.501
X-212.653 Y18.724
X-212.385 Y17.722
X-212.178 Y16.655
X-212.026 Y15.579
X-211.912 Y14.498
X-211.825 Y13.415
X-211.76 Y12.33
X-211.71 Y11.244
X-211.674 Y10.158
X-211.646 Y9.072
X-211.627 Y7.985
X-211.613 Y6.899
X-211.603 Y5.812
X-211.596 Y4.725
X-211.591 Y3.638
X-211.588 Y2.551
X-211.585 Y0.378
X-211.584 Y-3.969
Y-7.23
X-211.586 Y-8.317
X-211.588 Y-9.403
X-211.592 Y-10.49
X-211.599 Y-11.577
X-211.609 Y-12.664
X-211.626 Y-13.75
X-211.65 Y-14.837
X-211.685 Y-15.923
X-211.734 Y-17.009
X-211.804 Y-18.093
X-211.902 Y-19.176
X-212.041 Y-20.182
X-212.202 Y-20.951
X-212.35 Y-21.477
X-212.476 Y-21.826
X-212.594 Y-22.095
X-212.69 Y-22.279
X-212.73 Y-22.344
X-212.863 Y-22.509
X-213.034 Y-22.634
X-213.23 Y-22.713
X-213.44 Y-22.74
X-214.435
G2 X-214.698 Y-22.563 Z-7.289 I0.01 J0.3
G1 X-214.716 Y-22.508 Z-7.167 F1200
X-214.724 Y-22.451 Z-7.044
X-214.725 Y-22.43 Z-7
X-216.273 Y22.43
Y22.431
X-216.268 Y22.498 Z-7.145
X-216.247 Y22.563 Z-7.289
G2 X-215.984 Y22.741 Z-8 I0.274 J-0.122 F450
G1 X-214.997 Y22.74
X-214.847 Y22.733
X-214.698 Y22.713
X-214.552 Y22.678
X-214.41 Y22.629
X-214.267 Y22.568
X-214.119 Y22.491
X-213.955 Y22.392
X-213.778 Y22.267
X-213.591 Y22.115
X-213.392 Y21.928
X-213.178 Y21.698
X-212.952 Y21.418
X-212.704 Y21.063
X-212.468 Y20.67
X-212.196 Y20.136
X-211.935 Y19.522
X-211.669 Y18.753
X-211.4 Y17.757
X-211.19 Y16.691
X-211.036 Y15.615
X-210.92 Y14.534
X-210.832 Y13.451
X-210.766 Y12.366
X-210.715 Y11.281
X-210.677 Y10.195
X-210.649 Y9.108
X-210.629 Y8.022
X-210.614 Y6.935
X-210.604 Y5.848
X-210.597 Y4.761
X-210.592 Y3.675
X-210.589 Y2.588
X-210.585 Y0.414
X-210.584 Y-3.933
X-210.585 Y-7.193
X-210.586 Y-8.28
X-210.588 Y-9.367
X-210.592 Y-10.454
X-210.599 Y-11.541
X-210.61 Y-12.627
X-210.627 Y-13.714
X-210.651 Y-14.8
X-210.687 Y-15.887
X-210.736 Y-16.972
X-210.805 Y-18.057
X-210.903 Y-19.139
X-211.04 Y-20.153
X-211.202 Y-20.932
X-211.35 Y-21.461
X-211.477 Y-21.817
X-211.596 Y-22.089
X-211.692 Y-22.273
X-211.735 Y-22.343
X-211.868 Y-22.508
X-212.038 Y-22.634
X-212.234 Y-22.713
X-212.445 Y-22.74
X-213.44
G2 X-213.703 Y-22.563 Z-7.289 I0.01 J0.3
G1 X-213.722 Y-22.508 Z-7.167 F1200
X-213.729 Y-22.451 Z-7.044
X-213.73 Y-22.43 Z-7
X-215.286 Y22.43
X-215.281 Y22.498 Z-7.145
X-215.26 Y22.563 Z-7.289
G2 X-214.997 Y22.74 Z-8 I0.274 J-0.122 F450
G1 X-214.01
X-213.86 Y22.733
X-213.711 Y22.714
X-213.565 Y22.678
X-213.423 Y22.631
X-213.28 Y22.57
X-213.133 Y22.494
X-212.968 Y22.395
X-212.792 Y22.272
X-212.605 Y22.12
X-212.407 Y21.936
X-212.193 Y21.706
X-211.968 Y21.429
X-211.72 Y21.075
X-211.484 Y20.686
X-211.213 Y20.157
X-210.951 Y19.545
X-210.685 Y18.783
X-210.415 Y17.793
X-210.203 Y16.728
X-210.046 Y15.652
X-209.929 Y14.572
X-209.839 Y13.489
X-209.771 Y12.404
X-209.72 Y11.318
X-209.681 Y10.232
X-209.652 Y9.146
X-209.631 Y8.059
X-209.616 Y6.973
X-209.605 Y5.886
X-209.598 Y4.799
X-209.593 Y3.712
X-209.589 Y2.625
X-209.586 Y0.452
X-209.584 Y-2.809
Y-6.069
X-209.586 Y-8.242
X-209.589 Y-9.329
X-209.593 Y-10.416
X-209.6 Y-11.503
X-209.611 Y-12.59
X-209.628 Y-13.676
X-209.653 Y-14.763
X-209.688 Y-15.849
X-209.737 Y-16.935
X-209.806 Y-18.019
X-209.903 Y-19.102
X-210.04 Y-20.124
X-210.201 Y-20.913
X-210.349 Y-21.445
X-210.478 Y-21.808
X-210.597 Y-22.081
X-210.694 Y-22.268
X-210.738 Y-22.341
X-210.871 Y-22.507
X-211.042 Y-22.633
X-211.239 Y-22.713
X-211.449 Y-22.74
X-212.445
G2 X-212.708 Y-22.563 Z-7.289 I0.01 J0.3
G1 X-212.726 Y-22.508 Z-7.167 F1200
X-212.734 Y-22.451 Z-7.044
X-212.735 Y-22.43 Z-7
X-214.299 Y22.43
X-214.294 Y22.498 Z-7.145
X-214.273 Y22.563 Z-7.289
G2 X-214.01 Y22.74 Z-8 I0.274 J-0.122 F450
G1 X-212.961
X-212.811 Y22.732
X-212.664 Y22.707
X-212.519 Y22.666
X-212.379 Y22.614
X-212.229 Y22.545
X-212.08 Y22.463
X-211.903 Y22.349
X-211.73 Y22.22
X-211.528 Y22.047
X-211.335 Y21.856
X-211.102 Y21.592
X-210.883 Y21.307
X-210.632 Y20.927
X-210.378 Y20.478
X-210.123 Y19.943
X-209.834 Y19.212
X-209.572 Y18.387
X-209.317 Y17.331
X-209.133 Y16.26
X-208.995 Y15.182
X-208.891 Y14.1
X-208.811 Y13.016
X-208.751 Y11.931
X-208.705 Y10.845
X-208.67 Y9.759
X-208.644 Y8.672
X-208.626 Y7.586
X-208.612 Y6.499
X-208.603 Y5.412
X-208.596 Y4.326
X-208.592 Y3.239
X-208.589 Y2.152
X-208.585 Y-0.022
X-208.584 Y-4.369
X-208.585 Y-7.629
X-208.587 Y-8.716
X-208.591 Y-9.803
X-208.597 Y-10.89
X-208.606 Y-11.976
X-208.619 Y-13.063
X-208.64 Y-14.15
X-208.669 Y-15.236
X-208.711 Y-16.322
X-208.769 Y-17.407
X-208.849 Y-18.491
X-208.965 Y-19.572
X-209.115 Y-20.497
X-209.266 Y-21.144
X-209.413 Y-21.619
X-209.529 Y-21.92
X-209.643 Y-22.164
X-209.739 Y-22.337
X-209.754 Y-22.36
X-209.888 Y-22.518
X-210.056 Y-22.639
X-210.248 Y-22.714
X-210.453 Y-22.74
X-211.449
G2 X-211.713 Y-22.562 Z-7.289 I0.01 J0.3
G1 X-211.731 Y-22.507 Z-7.166 F1200
X-211.739 Y-22.45 Z-7.043
X-211.74 Y-22.43 Z-7
X-213.251 Y22.43
X-213.245 Y22.498 Z-7.145
X-213.225 Y22.563 Z-7.289
G2 X-212.961 Y22.74 Z-8 I0.274 J-0.122 F450
G1 X-211.974
X-211.824 Y22.732
X-211.676 Y22.707
X-211.532 Y22.667
X-211.391 Y22.615
X-211.251 Y22.552
X-211.092 Y22.466
X-210.932 Y22.364
X-210.744 Y22.226
X-210.561 Y22.071
X-210.346 Y21.861
X-210.14 Y21.63
X-209.904 Y21.325
X-209.667 Y20.971
X-209.406 Y20.517
X-209.124 Y19.933
X-208.877 Y19.319
X-208.6 Y18.462
X-208.338 Y17.408
X-208.15 Y16.337
X-208.009 Y15.26
X-207.902 Y14.178
X-207.82 Y13.094
X-207.758 Y12.009
X-207.71 Y10.924
X-207.675 Y9.837
X-207.648 Y8.751
X-207.628 Y7.664
X-207.614 Y6.578
X-207.604 Y5.491
X-207.597 Y4.404
X-207.592 Y3.317
X-207.589 Y2.231
X-207.586 Y0.057
X-207.584 Y-3.203
Y-6.464
X-207.588 Y-8.637
X-207.591 Y-9.724
X-207.597 Y-10.811
X-207.606 Y-11.898
X-207.62 Y-12.984
X-207.64 Y-14.071
X-207.669 Y-15.157
X-207.71 Y-16.243
X-207.767 Y-17.329
X-207.846 Y-18.413
X-207.958 Y-19.494
X-208.106 Y-20.428
X-208.263 Y-21.114
X-208.413 Y-21.604
X-208.528 Y-21.907
X-208.644 Y-22.157
X-208.739 Y-22.329
X-208.757 Y-22.358
X-208.891 Y-22.517
X-209.059 Y-22.638
X-209.252 Y-22.714
X-209.458 Y-22.739
X-210.453 Y-22.74
G2 X-210.717 Y-22.562 Z-7.289 I0.01 J0.3
G1 X-210.735 Y-22.507 Z-7.166 F1200
X-210.742 Y-22.45 Z-7.043
X-210.743 Y-22.43 Z-7
X-212.263 Y22.43
X-212.258 Y22.498 Z-7.145
X-212.237 Y22.563 Z-7.289
G2 X-211.974 Y22.74 Z-8 I0.274 J-0.122 F450
G1 X-210.987
X-210.837 Y22.732
X-210.689 Y22.708
X-210.544 Y22.669
X-210.403 Y22.617
X-210.261 Y22.553
X-210.104 Y22.468
X-209.941 Y22.366
X-209.758 Y22.231
X-209.574 Y22.075
X-209.362 Y21.869
X-209.152 Y21.635
X-208.91 Y21.323
X-208.667 Y20.963
X-208.423 Y20.537
X-208.139 Y19.955
X-207.888 Y19.333
X-207.614 Y18.489
X-207.35 Y17.435
X-207.159 Y16.365
X-207.017 Y15.288
X-206.909 Y14.206
X-206.826 Y13.123
X-206.763 Y12.038
X-206.715 Y10.952
X-206.678 Y9.866
X-206.651 Y8.779
X-206.631 Y7.693
X-206.616 Y6.606
X-206.605 Y5.519
X-206.598 Y4.433
X-206.593 Y3.346
X-206.59 Y2.259
X-206.586 Y0.085
X-206.584 Y-3.175
X-206.585 Y-6.435
X-206.588 Y-8.609
X-206.592 Y-9.696
X-206.597 Y-10.782
X-206.607 Y-11.869
X-206.621 Y-12.956
X-206.642 Y-14.043
X-206.671 Y-15.129
X-206.712 Y-16.215
X-206.769 Y-17.3
X-206.848 Y-18.384
X-206.958 Y-19.465
X-207.108 Y-20.416
X-207.266 Y-21.107
X-207.416 Y-21.601
X-207.532 Y-21.904
X-207.648 Y-22.154
X-207.742 Y-22.327
X-207.762 Y-22.357
X-207.895 Y-22.516
X-208.063 Y-22.637
X-208.256 Y-22.713
X-208.462 Y-22.739
X-209.458
G2 X-209.721 Y-22.562 Z-7.289 I0.01 J0.3
G1 X-209.739 Y-22.507 Z-7.166 F1200
X-209.747 Y-22.45 Z-7.043
X-209.748 Y-22.429 Z-7
X-211.276 Y22.43
X-211.271 Y22.497 Z-7.145
X-211.25 Y22.562 Z-7.289
G2 X-210.987 Y22.74 Z-8 I0.274 J-0.122 F450
G1 X-210
X-209.85 Y22.732
X-209.702 Y22.708
X-209.557 Y22.67
X-209.416 Y22.619
X-209.274 Y22.555
X-209.116 Y22.47
X-208.953 Y22.368
X-208.768 Y22.233
X-208.584 Y22.078
X-208.375 Y21.876
X-208.165 Y21.642
X-207.925 Y21.336
X-207.683 Y20.977
X-207.438 Y20.554
X-207.155 Y19.978
X-206.904 Y19.361
X-206.629 Y18.523
X-206.364 Y17.475
X-206.171 Y16.406
X-206.027 Y15.328
X-205.917 Y14.247
X-205.833 Y13.164
X-205.769 Y12.079
X-205.719 Y10.993
X-205.682 Y9.907
X-205.654 Y8.82
X-205.633 Y7.734
X-205.618 Y6.647
X-205.607 Y5.56
X-205.599 Y4.474
X-205.594 Y3.387
X-205.59 Y2.3
X-205.586 Y0.127
X-205.584 Y-3.134
X-205.585 Y-6.394
X-205.588 Y-8.568
X-205.592 Y-9.655
X-205.598 Y-10.741
X-205.608 Y-11.828
X-205.622 Y-12.915
X-205.643 Y-14.001
X-205.672 Y-15.088
X-205.713 Y-16.174
X-205.77 Y-17.259
X-205.848 Y-18.343
X-205.957 Y-19.424
X-206.105 Y-20.381
X-206.266 Y-21.088
X-206.416 Y-21.586
X-206.532 Y-21.894
X-206.649 Y-22.147
X-206.743 Y-22.321
X-206.765 Y-22.355
X-206.899 Y-22.515
X-207.067 Y-22.637
X-207.261 Y-22.713
X-207.467 Y-22.739
X-208.462
G2 X-208.726 Y-22.562 Z-7.289 I0.01 J0.3
G1 X-208.744 Y-22.507 Z-7.166 F1200
X-208.752 Y-22.45 Z-7.043
Y-22.429 Z-7
X-210.289 Y22.429
Y22.43
X-210.284 Y22.497 Z-7.145
X-210.263 Y22.562 Z-7.289
G2 X-210 Y22.74 Z-8 I0.274 J-0.122 F450
G1 X-209.012 Y22.739
X-208.863 Y22.732
X-208.714 Y22.709
X-208.569 Y22.671
X-208.428 Y22.621
X-208.286 Y22.557
X-208.13 Y22.474
X-207.967 Y22.373
X-207.783 Y22.24
X-207.599 Y22.086
X-207.391 Y21.886
X-207.181 Y21.654
X-206.942 Y21.351
X-206.7 Y20.995
X-206.456 Y20.577
X-206.175 Y20.007
X-205.923 Y19.395
X-205.648 Y18.567
X-205.382 Y17.529
X-205.185 Y16.461
X-205.039 Y15.384
X-204.927 Y14.303
X-204.841 Y13.219
X-204.775 Y12.134
X-204.725 Y11.049
X-204.686 Y9.963
X-204.657 Y8.876
X-204.635 Y7.79
X-204.62 Y6.703
X-204.608 Y5.616
X-204.6 Y4.53
X-204.594 Y3.443
X-204.591 Y2.356
X-204.586 Y0.182
X-204.584 Y-3.078
X-204.585 Y-6.338
X-204.586 Y-7.425
X-204.588 Y-8.512
X-204.592 Y-9.599
X-204.599 Y-10.685
X-204.608 Y-11.772
X-204.623 Y-12.859
X-204.643 Y-13.946
X-204.673 Y-15.032
X-204.714 Y-16.118
X-204.77 Y-17.203
X-204.847 Y-18.287
X-204.954 Y-19.369
X-205.101 Y-20.337
X-205.263 Y-21.06
X-205.413 Y-21.564
X-205.531 Y-21.881
X-205.648 Y-22.137
X-205.743 Y-22.312
X-205.769 Y-22.353
X-205.902 Y-22.513
X-206.071 Y-22.636
X-206.265 Y-22.713
X-206.472 Y-22.739
X-207.467
G2 X-207.731 Y-22.562 Z-7.289 I0.01 J0.3
G1 X-207.749 Y-22.507 Z-7.167 F1200
X-207.757 Y-22.45 Z-7.044
Y-22.429 Z-7
X-209.302 Y22.429
X-209.296 Y22.497 Z-7.145
X-209.276 Y22.562 Z-7.289
G2 X-209.012 Y22.739 Z-8 I0.274 J-0.122 F450
G1 X-208.025
X-207.875 Y22.732
X-207.727 Y22.709
X-207.582 Y22.672
X-207.44 Y22.622
X-207.298 Y22.56
X-207.143 Y22.478
X-206.981 Y22.377
X-206.798 Y22.246
X-206.613 Y22.093
X-206.407 Y21.896
X-206.196 Y21.665
X-205.96 Y21.367
X-205.716 Y21.011
X-205.474 Y20.6
X-205.194 Y20.037
X-204.94 Y19.425
X-204.666 Y18.609
X-204.399 Y17.58
X-204.199 Y16.511
X-204.05 Y15.435
X-203.936 Y14.354
X-203.849 Y13.271
X-203.781 Y12.186
X-203.73 Y11.101
X-203.69 Y10.015
X-203.66 Y8.928
X-203.638 Y7.842
X-203.622 Y6.755
X-203.61 Y5.668
X-203.601 Y4.581
X-203.595 Y3.495
X-203.591 Y2.408
X-203.587 Y0.234
X-203.584 Y-3.026
X-203.585 Y-6.287
X-203.586 Y-7.373
X-203.589 Y-8.46
X-203.593 Y-9.547
X-203.599 Y-10.634
X-203.609 Y-11.72
X-203.623 Y-12.807
X-203.644 Y-13.894
X-203.674 Y-14.98
X-203.714 Y-16.066
X-203.77 Y-17.151
X-203.846 Y-18.236
X-203.952 Y-19.317
X-204.097 Y-20.297
X-204.26 Y-21.034
X-204.41 Y-21.544
X-204.53 Y-21.868
X-204.648 Y-22.127
X-204.743 Y-22.304
X-204.772 Y-22.35
X-204.905 Y-22.512
X-205.074 Y-22.635
X-205.269 Y-22.712
X-205.476 Y-22.739
X-206.472
G2 X-206.735 Y-22.562 Z-7.289 I0.01 J0.3
G1 X-206.754 Y-22.507 Z-7.167 F1200
X-206.761 Y-22.449 Z-7.044
X-206.762 Y-22.429 Z-7
X-208.315 Y22.429
X-208.309 Y22.497 Z-7.145
X-208.289 Y22.562 Z-7.289
G2 X-208.025 Y22.739 Z-8 I0.274 J-0.122 F450
G1 X-206.988
X-206.838 Y22.731
X-206.691 Y22.704
X-206.547 Y22.663
X-206.406 Y22.609
X-206.255 Y22.538
X-206.103 Y22.454
X-205.928 Y22.34
X-205.75 Y22.205
X-205.55 Y22.032
X-205.351 Y21.832
X-205.121 Y21.568
X-204.894 Y21.269
X-204.637 Y20.874
X-204.394 Y20.438
X-204.125 Y19.867
X-203.831 Y19.108
X-203.585 Y18.316
X-203.336 Y17.258
X-203.154 Y16.187
X-203.017 Y15.108
X-202.912 Y14.027
X-202.831 Y12.943
X-202.768 Y11.858
X-202.72 Y10.772
X-202.683 Y9.686
X-202.655 Y8.6
X-202.634 Y7.513
X-202.619 Y6.426
X-202.608 Y5.34
X-202.6 Y4.253
X-202.594 Y3.166
X-202.591 Y2.079
X-202.586 Y-0.094
X-202.584 Y-3.355
X-202.585 Y-6.615
X-202.587 Y-7.702
X-202.59 Y-8.789
X-202.595 Y-9.875
X-202.603 Y-10.962
X-202.614 Y-12.049
X-202.631 Y-13.136
X-202.654 Y-14.222
X-202.687 Y-15.308
X-202.733 Y-16.394
X-202.795 Y-17.479
X-202.879 Y-18.563
X-203.001 Y-19.643
X-203.157 Y-20.57
X-203.306 Y-21.19
X-203.454 Y-21.657
X-203.567 Y-21.945
X-203.68 Y-22.182
X-203.776 Y-22.352
X-203.784 Y-22.364
X-203.917 Y-22.52
X-204.084 Y-22.639
X-204.276 Y-22.713
X-204.479 Y-22.739
X-205.476
G2 X-205.74 Y-22.561 Z-7.289 I0.01 J0.3
G1 X-205.758 Y-22.506 Z-7.166 F1200
X-205.766 Y-22.449 Z-7.043
X-205.767 Y-22.429 Z-7
X-207.278 Y22.429
X-207.272 Y22.497 Z-7.145
X-207.252 Y22.562 Z-7.289
G2 X-206.988 Y22.739 Z-8 I0.274 J-0.122 F450
G1 X-206.001
X-205.851 Y22.731
X-205.703 Y22.705
X-205.559 Y22.664
X-205.419 Y22.611
X-205.279 Y22.547
X-205.117 Y22.458
X-204.957 Y22.356
X-204.767 Y22.214
X-204.582 Y22.056
X-204.366 Y21.843
X-204.161 Y21.61
X-203.917 Y21.293
X-203.684 Y20.941
X-203.415 Y20.466
X-203.136 Y19.884
X-202.891 Y19.265
X-202.614 Y18.395
X-202.357 Y17.339
X-202.171 Y16.268
X-202.031 Y15.19
X-201.923 Y14.109
X-201.84 Y13.025
X-201.775 Y11.94
X-201.726 Y10.855
X-201.688 Y9.769
X-201.659 Y8.682
X-201.637 Y7.596
X-201.621 Y6.509
X-201.61 Y5.422
X-201.601 Y4.335
X-201.595 Y3.249
X-201.591 Y2.162
X-201.587 Y-0.012
X-201.584 Y-3.272
X-201.586 Y-6.533
X-201.587 Y-7.619
X-201.59 Y-8.706
X-201.595 Y-9.793
X-201.603 Y-10.88
X-201.614 Y-11.966
X-201.631 Y-13.053
X-201.654 Y-14.14
X-201.687 Y-15.226
X-201.732 Y-16.312
X-201.792 Y-17.397
X-201.875 Y-18.48
X-201.992 Y-19.561
X-202.142 Y-20.48
X-202.301 Y-21.153
X-202.45 Y-21.634
X-202.564 Y-21.928
X-202.679 Y-22.172
X-202.773 Y-22.341
X-202.786 Y-22.36
X-202.919 Y-22.518
X-203.087 Y-22.638
X-203.279 Y-22.713
X-203.484 Y-22.738
X-204.479 Y-22.739
G2 X-204.743 Y-22.561 Z-7.289 I0.01 J0.3
G1 X-204.761 Y-22.506 Z-7.166 F1200
X-204.769 Y-22.449 Z-7.043
Y-22.429 Z-7
X-206.29 Y22.429
X-206.285 Y22.497 Z-7.145
X-206.264 Y22.561 Z-7.289
G2 X-206.001 Y22.739 Z-8 I0.274 J-0.122 F450
G1 X-205.014
X-204.864 Y22.731
X-204.716 Y22.705
X-204.572 Y22.666
X-204.431 Y22.613
X-204.289 Y22.549
X-204.128 Y22.461
X-203.967 Y22.358
X-203.781 Y22.22
X-203.597 Y22.064
X-203.38 Y21.851
X-203.171 Y21.616
X-202.926 Y21.297
X-202.686 Y20.937
X-202.438 Y20.503
X-202.154 Y19.911
X-201.906 Y19.289
X-201.629 Y18.426
X-201.37 Y17.37
X-201.181 Y16.3
X-201.039 Y15.223
X-200.93 Y14.141
X-200.846 Y13.058
X-200.781 Y11.973
X-200.73 Y10.887
X-200.691 Y9.801
X-200.662 Y8.715
X-200.639 Y7.628
X-200.623 Y6.542
X-200.611 Y5.455
X-200.602 Y4.368
X-200.596 Y3.281
X-200.592 Y2.194
X-200.587 Y0.021
X-200.584 Y-3.239
X-200.585 Y-5.413
X-200.588 Y-7.587
X-200.591 Y-8.673
X-200.596 Y-9.76
X-200.604 Y-10.847
X-200.615 Y-11.934
X-200.632 Y-13.02
X-200.656 Y-14.107
X-200.688 Y-15.193
X-200.733 Y-16.279
X-200.794 Y-17.364
X-200.876 Y-18.448
X-200.991 Y-19.529
X-201.144 Y-20.469
X-201.303 Y-21.145
X-201.453 Y-21.63
X-201.567 Y-21.924
X-201.682 Y-22.169
X-201.776 Y-22.339
X-201.79 Y-22.36
X-201.923 Y-22.517
X-202.091 Y-22.637
X-202.283 Y-22.713
X-202.488 Y-22.738
X-203.484
G2 X-203.747 Y-22.561 Z-7.289 I0.01 J0.3
G1 X-203.765 Y-22.506 Z-7.166 F1200
X-203.773 Y-22.449 Z-7.043
X-203.774 Y-22.428 Z-7
X-205.303 Y22.429
X-205.298 Y22.496 Z-7.145
X-205.277 Y22.561 Z-7.289
G2 X-205.014 Y22.739 Z-8 I0.274 J-0.122 F450
G1 X-204.027 Y22.738
X-203.877 Y22.731
X-203.729 Y22.706
X-203.584 Y22.667
X-203.443 Y22.615
X-203.302 Y22.551
X-203.141 Y22.464
X-202.979 Y22.362
X-202.792 Y22.224
X-202.608 Y22.069
X-202.396 Y21.862
X-202.188 Y21.629
X-201.945 Y21.316
X-201.705 Y20.958
X-201.457 Y20.527
X-201.173 Y19.942
X-200.925 Y19.326
X-200.647 Y18.47
X-200.384 Y17.415
X-200.193 Y16.345
X-200.049 Y15.268
X-199.939 Y14.187
X-199.853 Y13.103
X-199.786 Y12.019
X-199.735 Y10.933
X-199.695 Y9.847
X-199.665 Y8.761
X-199.642 Y7.674
X-199.625 Y6.587
X-199.612 Y5.501
X-199.603 Y4.414
X-199.597 Y3.327
X-199.592 Y2.24
X-199.589 Y1.154
X-199.586 Y-1.02
X-199.585 Y-4.28
X-199.586 Y-6.454
X-199.588 Y-7.541
X-199.591 Y-8.627
X-199.596 Y-9.714
X-199.604 Y-10.801
X-199.616 Y-11.888
X-199.633 Y-12.974
X-199.656 Y-14.061
X-199.689 Y-15.147
X-199.734 Y-16.233
X-199.794 Y-17.318
X-199.875 Y-18.402
X-199.988 Y-19.483
X-200.14 Y-20.429
X-200.301 Y-21.122
X-200.451 Y-21.613
X-200.566 Y-21.912
X-200.681 Y-22.16
X-200.776 Y-22.332
X-200.793 Y-22.357
X-200.926 Y-22.516
X-201.094 Y-22.637
X-201.287 Y-22.712
X-201.492 Y-22.738
X-202.488
G2 X-202.751 Y-22.561 Z-7.289 I0.01 J0.3
G1 X-202.77 Y-22.506 Z-7.166 F1200
X-202.777 Y-22.449 Z-7.043
X-202.778 Y-22.428 Z-7
X-204.316 Y22.428
X-204.311 Y22.496 Z-7.145
X-204.29 Y22.561 Z-7.289
G2 X-204.027 Y22.738 Z-8 I0.274 J-0.122 F450
G1 X-203.039
X-202.89 Y22.731
X-202.741 Y22.707
X-202.596 Y22.668
X-202.455 Y22.617
X-202.314 Y22.554
X-202.155 Y22.469
X-201.993 Y22.367
X-201.808 Y22.232
X-201.624 Y22.077
X-201.414 Y21.874
X-201.205 Y21.642
X-200.963 Y21.333
X-200.722 Y20.977
X-200.477 Y20.553
X-200.193 Y19.974
X-199.943 Y19.361
X-199.666 Y18.515
X-199.399 Y17.462
X-199.205 Y16.392
X-199.059 Y15.315
X-198.947 Y14.234
X-198.86 Y13.151
X-198.792 Y12.066
X-198.74 Y10.981
X-198.699 Y9.895
X-198.668 Y8.808
X-198.645 Y7.722
X-198.627 Y6.635
X-198.614 Y5.548
X-198.605 Y4.462
X-198.598 Y3.375
X-198.593 Y2.288
X-198.59 Y1.201
X-198.586 Y-0.972
X-198.585 Y-4.233
X-198.586 Y-6.406
X-198.588 Y-7.493
X-198.591 Y-8.58
X-198.597 Y-9.667
X-198.605 Y-10.753
X-198.616 Y-11.84
X-198.633 Y-12.927
X-198.657 Y-14.013
X-198.69 Y-15.1
X-198.734 Y-16.186
X-198.794 Y-17.271
X-198.875 Y-18.354
X-198.986 Y-19.436
X-199.137 Y-20.393
X-199.298 Y-21.099
X-199.449 Y-21.595
X-199.565 Y-21.901
X-199.681 Y-22.152
X-199.776 Y-22.324
X-199.796 Y-22.355
X-199.929 Y-22.515
X-200.097 Y-22.636
X-200.291 Y-22.712
X-200.497 Y-22.738
X-201.492
G2 X-201.756 Y-22.561 Z-7.289 I0.01 J0.3
G1 X-201.774 Y-22.506 Z-7.167 F1200
X-201.782 Y-22.449 Z-7.044
Y-22.428 Z-7
X-203.329 Y22.428
X-203.323 Y22.496 Z-7.145
X-203.303 Y22.561 Z-7.289
G2 X-203.039 Y22.738 Z-8 I0.274 J-0.122 F450
G1 X-202.052
X-201.902 Y22.731
X-201.754 Y22.708
X-201.609 Y22.67
X-201.468 Y22.619
X-201.326 Y22.556
X-201.169 Y22.473
X-201.007 Y22.372
X-200.823 Y22.239
X-200.638 Y22.085
X-200.43 Y21.885
X-200.22 Y21.653
X-199.981 Y21.35
X-199.739 Y20.994
X-199.495 Y20.576
X-199.212 Y20.004
X-198.961 Y19.392
X-198.683 Y18.557
X-198.415 Y17.51
X-198.218 Y16.442
X-198.07 Y15.365
X-197.956 Y14.284
X-197.867 Y13.201
X-197.798 Y12.116
X-197.745 Y11.031
X-197.703 Y9.945
X-197.671 Y8.858
X-197.647 Y7.772
X-197.629 Y6.685
X-197.616 Y5.599
X-197.606 Y4.512
X-197.599 Y3.425
X-197.594 Y2.338
X-197.59 Y1.252
X-197.586 Y-0.922
X-197.585 Y-4.182
X-197.586 Y-6.356
X-197.588 Y-7.443
X-197.592 Y-8.53
X-197.597 Y-9.616
X-197.605 Y-10.703
X-197.617 Y-11.79
X-197.634 Y-12.877
X-197.658 Y-13.963
X-197.691 Y-15.049
X-197.735 Y-16.135
X-197.794 Y-17.22
X-197.874 Y-18.304
X-197.983 Y-19.386
X-198.132 Y-20.353
X-198.295 Y-21.073
X-198.446 Y-21.575
X-198.564 Y-21.888
X-198.68 Y-22.142
X-198.775 Y-22.316
X-198.799 Y-22.353
X-198.932 Y-22.513
X-199.101 Y-22.635
X-199.294 Y-22.712
X-199.501 Y-22.738
X-200.497
G2 X-200.76 Y-22.56 Z-7.289 I0.01 J0.3
G1 X-200.778 Y-22.506 Z-7.167 F1200
X-200.786 Y-22.448 Z-7.044
X-200.787 Y-22.428 Z-7
X-202.342 Y22.428
X-202.336 Y22.496 Z-7.145
X-202.316 Y22.561 Z-7.289
G2 X-202.052 Y22.738 Z-8 I0.274 J-0.122 F450
G1 X-201.065
X-200.915 Y22.73
X-200.767 Y22.708
X-200.621 Y22.671
X-200.48 Y22.621
X-200.338 Y22.559
X-200.183 Y22.477
X-200.02 Y22.376
X-199.838 Y22.245
X-199.653 Y22.092
X-199.447 Y21.895
X-199.236 Y21.664
X-198.999 Y21.366
X-198.755 Y21.01
X-198.513 Y20.598
X-198.231 Y20.033
X-197.978 Y19.422
X-197.701 Y18.599
X-197.432 Y17.564
X-197.231 Y16.495
X-197.081 Y15.419
X-196.965 Y14.339
X-196.875 Y13.255
X-196.805 Y12.171
X-196.75 Y11.086
X-196.708 Y10
X-196.675 Y8.913
X-196.65 Y7.827
X-196.631 Y6.74
X-196.617 Y5.653
X-196.607 Y4.567
X-196.6 Y3.48
X-196.594 Y2.393
X-196.591 Y1.306
X-196.587 Y-0.867
X-196.585 Y-4.128
X-196.586 Y-6.301
X-196.589 Y-7.388
X-196.592 Y-8.475
X-196.597 Y-9.562
X-196.606 Y-10.648
X-196.618 Y-11.735
X-196.635 Y-12.822
X-196.658 Y-13.908
X-196.691 Y-14.995
X-196.735 Y-16.08
X-196.793 Y-17.166
X-196.872 Y-18.25
X-196.98 Y-19.331
X-197.128 Y-20.309
X-197.291 Y-21.044
X-197.442 Y-21.552
X-197.562 Y-21.874
X-197.679 Y-22.132
X-197.774 Y-22.308
X-197.802 Y-22.351
X-197.935 Y-22.512
X-198.104 Y-22.634
X-198.298 Y-22.711
X-198.505 Y-22.737
X-199.501 Y-22.738
G2 X-199.764 Y-22.56 Z-7.289 I0.01 J0.3
G1 X-199.783 Y-22.506 Z-7.167 F1200
X-199.79 Y-22.448 Z-7.044
X-199.791 Y-22.428 Z-7
X-201.354 Y22.428
X-201.349 Y22.496 Z-7.145
X-201.328 Y22.561 Z-7.289
G2 X-201.065 Y22.738 Z-8 I0.274 J-0.122 F450
G1 X-200.078
X-199.928 Y22.73
X-199.779 Y22.709
X-199.634 Y22.672
X-199.492 Y22.623
X-199.35 Y22.561
X-199.197 Y22.481
X-199.034 Y22.381
X-198.853 Y22.252
X-198.667 Y22.099
X-198.463 Y21.905
X-198.251 Y21.675
X-198.017 Y21.381
X-197.772 Y21.027
X-197.531 Y20.62
X-197.25 Y20.062
X-196.995 Y19.451
X-196.719 Y18.641
X-196.449 Y17.616
X-196.245 Y16.548
X-196.092 Y15.472
X-195.974 Y14.392
X-195.883 Y13.309
X-195.811 Y12.224
X-195.755 Y11.139
X-195.712 Y10.053
X-195.678 Y8.967
X-195.653 Y7.88
X-195.633 Y6.794
X-195.619 Y5.707
X-195.608 Y4.62
X-195.601 Y3.533
X-195.595 Y2.447
X-195.591 Y1.36
X-195.587 Y-0.814
X-195.585 Y-2.987
Y-5.161
X-195.589 Y-7.334
X-195.592 Y-8.421
X-195.598 Y-9.508
X-195.606 Y-10.595
X-195.618 Y-11.681
X-195.635 Y-12.768
X-195.659 Y-13.855
X-195.691 Y-14.941
X-195.735 Y-16.027
X-195.793 Y-17.112
X-195.871 Y-18.196
X-195.977 Y-19.278
X-196.123 Y-20.267
X-196.287 Y-21.016
X-196.438 Y-21.53
X-196.56 Y-21.86
X-196.678 Y-22.121
X-196.773 Y-22.299
X-196.804 Y-22.348
X-196.937 Y-22.51
X-197.106 Y-22.634
X-197.301 Y-22.711
X-197.509 Y-22.737
X-198.505
G2 X-198.768 Y-22.56 Z-7.289 I0.01 J0.3
G1 X-198.787 Y-22.505 Z-7.167 F1200
X-198.794 Y-22.448 Z-7.044
X-198.795 Y-22.427 Z-7
X-200.367 Y22.427
Y22.428
X-200.362 Y22.496 Z-7.145
X-200.341 Y22.56 Z-7.289
G2 X-200.078 Y22.738 Z-8 I0.274 J-0.122 F450
G1 X-199.091
X-198.941 Y22.73
X-198.792 Y22.71
X-198.647 Y22.674
X-198.505 Y22.625
X-198.362 Y22.563
X-198.211 Y22.485
X-198.047 Y22.385
X-197.868 Y22.258
X-197.682 Y22.106
X-197.479 Y21.915
X-197.267 Y21.686
X-197.035 Y21.397
X-196.788 Y21.043
X-196.549 Y20.642
X-196.27 Y20.092
X-196.012 Y19.482
X-195.738 Y18.684
X-195.466 Y17.667
X-195.258 Y16.6
X-195.103 Y15.525
X-194.983 Y14.445
X-194.891 Y13.362
X-194.818 Y12.277
X-194.761 Y11.192
X-194.716 Y10.106
X-194.682 Y9.02
X-194.656 Y7.934
X-194.636 Y6.847
X-194.621 Y5.76
X-194.61 Y4.673
X-194.602 Y3.587
X-194.596 Y2.5
X-194.592 Y1.413
X-194.587 Y-0.76
X-194.585 Y-2.934
X-194.586 Y-5.108
X-194.589 Y-7.281
X-194.593 Y-8.368
X-194.598 Y-9.455
X-194.606 Y-10.542
X-194.619 Y-11.628
X-194.636 Y-12.715
X-194.66 Y-13.801
X-194.692 Y-14.888
X-194.735 Y-15.974
X-194.793 Y-17.059
X-194.87 Y-18.143
X-194.974 Y-19.225
X-195.119 Y-20.225
X-195.283 Y-20.988
X-195.434 Y-21.507
X-195.558 Y-21.846
X-195.676 Y-22.11
X-195.772 Y-22.291
X-195.807 Y-22.346
X-195.94 Y-22.508
X-196.109 Y-22.633
X-196.304 Y-22.711
X-196.513 Y-22.737
X-197.509
G2 X-197.773 Y-22.56 Z-7.289 I0.01 J0.3
G1 X-197.791 Y-22.505 Z-7.167 F1200
X-197.798 Y-22.448 Z-7.044
X-197.799 Y-22.427 Z-7
X-199.38 Y22.427
Y22.428
X-199.375 Y22.495 Z-7.145
X-199.354 Y22.56 Z-7.289
G2 X-199.091 Y22.738 Z-8 I0.274 J-0.122 F450
G1 X-198.103 Y22.737
X-197.954 Y22.73
X-197.805 Y22.71
X-197.659 Y22.675
X-197.517 Y22.627
X-197.374 Y22.566
X-197.225 Y22.489
X-197.061 Y22.39
X-196.883 Y22.265
X-196.696 Y22.113
X-196.495 Y21.925
X-196.282 Y21.697
X-196.052 Y21.413
X-195.805 Y21.06
X-195.567 Y20.664
X-195.289 Y20.121
X-195.029 Y19.513
X-194.757 Y18.726
X-194.483 Y17.719
X-194.272 Y16.653
X-194.114 Y15.578
X-193.993 Y14.498
X-193.898 Y13.415
X-193.824 Y12.331
X-193.766 Y11.246
X-193.721 Y10.16
X-193.686 Y9.073
X-193.659 Y7.987
X-193.638 Y6.9
X-193.623 Y5.814
X-193.611 Y4.727
X-193.603 Y3.64
X-193.597 Y2.553
X-193.592 Y1.467
X-193.587 Y-0.707
X-193.585 Y-2.88
X-193.586 Y-5.054
X-193.587 Y-6.141
X-193.589 Y-7.228
X-193.593 Y-8.314
X-193.598 Y-9.401
X-193.607 Y-10.488
X-193.619 Y-11.575
X-193.636 Y-12.661
X-193.66 Y-13.748
X-193.692 Y-14.834
X-193.735 Y-15.92
X-193.792 Y-17.005
X-193.868 Y-18.09
X-193.972 Y-19.171
X-194.114 Y-20.183
X-194.279 Y-20.959
X-194.429 Y-21.483
X-194.556 Y-21.832
X-194.674 Y-22.1
X-194.771 Y-22.282
X-194.809 Y-22.343
X-194.942 Y-22.507
X-195.112 Y-22.632
X-195.308 Y-22.71
X-195.517 Y-22.737
X-196.513
G2 X-196.776 Y-22.56 Z-7.289 I0.01 J0.3
G1 X-196.795 Y-22.505 Z-7.167 F1200
X-196.802 Y-22.448 Z-7.044
X-196.803 Y-22.427 Z-7
X-198.393 Y22.427
X-198.387 Y22.495 Z-7.145
X-198.367 Y22.56 Z-7.289
G2 X-198.103 Y22.737 Z-8 I0.274 J-0.122 F450
G1 X-197.116
X-196.966 Y22.73
X-196.818 Y22.711
X-196.672 Y22.676
X-196.529 Y22.629
X-196.386 Y22.568
X-196.239 Y22.493
X-196.075 Y22.395
X-195.898 Y22.271
X-195.711 Y22.12
X-195.512 Y21.936
X-195.298 Y21.708
X-195.07 Y21.429
X-194.822 Y21.077
X-194.585 Y20.686
X-194.309 Y20.151
X-194.047 Y19.544
X-193.775 Y18.77
X-193.501 Y17.772
X-193.286 Y16.706
X-193.126 Y15.631
X-193.002 Y14.552
X-192.906 Y13.469
X-192.831 Y12.385
X-192.772 Y11.3
X-192.725 Y10.214
X-192.689 Y9.128
X-192.662 Y8.041
X-192.64 Y6.955
X-192.624 Y5.868
X-192.613 Y4.781
X-192.604 Y3.694
X-192.597 Y2.608
X-192.593 Y1.521
X-192.59 Y0.434
X-192.586 Y-1.739
X-192.585 Y-3.913
X-192.587 Y-6.087
X-192.589 Y-7.173
X-192.593 Y-8.26
X-192.599 Y-9.347
X-192.607 Y-10.434
X-192.62 Y-11.521
X-192.637 Y-12.607
X-192.661 Y-13.694
X-192.693 Y-14.78
X-192.735 Y-15.866
X-192.792 Y-16.951
X-192.867 Y-18.035
X-192.969 Y-19.117
X-193.11 Y-20.139
X-193.275 Y-20.93
X-193.425 Y-21.46
X-193.554 Y-21.818
X-193.673 Y-22.089
X-193.77 Y-22.274
X-193.811 Y-22.341
X-193.944 Y-22.505
X-194.114 Y-22.631
X-194.31 Y-22.71
X-194.52 Y-22.737
X-195.517
G2 X-195.78 Y-22.56 Z-7.289 I0.01 J0.3
G1 X-195.799 Y-22.505 Z-7.167 F1200
X-195.806 Y-22.448 Z-7.044
X-195.807 Y-22.427 Z-7
X-197.406 Y22.427
X-197.4 Y22.495 Z-7.145
X-197.38 Y22.56 Z-7.289
G2 X-197.116 Y22.737 Z-8 I0.274 J-0.122 F450
G1 X-196.054
X-195.905 Y22.73
X-195.757 Y22.703
X-195.613 Y22.661
X-195.473 Y22.608
X-195.323 Y22.539
X-195.171 Y22.455
X-194.993 Y22.339
X-194.819 Y22.209
X-194.616 Y22.033
X-194.42 Y21.838
X-194.187 Y21.572
X-193.964 Y21.278
X-193.713 Y20.896
X-193.452 Y20.431
X-193.197 Y19.891
X-192.906 Y19.147
X-192.632 Y18.274
X-192.38 Y17.217
X-192.198 Y16.145
X-192.059 Y15.067
X-191.952 Y13.986
X-191.867 Y12.902
X-191.801 Y11.818
X-191.748 Y10.732
X-191.708 Y9.646
X-191.676 Y8.56
X-191.651 Y7.473
X-191.633 Y6.387
X-191.619 Y5.3
X-191.608 Y4.213
X-191.601 Y3.126
X-191.595 Y2.04
X-191.592 Y0.953
X-191.587 Y-1.221
X-191.586 Y-3.394
X-191.587 Y-5.568
X-191.588 Y-6.655
X-191.592 Y-7.742
X-191.596 Y-8.828
X-191.604 Y-9.915
X-191.614 Y-11.002
X-191.629 Y-12.089
X-191.65 Y-13.175
X-191.678 Y-14.262
X-191.716 Y-15.348
X-191.766 Y-16.433
X-191.831 Y-17.518
X-191.92 Y-18.601
X-192.044 Y-19.681
X-192.195 Y-20.562
X-192.353 Y-21.208
X-192.497 Y-21.66
X-192.613 Y-21.952
X-192.724 Y-22.184
X-192.822 Y-22.356
X-192.827 Y-22.364
X-192.96 Y-22.519
X-193.127 Y-22.637
X-193.318 Y-22.711
X-193.521 Y-22.737
X-194.52
G2 X-194.784 Y-22.559 Z-7.289 I0.01 J0.3
G1 X-194.802 Y-22.505 Z-7.166 F1200
X-194.81 Y-22.447 Z-7.043
Y-22.427 Z-7
X-196.344 Y22.427
X-196.338 Y22.495 Z-7.145
X-196.318 Y22.56 Z-7.289
G2 X-196.054 Y22.737 Z-8 I0.274 J-0.122 F450
G1 X-195.067
X-194.917 Y22.729
X-194.77 Y22.703
X-194.625 Y22.663
X-194.485 Y22.611
X-194.345 Y22.547
X-194.183 Y22.459
X-194.023 Y22.357
X-193.834 Y22.217
X-193.651 Y22.06
X-193.433 Y21.847
X-193.226 Y21.613
X-192.985 Y21.301
X-192.751 Y20.949
X-192.485 Y20.483
X-192.205 Y19.902
X-191.947 Y19.255
X-191.665 Y18.376
X-191.406 Y17.32
X-191.218 Y16.25
X-191.075 Y15.172
X-190.965 Y14.091
X-190.878 Y13.008
X-190.809 Y11.923
X-190.756 Y10.838
X-190.713 Y9.752
X-190.68 Y8.666
X-190.655 Y7.579
X-190.636 Y6.492
X-190.621 Y5.406
X-190.61 Y4.319
X-190.602 Y3.232
X-190.596 Y2.145
X-190.592 Y1.059
X-190.587 Y-1.115
X-190.586 Y-3.288
X-190.587 Y-5.462
X-190.589 Y-6.549
X-190.592 Y-7.636
X-190.596 Y-8.722
X-190.604 Y-9.809
X-190.614 Y-10.896
X-190.629 Y-11.983
X-190.649 Y-13.069
X-190.677 Y-14.156
X-190.714 Y-15.242
X-190.762 Y-16.328
X-190.827 Y-17.412
X-190.913 Y-18.496
X-191.031 Y-19.576
X-191.186 Y-20.503
X-191.346 Y-21.169
X-191.496 Y-21.647
X-191.609 Y-21.936
X-191.724 Y-22.178
X-191.819 Y-22.347
X-191.828 Y-22.361
X-191.961 Y-22.517
X-192.129 Y-22.637
X-192.32 Y-22.711
X-192.524 Y-22.736
X-193.521 Y-22.737
G2 X-193.785 Y-22.559 Z-7.289 I0.01 J0.3
G1 X-193.803 Y-22.504 Z-7.167 F1200
X-193.811 Y-22.447 Z-7.044
Y-22.427 Z-7
X-195.357 Y22.427
X-195.351 Y22.495 Z-7.145
X-195.331 Y22.56 Z-7.289
G2 X-195.067 Y22.737 Z-8 I0.274 J-0.122 F450
G1 X-194.08
X-193.93 Y22.729
X-193.782 Y22.704
X-193.638 Y22.665
X-193.497 Y22.613
X-193.355 Y22.549
X-193.195 Y22.462
X-193.033 Y22.359
X-192.848 Y22.223
X-192.664 Y22.067
X-192.449 Y21.857
X-192.24 Y21.623
X-191.996 Y21.308
X-191.755 Y20.948
X-191.503 Y20.508
X-191.215 Y19.914
X-190.963 Y19.289
X-190.683 Y18.421
X-190.421 Y17.367
X-190.23 Y16.297
X-190.085 Y15.22
X-189.973 Y14.139
X-189.885 Y13.056
X-189.815 Y11.971
X-189.76 Y10.886
X-189.717 Y9.8
X-189.684 Y8.713
X-189.658 Y7.627
X-189.638 Y6.54
X-189.623 Y5.454
X-189.611 Y4.367
X-189.603 Y3.28
X-189.597 Y2.193
X-189.593 Y1.106
X-189.588 Y-1.067
X-189.586 Y-3.241
X-189.587 Y-5.414
X-189.589 Y-6.501
X-189.592 Y-7.588
X-189.597 Y-8.675
X-189.604 Y-9.761
X-189.615 Y-10.848
X-189.629 Y-11.935
X-189.65 Y-13.021
X-189.677 Y-14.108
X-189.714 Y-15.194
X-189.763 Y-16.28
X-189.826 Y-17.365
X-189.911 Y-18.448
X-190.028 Y-19.529
X-190.182 Y-20.466
X-190.343 Y-21.148
X-190.494 Y-21.633
X-190.608 Y-21.926
X-190.724 Y-22.171
X-190.818 Y-22.34
X-190.83 Y-22.359
X-190.964 Y-22.516
X-191.131 Y-22.636
X-191.323 Y-22.711
X-191.528 Y-22.736
X-192.524
G2 X-192.788 Y-22.559 Z-7.289 I0.01 J0.3
G1 X-192.806 Y-22.504 Z-7.167 F1200
X-192.814 Y-22.447 Z-7.044
Y-22.426 Z-7
X-194.369 Y22.426
Y22.427
X-194.364 Y22.494 Z-7.145
X-194.343 Y22.559 Z-7.289
G2 X-194.08 Y22.737 Z-8 I0.274 J-0.122 F450
G1 X-193.093
X-192.943 Y22.729
X-192.795 Y22.705
X-192.65 Y22.666
X-192.509 Y22.615
X-192.367 Y22.551
X-192.208 Y22.466
X-192.046 Y22.364
X-191.86 Y22.227
X-191.676 Y22.072
X-191.463 Y21.867
X-191.254 Y21.634
X-191.01 Y21.32
X-190.769 Y20.963
X-190.519 Y20.532
X-190.233 Y19.945
X-189.982 Y19.328
X-189.702 Y18.47
X-189.436 Y17.416
X-189.242 Y16.347
X-189.095 Y15.27
X-188.981 Y14.189
X-188.892 Y13.106
X-188.821 Y12.022
X-188.766 Y10.936
X-188.722 Y9.851
X-188.687 Y8.764
X-188.661 Y7.678
X-188.64 Y6.591
X-188.624 Y5.505
X-188.613 Y4.418
X-188.604 Y3.331
X-188.598 Y2.244
X-188.593 Y1.157
X-188.59 Y0.071
X-188.587 Y-2.103
X-188.586 Y-4.276
X-188.589 Y-6.45
X-188.592 Y-7.537
X-188.597 Y-8.624
X-188.604 Y-9.71
X-188.615 Y-10.797
X-188.63 Y-11.884
X-188.65 Y-12.97
X-188.678 Y-14.057
X-188.714 Y-15.143
X-188.762 Y-16.229
X-188.826 Y-17.314
X-188.91 Y-18.397
X-189.024 Y-19.478
X-189.177 Y-20.427
X-189.34 Y-21.124
X-189.491 Y-21.615
X-189.607 Y-21.914
X-189.722 Y-22.162
X-189.817 Y-22.332
X-189.833 Y-22.356
X-189.966 Y-22.515
X-190.134 Y-22.635
X-190.326 Y-22.71
X-190.532 Y-22.736
X-191.528
G2 X-191.791 Y-22.559 Z-7.289 I0.01 J0.3
G1 X-191.81 Y-22.504 Z-7.167 F1200
X-191.817 Y-22.447 Z-7.044
X-191.818 Y-22.426 Z-7
X-193.382 Y22.426
Y22.427
X-193.377 Y22.494 Z-7.145
X-193.356 Y22.559 Z-7.289
G2 X-193.093 Y22.737 Z-8 I0.274 J-0.122 F450
G1 X-192.106 Y22.736
X-191.956 Y22.729
X-191.808 Y22.706
X-191.662 Y22.668
X-191.521 Y22.617
X-191.38 Y22.554
X-191.221 Y22.47
X-191.059 Y22.369
X-190.874 Y22.234
X-190.69 Y22.081
X-190.479 Y21.878
X-190.27 Y21.647
X-190.028 Y21.339
X-189.786 Y20.984
X-189.539 Y20.56
X-189.253 Y19.981
X-189.002 Y19.37
X-188.722 Y18.523
X-188.452 Y17.47
X-188.255 Y16.402
X-188.106 Y15.325
X-187.99 Y14.245
X-187.899 Y13.162
X-187.828 Y12.077
X-187.771 Y10.992
X-187.726 Y9.906
X-187.691 Y8.82
X-187.663 Y7.733
X-187.642 Y6.647
X-187.626 Y5.56
X-187.614 Y4.473
X-187.605 Y3.387
X-187.599 Y2.3
X-187.594 Y1.213
X-187.591 Y0.126
X-187.587 Y-2.047
Y-4.221
X-187.589 Y-6.395
X-187.592 Y-7.481
X-187.597 Y-8.568
X-187.605 Y-9.655
X-187.615 Y-10.742
X-187.63 Y-11.828
X-187.651 Y-12.915
X-187.678 Y-14.001
X-187.714 Y-15.088
X-187.762 Y-16.173
X-187.825 Y-17.258
X-187.908 Y-18.342
X-188.02 Y-19.423
X-188.172 Y-20.383
X-188.336 Y-21.096
X-188.487 Y-21.593
X-188.604 Y-21.9
X-188.72 Y-22.151
X-188.815 Y-22.324
X-188.835 Y-22.354
X-188.968 Y-22.513
X-189.136 Y-22.634
X-189.329 Y-22.71
X-189.535 Y-22.736
X-190.532
G2 X-190.795 Y-22.559 Z-7.289 I0.01 J0.3
G1 X-190.813 Y-22.504 Z-7.167 F1200
X-190.821 Y-22.447 Z-7.044
X-190.822 Y-22.426 Z-7
X-192.395 Y22.426
X-192.39 Y22.494 Z-7.145
X-192.369 Y22.559 Z-7.289
G2 X-192.106 Y22.736 Z-8 I0.274 J-0.122 F450
G1 X-191.118
X-190.969 Y22.729
X-190.82 Y22.706
X-190.675 Y22.669
X-190.533 Y22.619
X-190.392 Y22.557
X-190.235 Y22.475
X-190.073 Y22.374
X-189.889 Y22.242
X-189.705 Y22.089
X-189.497 Y21.891
X-189.286 Y21.661
X-189.047 Y21.359
X-188.804 Y21.004
X-188.559 Y20.589
X-188.275 Y20.018
X-188.022 Y19.41
X-187.742 Y18.576
X-187.47 Y17.533
X-187.27 Y16.465
X-187.118 Y15.389
X-187 Y14.308
X-186.908 Y13.226
X-186.834 Y12.141
X-186.777 Y11.056
X-186.731 Y9.97
X-186.695 Y8.884
X-186.667 Y7.797
X-186.645 Y6.711
X-186.628 Y5.624
X-186.616 Y4.538
X-186.606 Y3.451
X-186.6 Y2.364
X-186.595 Y1.277
X-186.591 Y0.19
X-186.587 Y-1.983
Y-4.157
X-186.588 Y-5.244
X-186.589 Y-6.33
X-186.593 Y-7.417
X-186.598 Y-8.504
X-186.605 Y-9.591
X-186.616 Y-10.677
X-186.631 Y-11.764
X-186.651 Y-12.851
X-186.678 Y-13.937
X-186.714 Y-15.023
X-186.761 Y-16.109
X-186.823 Y-17.194
X-186.905 Y-18.278
X-187.015 Y-19.359
X-187.165 Y-20.332
X-187.33 Y-21.063
X-187.481 Y-21.566
X-187.6 Y-21.883
X-187.717 Y-22.138
X-187.813 Y-22.313
X-187.837 Y-22.351
X-187.97 Y-22.511
X-188.139 Y-22.633
X-188.332 Y-22.71
X-188.539 Y-22.736
X-189.535
G2 X-189.799 Y-22.559 Z-7.289 I0.01 J0.3
G1 X-189.817 Y-22.504 Z-7.167 F1200
X-189.825 Y-22.447 Z-7.044
Y-22.426 Z-7
X-191.408 Y22.426
X-191.402 Y22.494 Z-7.145
X-191.382 Y22.559 Z-7.289
G2 X-191.118 Y22.736 Z-8 I0.274 J-0.122 F450
G1 X-190.131
X-189.981 Y22.728
X-189.833 Y22.707
X-189.687 Y22.671
X-189.546 Y22.622
X-189.404 Y22.56
X-189.249 Y22.479
X-189.087 Y22.38
X-188.905 Y22.25
X-188.72 Y22.098
X-188.514 Y21.903
X-188.303 Y21.674
X-188.066 Y21.378
X-187.822 Y21.025
X-187.579 Y20.616
X-187.296 Y20.055
X-187.041 Y19.447
X-186.762 Y18.628
X-186.49 Y17.599
X-186.285 Y16.531
X-186.13 Y15.455
X-186.01 Y14.375
X-185.916 Y13.293
X-185.842 Y12.208
X-185.782 Y11.123
X-185.736 Y10.037
X-185.699 Y8.951
X-185.67 Y7.865
X-185.648 Y6.778
X-185.63 Y5.692
X-185.617 Y4.605
X-185.608 Y3.518
X-185.601 Y2.431
X-185.595 Y1.345
X-185.592 Y0.258
X-185.588 Y-1.916
X-185.587 Y-4.089
X-185.588 Y-5.176
X-185.59 Y-6.263
X-185.593 Y-7.35
X-185.598 Y-8.437
X-185.605 Y-9.523
X-185.616 Y-10.61
X-185.631 Y-11.697
X-185.651 Y-12.783
X-185.678 Y-13.87
X-185.714 Y-14.956
X-185.76 Y-16.042
X-185.821 Y-17.127
X-185.902 Y-18.211
X-186.01 Y-19.292
X-186.158 Y-20.279
X-186.323 Y-21.027
X-186.474 Y-21.538
X-186.596 Y-21.866
X-186.714 Y-22.125
X-186.81 Y-22.302
X-186.838 Y-22.348
X-186.972 Y-22.509
X-187.141 Y-22.632
X-187.335 Y-22.709
X-187.542 Y-22.736
X-188.539
G2 X-188.802 Y-22.558 Z-7.289 I0.01 J0.3
G1 X-188.821 Y-22.504 Z-7.167 F1200
X-188.828 Y-22.447 Z-7.044
X-188.829 Y-22.426 Z-7
X-190.421 Y22.426
X-190.415 Y22.494 Z-7.145
X-190.395 Y22.559 Z-7.289
G2 X-190.131 Y22.736 Z-8 I0.274 J-0.122 F450
G1 X-189.083
X-188.933 Y22.728
X-188.786 Y22.701
X-188.642 Y22.659
X-188.501 Y22.606
X-188.348 Y22.534
X-188.197 Y22.45
X-188.02 Y22.334
X-187.843 Y22.201
X-187.64 Y22.024
X-187.443 Y21.827
X-187.208 Y21.557
X-186.983 Y21.259
X-186.727 Y20.866
X-186.477 Y20.417
X-186.209 Y19.847
X-185.912 Y19.079
X-185.657 Y18.258
X-185.408 Y17.2
X-185.225 Y16.129
X-185.085 Y15.051
X-184.976 Y13.97
X-184.889 Y12.887
X-184.821 Y11.802
X-184.766 Y10.716
X-184.723 Y9.631
X-184.689 Y8.544
X-184.663 Y7.458
X-184.642 Y6.371
X-184.626 Y5.285
X-184.614 Y4.198
X-184.606 Y3.111
X-184.599 Y2.024
X-184.594 Y0.937
X-184.591 Y-0.149
X-184.588 Y-2.323
X-184.587 Y-4.496
X-184.589 Y-5.583
X-184.591 Y-6.67
X-184.595 Y-7.757
X-184.601 Y-8.844
X-184.61 Y-9.93
X-184.622 Y-11.017
X-184.639 Y-12.104
X-184.662 Y-13.19
X-184.692 Y-14.277
X-184.732 Y-15.363
X-184.784 Y-16.448
X-184.852 Y-17.533
X-184.943 Y-18.616
X-185.069 Y-19.695
X-185.227 Y-20.6
X-185.381 Y-21.222
X-185.527 Y-21.677
X-185.64 Y-21.961
X-185.752 Y-22.192
X-185.851 Y-22.364
X-185.984 Y-22.519
X-186.151 Y-22.637
X-186.341 Y-22.71
X-186.544 Y-22.735
X-187.542 Y-22.736
G2 X-187.806 Y-22.558 Z-7.289 I0.01 J0.3
G1 X-187.824 Y-22.503 Z-7.166 F1200
X-187.832 Y-22.446 Z-7.043
X-187.833 Y-22.426 Z-7
X-189.372 Y22.426
X-189.367 Y22.494 Z-7.145
X-189.346 Y22.558 Z-7.289
G2 X-189.083 Y22.736 Z-8 I0.274 J-0.122 F450
G1 X-188.096
X-187.946 Y22.728
X-187.798 Y22.702
X-187.654 Y22.661
X-187.513 Y22.608
X-187.374 Y22.544
X-187.212 Y22.455
X-187.052 Y22.353
X-186.862 Y22.212
X-186.677 Y22.054
X-186.459 Y21.84
X-186.253 Y21.607
X-186.008 Y21.288
X-185.776 Y20.938
X-185.503 Y20.457
X-185.227 Y19.882
X-184.973 Y19.242
X-184.692 Y18.361
X-184.434 Y17.305
X-184.245 Y16.235
X-184.101 Y15.158
X-183.989 Y14.077
X-183.9 Y12.993
X-183.83 Y11.909
X-183.774 Y10.824
X-183.729 Y9.738
X-183.694 Y8.652
X-183.667 Y7.565
X-183.645 Y6.478
X-183.629 Y5.392
X-183.616 Y4.305
X-183.607 Y3.218
X-183.6 Y2.132
X-183.595 Y1.045
X-183.592 Y-0.042
X-183.588 Y-2.216
Y-4.389
X-183.589 Y-5.476
X-183.591 Y-6.563
X-183.595 Y-7.65
X-183.601 Y-8.736
X-183.61 Y-9.823
X-183.622 Y-10.91
X-183.639 Y-11.996
X-183.661 Y-13.083
X-183.691 Y-14.169
X-183.73 Y-15.255
X-183.781 Y-16.341
X-183.847 Y-17.426
X-183.935 Y-18.509
X-184.055 Y-19.589
X-184.21 Y-20.508
X-184.371 Y-21.176
X-184.521 Y-21.653
X-184.634 Y-21.94
X-184.749 Y-22.181
X-184.844 Y-22.349
X-184.851 Y-22.36
X-184.984 Y-22.517
X-185.152 Y-22.635
X-185.343 Y-22.71
X-185.547 Y-22.735
X-186.544
G2 X-186.807 Y-22.558 Z-7.289 I0.01 J0.3
G1 X-186.826 Y-22.503 Z-7.167 F1200
X-186.833 Y-22.446 Z-7.044
X-186.834 Y-22.425 Z-7
X-188.385 Y22.425
Y22.426
X-188.38 Y22.493 Z-7.145
X-188.359 Y22.558 Z-7.289
G2 X-188.096 Y22.736 Z-8 I0.274 J-0.122 F450
G1 X-187.109 Y22.735
X-186.959 Y22.728
X-186.811 Y22.702
X-186.666 Y22.663
X-186.526 Y22.611
X-186.384 Y22.546
X-186.223 Y22.459
X-186.061 Y22.356
X-185.875 Y22.218
X-185.691 Y22.062
X-185.473 Y21.849
X-185.264 Y21.614
X-185.018 Y21.296
X-184.778 Y20.936
X-184.527 Y20.496
X-184.239 Y19.901
X-183.989 Y19.275
X-183.707 Y18.401
X-183.447 Y17.346
X-183.256 Y16.276
X-183.11 Y15.199
X-182.996 Y14.119
X-182.907 Y13.036
X-182.835 Y11.951
X-182.778 Y10.866
X-182.733 Y9.78
X-182.697 Y8.694
X-182.669 Y7.607
X-182.647 Y6.521
X-182.631 Y5.434
X-182.618 Y4.347
X-182.608 Y3.261
X-182.601 Y2.174
X-182.596 Y1.087
X-182.592 Y0
X-182.588 Y-2.173
Y-4.347
X-182.589 Y-5.434
X-182.591 Y-6.52
X-182.595 Y-7.607
X-182.601 Y-8.694
X-182.61 Y-9.781
X-182.622 Y-10.868
X-182.639 Y-11.954
X-182.662 Y-13.041
X-182.692 Y-14.127
X-182.73 Y-15.213
X-182.781 Y-16.299
X-182.847 Y-17.384
X-182.934 Y-18.467
X-183.052 Y-19.547
X-183.209 Y-20.485
X-183.37 Y-21.161
X-183.521 Y-21.643
X-183.634 Y-21.933
X-183.749 Y-22.175
X-183.844 Y-22.344
X-183.854 Y-22.359
X-183.987 Y-22.516
X-184.154 Y-22.635
X-184.346 Y-22.71
X-184.55 Y-22.735
X-185.547
G2 X-185.81 Y-22.558 Z-7.289 I0.01 J0.3
G1 X-185.829 Y-22.503 Z-7.167 F1200
X-185.836 Y-22.446 Z-7.044
X-185.837 Y-22.425 Z-7
X-187.398 Y22.425
X-187.393 Y22.493 Z-7.145
X-187.372 Y22.558 Z-7.289
G2 X-187.109 Y22.735 Z-8 I0.274 J-0.122 F450
G1 X-186.121
X-185.972 Y22.728
X-185.824 Y22.703
X-185.679 Y22.664
X-185.538 Y22.613
X-185.396 Y22.549
X-185.236 Y22.463
X-185.074 Y22.361
X-184.887 Y22.224
X-184.703 Y22.069
X-184.49 Y21.862
X-184.282 Y21.63
X-184.036 Y21.315
X-183.796 Y20.959
X-183.547 Y20.525
X-183.26 Y19.938
X-183.01 Y19.321
X-182.728 Y18.457
X-182.463 Y17.403
X-182.269 Y16.333
X-182.121 Y15.257
X-182.005 Y14.176
X-181.914 Y13.093
X-181.841 Y12.009
X-181.784 Y10.924
X-181.737 Y9.838
X-181.701 Y8.752
X-181.672 Y7.665
X-181.65 Y6.579
X-181.632 Y5.492
X-181.619 Y4.405
X-181.609 Y3.319
X-181.602 Y2.232
X-181.597 Y1.145
X-181.593 Y0.058
X-181.59 Y-1.029
X-181.588 Y-3.202
X-181.589 Y-5.376
X-181.592 Y-6.463
X-181.596 Y-7.549
X-181.602 Y-8.636
X-181.611 Y-9.723
X-181.623 Y-10.81
X-181.64 Y-11.896
X-181.662 Y-12.983
X-181.692 Y-14.069
X-181.73 Y-15.155
X-181.78 Y-16.241
X-181.846 Y-17.326
X-181.931 Y-18.409
X-182.047 Y-19.49
X-182.202 Y-20.436
X-182.365 Y-21.132
X-182.516 Y-21.621
X-182.631 Y-21.918
X-182.747 Y-22.164
X-182.841 Y-22.335
X-182.856 Y-22.356
X-182.989 Y-22.514
X-183.157 Y-22.634
X-183.349 Y-22.709
X-183.554 Y-22.735
X-184.55
G2 X-184.814 Y-22.558 Z-7.289 I0.01 J0.3
G1 X-184.832 Y-22.503 Z-7.167 F1200
X-184.84 Y-22.446 Z-7.044
Y-22.425 Z-7
X-186.411 Y22.425
X-186.405 Y22.493 Z-7.145
X-186.385 Y22.558 Z-7.289
G2 X-186.121 Y22.735 Z-8 I0.274 J-0.122 F450
G1 X-185.134
X-184.984 Y22.728
X-184.836 Y22.704
X-184.691 Y22.666
X-184.55 Y22.615
X-184.408 Y22.552
X-184.25 Y22.468
X-184.088 Y22.367
X-183.902 Y22.232
X-183.718 Y22.078
X-183.507 Y21.875
X-183.298 Y21.644
X-183.055 Y21.335
X-182.814 Y20.98
X-182.567 Y20.555
X-182.281 Y19.975
X-182.03 Y19.363
X-181.748 Y18.511
X-181.479 Y17.458
X-181.282 Y16.389
X-181.131 Y15.313
X-181.014 Y14.232
X-180.922 Y13.149
X-180.848 Y12.065
X-180.789 Y10.98
X-180.742 Y9.894
X-180.705 Y8.808
X-180.675 Y7.722
X-180.652 Y6.635
X-180.634 Y5.548
X-180.621 Y4.462
X-180.611 Y3.375
X-180.603 Y2.288
X-180.597 Y1.201
X-180.593 Y0.115
X-180.59 Y-0.972
X-180.588 Y-3.146
Y-4.233
X-180.59 Y-5.319
X-180.592 Y-6.406
X-180.596 Y-7.493
X-180.602 Y-8.58
X-180.611 Y-9.666
X-180.623 Y-10.753
X-180.64 Y-11.84
X-180.662 Y-12.926
X-180.692 Y-14.013
X-180.73 Y-15.099
X-180.78 Y-16.185
X-180.844 Y-17.269
X-180.929 Y-18.353
X-181.043 Y-19.434
X-181.196 Y-20.394
X-181.36 Y-21.104
X-181.512 Y-21.599
X-181.628 Y-21.904
X-181.744 Y-22.153
X-181.839 Y-22.326
X-181.858 Y-22.354
X-181.991 Y-22.512
X-182.159 Y-22.633
X-182.352 Y-22.709
X-182.557 Y-22.735
X-183.554
G2 X-183.817 Y-22.557 Z-7.289 I0.01 J0.3
G1 X-183.836 Y-22.503 Z-7.167 F1200
X-183.843 Y-22.446 Z-7.044
X-183.844 Y-22.425 Z-7
X-185.424 Y22.425
X-185.418 Y22.493 Z-7.145
X-185.398 Y22.558 Z-7.289
G2 X-185.134 Y22.735 Z-8 I0.274 J-0.122 F450
G1 X-184.147
X-183.997 Y22.727
X-183.849 Y22.705
X-183.704 Y22.668
X-183.562 Y22.618
X-183.42 Y22.555
X-183.264 Y22.473
X-183.101 Y22.372
X-182.918 Y22.24
X-182.733 Y22.087
X-182.525 Y21.888
X-182.315 Y21.657
X-182.075 Y21.355
X-181.832 Y21
X-181.587 Y20.584
X-181.302 Y20.011
X-181.049 Y19.402
X-180.768 Y18.563
X-180.494 Y17.511
X-180.294 Y16.443
X-180.142 Y15.367
X-180.023 Y14.286
X-179.929 Y13.204
X-179.854 Y12.119
X-179.794 Y11.034
X-179.746 Y9.949
X-179.708 Y8.862
X-179.678 Y7.776
X-179.655 Y6.69
X-179.636 Y5.603
X-179.622 Y4.516
X-179.612 Y3.429
X-179.604 Y2.343
X-179.598 Y1.256
X-179.594 Y0.169
X-179.591 Y-0.918
X-179.588 Y-3.091
X-179.589 Y-4.178
X-179.59 Y-5.265
X-179.592 Y-6.352
X-179.596 Y-7.438
X-179.602 Y-8.525
X-179.611 Y-9.612
X-179.624 Y-10.699
X-179.64 Y-11.785
X-179.663 Y-12.872
X-179.692 Y-13.958
X-179.73 Y-15.044
X-179.779 Y-16.13
X-179.843 Y-17.215
X-179.927 Y-18.299
X-180.039 Y-19.38
X-180.19 Y-20.351
X-180.355 Y-21.075
X-180.507 Y-21.577
X-180.625 Y-21.889
X-180.742 Y-22.143
X-180.837 Y-22.316
X-180.859 Y-22.351
X-180.993 Y-22.511
X-181.161 Y-22.632
X-181.355 Y-22.709
X-181.561 Y-22.734
X-182.557 Y-22.735
G2 X-182.821 Y-22.557 Z-7.289 I0.01 J0.3
G1 X-182.839 Y-22.503 Z-7.167 F1200
X-182.847 Y-22.445 Z-7.044
Y-22.425 Z-7
X-184.436 Y22.424
Y22.425
X-184.431 Y22.493 Z-7.145
X-184.41 Y22.558 Z-7.289
G2 X-184.147 Y22.735 Z-8 I0.274 J-0.122 F450
G1 X-183.16
X-183.01 Y22.727
X-182.861 Y22.706
X-182.716 Y22.669
X-182.574 Y22.62
X-182.432 Y22.558
X-182.278 Y22.477
X-182.115 Y22.378
X-181.933 Y22.248
X-181.748 Y22.095
X-181.542 Y21.9
X-181.331 Y21.671
X-181.094 Y21.374
X-180.849 Y21.02
X-180.606 Y20.61
X-180.323 Y20.046
X-180.068 Y19.438
X-179.787 Y18.612
X-179.513 Y17.576
X-179.309 Y16.508
X-179.154 Y15.433
X-179.033 Y14.353
X-178.937 Y13.27
X-178.861 Y12.186
X-178.8 Y11.101
X-178.751 Y10.015
X-178.712 Y8.929
X-178.682 Y7.843
X-178.658 Y6.756
X-178.639 Y5.67
X-178.624 Y4.583
X-178.613 Y3.496
X-178.605 Y2.409
X-178.599 Y1.323
X-178.594 Y0.236
X-178.591 Y-0.851
X-178.59 Y-1.938
X-178.589 Y-4.111
X-178.59 Y-5.198
X-178.592 Y-6.285
X-178.597 Y-7.372
X-178.603 Y-8.458
X-178.611 Y-9.545
X-178.624 Y-10.632
X-178.64 Y-11.719
X-178.663 Y-12.805
X-178.692 Y-13.892
X-178.729 Y-14.978
X-178.778 Y-16.063
X-178.841 Y-17.148
X-178.923 Y-18.232
X-179.034 Y-19.313
X-179.183 Y-20.296
X-179.349 Y-21.04
X-179.5 Y-21.548
X-179.621 Y-21.872
X-179.739 Y-22.13
X-179.834 Y-22.306
X-179.861 Y-22.348
X-179.994 Y-22.509
X-180.163 Y-22.631
X-180.357 Y-22.708
X-180.564 Y-22.734
X-181.561
G2 X-181.824 Y-22.557 Z-7.289 I0.01 J0.3
G1 X-181.843 Y-22.502 Z-7.167 F1200
X-181.85 Y-22.445 Z-7.044
X-181.851 Y-22.424 Z-7
X-183.449 Y22.424
Y22.425
X-183.444 Y22.493 Z-7.145
X-183.423 Y22.557 Z-7.289
G2 X-183.16 Y22.735 Z-8 I0.274 J-0.122 F450
G1 X-182.173
X-182.023 Y22.727
X-181.874 Y22.707
X-181.729 Y22.671
X-181.587 Y22.622
X-181.444 Y22.561
X-181.292 Y22.482
X-181.129 Y22.383
X-180.949 Y22.256
X-180.763 Y22.104
X-180.559 Y21.912
X-180.347 Y21.683
X-180.113 Y21.392
X-179.867 Y21.04
X-179.626 Y20.636
X-179.343 Y20.081
X-179.086 Y19.474
X-178.807 Y18.664
X-178.532 Y17.64
X-178.324 Y16.573
X-178.166 Y15.498
X-178.043 Y14.418
X-177.946 Y13.335
X-177.868 Y12.251
X-177.806 Y11.166
X-177.756 Y10.081
X-177.717 Y8.995
X-177.685 Y7.908
X-177.66 Y6.822
X-177.641 Y5.735
X-177.626 Y4.648
X-177.615 Y3.562
X-177.606 Y2.475
X-177.6 Y1.388
X-177.595 Y0.301
X-177.592 Y-0.785
X-177.59 Y-1.872
X-177.589 Y-2.959
Y-4.046
X-177.59 Y-5.133
X-177.593 Y-6.219
X-177.597 Y-7.306
X-177.603 Y-8.393
X-177.612 Y-9.48
X-177.624 Y-10.566
X-177.64 Y-11.653
X-177.663 Y-12.74
X-177.691 Y-13.826
X-177.729 Y-14.912
X-177.777 Y-15.998
X-177.839 Y-17.083
X-177.92 Y-18.167
X-178.028 Y-19.248
X-178.176 Y-20.245
X-178.342 Y-21.005
X-178.493 Y-21.52
X-178.617 Y-21.855
X-178.735 Y-22.117
X-178.831 Y-22.295
X-178.863 Y-22.345
X-178.996 Y-22.507
X-179.165 Y-22.63
X-179.36 Y-22.708
X-179.567 Y-22.734
X-180.564
G2 X-180.828 Y-22.557 Z-7.289 I0.01 J0.3
G1 X-180.846 Y-22.502 Z-7.167 F1200
X-180.854 Y-22.445 Z-7.044
Y-22.424 Z-7
