(1001)
(Machine)
(  vendor: Autodesk)
(  description: Generic 3-axis)
(T1  D=3 CR=0 - ZMIN=-28 - flat end mill)
G90 G94
G17
G21
G28 G91 Z0
G90

(Adaptive4)
T1
S18000 M3
G54
G0 X-261.532 Y18.857
Z2
Z-7.39
G1 Z-7.69 F200
X-261.525 Y18.859 Z-7.757
X-261.503 Y18.865 Z-7.82
X-261.468 Y18.874 Z-7.877
X-261.422 Y18.885 Z-7.925
X-261.367 Y18.899 Z-7.96
X-261.306 Y18.915 Z-7.982
X-261.241 Y18.932 Z-7.99
G2 X-259.608 Y19.167 I1.9 J-7.419
G1 X-259.533
X-259.409 Y19.082
X-259.307 Y18.972
X-259.221 Y18.849
X-259.146 Y18.719
X-259.07 Y18.561
X-258.99 Y18.359
X-258.905 Y18.093
X-258.816 Y17.73
X-258.724 Y17.195
X-258.628 Y16.257
X-258.593 Y15.171
X-258.586 Y14.084
X-258.584 Y12.998
X-258.583 Y-22.104
X-258.612 Y-22.321
X-258.696 Y-22.522
X-258.829 Y-22.695
X-259.003 Y-22.828
X-259.206 Y-22.91
G2 X-259.505 Y-22.805 Z-7.279 I-0.066 J0.293
G1 X-259.542 Y-22.748 Z-7.135 F1200
X-259.564 Y-22.684 Z-6.99
G2 X-258.979 Y-22.552 I0.293 J0.066
X-259.232 Y-22.915 I-0.293 J-0.066
X-259.571 Y-22.63 I-0.04 J0.297
G1 X-261.539 Y23.059
G2 X-261.211 Y23.37 I0.3 J0.013
X-260.048 Y23.17 I-0.717 J-7.625
G1 X-259.916 Y23.135 Z-7.279
G2 X-259.595 Y23.04 Z-7.99 I-2.012 J-7.39 F200
G1 X-259.481 Y22.999
X-259.343 Y22.942
X-259.251 Y22.823
X-259.173 Y22.695
X-259.099 Y22.551
X-259.02 Y22.366
X-258.936 Y22.126
X-258.849 Y21.804
X-258.758 Y21.345
X-258.62 Y20.267
X-258.253 Y19.244
X-258.05 Y18.6
X-257.887 Y17.926
X-257.748 Y17.111
X-257.641 Y16.03
X-257.601 Y14.944
X-257.588 Y13.857
X-257.585 Y12.77
X-257.583 Y10.597
Y-20.92
X-257.589 Y-21.396
X-257.612 Y-21.671
X-257.646 Y-21.894
X-257.686 Y-22.075
X-257.72 Y-22.186
X-257.821 Y-22.405
X-257.981 Y-22.585
X-258.185 Y-22.712
X-258.418 Y-22.775
G2 X-258.701 Y-22.631 Z-7.279 I-0.026 J0.299
G1 X-258.729 Y-22.569 Z-7.135 F1200
X-258.742 Y-22.503 Z-6.99
X-258.743 Y-22.484
X-259.873 Y22.706
X-259.87 Y22.756
X-259.858 Y22.805
X-259.83 Y22.867 Z-7.135
X-259.789 Y22.921 Z-7.279
G2 X-259.481 Y22.999 Z-7.99 I0.216 J-0.208 F200
G1 X-259.309 Y22.937
X-259.062 Y22.873
X-258.917 Y22.835
X-258.794 Y22.75
X-258.681 Y22.651
X-258.579 Y22.541
X-258.483 Y22.421
X-258.391 Y22.287
X-258.29 Y22.116
X-258.177 Y21.89
X-257.76 Y20.886
X-257.407 Y19.858
X-257.121 Y18.914
X-256.912 Y18.002
X-256.743 Y16.929
X-256.649 Y15.846
X-256.608 Y14.76
X-256.591 Y13.674
X-256.586 Y12.587
X-256.584 Y11.5
X-256.583 Y4.979
Y-20.017
X-256.587 Y-20.822
X-256.62 Y-21.273
X-256.664 Y-21.575
X-256.716 Y-21.818
X-256.768 Y-21.997
X-256.838 Y-22.187
X-256.864 Y-22.247
X-256.992 Y-22.448
X-257.171 Y-22.605
X-257.387 Y-22.705
X-257.623 Y-22.74
X-258.075 Y-22.741
X-258.322 Y-22.764
X-258.418 Y-22.775
G2 X-258.701 Y-22.631 Z-7.279 I-0.026 J0.299
G1 X-258.729 Y-22.569 Z-7.135 F1200
X-258.742 Y-22.503 Z-6.99
X-258.743 Y-22.481
X-259.411 Y22.572
X-259.407 Y22.625
X-259.388 Y22.691 Z-7.135
X-259.355 Y22.75 Z-7.279
G2 X-259.062 Y22.873 Z-7.99 I0.245 J-0.173 F200
G1 X-258.816 Y22.824
X-258.569 Y22.794
X-258.421 Y22.768
X-258.281 Y22.715
X-258.149 Y22.643
X-258.026 Y22.558
X-257.905 Y22.459
X-257.766 Y22.326
X-257.61 Y22.156
X-257.456 Y21.963
X-257.273 Y21.697
X-257.048 Y21.317
X-256.804 Y20.83
X-256.525 Y20.163
X-256.257 Y19.371
X-256.017 Y18.457
X-255.834 Y17.495
X-255.705 Y16.415
X-255.637 Y15.331
X-255.605 Y14.244
X-255.591 Y13.158
X-255.586 Y12.071
X-255.584 Y10.984
X-255.583 Y5.55
Y-19.446
X-255.586 Y-20.405
X-255.626 Y-20.954
X-255.684 Y-21.363
X-255.744 Y-21.643
X-255.818 Y-21.9
X-255.884 Y-22.08
X-255.958 Y-22.247
X-255.984 Y-22.296
X-256.116 Y-22.479
X-256.291 Y-22.62
X-256.497 Y-22.709
X-256.72 Y-22.739
X-257.335
X-257.623 Y-22.74
G2 X-257.887 Y-22.563 Z-7.279 I0.01 J0.3
G1 X-257.906 Y-22.506 Z-7.152 F1200
X-257.913 Y-22.447 Z-7.024
Y-22.431 Z-6.99
X-258.895 Y22.488
X-258.894 Y22.521
X-258.88 Y22.588 Z-7.135
X-258.852 Y22.649 Z-7.279
G2 X-258.569 Y22.794 Z-7.99 I0.257 J-0.155 F200
G1 X-258.322 Y22.764
X-258.075 Y22.741
X-257.94
X-257.79 Y22.733
X-257.643 Y22.701
X-257.502 Y22.651
X-257.366 Y22.587
X-257.236 Y22.512
X-257.102 Y22.421
X-256.961 Y22.309
X-256.795 Y22.159
X-256.634 Y21.992
X-256.449 Y21.77
X-256.246 Y21.49
X-256.04 Y21.159
X-255.806 Y20.718
X-255.572 Y20.192
X-255.337 Y19.548
X-255.104 Y18.74
X-254.899 Y17.783
X-254.746 Y16.707
X-254.66 Y15.624
X-254.617 Y14.538
X-254.597 Y13.451
X-254.588 Y12.364
X-254.585 Y11.278
X-254.583 Y9.104
Y-19.153
X-254.591 Y-20.14
X-254.638 Y-20.748
X-254.707 Y-21.22
X-254.786 Y-21.58
X-254.86 Y-21.833
X-254.944 Y-22.059
X-255.017 Y-22.222
X-255.059 Y-22.3
X-255.191 Y-22.481
X-255.366 Y-22.621
X-255.572 Y-22.709
X-255.794 Y-22.739
X-256.72
G2 X-256.984 Y-22.562 Z-7.279 I0.01 J0.3
G1 X-257.002 Y-22.506 Z-7.154 F1200
X-257.01 Y-22.447 Z-7.029
Y-22.429 Z-6.99
X-258.23 Y22.432
Y22.433 Z-6.992
X-258.224 Y22.5 Z-7.136
X-258.203 Y22.564 Z-7.279
G2 X-257.94 Y22.741 Z-7.99 I0.273 J-0.123 F200
G1 X-257.138 Y22.739
X-256.988 Y22.731
X-256.84 Y22.706
X-256.697 Y22.664
X-256.557 Y22.608
X-256.423 Y22.541
X-256.286 Y22.459
X-256.131 Y22.352
X-255.977 Y22.229
X-255.795 Y22.061
X-255.621 Y21.878
X-255.415 Y21.628
X-255.222 Y21.357
X-254.993 Y20.985
X-254.782 Y20.581
X-254.545 Y20.038
X-254.304 Y19.362
X-254.097 Y18.625
X-253.896 Y17.652
X-253.75 Y16.575
X-253.666 Y15.491
X-253.622 Y14.405
X-253.6 Y13.319
X-253.59 Y12.232
X-253.586 Y11.145
X-253.584 Y10.058
X-253.583 Y4.624
Y-18.198
X-253.586 Y-19.285
X-253.613 Y-20.158
X-253.677 Y-20.786
X-253.757 Y-21.249
X-253.846 Y-21.614
X-253.929 Y-21.877
X-254.016 Y-22.096
X-254.095 Y-22.26
X-254.128 Y-22.317
X-254.26 Y-22.492
X-254.433 Y-22.626
X-254.635 Y-22.71
X-254.853 Y-22.739
X-255.794
G2 X-256.057 Y-22.562 Z-7.279 I0.011 J0.3
G1 X-256.075 Y-22.506 Z-7.155 F1200
X-256.083 Y-22.448 Z-7.031
Y-22.429 Z-6.99
X-257.427 Y22.429
Y22.43 Z-6.993
X-257.422 Y22.497 Z-7.136
X-257.401 Y22.562 Z-7.279
G2 X-257.138 Y22.739 Z-7.99 I0.274 J-0.122 F200
G1 X-256.212
X-256.062 Y22.732
X-255.915 Y22.704
X-255.771 Y22.66
X-255.632 Y22.605
X-255.494 Y22.537
X-255.351 Y22.453
X-255.195 Y22.347
X-255.024 Y22.213
X-254.849 Y22.054
X-254.661 Y21.858
X-254.463 Y21.623
X-254.254 Y21.334
X-254.031 Y20.977
X-253.809 Y20.56
X-253.57 Y20.024
X-253.35 Y19.42
X-253.132 Y18.665
X-252.925 Y17.702
X-252.771 Y16.626
X-252.681 Y15.543
X-252.631 Y14.457
X-252.605 Y13.371
X-252.593 Y12.284
X-252.587 Y11.197
X-252.585 Y10.11
X-252.583 Y6.85
Y-17.06
X-252.584 Y-18.146
X-252.592 Y-19.233
X-252.634 Y-20.146
X-252.706 Y-20.77
X-252.798 Y-21.262
X-252.895 Y-21.636
X-252.983 Y-21.897
X-253.075 Y-22.119
X-253.156 Y-22.283
X-253.183 Y-22.328
X-253.316 Y-22.499
X-253.488 Y-22.629
X-253.687 Y-22.711
X-253.902 Y-22.739
X-254.853
G2 X-255.116 Y-22.562 Z-7.279 I0.01 J0.3
G1 X-255.134 Y-22.506 Z-7.155 F1200
X-255.142 Y-22.448 Z-7.031
Y-22.429 Z-6.99
X-256.501 Y22.429
Y22.43 Z-6.993
X-256.496 Y22.497 Z-7.136
X-256.475 Y22.562 Z-7.279
G2 X-256.212 Y22.739 Z-7.99 I0.274 J-0.122 F200
G1 X-255.286
X-255.136 Y22.732
X-254.988 Y22.706
X-254.844 Y22.664
X-254.704 Y22.611
X-254.568 Y22.546
X-254.419 Y22.461
X-254.264 Y22.359
X-254.09 Y22.226
X-253.916 Y22.073
X-253.722 Y21.876
X-253.526 Y21.648
X-253.311 Y21.359
X-253.089 Y21.015
X-252.871 Y20.618
X-252.629 Y20.093
X-252.41 Y19.517
X-252.185 Y18.774
X-251.97 Y17.834
X-251.801 Y16.76
X-251.701 Y15.678
X-251.643 Y14.593
X-251.612 Y13.507
X-251.596 Y12.42
X-251.589 Y11.333
X-251.586 Y10.246
X-251.584 Y8.073
X-251.583 Y-16.923
X-251.585 Y-18.01
X-251.596 Y-19.097
X-251.644 Y-20.043
X-251.726 Y-20.715
X-251.826 Y-21.235
X-251.929 Y-21.625
X-252.019 Y-21.889
X-252.117 Y-22.121
X-252.2 Y-22.286
X-252.227 Y-22.332
X-252.36 Y-22.501
X-252.531 Y-22.63
X-252.73 Y-22.712
X-252.944 Y-22.739
X-253.902
G2 X-254.165 Y-22.562 Z-7.279 I0.011 J0.3
G1 X-254.184 Y-22.507 Z-7.155 F1200
X-254.191 Y-22.449 Z-7.031
X-254.192 Y-22.429 Z-6.99
X-255.575 Y22.429
Y22.43 Z-6.992
X-255.57 Y22.497 Z-7.136
X-255.549 Y22.562 Z-7.279
G2 X-255.286 Y22.739 Z-7.99 I0.274 J-0.122 F200
G1 X-254.373
X-254.223 Y22.732
X-254.075 Y22.711
X-253.929 Y22.674
X-253.788 Y22.624
X-253.651 Y22.563
X-253.503 Y22.483
X-253.35 Y22.388
X-253.177 Y22.262
X-253.005 Y22.117
X-252.812 Y21.931
X-252.619 Y21.716
X-252.404 Y21.441
X-252.185 Y21.117
X-251.967 Y20.74
X-251.721 Y20.239
X-251.504 Y19.705
X-251.269 Y18.99
X-251.041 Y18.089
X-250.85 Y17.035
X-250.732 Y15.955
X-250.662 Y14.87
X-250.623 Y13.784
X-250.602 Y12.698
X-250.592 Y11.611
X-250.587 Y10.524
X-250.585 Y9.437
X-250.583 Y6.177
Y-16.646
X-250.585 Y-17.733
X-250.594 Y-18.819
X-250.639 Y-19.805
X-250.73 Y-20.589
X-250.83 Y-21.13
X-250.943 Y-21.564
X-251.038 Y-21.848
X-251.14 Y-22.095
X-251.225 Y-22.265
X-251.261 Y-22.328
X-251.394 Y-22.499
X-251.566 Y-22.629
X-251.766 Y-22.712
X-251.98 Y-22.74
X-252.944 Y-22.739
G2 X-253.207 Y-22.562 Z-7.279 I0.01 J0.3
G1 X-253.225 Y-22.507 Z-7.156 F1200
X-253.233 Y-22.449 Z-7.032
X-253.234 Y-22.429 Z-6.99
X-254.663 Y22.429
Y22.43 Z-6.992
X-254.657 Y22.497 Z-7.135
X-254.637 Y22.562 Z-7.279
G2 X-254.373 Y22.739 Z-7.99 I0.274 J-0.122 F200
G1 X-253.386
X-253.236 Y22.732
X-253.088 Y22.708
X-252.944 Y22.668
X-252.803 Y22.616
X-252.659 Y22.55
X-252.516 Y22.471
X-252.349 Y22.364
X-252.187 Y22.242
X-251.997 Y22.079
X-251.816 Y21.9
X-251.6 Y21.654
X-251.397 Y21.389
X-251.173 Y21.049
X-250.943 Y20.642
X-250.715 Y20.163
X-250.461 Y19.516
X-250.236 Y18.807
X-250.023 Y17.922
X-249.842 Y16.851
X-249.73 Y15.77
X-249.663 Y14.685
X-249.624 Y13.599
X-249.604 Y12.512
X-249.593 Y11.426
X-249.587 Y10.339
X-249.585 Y9.252
X-249.583 Y7.078
Y-15.744
X-249.584 Y-16.831
X-249.588 Y-17.918
X-249.61 Y-19.004
X-249.675 Y-20.003
X-249.768 Y-20.688
X-249.881 Y-21.235
X-249.994 Y-21.637
X-250.091 Y-21.91
X-250.192 Y-22.14
X-250.279 Y-22.307
X-250.301 Y-22.342
X-250.434 Y-22.507
X-250.604 Y-22.634
X-250.801 Y-22.713
X-251.011 Y-22.74
X-251.98
G2 X-252.244 Y-22.562 Z-7.279 I0.011 J0.3
G1 X-252.262 Y-22.507 Z-7.156 F1200
X-252.27 Y-22.449 Z-7.032
Y-22.429 Z-6.99
X-253.675 Y22.429
Y22.43 Z-6.992
X-253.67 Y22.498 Z-7.136
X-253.649 Y22.562 Z-7.279
G2 X-253.386 Y22.739 Z-7.99 I0.274 J-0.122 F200
G1 X-252.399 Y22.74
X-252.249 Y22.732
X-252.101 Y22.705
X-251.957 Y22.664
X-251.817 Y22.61
X-251.672 Y22.542
X-251.527 Y22.46
X-251.361 Y22.351
X-251.192 Y22.223
X-251.003 Y22.057
X-250.814 Y21.867
X-250.599 Y21.618
X-250.397 Y21.348
X-250.155 Y20.974
X-249.932 Y20.57
X-249.693 Y20.056
X-249.439 Y19.394
X-249.225 Y18.696
X-249.009 Y17.761
X-248.837 Y16.688
X-248.73 Y15.606
X-248.665 Y14.522
X-248.626 Y13.435
X-248.605 Y12.349
X-248.594 Y11.262
X-248.588 Y10.175
X-248.585 Y9.088
X-248.584 Y6.915
X-248.583 Y-15.908
X-248.585 Y-16.995
X-248.595 Y-18.081
X-248.629 Y-19.168
X-248.705 Y-20.111
X-248.806 Y-20.777
X-248.924 Y-21.307
X-249.039 Y-21.695
X-249.138 Y-21.958
X-249.237 Y-22.176
X-249.326 Y-22.341
X-249.334 Y-22.353
X-249.467 Y-22.514
X-249.636 Y-22.637
X-249.831 Y-22.714
X-250.038 Y-22.74
X-251.011
G2 X-251.275 Y-22.562 Z-7.279 I0.01 J0.3
G1 X-251.293 Y-22.507 Z-7.155 F1200
X-251.3 Y-22.449 Z-7.031
X-251.301 Y-22.43 Z-6.99
X-252.688 Y22.429
Y22.43 Z-6.992
X-252.683 Y22.498 Z-7.136
X-252.662 Y22.562 Z-7.279
G2 X-252.399 Y22.74 Z-7.99 I0.274 J-0.122 F200
G1 X-251.412
X-251.262 Y22.732
X-251.115 Y22.703
X-250.971 Y22.66
X-250.831 Y22.605
X-250.687 Y22.535
X-250.538 Y22.45
X-250.373 Y22.34
X-250.195 Y22.203
X-250.009 Y22.036
X-249.813 Y21.836
X-249.601 Y21.586
X-249.388 Y21.299
X-249.143 Y20.913
X-248.92 Y20.501
X-248.679 Y19.973
X-248.426 Y19.297
X-248.215 Y18.585
X-247.996 Y17.608
X-247.833 Y16.533
X-247.73 Y15.451
X-247.666 Y14.366
X-247.628 Y13.28
X-247.606 Y12.194
X-247.595 Y11.107
X-247.589 Y10.02
X-247.586 Y8.933
X-247.584 Y6.76
X-247.583 Y-14.976
X-247.584 Y-16.063
X-247.588 Y-17.15
X-247.604 Y-18.236
X-247.65 Y-19.322
X-247.739 Y-20.231
X-247.847 Y-20.877
X-247.969 Y-21.387
X-248.085 Y-21.756
X-248.185 Y-22.011
X-248.281 Y-22.214
X-248.338 Y-22.315
X-248.47 Y-22.491
X-248.644 Y-22.626
X-248.846 Y-22.711
X-249.064 Y-22.74
X-250.038
G2 X-250.301 Y-22.562 Z-7.279 I0.011 J0.3
G1 X-250.32 Y-22.507 Z-7.155 F1200
X-250.327 Y-22.449 Z-7.031
X-250.328 Y-22.43 Z-6.99
X-251.701 Y22.43
Y22.431 Z-6.992
X-251.696 Y22.498 Z-7.136
X-251.675 Y22.562 Z-7.279
G2 X-251.412 Y22.74 Z-7.99 I0.274 J-0.122 F200
G1 X-250.474
X-250.325 Y22.732
X-250.177 Y22.708
X-250.032 Y22.669
X-249.891 Y22.616
X-249.755 Y22.554
X-249.599 Y22.469
X-249.446 Y22.371
X-249.264 Y22.236
X-249.087 Y22.084
X-248.882 Y21.883
X-248.687 Y21.663
X-248.462 Y21.369
X-248.242 Y21.039
X-248.001 Y20.614
X-247.749 Y20.089
X-247.529 Y19.537
X-247.288 Y18.78
X-247.059 Y17.843
X-246.875 Y16.772
X-246.758 Y15.692
X-246.684 Y14.607
X-246.64 Y13.522
X-246.613 Y12.435
X-246.599 Y11.348
X-246.591 Y10.262
X-246.587 Y9.175
X-246.585 Y8.088
X-246.583 Y4.828
Y-14.735
X-246.584 Y-15.821
X-246.588 Y-16.908
X-246.603 Y-17.995
X-246.642 Y-19.081
X-246.725 Y-20.023
X-246.846 Y-20.781
X-246.966 Y-21.305
X-247.086 Y-21.696
X-247.194 Y-21.979
X-247.288 Y-22.182
X-247.386 Y-22.359
X-247.519 Y-22.517
X-247.687 Y-22.638
X-247.88 Y-22.714
X-248.086 Y-22.74
X-249.064
G2 X-249.328 Y-22.562 Z-7.279 I0.01 J0.3
G1 X-249.346 Y-22.507 Z-7.156 F1200
X-249.354 Y-22.45 Z-7.032
Y-22.43 Z-6.99
X-250.764 Y22.43
Y22.431 Z-6.992
X-250.758 Y22.498 Z-7.136
X-250.738 Y22.562 Z-7.279
G2 X-250.474 Y22.74 Z-7.99 I0.274 J-0.122 F200
G1 X-249.487
X-249.337 Y22.732
X-249.19 Y22.706
X-249.045 Y22.666
X-248.905 Y22.613
X-248.76 Y22.545
X-248.611 Y22.462
X-248.445 Y22.354
X-248.274 Y22.225
X-248.085 Y22.061
X-247.89 Y21.867
X-247.675 Y21.62
X-247.46 Y21.335
X-247.222 Y20.971
X-247 Y20.572
X-246.755 Y20.053
X-246.494 Y19.382
X-246.275 Y18.676
X-246.049 Y17.717
X-245.873 Y16.645
X-245.759 Y15.564
X-245.686 Y14.479
X-245.642 Y13.394
X-245.615 Y12.307
X-245.6 Y11.22
X-245.592 Y10.134
X-245.587 Y9.047
X-245.585 Y7.96
X-245.583 Y4.7
X-245.584 Y-14.863
X-245.585 Y-15.949
X-245.592 Y-17.036
X-245.612 Y-18.123
X-245.663 Y-19.208
X-245.762 Y-20.184
X-245.877 Y-20.853
X-246.007 Y-21.383
X-246.128 Y-21.76
X-246.229 Y-22.015
X-246.328 Y-22.221
X-246.384 Y-22.319
X-246.516 Y-22.493
X-246.689 Y-22.627
X-246.891 Y-22.711
X-247.108 Y-22.74
X-248.086
G2 X-248.349 Y-22.563 Z-7.279 I0.01 J0.3
G1 X-248.368 Y-22.507 Z-7.156 F1200
X-248.375 Y-22.45 Z-7.032
X-248.376 Y-22.43 Z-6.99
X-249.777 Y22.43
Y22.431 Z-6.992
X-249.771 Y22.498 Z-7.136
X-249.751 Y22.562 Z-7.279
G2 X-249.487 Y22.74 Z-7.99 I0.274 J-0.122 F200
G1 X-248.561
X-248.411 Y22.732
X-248.263 Y22.713
X-248.117 Y22.677
X-247.975 Y22.628
X-247.838 Y22.569
X-247.684 Y22.488
X-247.532 Y22.395
X-247.352 Y22.267
X-247.178 Y22.124
X-246.977 Y21.933
X-246.783 Y21.723
X-246.56 Y21.443
X-246.341 Y21.127
X-246.098 Y20.717
X-245.845 Y20.214
X-245.621 Y19.68
X-245.371 Y18.945
X-245.131 Y18.037
X-244.927 Y16.97
X-244.796 Y15.891
X-244.711 Y14.808
X-244.657 Y13.722
X-244.625 Y12.636
X-244.606 Y11.549
X-244.595 Y10.462
X-244.589 Y9.376
X-244.586 Y8.289
X-244.584 Y6.115
X-244.583 Y-13.447
Y-14.534
X-244.585 Y-15.621
X-244.59 Y-16.707
X-244.607 Y-17.794
X-244.649 Y-18.88
X-244.732 Y-19.874
X-244.855 Y-20.665
X-244.985 Y-21.241
X-245.112 Y-21.663
X-245.22 Y-21.95
X-245.32 Y-22.167
X-245.414 Y-22.34
X-245.424 Y-22.356
X-245.557 Y-22.516
X-245.726 Y-22.638
X-245.92 Y-22.714
X-246.126 Y-22.74
X-247.108
G2 X-247.372 Y-22.563 Z-7.279 I0.011 J0.3
G1 X-247.39 Y-22.508 Z-7.156 F1200
X-247.397 Y-22.45 Z-7.032
X-247.398 Y-22.43 Z-6.99
X-248.851 Y22.43
Z-6.991
X-248.845 Y22.498 Z-7.135
X-248.825 Y22.563 Z-7.279
G2 X-248.561 Y22.74 Z-7.99 I0.274 J-0.122 F200
G1 X-247.574
X-247.424 Y22.733
X-247.276 Y22.712
X-247.13 Y22.675
X-246.989 Y22.626
X-246.844 Y22.562
X-246.702 Y22.486
X-246.535 Y22.383
X-246.371 Y22.265
X-246.181 Y22.107
X-245.993 Y21.927
X-245.775 Y21.688
X-245.566 Y21.423
X-245.332 Y21.081
X-245.104 Y20.693
X-244.86 Y20.202
X-244.592 Y19.555
X-244.366 Y18.879
X-244.13 Y17.968
X-243.931 Y16.9
X-243.801 Y15.821
X-243.715 Y14.738
X-243.661 Y13.652
X-243.628 Y12.566
X-243.608 Y11.479
X-243.596 Y10.393
X-243.59 Y9.306
X-243.586 Y8.219
X-243.584 Y6.045
X-243.583 Y-6.996
X-243.584 Y-14.604
X-243.586 Y-15.69
X-243.594 Y-16.777
X-243.615 Y-17.864
X-243.664 Y-18.949
X-243.758 Y-19.965
X-243.884 Y-20.735
X-244.015 Y-21.293
X-244.143 Y-21.706
X-244.245 Y-21.97
X-244.35 Y-22.193
X-244.445 Y-22.362
X-244.578 Y-22.52
X-244.746 Y-22.64
X-244.938 Y-22.715
X-245.143 Y-22.74
X-246.126
G2 X-246.39 Y-22.563 Z-7.279 I0.01 J0.3
G1 X-246.408 Y-22.508 Z-7.156 F1200
X-246.416 Y-22.45 Z-7.032
Y-22.43 Z-6.99
X-247.863 Y22.43
Y22.431 Z-6.991
X-247.858 Y22.498 Z-7.135
X-247.837 Y22.563 Z-7.279
G2 X-247.574 Y22.74 Z-7.99 I0.274 J-0.122 F200
G1 X-246.587
X-246.437 Y22.733
X-246.289 Y22.711
X-246.143 Y22.673
X-246.002 Y22.623
X-245.858 Y22.558
X-245.714 Y22.482
X-245.548 Y22.378
X-245.378 Y22.255
X-245.19 Y22.097
X-245 Y21.914
X-244.784 Y21.675
X-244.577 Y21.411
X-244.329 Y21.045
X-244.102 Y20.656
X-243.856 Y20.157
X-243.592 Y19.511
X-243.367 Y18.831
X-243.13 Y17.902
X-242.935 Y16.833
X-242.805 Y15.753
X-242.72 Y14.67
X-242.665 Y13.585
X-242.631 Y12.498
X-242.61 Y11.412
X-242.598 Y10.325
X-242.591 Y9.238
X-242.587 Y8.151
X-242.584 Y5.978
X-242.583 Y-2.716
Y-13.584
X-242.584 Y-14.671
X-242.588 Y-15.758
X-242.598 Y-16.845
X-242.624 Y-17.931
X-242.679 Y-19.017
X-242.779 Y-20.021
X-242.908 Y-20.783
X-243.04 Y-21.327
X-243.168 Y-21.733
X-243.271 Y-21.992
X-243.374 Y-22.209
X-243.435 Y-22.317
X-243.568 Y-22.492
X-243.741 Y-22.627
X-243.943 Y-22.712
X-244.161 Y-22.74
X-245.143
G2 X-245.406 Y-22.563 Z-7.279 I0.01 J0.3
G1 X-245.425 Y-22.508 Z-7.156 F1200
X-245.432 Y-22.45 Z-7.032
X-245.433 Y-22.43 Z-6.99
X-246.876 Y22.43
Y22.431 Z-6.991
X-246.871 Y22.498 Z-7.135
X-246.85 Y22.563 Z-7.279
G2 X-246.587 Y22.74 Z-7.99 I0.274 J-0.122 F200
G1 X-245.6
X-245.45 Y22.733
X-245.302 Y22.71
X-245.157 Y22.671
X-245.015 Y22.621
X-244.871 Y22.556
X-244.726 Y22.478
X-244.561 Y22.374
X-244.387 Y22.246
X-244.198 Y22.087
X-244.005 Y21.9
X-243.79 Y21.66
X-243.578 Y21.388
X-243.33 Y21.019
X-243.103 Y20.626
X-242.856 Y20.12
X-242.593 Y19.473
X-242.367 Y18.778
X-242.128 Y17.831
X-241.937 Y16.761
X-241.809 Y15.682
X-241.724 Y14.598
X-241.669 Y13.513
X-241.633 Y12.427
X-241.612 Y11.34
X-241.599 Y10.253
X-241.591 Y9.167
X-241.587 Y8.08
X-241.585 Y6.993
X-241.583 Y3.733
X-241.584 Y-13.656
X-241.585 Y-14.743
X-241.59 Y-15.83
X-241.603 Y-16.916
X-241.634 Y-18.003
X-241.695 Y-19.088
X-241.8 Y-20.085
X-241.932 Y-20.829
X-242.066 Y-21.367
X-242.186 Y-21.738
X-242.3 Y-22.022
X-242.394 Y-22.215
X-242.456 Y-22.322
X-242.588 Y-22.496
X-242.761 Y-22.628
X-242.962 Y-22.712
X-243.178 Y-22.741
X-244.161 Y-22.74
G2 X-244.424 Y-22.563 Z-7.279 I0.01 J0.3
G1 X-244.443 Y-22.508 Z-7.156 F1200
X-244.45 Y-22.45 Z-7.032
X-244.451 Y-22.43 Z-6.99
X-245.889 Y22.43
Y22.431 Z-6.991
X-245.883 Y22.498 Z-7.135
X-245.863 Y22.563 Z-7.279
G2 X-245.6 Y22.74 Z-7.99 I0.274 J-0.122 F200
G1 X-244.612
X-244.463 Y22.733
X-244.315 Y22.709
X-244.17 Y22.67
X-244.029 Y22.619
X-243.885 Y22.553
X-243.737 Y22.474
X-243.573 Y22.369
X-243.395 Y22.239
X-243.208 Y22.08
X-243.012 Y21.889
X-242.798 Y21.649
X-242.583 Y21.372
X-242.336 Y21.002
X-242.107 Y20.604
X-241.858 Y20.089
X-241.599 Y19.445
X-241.368 Y18.731
X-241.129 Y17.768
X-240.94 Y16.698
X-240.813 Y15.619
X-240.728 Y14.535
X-240.672 Y13.45
X-240.636 Y12.364
X-240.614 Y11.277
X-240.6 Y10.19
X-240.592 Y9.104
X-240.588 Y8.017
X-240.586 Y6.93
X-240.584 Y4.757
X-240.583 Y-12.632
X-240.584 Y-13.719
X-240.586 Y-14.806
X-240.593 Y-15.893
X-240.609 Y-16.979
X-240.643 Y-18.065
X-240.71 Y-19.15
X-240.82 Y-20.137
X-240.953 Y-20.863
X-241.089 Y-21.398
X-241.208 Y-21.758
X-241.323 Y-22.038
X-241.416 Y-22.228
X-241.474 Y-22.327
X-241.606 Y-22.498
X-241.779 Y-22.63
X-241.979 Y-22.713
X-242.194 Y-22.741
X-243.178
G2 X-243.442 Y-22.563 Z-7.279 I0.011 J0.3
G1 X-243.46 Y-22.508 Z-7.156 F1200
X-243.468 Y-22.45 Z-7.032
Y-22.431 Z-6.99
X-244.902 Y22.43
Y22.431 Z-6.991
X-244.896 Y22.498 Z-7.135
X-244.876 Y22.563 Z-7.279
G2 X-244.612 Y22.74 Z-7.99 I0.274 J-0.122 F200
G1 X-243.625 Y22.741
X-243.475 Y22.733
X-243.327 Y22.709
X-243.183 Y22.669
X-243.042 Y22.617
X-242.898 Y22.552
X-242.749 Y22.471
X-242.585 Y22.366
X-242.406 Y22.234
X-242.219 Y22.075
X-242.021 Y21.88
X-241.808 Y21.641
X-241.59 Y21.358
X-241.344 Y20.989
X-241.115 Y20.587
X-240.862 Y20.063
X-240.606 Y19.421
X-240.371 Y18.69
X-240.13 Y17.714
X-239.944 Y16.643
X-239.818 Y15.564
X-239.733 Y14.48
X-239.676 Y13.395
X-239.639 Y12.309
X-239.616 Y11.222
X-239.602 Y10.135
X-239.593 Y9.049
X-239.589 Y7.962
X-239.586 Y6.875
X-239.584 Y4.701
X-239.583 Y-11.6
X-239.585 Y-13.774
X-239.588 Y-14.861
X-239.596 Y-15.948
X-239.615 Y-17.034
X-239.653 Y-18.12
X-239.724 Y-19.205
X-239.838 Y-20.179
X-239.973 Y-20.896
X-240.111 Y-21.425
X-240.229 Y-21.776
X-240.344 Y-22.053
X-240.438 Y-22.24
X-240.491 Y-22.33
X-240.624 Y-22.501
X-240.796 Y-22.631
X-240.995 Y-22.713
X-241.209 Y-22.741
X-242.194
G2 X-242.458 Y-22.563 Z-7.279 I0.011 J0.3
G1 X-242.476 Y-22.508 Z-7.156 F1200
X-242.484 Y-22.45 Z-7.032
Y-22.431 Z-6.99
X-243.915 Y22.43
Y22.431 Z-6.991
X-243.909 Y22.499 Z-7.135
X-243.889 Y22.563 Z-7.279
G2 X-243.625 Y22.741 Z-7.99 I0.274 J-0.122 F200
G1 X-242.638
X-242.488 Y22.733
X-242.34 Y22.708
X-242.196 Y22.668
X-242.055 Y22.616
X-241.912 Y22.551
X-241.76 Y22.468
X-241.597 Y22.363
X-241.417 Y22.229
X-241.23 Y22.07
X-241.031 Y21.874
X-240.819 Y21.634
X-240.598 Y21.347
X-240.353 Y20.978
X-240.122 Y20.572
X-239.867 Y20.04
X-239.612 Y19.399
X-239.374 Y18.652
X-239.133 Y17.663
X-238.949 Y16.592
X-238.823 Y15.513
X-238.737 Y14.429
X-238.68 Y13.344
X-238.642 Y12.258
X-238.618 Y11.172
X-238.603 Y10.085
X-238.594 Y8.998
X-238.589 Y7.911
X-238.586 Y6.825
X-238.584 Y4.651
X-238.583 Y-6.217
X-238.584 Y-12.738
X-238.585 Y-13.825
X-238.589 Y-14.911
X-238.599 Y-15.998
X-238.621 Y-17.085
X-238.663 Y-18.171
X-238.738 Y-19.255
X-238.857 Y-20.222
X-238.993 Y-20.928
X-239.133 Y-21.451
X-239.25 Y-21.794
X-239.365 Y-22.067
X-239.458 Y-22.252
X-239.507 Y-22.334
X-239.64 Y-22.503
X-239.812 Y-22.632
X-240.01 Y-22.713
X-240.223 Y-22.741
X-241.209
G2 X-241.473 Y-22.563 Z-7.279 I0.011 J0.3
G1 X-241.491 Y-22.508 Z-7.156 F1200
X-241.499 Y-22.451 Z-7.032
Y-22.431 Z-6.99
X-242.927 Y22.431
Z-6.992
X-242.922 Y22.499 Z-7.136
X-242.901 Y22.563 Z-7.279
G2 X-242.638 Y22.741 Z-7.99 I0.274 J-0.122 F200
G1 X-241.651
X-241.501 Y22.733
X-241.353 Y22.708
X-241.209 Y22.668
X-241.068 Y22.615
X-240.925 Y22.549
X-240.772 Y22.466
X-240.609 Y22.361
X-240.428 Y22.226
X-240.242 Y22.066
X-240.041 Y21.868
X-239.829 Y21.628
X-239.606 Y21.337
X-239.362 Y20.968
X-239.13 Y20.558
X-238.872 Y20.018
X-238.619 Y19.378
X-238.378 Y18.616
X-238.135 Y17.617
X-237.953 Y16.546
X-237.828 Y15.466
X-237.742 Y14.383
X-237.684 Y13.298
X-237.645 Y12.212
X-237.62 Y11.125
X-237.605 Y10.038
X-237.595 Y8.952
X-237.59 Y7.865
X-237.587 Y6.778
X-237.584 Y4.605
X-237.583 Y-4.09
Y-11.697
X-237.584 Y-12.784
X-237.586 Y-13.871
X-237.591 Y-14.958
X-237.603 Y-16.044
X-237.627 Y-17.131
X-237.673 Y-18.217
X-237.752 Y-19.301
X-237.874 Y-20.26
X-238.012 Y-20.958
X-238.152 Y-21.475
X-238.269 Y-21.81
X-238.384 Y-22.081
X-238.477 Y-22.263
X-238.523 Y-22.338
X-238.655 Y-22.505
X-238.827 Y-22.633
X-239.025 Y-22.714
X-239.237 Y-22.741
X-240.223
G2 X-240.487 Y-22.564 Z-7.279 I0.01 J0.3
G1 X-240.505 Y-22.508 Z-7.156 F1200
X-240.513 Y-22.451 Z-7.032
Y-22.431 Z-6.99
X-241.94 Y22.431
Z-6.992
X-241.935 Y22.499 Z-7.136
X-241.914 Y22.563 Z-7.279
G2 X-241.651 Y22.741 Z-7.99 I0.274 J-0.122 F200
G1 X-240.664
X-240.514 Y22.733
X-240.366 Y22.708
X-240.222 Y22.667
X-240.081 Y22.615
X-239.938 Y22.548
X-239.784 Y22.464
X-239.621 Y22.359
X-239.439 Y22.223
X-239.254 Y22.063
X-239.051 Y21.862
X-238.84 Y21.623
X-238.615 Y21.328
X-238.372 Y20.959
X-238.138 Y20.545
X-237.878 Y19.998
X-237.626 Y19.358
X-237.382 Y18.584
X-237.139 Y17.575
X-236.958 Y16.503
X-236.833 Y15.424
X-236.746 Y14.341
X-236.688 Y13.255
X-236.648 Y12.169
X-236.623 Y11.083
X-236.606 Y9.996
X-236.597 Y8.909
X-236.591 Y7.823
X-236.587 Y6.736
X-236.584 Y4.562
X-236.583 Y-1.959
X-236.584 Y-11.74
Y-12.827
X-236.587 Y-13.913
X-236.593 Y-15
X-236.607 Y-16.087
X-236.634 Y-17.173
X-236.682 Y-18.259
X-236.765 Y-19.343
X-236.89 Y-20.295
X-237.03 Y-20.985
X-237.171 Y-21.497
X-237.287 Y-21.826
X-237.402 Y-22.093
X-237.496 Y-22.273
X-237.537 Y-22.341
X-237.67 Y-22.507
X-237.841 Y-22.634
X-238.038 Y-22.714
X-238.249 Y-22.741
X-239.237
G2 X-239.5 Y-22.564 Z-7.279 I0.011 J0.3
G1 X-239.518 Y-22.508 Z-7.156 F1200
X-239.526 Y-22.451 Z-7.032
X-239.527 Y-22.431 Z-6.99
X-240.953 Y22.431
Y22.432 Z-6.992
X-240.948 Y22.499 Z-7.136
X-240.927 Y22.563 Z-7.279
G2 X-240.664 Y22.741 Z-7.99 I0.274 J-0.122 F200
G1 X-239.676
X-239.527 Y22.734
X-239.379 Y22.707
X-239.235 Y22.667
X-239.094 Y22.614
X-238.951 Y22.548
X-238.796 Y22.462
X-238.633 Y22.357
X-238.45 Y22.22
X-238.265 Y22.06
X-238.061 Y21.858
X-237.851 Y21.618
X-237.624 Y21.32
X-237.381 Y20.951
X-237.146 Y20.533
X-236.884 Y19.979
X-236.633 Y19.341
X-236.386 Y18.555
X-236.142 Y17.537
X-235.963 Y16.466
X-235.838 Y15.386
X-235.751 Y14.303
X-235.692 Y13.217
X-235.651 Y12.131
X-235.625 Y11.045
X-235.608 Y9.958
X-235.598 Y8.872
X-235.591 Y7.785
X-235.588 Y6.698
X-235.584 Y4.524
X-235.583 Y-0.91
X-235.584 Y-11.778
X-235.585 Y-12.864
X-235.588 Y-13.951
X-235.595 Y-15.038
X-235.611 Y-16.125
X-235.64 Y-17.211
X-235.691 Y-18.297
X-235.778 Y-19.38
X-235.906 Y-20.327
X-236.047 Y-21.009
X-236.189 Y-21.516
X-236.304 Y-21.84
X-236.419 Y-22.103
X-236.513 Y-22.282
X-236.55 Y-22.344
X-236.683 Y-22.509
X-236.854 Y-22.635
X-237.051 Y-22.714
X-237.261 Y-22.741
X-238.249
G2 X-238.512 Y-22.564 Z-7.279 I0.01 J0.3
G1 X-238.531 Y-22.509 Z-7.156 F1200
X-238.538 Y-22.451 Z-7.032
X-238.539 Y-22.431 Z-6.99
X-239.966 Y22.431
Y22.432 Z-6.992
X-239.96 Y22.499 Z-7.136
X-239.94 Y22.564 Z-7.279
G2 X-239.676 Y22.741 Z-7.99 I0.274 J-0.122 F200
G1 X-238.689
X-238.539 Y22.734
X-238.392 Y22.707
X-238.247 Y22.666
X-238.107 Y22.613
X-237.965 Y22.547
X-237.808 Y22.461
X-237.646 Y22.355
X-237.462 Y22.217
X-237.277 Y22.058
X-237.072 Y21.854
X-236.862 Y21.614
X-236.633 Y21.312
X-236.391 Y20.944
X-236.155 Y20.523
X-235.89 Y19.964
X-235.641 Y19.326
X-235.391 Y18.53
X-235.147 Y17.504
X-234.968 Y16.432
X-234.843 Y15.353
X-234.756 Y14.269
X-234.696 Y13.184
X-234.655 Y12.098
X-234.627 Y11.012
X-234.61 Y9.925
X-234.599 Y8.839
X-234.592 Y7.752
X-234.588 Y6.665
X-234.586 Y5.578
X-234.584 Y2.318
X-234.583 Y-10.724
X-234.585 Y-12.897
X-234.589 Y-13.984
X-234.598 Y-15.071
X-234.615 Y-16.158
X-234.646 Y-17.244
X-234.7 Y-18.329
X-234.79 Y-19.412
X-234.92 Y-20.354
X-235.063 Y-21.031
X-235.206 Y-21.534
X-235.32 Y-21.852
X-235.435 Y-22.113
X-235.528 Y-22.29
X-235.563 Y-22.346
X-235.696 Y-22.511
X-235.866 Y-22.636
X-236.062 Y-22.715
X-236.272 Y-22.741
X-237.261
G2 X-237.524 Y-22.564 Z-7.279 I0.011 J0.3
G1 X-237.543 Y-22.509 Z-7.156 F1200
X-237.55 Y-22.451 Z-7.032
X-237.551 Y-22.431 Z-6.99
X-238.979 Y22.431
Y22.432 Z-6.992
X-238.973 Y22.499 Z-7.136
X-238.953 Y22.564 Z-7.279
G2 X-238.689 Y22.741 Z-7.99 I0.274 J-0.122 F200
G1 X-237.702
X-237.552 Y22.734
X-237.405 Y22.707
X-237.26 Y22.666
X-237.12 Y22.613
X-236.978 Y22.547
X-236.821 Y22.459
X-236.658 Y22.354
X-236.473 Y22.215
X-236.289 Y22.056
X-236.083 Y21.85
X-235.873 Y21.611
X-235.642 Y21.307
X-235.401 Y20.938
X-235.164 Y20.515
X-234.897 Y19.95
X-234.649 Y19.314
X-234.397 Y18.508
X-234.152 Y17.476
X-233.974 Y16.404
X-233.849 Y15.325
X-233.761 Y14.241
X-233.7 Y13.156
X-233.658 Y12.07
X-233.63 Y10.984
X-233.612 Y9.897
X-233.6 Y8.811
X-233.593 Y7.724
X-233.589 Y6.637
X-233.586 Y5.55
X-233.584 Y3.377
X-233.583 Y-7.491
X-233.584 Y-11.839
X-233.586 Y-12.925
X-233.591 Y-14.012
X-233.6 Y-15.099
X-233.619 Y-16.185
X-233.653 Y-17.272
X-233.709 Y-18.357
X-233.801 Y-19.44
X-233.934 Y-20.377
X-234.077 Y-21.049
X-234.221 Y-21.549
X-234.335 Y-21.863
X-234.45 Y-22.121
X-234.543 Y-22.297
X-234.575 Y-22.349
X-234.708 Y-22.512
X-234.878 Y-22.637
X-235.074 Y-22.715
X-235.283 Y-22.742
X-236.272 Y-22.741
G2 X-236.535 Y-22.564 Z-7.279 I0.01 J0.3
G1 X-236.554 Y-22.509 Z-7.156 F1200
X-236.561 Y-22.451 Z-7.032
X-236.562 Y-22.431 Z-6.99
X-237.991 Y22.431
Y22.432 Z-6.992
X-237.986 Y22.499 Z-7.135
X-237.965 Y22.564 Z-7.279
G2 X-237.702 Y22.741 Z-7.99 I0.274 J-0.122 F200
G1 X-236.715
X-236.565 Y22.734
X-236.417 Y22.707
X-236.273 Y22.666
X-236.133 Y22.613
X-235.991 Y22.546
X-235.833 Y22.459
X-235.67 Y22.353
X-235.485 Y22.214
X-235.301 Y22.054
X-235.094 Y21.848
X-234.885 Y21.609
X-234.652 Y21.302
X-234.411 Y20.934
X-234.173 Y20.508
X-233.905 Y19.94
X-233.657 Y19.304
X-233.403 Y18.49
X-233.157 Y17.453
X-232.98 Y16.381
X-232.855 Y15.302
X-232.766 Y14.218
X-232.704 Y13.133
X-232.662 Y12.047
X-232.633 Y10.961
X-232.614 Y9.874
X-232.601 Y8.788
X-232.594 Y7.701
X-232.589 Y6.614
X-232.587 Y5.527
X-232.584 Y3.354
X-232.583 Y-5.341
X-232.584 Y-10.775
X-232.585 Y-11.861
X-232.587 Y-12.948
X-232.592 Y-14.035
X-232.603 Y-15.122
X-232.623 Y-16.208
X-232.659 Y-17.295
X-232.717 Y-18.38
X-232.811 Y-19.463
X-232.946 Y-20.397
X-233.091 Y-21.065
X-233.235 Y-21.562
X-233.349 Y-21.872
X-233.464 Y-22.129
X-233.557 Y-22.303
X-233.586 Y-22.351
X-233.719 Y-22.513
X-233.889 Y-22.637
X-234.084 Y-22.715
X-234.293 Y-22.742
X-235.283
G2 X-235.546 Y-22.564 Z-7.279 I0.01 J0.3
G1 X-235.565 Y-22.509 Z-7.156 F1200
X-235.572 Y-22.451 Z-7.032
X-235.573 Y-22.431 Z-6.99
X-237.004 Y22.431
Y22.432 Z-6.991
X-236.999 Y22.499 Z-7.135
X-236.978 Y22.564 Z-7.279
G2 X-236.715 Y22.741 Z-7.99 I0.274 J-0.122 F200
G1 X-235.728
X-235.578 Y22.734
X-235.43 Y22.707
X-235.286 Y22.666
X-235.146 Y22.613
X-235.004 Y22.546
X-234.845 Y22.458
X-234.683 Y22.353
X-234.497 Y22.213
X-234.313 Y22.054
X-234.105 Y21.846
X-233.897 Y21.607
X-233.663 Y21.299
X-233.422 Y20.931
X-233.183 Y20.504
X-232.913 Y19.931
X-232.666 Y19.297
X-232.41 Y18.477
X-232.163 Y17.435
X-231.986 Y16.363
X-231.861 Y15.283
X-231.772 Y14.2
X-231.709 Y13.115
X-231.665 Y12.029
X-231.635 Y10.943
X-231.616 Y9.856
X-231.603 Y8.77
X-231.595 Y7.683
X-231.59 Y6.596
X-231.587 Y5.509
X-231.584 Y3.336
X-231.583 Y-3.185
X-231.584 Y-10.793
X-231.585 Y-11.879
X-231.588 Y-12.966
X-231.594 Y-14.053
X-231.606 Y-15.14
X-231.627 Y-16.226
X-231.665 Y-17.312
X-231.725 Y-18.398
X-231.821 Y-19.48
X-231.958 Y-20.412
X-232.103 Y-21.078
X-232.248 Y-21.572
X-232.361 Y-21.88
X-232.476 Y-22.135
X-232.57 Y-22.309
X-232.597 Y-22.352
X-232.73 Y-22.514
X-232.899 Y-22.638
X-233.094 Y-22.715
X-233.302 Y-22.742
X-234.293
G2 X-234.556 Y-22.564 Z-7.279 I0.01 J0.3
G1 X-234.575 Y-22.509 Z-7.156 F1200
X-234.582 Y-22.451 Z-7.032
X-234.583 Y-22.432 Z-6.99
X-236.017 Y22.431
Y22.432 Z-6.991
X-236.012 Y22.5 Z-7.135
X-235.991 Y22.564 Z-7.279
G2 X-235.728 Y22.741 Z-7.99 I0.274 J-0.122 F200
G1 X-234.741 Y22.742
X-234.591 Y22.734
X-234.443 Y22.707
X-234.299 Y22.666
X-234.159 Y22.613
X-234.017 Y22.546
X-233.858 Y22.458
X-233.695 Y22.353
X-233.509 Y22.213
X-233.326 Y22.053
X-233.117 Y21.845
X-232.908 Y21.607
X-232.673 Y21.296
X-232.433 Y20.929
X-232.193 Y20.501
X-231.922 Y19.925
X-231.675 Y19.292
X-231.418 Y18.467
X-231.17 Y17.422
X-230.993 Y16.349
X-230.867 Y15.27
X-230.777 Y14.187
X-230.713 Y13.102
X-230.669 Y12.016
X-230.638 Y10.93
X-230.618 Y9.843
X-230.604 Y8.756
X-230.596 Y7.67
X-230.591 Y6.583
X-230.587 Y5.496
X-230.584 Y3.322
X-230.583 Y-2.112
Y-9.719
X-230.585 Y-11.893
X-230.589 Y-12.979
X-230.595 Y-14.066
X-230.608 Y-15.153
X-230.632 Y-16.239
X-230.67 Y-17.326
X-230.732 Y-18.411
X-230.83 Y-19.493
X-230.968 Y-20.423
X-231.115 Y-21.089
X-231.26 Y-21.581
X-231.373 Y-21.886
X-231.488 Y-22.139
X-231.581 Y-22.313
X-231.607 Y-22.354
X-231.74 Y-22.515
X-231.909 Y-22.638
X-232.104 Y-22.716
X-232.312 Y-22.742
X-233.302
G2 X-233.566 Y-22.564 Z-7.279 I0.01 J0.3
G1 X-233.584 Y-22.509 Z-7.156 F1200
X-233.592 Y-22.452 Z-7.032
Y-22.432 Z-6.99
X-235.03 Y22.432
Z-6.991
X-235.024 Y22.5 Z-7.135
X-235.004 Y22.564 Z-7.279
G2 X-234.741 Y22.742 Z-7.99 I0.274 J-0.122 F200
G1 X-233.753
X-233.604 Y22.734
X-233.456 Y22.707
X-233.312 Y22.666
X-233.171 Y22.613
X-233.029 Y22.547
X-232.87 Y22.458
X-232.708 Y22.353
X-232.522 Y22.213
X-232.338 Y22.054
X-232.129 Y21.845
X-231.92 Y21.607
X-231.684 Y21.295
X-231.445 Y20.929
X-231.204 Y20.499
X-230.932 Y19.922
X-230.685 Y19.29
X-230.426 Y18.46
X-230.178 Y17.413
X-230.001 Y16.34
X-229.874 Y15.261
X-229.783 Y14.178
X-229.718 Y13.093
X-229.673 Y12.007
X-229.641 Y10.921
X-229.62 Y9.834
X-229.606 Y8.748
X-229.597 Y7.661
X-229.591 Y6.574
X-229.588 Y5.487
X-229.585 Y3.314
X-229.583 Y-2.12
X-229.584 Y-9.728
X-229.586 Y-11.901
X-229.59 Y-12.988
X-229.597 Y-14.075
X-229.611 Y-15.162
X-229.635 Y-16.248
X-229.676 Y-17.334
X-229.739 Y-18.419
X-229.838 Y-19.501
X-229.978 Y-20.431
X-230.125 Y-21.096
X-230.271 Y-21.587
X-230.384 Y-21.891
X-230.499 Y-22.143
X-230.592 Y-22.316
X-230.616 Y-22.355
X-230.75 Y-22.516
X-230.919 Y-22.639
X-231.113 Y-22.716
X-231.32 Y-22.742
X-232.312
G2 X-232.575 Y-22.564 Z-7.279 I0.01 J0.3
G1 X-232.593 Y-22.509 Z-7.156 F1200
X-232.601 Y-22.452 Z-7.032
X-232.602 Y-22.432 Z-6.99
X-234.043 Y22.432
Z-6.991
X-234.037 Y22.5 Z-7.135
X-234.017 Y22.564 Z-7.279
G2 X-233.753 Y22.742 Z-7.99 I0.274 J-0.122 F200
G1 X-232.766
X-232.616 Y22.734
X-232.469 Y22.707
X-232.324 Y22.666
X-232.184 Y22.613
X-232.042 Y22.547
X-231.883 Y22.458
X-231.721 Y22.353
X-231.534 Y22.213
X-231.351 Y22.054
X-231.141 Y21.846
X-230.933 Y21.608
X-230.696 Y21.296
X-230.456 Y20.929
X-230.215 Y20.499
X-229.942 Y19.921
X-229.696 Y19.29
X-229.435 Y18.457
X-229.186 Y17.408
X-229.008 Y16.336
X-228.881 Y15.256
X-228.789 Y14.173
X-228.723 Y13.089
X-228.677 Y12.003
X-228.644 Y10.916
X-228.622 Y9.83
X-228.608 Y8.743
X-228.598 Y7.656
X-228.592 Y6.57
X-228.588 Y5.483
X-228.585 Y3.309
X-228.583 Y-1.038
X-228.584 Y-9.732
X-228.585 Y-10.819
X-228.586 Y-11.906
X-228.591 Y-12.993
X-228.599 Y-14.079
X-228.614 Y-15.166
X-228.639 Y-16.253
X-228.681 Y-17.339
X-228.745 Y-18.423
X-228.845 Y-19.506
X-228.986 Y-20.435
X-229.135 Y-21.101
X-229.28 Y-21.592
X-229.394 Y-21.894
X-229.508 Y-22.146
X-229.602 Y-22.319
X-229.625 Y-22.356
X-229.759 Y-22.516
X-229.928 Y-22.639
X-230.122 Y-22.716
X-230.329 Y-22.742
X-231.32
G2 X-231.584 Y-22.565 Z-7.279 I0.011 J0.3
G1 X-231.602 Y-22.509 Z-7.156 F1200
X-231.61 Y-22.452 Z-7.032
Y-22.432 Z-6.99
X-233.055 Y22.432
Z-6.991
X-233.05 Y22.5 Z-7.135
X-233.03 Y22.564 Z-7.279
G2 X-232.766 Y22.742 Z-7.99 I0.274 J-0.122 F200
G1 X-231.779
X-231.629 Y22.734
X-231.482 Y22.708
X-231.337 Y22.667
X-231.197 Y22.614
X-231.055 Y22.547
X-230.895 Y22.459
X-230.733 Y22.354
X-230.547 Y22.214
X-230.363 Y22.055
X-230.154 Y21.847
X-229.945 Y21.609
X-229.708 Y21.297
X-229.468 Y20.931
X-229.227 Y20.501
X-228.953 Y19.921
X-228.706 Y19.292
X-228.445 Y18.457
X-228.195 Y17.407
X-228.016 Y16.335
X-227.888 Y15.255
X-227.795 Y14.173
X-227.728 Y13.088
X-227.681 Y12.002
X-227.647 Y10.916
X-227.625 Y9.829
X-227.609 Y8.743
X-227.599 Y7.656
X-227.593 Y6.569
X-227.589 Y5.482
X-227.585 Y3.309
X-227.583 Y-1.039
X-227.584 Y-9.733
X-227.585 Y-10.82
X-227.587 Y-11.906
X-227.592 Y-12.993
X-227.601 Y-14.08
X-227.616 Y-15.167
X-227.643 Y-16.253
X-227.686 Y-17.339
X-227.751 Y-18.424
X-227.852 Y-19.506
X-227.994 Y-20.437
X-228.143 Y-21.104
X-228.289 Y-21.594
X-228.403 Y-21.897
X-228.517 Y-22.148
X-228.611 Y-22.32
X-228.634 Y-22.356
X-228.767 Y-22.517
X-228.936 Y-22.639
X-229.13 Y-22.716
X-229.337 Y-22.742
X-230.329
G2 X-230.592 Y-22.565 Z-7.279 I0.011 J0.3
G1 X-230.611 Y-22.51 Z-7.156 F1200
X-230.618 Y-22.452 Z-7.032
X-230.619 Y-22.432 Z-6.99
X-232.068 Y22.432
Z-6.991
X-232.063 Y22.5 Z-7.135
X-232.042 Y22.565 Z-7.279
G2 X-231.779 Y22.742 Z-7.99 I0.274 J-0.122 F200
G1 X-230.792
X-230.642 Y22.735
X-230.494 Y22.708
X-230.35 Y22.667
X-230.21 Y22.614
X-230.068 Y22.548
X-229.908 Y22.46
X-229.746 Y22.355
X-229.56 Y22.216
X-229.376 Y22.057
X-229.166 Y21.849
X-228.958 Y21.611
X-228.72 Y21.299
X-228.48 Y20.934
X-228.239 Y20.504
X-227.964 Y19.924
X-227.717 Y19.295
X-227.455 Y18.459
X-227.204 Y17.409
X-227.025 Y16.337
X-226.895 Y15.258
X-226.801 Y14.175
X-226.733 Y13.091
X-226.685 Y12.005
X-226.651 Y10.919
X-226.627 Y9.832
X-226.611 Y8.746
X-226.6 Y7.659
X-226.594 Y6.572
X-226.589 Y5.485
X-226.587 Y4.398
X-226.584 Y2.225
X-226.583 Y-5.383
X-226.584 Y-9.73
X-226.585 Y-10.817
X-226.588 Y-11.903
X-226.593 Y-12.99
X-226.602 Y-14.077
X-226.619 Y-15.164
X-226.647 Y-16.25
X-226.69 Y-17.336
X-226.757 Y-18.421
X-226.858 Y-19.503
X-227.001 Y-20.435
X-227.151 Y-21.105
X-227.297 Y-21.595
X-227.411 Y-21.898
X-227.526 Y-22.149
X-227.619 Y-22.321
X-227.642 Y-22.357
X-227.775 Y-22.517
X-227.944 Y-22.64
X-228.138 Y-22.716
X-228.345 Y-22.742
X-229.337
G2 X-229.6 Y-22.565 Z-7.279 I0.011 J0.3
G1 X-229.619 Y-22.51 Z-7.156 F1200
X-229.626 Y-22.452 Z-7.032
X-229.627 Y-22.432 Z-6.99
X-231.081 Y22.432
Y22.433 Z-6.991
X-231.076 Y22.5 Z-7.135
X-231.055 Y22.565 Z-7.279
G2 X-230.792 Y22.742 Z-7.99 I0.274 J-0.122 F200
G1 X-229.805
X-229.655 Y22.735
X-229.507 Y22.708
X-229.363 Y22.668
X-229.222 Y22.615
X-229.08 Y22.549
X-228.921 Y22.461
X-228.759 Y22.357
X-228.572 Y22.217
X-228.389 Y22.059
X-228.179 Y21.851
X-227.971 Y21.614
X-227.733 Y21.302
X-227.493 Y20.937
X-227.251 Y20.508
X-226.976 Y19.929
X-226.729 Y19.301
X-226.466 Y18.465
X-226.213 Y17.415
X-226.033 Y16.343
X-225.903 Y15.264
X-225.808 Y14.182
X-225.739 Y13.097
X-225.689 Y12.011
X-225.654 Y10.925
X-225.63 Y9.839
X-225.613 Y8.752
X-225.602 Y7.665
X-225.595 Y6.578
X-225.59 Y5.492
X-225.587 Y4.405
X-225.584 Y2.231
X-225.583 Y-4.29
X-225.584 Y-9.724
X-225.585 Y-10.81
X-225.588 Y-11.897
X-225.594 Y-12.984
X-225.604 Y-14.071
X-225.622 Y-15.157
X-225.65 Y-16.244
X-225.694 Y-17.33
X-225.762 Y-18.414
X-225.864 Y-19.496
X-226.007 Y-20.431
X-226.158 Y-21.104
X-226.305 Y-21.595
X-226.418 Y-21.898
X-226.533 Y-22.149
X-226.627 Y-22.322
X-226.65 Y-22.357
X-226.783 Y-22.517
X-226.952 Y-22.64
X-227.146 Y-22.716
X-227.353 Y-22.742
X-228.345
G2 X-228.608 Y-22.565 Z-7.279 I0.01 J0.3
G1 X-228.627 Y-22.51 Z-7.156 F1200
X-228.634 Y-22.452 Z-7.033
X-228.635 Y-22.432 Z-6.99
X-230.094 Y22.432
Y22.433 Z-6.991
X-230.088 Y22.5 Z-7.135
X-230.068 Y22.565 Z-7.279
G2 X-229.805 Y22.742 Z-7.99 I0.274 J-0.122 F200
G1 X-228.817
X-228.668 Y22.735
X-228.52 Y22.709
X-228.375 Y22.668
X-228.235 Y22.615
X-228.093 Y22.55
X-227.934 Y22.462
X-227.772 Y22.358
X-227.585 Y22.219
X-227.402 Y22.061
X-227.192 Y21.854
X-226.984 Y21.617
X-226.746 Y21.306
X-226.506 Y20.942
X-226.264 Y20.514
X-225.988 Y19.935
X-225.741 Y19.308
X-225.477 Y18.473
X-225.223 Y17.424
X-225.042 Y16.352
X-224.911 Y15.273
X-224.814 Y14.191
X-224.744 Y13.106
X-224.694 Y12.021
X-224.657 Y10.934
X-224.632 Y9.848
X-224.615 Y8.761
X-224.603 Y7.674
X-224.596 Y6.588
X-224.591 Y5.501
X-224.588 Y4.414
X-224.585 Y2.241
X-224.583 Y-3.193
X-224.584 Y-8.627
X-224.586 Y-10.801
X-224.589 Y-11.888
X-224.595 Y-12.975
X-224.606 Y-14.061
X-224.624 Y-15.148
X-224.653 Y-16.234
X-224.699 Y-17.32
X-224.767 Y-18.405
X-224.869 Y-19.487
X-225.012 Y-20.424
X-225.164 Y-21.101
X-225.311 Y-21.593
X-225.425 Y-21.897
X-225.54 Y-22.149
X-225.634 Y-22.321
X-225.657 Y-22.357
X-225.79 Y-22.518
X-225.959 Y-22.64
X-226.153 Y-22.717
X-226.36 Y-22.743
X-227.353 Y-22.742
G2 X-227.616 Y-22.565 Z-7.279 I0.01 J0.3
G1 X-227.634 Y-22.51 Z-7.156 F1200
X-227.642 Y-22.452 Z-7.033
X-227.643 Y-22.432 Z-6.99
X-229.107 Y22.432
Y22.433 Z-6.991
X-229.101 Y22.5 Z-7.135
X-229.081 Y22.565 Z-7.279
G2 X-228.817 Y22.742 Z-7.99 I0.274 J-0.122 F200
G1 X-227.83
X-227.68 Y22.735
X-227.533 Y22.709
X-227.388 Y22.669
X-227.248 Y22.616
X-227.106 Y22.551
X-226.947 Y22.464
X-226.785 Y22.36
X-226.599 Y22.221
X-226.415 Y22.064
X-226.206 Y21.857
X-225.997 Y21.621
X-225.759 Y21.311
X-225.519 Y20.947
X-225.277 Y20.52
X-225.001 Y19.942
X-224.753 Y19.316
X-224.488 Y18.483
X-224.234 Y17.435
X-224.051 Y16.364
X-223.919 Y15.285
X-223.821 Y14.203
X-223.75 Y13.118
X-223.698 Y12.033
X-223.661 Y10.946
X-223.635 Y9.86
X-223.617 Y8.773
X-223.605 Y7.687
X-223.597 Y6.6
X-223.591 Y5.513
X-223.588 Y4.426
X-223.585 Y2.253
X-223.583 Y-2.094
X-223.584 Y-8.615
X-223.586 Y-10.789
X-223.59 Y-11.876
X-223.596 Y-12.962
X-223.607 Y-14.049
X-223.626 Y-15.136
X-223.656 Y-16.222
X-223.702 Y-17.308
X-223.771 Y-18.393
X-223.874 Y-19.475
X-224.017 Y-20.415
X-224.17 Y-21.097
X-224.317 Y-21.59
X-224.432 Y-21.895
X-224.547 Y-22.148
X-224.641 Y-22.32
X-224.664 Y-22.357
X-224.797 Y-22.518
X-224.966 Y-22.64
X-225.16 Y-22.717
X-225.367 Y-22.743
X-226.36
G2 X-226.623 Y-22.565 Z-7.279 I0.011 J0.3
G1 X-226.642 Y-22.51 Z-7.156 F1200
X-226.649 Y-22.453 Z-7.033
X-226.65 Y-22.432 Z-6.99
X-228.119 Y22.432
X-228.12 Y22.433 Z-6.991
X-228.114 Y22.5 Z-7.135
X-228.094 Y22.565 Z-7.279
G2 X-227.83 Y22.742 Z-7.99 I0.274 J-0.122 F200
G1 X-226.843 Y22.743
X-226.693 Y22.735
X-226.545 Y22.709
X-226.401 Y22.669
X-226.26 Y22.617
X-226.118 Y22.552
X-225.96 Y22.465
X-225.798 Y22.362
X-225.612 Y22.224
X-225.428 Y22.066
X-225.219 Y21.861
X-225.01 Y21.625
X-224.773 Y21.316
X-224.532 Y20.953
X-224.29 Y20.527
X-224.014 Y19.951
X-223.765 Y19.326
X-223.5 Y18.495
X-223.245 Y17.449
X-223.061 Y16.378
X-222.927 Y15.299
X-222.828 Y14.217
X-222.756 Y13.133
X-222.703 Y12.047
X-222.665 Y10.961
X-222.638 Y9.875
X-222.619 Y8.788
X-222.606 Y7.701
X-222.598 Y6.614
X-222.592 Y5.528
X-222.589 Y4.441
X-222.585 Y2.267
X-222.583 Y-2.08
X-222.584 Y-8.601
X-222.585 Y-9.687
X-222.587 Y-10.774
X-222.59 Y-11.861
X-222.597 Y-12.948
X-222.609 Y-14.035
X-222.629 Y-15.121
X-222.66 Y-16.207
X-222.706 Y-17.293
X-222.775 Y-18.378
X-222.878 Y-19.46
X-223.021 Y-20.404
X-223.175 Y-21.091
X-223.323 Y-21.586
X-223.437 Y-21.893
X-223.553 Y-22.146
X-223.647 Y-22.319
X-223.671 Y-22.357
X-223.804 Y-22.517
X-223.973 Y-22.64
X-224.167 Y-22.717
X-224.374 Y-22.743
X-225.367
G2 X-225.631 Y-22.565 Z-7.279 I0.01 J0.3
G1 X-225.649 Y-22.51 Z-7.156 F1200
X-225.657 Y-22.453 Z-7.033
Y-22.433 Z-6.99
X-227.132 Y22.432
Y22.433 Z-6.991
X-227.127 Y22.5 Z-7.135
X-227.106 Y22.565 Z-7.279
G2 X-226.843 Y22.743 Z-7.99 I0.274 J-0.122 F200
G1 X-225.856
X-225.706 Y22.735
X-225.558 Y22.71
X-225.413 Y22.67
X-225.273 Y22.618
X-225.131 Y22.553
X-224.973 Y22.467
X-224.81 Y22.364
X-224.625 Y22.227
X-224.441 Y22.07
X-224.233 Y21.865
X-224.023 Y21.629
X-223.786 Y21.322
X-223.545 Y20.96
X-223.304 Y20.536
X-223.027 Y19.962
X-222.778 Y19.337
X-222.512 Y18.508
X-222.256 Y17.465
X-222.07 Y16.394
X-221.935 Y15.316
X-221.835 Y14.234
X-221.761 Y13.149
X-221.707 Y12.064
X-221.668 Y10.978
X-221.64 Y9.891
X-221.621 Y8.805
X-221.608 Y7.718
X-221.599 Y6.631
X-221.593 Y5.545
X-221.589 Y4.458
X-221.585 Y2.284
X-221.583 Y-2.063
X-221.584 Y-8.584
X-221.585 Y-9.671
X-221.587 Y-10.757
X-221.591 Y-11.844
X-221.598 Y-12.931
X-221.611 Y-14.018
X-221.631 Y-15.104
X-221.662 Y-16.191
X-221.709 Y-17.276
X-221.779 Y-18.361
X-221.882 Y-19.443
X-222.025 Y-20.391
X-222.18 Y-21.083
X-222.327 Y-21.581
X-222.443 Y-21.889
X-222.559 Y-22.144
X-222.653 Y-22.317
X-222.678 Y-22.356
X-222.811 Y-22.517
X-222.98 Y-22.64
X-223.174 Y-22.717
X-223.381 Y-22.743
X-224.374
G2 X-224.638 Y-22.565 Z-7.279 I0.011 J0.3
G1 X-224.656 Y-22.51 Z-7.156 F1200
X-224.664 Y-22.453 Z-7.033
Y-22.433 Z-6.99
X-226.145 Y22.433
Z-6.991
X-226.14 Y22.501 Z-7.135
X-226.119 Y22.565 Z-7.279
G2 X-225.856 Y22.743 Z-7.99 I0.274 J-0.122 F200
G1 X-224.869
X-224.719 Y22.735
X-224.571 Y22.71
X-224.426 Y22.671
X-224.285 Y22.619
X-224.143 Y22.554
X-223.986 Y22.469
X-223.823 Y22.366
X-223.639 Y22.23
X-223.454 Y22.073
X-223.246 Y21.87
X-223.037 Y21.634
X-222.8 Y21.329
X-222.559 Y20.967
X-222.317 Y20.545
X-222.041 Y19.973
X-221.791 Y19.35
X-221.525 Y18.524
X-221.267 Y17.483
X-221.08 Y16.413
X-220.943 Y15.335
X-220.842 Y14.252
X-220.767 Y13.168
X-220.712 Y12.083
X-220.672 Y10.997
X-220.643 Y9.91
X-220.623 Y8.824
X-220.609 Y7.737
X-220.6 Y6.65
X-220.594 Y5.564
X-220.59 Y4.477
X-220.585 Y2.303
X-220.584 Y-0.957
Y-7.478
X-220.585 Y-9.652
X-220.587 Y-10.738
X-220.592 Y-11.825
X-220.6 Y-12.912
X-220.612 Y-13.999
X-220.633 Y-15.085
X-220.665 Y-16.171
X-220.713 Y-17.257
X-220.782 Y-18.342
X-220.885 Y-19.424
X-221.028 Y-20.376
X-221.184 Y-21.075
X-221.332 Y-21.574
X-221.448 Y-21.886
X-221.564 Y-22.141
X-221.658 Y-22.315
X-221.684 Y-22.356
X-221.817 Y-22.517
X-221.986 Y-22.64
X-222.18 Y-22.717
X-222.388 Y-22.743
X-223.381
G2 X-223.644 Y-22.566 Z-7.279 I0.011 J0.3
G1 X-223.663 Y-22.511 Z-7.156 F1200
X-223.67 Y-22.453 Z-7.033
X-223.671 Y-22.433 Z-6.99
X-225.158 Y22.433
Z-6.991
X-225.152 Y22.501 Z-7.135
X-225.132 Y22.565 Z-7.279
G2 X-224.869 Y22.743 Z-7.99 I0.274 J-0.122 F200
G1 X-223.881
X-223.732 Y22.735
X-223.584 Y22.711
X-223.439 Y22.672
X-223.298 Y22.62
X-223.156 Y22.556
X-222.999 Y22.471
X-222.836 Y22.368
X-222.652 Y22.233
X-222.468 Y22.076
X-222.26 Y21.875
X-222.051 Y21.64
X-221.815 Y21.336
X-221.573 Y20.974
X-221.331 Y20.555
X-221.055 Y19.985
X-220.804 Y19.363
X-220.538 Y18.541
X-220.279 Y17.503
X-220.09 Y16.433
X-219.952 Y15.355
X-219.849 Y14.273
X-219.773 Y13.189
X-219.717 Y12.104
X-219.676 Y11.018
X-219.646 Y9.931
X-219.626 Y8.845
X-219.611 Y7.758
X-219.601 Y6.671
X-219.594 Y5.585
X-219.59 Y4.498
X-219.587 Y3.411
X-219.585 Y1.237
X-219.583 Y-4.197
X-219.584 Y-8.544
X-219.585 Y-9.631
X-219.588 Y-10.717
X-219.593 Y-11.804
X-219.601 Y-12.891
X-219.614 Y-13.978
X-219.635 Y-15.064
X-219.668 Y-16.15
X-219.716 Y-17.236
X-219.786 Y-18.321
X-219.888 Y-19.403
X-220.031 Y-20.36
X-220.187 Y-21.065
X-220.335 Y-21.567
X-220.452 Y-21.881
X-220.568 Y-22.138
X-220.663 Y-22.313
X-220.69 Y-22.355
X-220.823 Y-22.517
X-220.992 Y-22.64
X-221.187 Y-22.717
X-221.394 Y-22.743
X-222.388
G2 X-222.651 Y-22.566 Z-7.279 I0.011 J0.3
G1 X-222.67 Y-22.511 Z-7.156 F1200
X-222.677 Y-22.453 Z-7.033
X-222.678 Y-22.433 Z-6.99
X-224.171 Y22.433
Z-6.991
X-224.165 Y22.501 Z-7.135
X-224.145 Y22.565 Z-7.279
G2 X-223.881 Y22.743 Z-7.99 I0.274 J-0.122 F200
G1 X-222.894
X-222.744 Y22.735
X-222.596 Y22.711
X-222.451 Y22.673
X-222.31 Y22.621
X-222.168 Y22.557
X-222.012 Y22.473
X-221.849 Y22.371
X-221.666 Y22.236
X-221.481 Y22.08
X-221.274 Y21.88
X-221.064 Y21.645
X-220.829 Y21.343
X-220.586 Y20.983
X-220.346 Y20.565
X-220.069 Y19.999
X-219.818 Y19.377
X-219.551 Y18.56
X-219.291 Y17.525
X-219.1 Y16.455
X-218.961 Y15.378
X-218.857 Y14.296
X-218.779 Y13.212
X-218.722 Y12.126
X-218.68 Y11.04
X-218.65 Y9.954
X-218.628 Y8.868
X-218.613 Y7.781
X-218.602 Y6.694
X-218.595 Y5.607
X-218.591 Y4.521
X-218.588 Y3.434
X-218.585 Y1.26
X-218.583 Y-4.174
X-218.584 Y-8.521
X-218.586 Y-9.608
X-218.588 Y-10.695
X-218.593 Y-11.781
X-218.602 Y-12.868
X-218.616 Y-13.955
X-218.637 Y-15.041
X-218.67 Y-16.128
X-218.719 Y-17.213
X-218.789 Y-18.298
X-218.891 Y-19.38
X-219.034 Y-20.342
X-219.19 Y-21.054
X-219.339 Y-21.559
X-219.456 Y-21.876
X-219.573 Y-22.134
X-219.667 Y-22.31
X-219.696 Y-22.355
X-219.829 Y-22.516
X-219.998 Y-22.64
X-220.193 Y-22.717
X-220.401 Y-22.743
X-221.394
G2 X-221.658 Y-22.566 Z-7.279 I0.01 J0.3
G1 X-221.676 Y-22.511 Z-7.156 F1200
X-221.684 Y-22.453 Z-7.033
Y-22.433 Z-6.99
X-223.184 Y22.433
Z-6.991
X-223.178 Y22.501 Z-7.135
X-223.158 Y22.566 Z-7.279
G2 X-222.894 Y22.743 Z-7.99 I0.274 J-0.122 F200
G1 X-221.907
X-221.757 Y22.736
X-221.609 Y22.712
X-221.464 Y22.673
X-221.323 Y22.623
X-221.181 Y22.559
X-221.025 Y22.476
X-220.863 Y22.373
X-220.68 Y22.24
X-220.495 Y22.084
X-220.289 Y21.885
X-220.078 Y21.651
X-219.844 Y21.351
X-219.601 Y20.991
X-219.36 Y20.576
X-219.084 Y20.013
X-218.832 Y19.393
X-218.565 Y18.579
X-218.304 Y17.549
X-218.111 Y16.479
X-217.97 Y15.402
X-217.864 Y14.32
X-217.786 Y13.236
X-217.727 Y12.151
X-217.684 Y11.065
X-217.653 Y9.979
X-217.63 Y8.892
X-217.615 Y7.805
X-217.604 Y6.719
X-217.596 Y5.632
X-217.591 Y4.545
X-217.588 Y3.458
X-217.585 Y1.285
X-217.583 Y-3.062
X-217.584 Y-7.41
X-217.586 Y-9.583
X-217.589 Y-10.67
X-217.594 Y-11.757
X-217.603 Y-12.844
X-217.617 Y-13.93
X-217.639 Y-15.017
X-217.673 Y-16.103
X-217.721 Y-17.189
X-217.791 Y-18.273
X-217.893 Y-19.355
X-218.036 Y-20.323
X-218.193 Y-21.043
X-218.341 Y-21.55
X-218.46 Y-21.871
X-218.577 Y-22.13
X-218.671 Y-22.306
X-218.701 Y-22.354
X-218.835 Y-22.516
X-219.004 Y-22.64
X-219.199 Y-22.717
X-219.407 Y-22.743
X-220.401
G2 X-220.664 Y-22.566 Z-7.279 I0.011 J0.3
G1 X-220.682 Y-22.511 Z-7.156 F1200
X-220.69 Y-22.454 Z-7.033
X-220.691 Y-22.433 Z-6.99
X-222.196 Y22.433
X-222.191 Y22.501 Z-7.135
X-222.17 Y22.566 Z-7.279
G2 X-221.907 Y22.743 Z-7.99 I0.274 J-0.122 F200
G1 X-220.92
X-220.77 Y22.736
X-220.622 Y22.713
X-220.477 Y22.674
X-220.335 Y22.624
X-220.193 Y22.56
X-220.039 Y22.478
X-219.876 Y22.376
X-219.693 Y22.244
X-219.508 Y22.088
X-219.303 Y21.891
X-219.092 Y21.657
X-218.859 Y21.36
X-218.615 Y21.001
X-218.375 Y20.588
X-218.099 Y20.028
X-217.846 Y19.409
X-217.579 Y18.601
X-217.317 Y17.574
X-217.122 Y16.505
X-216.979 Y15.427
X-216.872 Y14.346
X-216.792 Y13.262
X-216.732 Y12.177
X-216.688 Y11.091
X-216.656 Y10.005
X-216.633 Y8.918
X-216.616 Y7.832
X-216.605 Y6.745
X-216.597 Y5.658
X-216.592 Y4.571
X-216.589 Y3.484
X-216.585 Y1.311
X-216.583 Y-3.036
X-216.584 Y-7.383
X-216.586 Y-9.557
X-216.589 Y-10.644
X-216.595 Y-11.731
X-216.604 Y-12.817
X-216.619 Y-13.904
X-216.641 Y-14.991
X-216.675 Y-16.077
X-216.724 Y-17.163
X-216.794 Y-18.247
X-216.895 Y-19.329
X-217.037 Y-20.303
X-217.195 Y-21.03
X-217.344 Y-21.54
X-217.463 Y-21.865
X-217.58 Y-22.126
X-217.675 Y-22.303
X-217.707 Y-22.353
X-217.84 Y-22.516
X-218.009 Y-22.639
X-218.204 Y-22.717
X-218.413 Y-22.744
X-219.407 Y-22.743
G2 X-219.67 Y-22.566 Z-7.279 I0.011 J0.3
G1 X-219.689 Y-22.511 Z-7.156 F1200
X-219.696 Y-22.454 Z-7.033
X-219.697 Y-22.433 Z-6.99
X-221.209 Y22.433
X-221.204 Y22.501 Z-7.135
X-221.183 Y22.566 Z-7.279
G2 X-220.92 Y22.743 Z-7.99 I0.274 J-0.122 F200
G1 X-219.933
X-219.783 Y22.736
X-219.635 Y22.713
X-219.489 Y22.675
X-219.348 Y22.625
X-219.206 Y22.562
X-219.052 Y22.48
X-218.889 Y22.379
X-218.707 Y22.248
X-218.522 Y22.093
X-218.317 Y21.897
X-218.106 Y21.664
X-217.874 Y21.369
X-217.629 Y21.01
X-217.39 Y20.601
X-217.114 Y20.044
X-216.86 Y19.426
X-216.593 Y18.623
X-216.33 Y17.601
X-216.132 Y16.532
X-215.988 Y15.455
X-215.88 Y14.373
X-215.798 Y13.29
X-215.738 Y12.205
X-215.693 Y11.119
X-215.659 Y10.032
X-215.635 Y8.946
X-215.618 Y7.859
X-215.606 Y6.772
X-215.598 Y5.686
X-215.593 Y4.599
X-215.589 Y3.512
X-215.585 Y1.339
X-215.583 Y-3.009
X-215.584 Y-7.356
X-215.587 Y-9.529
X-215.59 Y-10.616
X-215.596 Y-11.703
X-215.605 Y-12.79
X-215.62 Y-13.876
X-215.643 Y-14.963
X-215.677 Y-16.049
X-215.726 Y-17.135
X-215.796 Y-18.219
X-215.897 Y-19.302
X-216.039 Y-20.282
X-216.197 Y-21.016
X-216.346 Y-21.53
X-216.466 Y-21.858
X-216.584 Y-22.121
X-216.679 Y-22.299
X-216.712 Y-22.352
X-216.845 Y-22.515
X-217.015 Y-22.639
X-217.21 Y-22.717
X-217.419 Y-22.744
X-218.413
G2 X-218.676 Y-22.566 Z-7.279 I0.01 J0.3
G1 X-218.695 Y-22.511 Z-7.156 F1200
X-218.702 Y-22.454 Z-7.033
X-218.703 Y-22.433 Z-6.99
X-220.222 Y22.433
X-220.217 Y22.501 Z-7.135
X-220.196 Y22.566 Z-7.279
G2 X-219.933 Y22.743 Z-7.99 I0.274 J-0.122 F200
G1 X-218.945
X-218.796 Y22.736
X-218.647 Y22.714
X-218.502 Y22.676
X-218.361 Y22.627
X-218.218 Y22.564
X-218.065 Y22.483
X-217.902 Y22.382
X-217.721 Y22.252
X-217.535 Y22.097
X-217.332 Y21.903
X-217.12 Y21.671
X-216.889 Y21.378
X-216.644 Y21.02
X-216.405 Y20.614
X-216.13 Y20.061
X-215.874 Y19.444
X-215.607 Y18.647
X-215.343 Y17.629
X-215.143 Y16.56
X-214.997 Y15.484
X-214.887 Y14.402
X-214.805 Y13.319
X-214.743 Y12.234
X-214.697 Y11.148
X-214.663 Y10.062
X-214.638 Y8.975
X-214.62 Y7.888
X-214.608 Y6.802
X-214.599 Y5.715
X-214.594 Y4.628
X-214.59 Y3.541
X-214.586 Y1.368
X-214.584 Y-1.893
Y-7.327
X-214.587 Y-9.5
X-214.59 Y-10.587
X-214.596 Y-11.674
X-214.606 Y-12.76
X-214.622 Y-13.847
X-214.645 Y-14.934
X-214.679 Y-16.02
X-214.728 Y-17.106
X-214.798 Y-18.19
X-214.899 Y-19.272
X-215.04 Y-20.259
X-215.199 Y-21.002
X-215.348 Y-21.518
X-215.469 Y-21.852
X-215.587 Y-22.116
X-215.682 Y-22.295
X-215.717 Y-22.351
X-215.85 Y-22.514
X-216.02 Y-22.639
X-216.215 Y-22.717
X-216.424 Y-22.744
X-217.419
G2 X-217.682 Y-22.566 Z-7.279 I0.011 J0.3
G1 X-217.7 Y-22.511 Z-7.156 F1200
X-217.708 Y-22.454 Z-7.033
X-217.709 Y-22.434 Z-6.99
X-219.235 Y22.433
X-219.229 Y22.501 Z-7.135
X-219.209 Y22.566 Z-7.279
G2 X-218.945 Y22.743 Z-7.99 I0.274 J-0.122 F200
G1 X-217.958 Y22.744
X-217.808 Y22.736
X-217.66 Y22.714
X-217.515 Y22.678
X-217.373 Y22.628
X-217.23 Y22.565
X-217.079 Y22.486
X-216.915 Y22.385
X-216.735 Y22.256
X-216.549 Y22.102
X-216.347 Y21.91
X-216.135 Y21.678
X-215.904 Y21.388
X-215.658 Y21.031
X-215.42 Y20.627
X-215.146 Y20.079
X-214.889 Y19.462
X-214.622 Y18.671
X-214.357 Y17.658
X-214.155 Y16.591
X-214.006 Y15.514
X-213.895 Y14.433
X-213.812 Y13.349
X-213.748 Y12.264
X-213.701 Y11.178
X-213.666 Y10.092
X-213.641 Y9.006
X-213.622 Y7.919
X-213.609 Y6.832
X-213.6 Y5.746
X-213.594 Y4.659
X-213.59 Y3.572
X-213.586 Y1.399
X-213.584 Y-1.862
Y-6.209
X-213.585 Y-8.383
X-213.587 Y-9.469
X-213.591 Y-10.556
X-213.597 Y-11.643
X-213.607 Y-12.73
X-213.623 Y-13.816
X-213.647 Y-14.903
X-213.681 Y-15.989
X-213.731 Y-17.075
X-213.8 Y-18.159
X-213.9 Y-19.242
X-214.04 Y-20.235
X-214.2 Y-20.986
X-214.349 Y-21.506
X-214.472 Y-21.844
X-214.589 Y-22.11
X-214.685 Y-22.291
X-214.722 Y-22.35
X-214.855 Y-22.513
X-215.025 Y-22.638
X-215.22 Y-22.717
X-215.429 Y-22.743
X-216.424 Y-22.744
G2 X-216.688 Y-22.566 Z-7.279 I0.01 J0.3
G1 X-216.706 Y-22.511 Z-7.156 F1200
X-216.713 Y-22.454 Z-7.033
X-216.714 Y-22.434 Z-6.99
X-218.248 Y22.433
X-218.242 Y22.501 Z-7.135
X-218.222 Y22.566 Z-7.279
G2 X-217.958 Y22.744 Z-7.99 I0.274 J-0.122 F200
G1 X-216.971
X-216.821 Y22.736
X-216.673 Y22.715
X-216.527 Y22.679
X-216.385 Y22.63
X-216.243 Y22.567
X-216.092 Y22.489
X-215.928 Y22.388
X-215.749 Y22.261
X-215.563 Y22.107
X-215.362 Y21.916
X-215.149 Y21.685
X-214.92 Y21.398
X-214.673 Y21.042
X-214.436 Y20.641
X-214.162 Y20.097
X-213.904 Y19.482
X-213.637 Y18.697
X-213.371 Y17.69
X-213.166 Y16.622
X-213.016 Y15.546
X-212.903 Y14.465
X-212.818 Y13.381
X-212.754 Y12.297
X-212.706 Y11.211
X-212.67 Y10.125
X-212.644 Y9.038
X-212.625 Y7.952
X-212.611 Y6.865
X-212.602 Y5.778
X-212.595 Y4.691
X-212.591 Y3.605
X-212.588 Y2.518
X-212.585 Y0.344
X-212.583 Y-4.003
X-212.584 Y-7.263
X-212.585 Y-8.35
X-212.588 Y-9.437
X-212.591 Y-10.524
X-212.598 Y-11.611
X-212.608 Y-12.697
X-212.624 Y-13.784
X-212.648 Y-14.87
X-212.683 Y-15.957
X-212.732 Y-17.042
X-212.802 Y-18.127
X-212.901 Y-19.209
X-213.04 Y-20.209
X-213.201 Y-20.97
X-213.349 Y-21.493
X-213.474 Y-21.837
X-213.592 Y-22.104
X-213.688 Y-22.286
X-213.726 Y-22.348
X-213.859 Y-22.513
X-214.029 Y-22.638
X-214.225 Y-22.716
X-214.435 Y-22.743
X-215.429
G2 X-215.693 Y-22.566 Z-7.279 I0.01 J0.3
G1 X-215.711 Y-22.511 Z-7.156 F1200
X-215.719 Y-22.454 Z-7.033
X-215.72 Y-22.433 Z-6.99
X-217.26 Y22.434
X-217.255 Y22.501 Z-7.135
X-217.234 Y22.566 Z-7.279
G2 X-216.971 Y22.744 Z-7.99 I0.274 J-0.122 F200
G1 X-215.984
X-215.834 Y22.736
X-215.685 Y22.716
X-215.54 Y22.68
X-215.398 Y22.631
X-215.255 Y22.569
X-215.105 Y22.491
X-214.942 Y22.392
X-214.764 Y22.265
X-214.577 Y22.112
X-214.377 Y21.924
X-214.164 Y21.693
X-213.936 Y21.409
X-213.689 Y21.054
X-213.452 Y20.657
X-213.178 Y20.117
X-212.919 Y19.503
X-212.653 Y18.725
X-212.385 Y17.723
X-212.178 Y16.657
X-212.026 Y15.58
X-211.912 Y14.5
X-211.825 Y13.416
X-211.76 Y12.332
X-211.71 Y11.246
X-211.674 Y10.16
X-211.646 Y9.073
X-211.627 Y7.987
X-211.613 Y6.9
X-211.603 Y5.813
X-211.596 Y4.726
X-211.591 Y3.64
X-211.588 Y2.553
X-211.585 Y0.379
X-211.584 Y-3.968
Y-7.228
X-211.586 Y-8.315
X-211.588 Y-9.402
X-211.592 Y-10.489
X-211.599 Y-11.575
X-211.609 Y-12.662
X-211.626 Y-13.749
X-211.65 Y-14.835
X-211.685 Y-15.922
X-211.734 Y-17.007
X-211.803 Y-18.092
X-211.902 Y-19.174
X-212.04 Y-20.181
X-212.201 Y-20.952
X-212.35 Y-21.478
X-212.475 Y-21.828
X-212.594 Y-22.098
X-212.69 Y-22.281
X-212.73 Y-22.347
X-212.863 Y-22.512
X-213.034 Y-22.637
X-213.23 Y-22.716
X-213.44 Y-22.743
X-214.435
G2 X-214.698 Y-22.566 Z-7.279 I0.01 J0.3
G1 X-214.717 Y-22.511 Z-7.157 F1200
X-214.724 Y-22.454 Z-7.034
X-214.725 Y-22.433 Z-6.99
X-216.273 Y22.433
Y22.434
X-216.268 Y22.501 Z-7.135
X-216.247 Y22.566 Z-7.279
G2 X-215.984 Y22.744 Z-7.99 I0.274 J-0.122 F200
G1 X-214.997 Y22.743
X-214.847 Y22.736
X-214.698 Y22.716
X-214.552 Y22.68
X-214.41 Y22.632
X-214.267 Y22.571
X-214.119 Y22.494
X-213.955 Y22.395
X-213.778 Y22.27
X-213.591 Y22.118
X-213.392 Y21.931
X-213.178 Y21.701
X-212.952 Y21.42
X-212.704 Y21.066
X-212.468 Y20.672
X-212.195 Y20.138
X-211.935 Y19.525
X-211.669 Y18.755
X-211.4 Y17.759
X-211.19 Y16.692
X-211.036 Y15.616
X-210.92 Y14.536
X-210.832 Y13.453
X-210.766 Y12.368
X-210.715 Y11.282
X-210.677 Y10.196
X-210.649 Y9.11
X-210.629 Y8.023
X-210.614 Y6.936
X-210.604 Y5.85
X-210.597 Y4.763
X-210.592 Y3.676
X-210.589 Y2.589
X-210.585 Y0.416
X-210.584 Y-3.931
X-210.585 Y-7.192
X-210.586 Y-8.279
X-210.588 Y-9.365
X-210.592 Y-10.452
X-210.599 Y-11.539
X-210.61 Y-12.626
X-210.627 Y-13.712
X-210.651 Y-14.799
X-210.686 Y-15.885
X-210.736 Y-16.971
X-210.805 Y-18.055
X-210.902 Y-19.138
X-211.04 Y-20.153
X-211.201 Y-20.933
X-211.349 Y-21.462
X-211.477 Y-21.819
X-211.595 Y-22.091
X-211.692 Y-22.275
X-211.735 Y-22.345
X-211.868 Y-22.511
X-212.038 Y-22.637
X-212.234 Y-22.716
X-212.445 Y-22.743
X-213.44
G2 X-213.703 Y-22.566 Z-7.279 I0.01 J0.3
G1 X-213.722 Y-22.511 Z-7.157 F1200
X-213.729 Y-22.454 Z-7.034
X-213.73 Y-22.433 Z-6.99
X-215.286 Y22.433
X-215.281 Y22.501 Z-7.135
X-215.26 Y22.566 Z-7.279
G2 X-214.997 Y22.743 Z-7.99 I0.274 J-0.122 F200
G1 X-214.01
X-213.86 Y22.736
X-213.711 Y22.716
X-213.565 Y22.681
X-213.423 Y22.634
X-213.28 Y22.573
X-213.133 Y22.497
X-212.968 Y22.398
X-212.792 Y22.275
X-212.605 Y22.123
X-212.407 Y21.938
X-212.193 Y21.709
X-211.968 Y21.432
X-211.719 Y21.078
X-211.484 Y20.688
X-211.213 Y20.159
X-210.951 Y19.547
X-210.685 Y18.785
X-210.415 Y17.795
X-210.203 Y16.729
X-210.046 Y15.654
X-209.929 Y14.573
X-209.839 Y13.49
X-209.771 Y12.406
X-209.72 Y11.32
X-209.681 Y10.234
X-209.652 Y9.147
X-209.631 Y8.061
X-209.616 Y6.974
X-209.605 Y5.887
X-209.598 Y4.801
X-209.593 Y3.714
X-209.589 Y2.627
X-209.586 Y0.454
X-209.584 Y-2.807
Y-6.067
X-209.586 Y-8.241
X-209.589 Y-9.328
X-209.593 Y-10.414
X-209.6 Y-11.501
X-209.611 Y-12.588
X-209.628 Y-13.675
X-209.653 Y-14.761
X-209.688 Y-15.847
X-209.737 Y-16.933
X-209.806 Y-18.018
X-209.903 Y-19.1
X-210.039 Y-20.123
X-210.201 Y-20.913
X-210.349 Y-21.446
X-210.478 Y-21.81
X-210.596 Y-22.083
X-210.693 Y-22.27
X-210.738 Y-22.344
X-210.871 Y-22.509
X-211.042 Y-22.636
X-211.239 Y-22.716
X-211.449 Y-22.743
X-212.445
G2 X-212.708 Y-22.566 Z-7.279 I0.01 J0.3
G1 X-212.727 Y-22.511 Z-7.157 F1200
X-212.734 Y-22.454 Z-7.034
X-212.735 Y-22.433 Z-6.99
X-214.299 Y22.433
X-214.294 Y22.501 Z-7.135
X-214.273 Y22.566 Z-7.279
G2 X-214.01 Y22.743 Z-7.99 I0.274 J-0.122 F200
G1 X-212.961
X-212.811 Y22.735
X-212.664 Y22.71
X-212.519 Y22.669
X-212.379 Y22.617
X-212.229 Y22.548
X-212.08 Y22.466
X-211.903 Y22.352
X-211.73 Y22.223
X-211.528 Y22.05
X-211.335 Y21.859
X-211.102 Y21.595
X-210.883 Y21.309
X-210.632 Y20.929
X-210.378 Y20.481
X-210.123 Y19.945
X-209.834 Y19.214
X-209.572 Y18.389
X-209.316 Y17.333
X-209.133 Y16.262
X-208.995 Y15.184
X-208.891 Y14.102
X-208.811 Y13.018
X-208.751 Y11.933
X-208.705 Y10.847
X-208.67 Y9.761
X-208.644 Y8.674
X-208.626 Y7.588
X-208.612 Y6.501
X-208.603 Y5.414
X-208.596 Y4.327
X-208.592 Y3.241
X-208.589 Y2.154
X-208.585 Y-0.02
X-208.584 Y-4.367
X-208.585 Y-7.627
X-208.587 Y-8.714
X-208.591 Y-9.801
X-208.596 Y-10.888
X-208.606 Y-11.974
X-208.619 Y-13.061
X-208.64 Y-14.148
X-208.669 Y-15.234
X-208.711 Y-16.32
X-208.768 Y-17.405
X-208.849 Y-18.489
X-208.965 Y-19.57
X-209.114 Y-20.497
X-209.266 Y-21.144
X-209.412 Y-21.62
X-209.529 Y-21.922
X-209.643 Y-22.166
X-209.739 Y-22.339
X-209.754 Y-22.363
X-209.888 Y-22.521
X-210.056 Y-22.642
X-210.248 Y-22.717
X-210.453 Y-22.743
X-211.449
G2 X-211.713 Y-22.565 Z-7.279 I0.01 J0.3
G1 X-211.731 Y-22.51 Z-7.156 F1200
X-211.739 Y-22.453 Z-7.033
X-211.74 Y-22.433 Z-6.99
X-213.251 Y22.433
X-213.245 Y22.501 Z-7.135
X-213.225 Y22.566 Z-7.279
G2 X-212.961 Y22.743 Z-7.99 I0.274 J-0.122 F200
G1 X-211.974
X-211.824 Y22.735
X-211.676 Y22.71
X-211.532 Y22.67
X-211.391 Y22.618
X-211.251 Y22.555
X-211.092 Y22.469
X-210.932 Y22.367
X-210.744 Y22.229
X-210.561 Y22.074
X-210.346 Y21.864
X-210.14 Y21.632
X-209.903 Y21.327
X-209.667 Y20.974
X-209.406 Y20.519
X-209.124 Y19.936
X-208.877 Y19.321
X-208.6 Y18.465
X-208.338 Y17.41
X-208.149 Y16.34
X-208.009 Y15.262
X-207.902 Y14.18
X-207.82 Y13.097
X-207.758 Y12.012
X-207.71 Y10.926
X-207.675 Y9.84
X-207.648 Y8.753
X-207.628 Y7.667
X-207.614 Y6.58
X-207.604 Y5.493
X-207.597 Y4.406
X-207.592 Y3.32
X-207.589 Y2.233
X-207.586 Y0.059
X-207.584 Y-3.201
Y-6.462
X-207.588 Y-8.635
X-207.591 Y-9.722
X-207.597 Y-10.809
X-207.606 Y-11.895
X-207.62 Y-12.982
X-207.64 Y-14.069
X-207.669 Y-15.155
X-207.71 Y-16.241
X-207.767 Y-17.326
X-207.846 Y-18.41
X-207.957 Y-19.491
X-208.105 Y-20.426
X-208.263 Y-21.114
X-208.412 Y-21.605
X-208.528 Y-21.909
X-208.644 Y-22.159
X-208.738 Y-22.331
X-208.757 Y-22.36
X-208.89 Y-22.519
X-209.059 Y-22.641
X-209.252 Y-22.717
X-209.458 Y-22.742
X-210.453 Y-22.743
G2 X-210.717 Y-22.565 Z-7.279 I0.01 J0.3
G1 X-210.735 Y-22.51 Z-7.156 F1200
X-210.743 Y-22.453 Z-7.033
Y-22.433 Z-6.99
X-212.263 Y22.433
X-212.258 Y22.501 Z-7.135
X-212.237 Y22.565 Z-7.279
G2 X-211.974 Y22.743 Z-7.99 I0.274 J-0.122 F200
G1 X-210.987
X-210.837 Y22.735
X-210.689 Y22.711
X-210.544 Y22.672
X-210.403 Y22.62
X-210.261 Y22.556
X-210.104 Y22.471
X-209.941 Y22.369
X-209.758 Y22.234
X-209.574 Y22.078
X-209.362 Y21.872
X-209.152 Y21.637
X-208.91 Y21.326
X-208.667 Y20.965
X-208.422 Y20.54
X-208.139 Y19.957
X-207.888 Y19.336
X-207.613 Y18.492
X-207.35 Y17.437
X-207.159 Y16.367
X-207.017 Y15.29
X-206.909 Y14.209
X-206.826 Y13.125
X-206.763 Y12.04
X-206.715 Y10.954
X-206.678 Y9.868
X-206.651 Y8.782
X-206.631 Y7.695
X-206.616 Y6.608
X-206.605 Y5.522
X-206.598 Y4.435
X-206.593 Y3.348
X-206.59 Y2.261
X-206.586 Y0.088
X-206.584 Y-3.173
X-206.585 Y-6.433
X-206.588 Y-8.607
X-206.592 Y-9.693
X-206.597 Y-10.78
X-206.607 Y-11.867
X-206.621 Y-12.954
X-206.641 Y-14.04
X-206.671 Y-15.127
X-206.712 Y-16.213
X-206.769 Y-17.298
X-206.847 Y-18.382
X-206.958 Y-19.463
X-207.107 Y-20.415
X-207.266 Y-21.107
X-207.416 Y-21.602
X-207.531 Y-21.906
X-207.647 Y-22.156
X-207.742 Y-22.329
X-207.762 Y-22.36
X-207.895 Y-22.519
X-208.063 Y-22.64
X-208.256 Y-22.716
X-208.462 Y-22.742
X-209.458
G2 X-209.721 Y-22.565 Z-7.279 I0.01 J0.3
G1 X-209.74 Y-22.51 Z-7.156 F1200
X-209.747 Y-22.453 Z-7.033
X-209.748 Y-22.432 Z-6.99
X-211.276 Y22.433
X-211.271 Y22.5 Z-7.135
X-211.25 Y22.565 Z-7.279
G2 X-210.987 Y22.743 Z-7.99 I0.274 J-0.122 F200
G1 X-210 Y22.742
X-209.85 Y22.735
X-209.702 Y22.711
X-209.557 Y22.673
X-209.416 Y22.622
X-209.274 Y22.558
X-209.116 Y22.473
X-208.953 Y22.371
X-208.768 Y22.236
X-208.584 Y22.081
X-208.375 Y21.879
X-208.165 Y21.645
X-207.925 Y21.338
X-207.682 Y20.98
X-207.437 Y20.557
X-207.155 Y19.98
X-206.904 Y19.363
X-206.629 Y18.525
X-206.364 Y17.477
X-206.171 Y16.408
X-206.027 Y15.33
X-205.917 Y14.249
X-205.833 Y13.166
X-205.769 Y12.081
X-205.719 Y10.995
X-205.682 Y9.909
X-205.654 Y8.823
X-205.633 Y7.736
X-205.618 Y6.649
X-205.607 Y5.563
X-205.599 Y4.476
X-205.594 Y3.389
X-205.59 Y2.302
X-205.586 Y0.129
X-205.584 Y-3.132
X-205.585 Y-6.392
X-205.588 Y-8.566
X-205.592 Y-9.653
X-205.598 Y-10.739
X-205.608 Y-11.826
X-205.622 Y-12.913
X-205.643 Y-13.999
X-205.672 Y-15.086
X-205.713 Y-16.172
X-205.77 Y-17.257
X-205.848 Y-18.341
X-205.957 Y-19.422
X-206.105 Y-20.38
X-206.265 Y-21.088
X-206.415 Y-21.587
X-206.532 Y-21.896
X-206.648 Y-22.149
X-206.743 Y-22.323
X-206.765 Y-22.358
X-206.899 Y-22.518
X-207.067 Y-22.64
X-207.261 Y-22.716
X-207.467 Y-22.742
X-208.462
G2 X-208.726 Y-22.565 Z-7.279 I0.01 J0.3
G1 X-208.744 Y-22.51 Z-7.156 F1200
X-208.752 Y-22.453 Z-7.033
X-208.753 Y-22.432 Z-6.99
X-210.289 Y22.432
X-210.284 Y22.5 Z-7.135
X-210.263 Y22.565 Z-7.279
G2 X-210 Y22.742 Z-7.99 I0.274 J-0.122 F200
G1 X-209.012
X-208.863 Y22.735
X-208.714 Y22.712
X-208.569 Y22.674
X-208.428 Y22.623
X-208.286 Y22.56
X-208.13 Y22.477
X-207.967 Y22.376
X-207.783 Y22.243
X-207.599 Y22.089
X-207.391 Y21.889
X-207.181 Y21.657
X-206.942 Y21.354
X-206.7 Y20.998
X-206.456 Y20.58
X-206.174 Y20.01
X-205.923 Y19.398
X-205.648 Y18.569
X-205.382 Y17.532
X-205.185 Y16.463
X-205.039 Y15.386
X-204.927 Y14.305
X-204.841 Y13.221
X-204.775 Y12.137
X-204.725 Y11.051
X-204.686 Y9.965
X-204.657 Y8.878
X-204.635 Y7.792
X-204.62 Y6.705
X-204.608 Y5.618
X-204.6 Y4.532
X-204.594 Y3.445
X-204.591 Y2.358
X-204.586 Y0.185
X-204.584 Y-3.076
X-204.585 Y-6.336
X-204.586 Y-7.423
X-204.588 Y-8.51
X-204.592 Y-9.597
X-204.598 Y-10.683
X-204.608 Y-11.77
X-204.622 Y-12.857
X-204.643 Y-13.943
X-204.673 Y-15.03
X-204.713 Y-16.116
X-204.77 Y-17.201
X-204.846 Y-18.285
X-204.953 Y-19.367
X-205.1 Y-20.336
X-205.262 Y-21.061
X-205.412 Y-21.565
X-205.531 Y-21.883
X-205.648 Y-22.139
X-205.743 Y-22.314
X-205.769 Y-22.355
X-205.902 Y-22.516
X-206.071 Y-22.639
X-206.265 Y-22.716
X-206.472 Y-22.742
X-207.467
G2 X-207.731 Y-22.565 Z-7.279 I0.01 J0.3
G1 X-207.749 Y-22.51 Z-7.157 F1200
X-207.757 Y-22.453 Z-7.034
Y-22.432 Z-6.99
X-209.302 Y22.432
X-209.296 Y22.5 Z-7.135
X-209.276 Y22.565 Z-7.279
G2 X-209.012 Y22.742 Z-7.99 I0.274 J-0.122 F200
G1 X-208.025
X-207.875 Y22.735
X-207.727 Y22.712
X-207.582 Y22.675
X-207.44 Y22.625
X-207.298 Y22.563
X-207.143 Y22.481
X-206.981 Y22.38
X-206.798 Y22.249
X-206.613 Y22.095
X-206.407 Y21.899
X-206.196 Y21.668
X-205.96 Y21.369
X-205.716 Y21.014
X-205.474 Y20.602
X-205.194 Y20.039
X-204.94 Y19.427
X-204.666 Y18.611
X-204.399 Y17.582
X-204.199 Y16.514
X-204.05 Y15.437
X-203.936 Y14.356
X-203.849 Y13.273
X-203.781 Y12.188
X-203.73 Y11.103
X-203.69 Y10.017
X-203.66 Y8.93
X-203.638 Y7.844
X-203.622 Y6.757
X-203.61 Y5.67
X-203.601 Y4.584
X-203.595 Y3.497
X-203.591 Y2.41
X-203.587 Y0.236
X-203.584 Y-3.024
X-203.585 Y-6.284
X-203.586 Y-7.371
X-203.589 Y-8.458
X-203.593 Y-9.545
X-203.599 Y-10.631
X-203.609 Y-11.718
X-203.623 Y-12.805
X-203.644 Y-13.892
X-203.673 Y-14.978
X-203.714 Y-16.064
X-203.77 Y-17.149
X-203.846 Y-18.233
X-203.951 Y-19.315
X-204.097 Y-20.296
X-204.259 Y-21.034
X-204.409 Y-21.544
X-204.53 Y-21.87
X-204.647 Y-22.129
X-204.742 Y-22.306
X-204.772 Y-22.353
X-204.905 Y-22.515
X-205.074 Y-22.638
X-205.269 Y-22.715
X-205.477 Y-22.742
X-206.472
G2 X-206.735 Y-22.565 Z-7.279 I0.01 J0.3
G1 X-206.754 Y-22.51 Z-7.157 F1200
X-206.761 Y-22.452 Z-7.034
X-206.762 Y-22.432 Z-6.99
X-208.315 Y22.432
X-208.309 Y22.5 Z-7.135
X-208.289 Y22.565 Z-7.279
G2 X-208.025 Y22.742 Z-7.99 I0.274 J-0.122 F200
G1 X-206.988
X-206.838 Y22.734
X-206.691 Y22.707
X-206.547 Y22.665
X-206.406 Y22.612
X-206.255 Y22.541
X-206.103 Y22.457
X-205.928 Y22.343
X-205.75 Y22.208
X-205.55 Y22.035
X-205.351 Y21.835
X-205.121 Y21.571
X-204.894 Y21.271
X-204.637 Y20.877
X-204.394 Y20.441
X-204.125 Y19.869
X-203.831 Y19.11
X-203.585 Y18.318
X-203.336 Y17.26
X-203.154 Y16.189
X-203.017 Y15.111
X-202.912 Y14.029
X-202.831 Y12.945
X-202.768 Y11.86
X-202.72 Y10.775
X-202.683 Y9.688
X-202.655 Y8.602
X-202.634 Y7.515
X-202.619 Y6.429
X-202.608 Y5.342
X-202.6 Y4.255
X-202.594 Y3.168
X-202.591 Y2.082
X-202.586 Y-0.092
X-202.584 Y-3.352
X-202.585 Y-6.613
X-202.587 Y-7.7
X-202.59 Y-8.786
X-202.595 Y-9.873
X-202.603 Y-10.96
X-202.614 Y-12.047
X-202.631 Y-13.133
X-202.654 Y-14.22
X-202.687 Y-15.306
X-202.733 Y-16.392
X-202.794 Y-17.477
X-202.879 Y-18.56
X-203 Y-19.64
X-203.156 Y-20.569
X-203.306 Y-21.19
X-203.453 Y-21.658
X-203.567 Y-21.947
X-203.68 Y-22.184
X-203.776 Y-22.354
X-203.784 Y-22.367
X-203.917 Y-22.523
X-204.084 Y-22.642
X-204.276 Y-22.716
X-204.479 Y-22.742
X-205.477
G2 X-205.74 Y-22.564 Z-7.279 I0.01 J0.3
G1 X-205.758 Y-22.509 Z-7.156 F1200
X-205.766 Y-22.452 Z-7.033
X-205.767 Y-22.432 Z-6.99
X-207.278 Y22.432
X-207.272 Y22.5 Z-7.135
X-207.252 Y22.565 Z-7.279
G2 X-206.988 Y22.742 Z-7.99 I0.274 J-0.122 F200
G1 X-206.001
X-205.851 Y22.734
X-205.703 Y22.708
X-205.559 Y22.667
X-205.419 Y22.614
X-205.279 Y22.55
X-205.117 Y22.461
X-204.957 Y22.359
X-204.767 Y22.217
X-204.582 Y22.059
X-204.366 Y21.846
X-204.16 Y21.613
X-203.917 Y21.296
X-203.684 Y20.944
X-203.414 Y20.468
X-203.136 Y19.887
X-202.891 Y19.268
X-202.614 Y18.397
X-202.357 Y17.341
X-202.171 Y16.27
X-202.031 Y15.193
X-201.923 Y14.111
X-201.84 Y13.028
X-201.775 Y11.943
X-201.726 Y10.857
X-201.688 Y9.771
X-201.659 Y8.685
X-201.637 Y7.598
X-201.621 Y6.511
X-201.61 Y5.425
X-201.601 Y4.338
X-201.595 Y3.251
X-201.591 Y2.164
X-201.587 Y-0.009
X-201.584 Y-3.27
X-201.586 Y-6.53
X-201.587 Y-7.617
X-201.59 Y-8.704
X-201.595 Y-9.79
X-201.603 Y-10.877
X-201.614 Y-11.964
X-201.631 Y-13.051
X-201.654 Y-14.137
X-201.687 Y-15.223
X-201.731 Y-16.309
X-201.792 Y-17.394
X-201.875 Y-18.478
X-201.991 Y-19.559
X-202.141 Y-20.478
X-202.3 Y-21.153
X-202.45 Y-21.635
X-202.563 Y-21.929
X-202.678 Y-22.174
X-202.773 Y-22.343
X-202.786 Y-22.363
X-202.919 Y-22.521
X-203.087 Y-22.641
X-203.279 Y-22.716
X-203.484 Y-22.741
X-204.479 Y-22.742
G2 X-204.743 Y-22.564 Z-7.279 I0.01 J0.3
G1 X-204.761 Y-22.509 Z-7.156 F1200
X-204.769 Y-22.452 Z-7.033
X-204.77 Y-22.432 Z-6.99
X-206.29 Y22.432
X-206.285 Y22.5 Z-7.135
X-206.264 Y22.564 Z-7.279
G2 X-206.001 Y22.742 Z-7.99 I0.274 J-0.122 F200
G1 X-205.014
X-204.864 Y22.734
X-204.716 Y22.708
X-204.572 Y22.669
X-204.431 Y22.616
X-204.289 Y22.552
X-204.128 Y22.464
X-203.967 Y22.361
X-203.781 Y22.223
X-203.597 Y22.067
X-203.38 Y21.854
X-203.171 Y21.619
X-202.926 Y21.3
X-202.686 Y20.94
X-202.438 Y20.505
X-202.154 Y19.914
X-201.905 Y19.291
X-201.629 Y18.428
X-201.369 Y17.373
X-201.181 Y16.302
X-201.039 Y15.225
X-200.93 Y14.144
X-200.846 Y13.06
X-200.781 Y11.975
X-200.73 Y10.89
X-200.691 Y9.804
X-200.662 Y8.717
X-200.639 Y7.631
X-200.623 Y6.544
X-200.611 Y5.457
X-200.602 Y4.37
X-200.596 Y3.284
X-200.592 Y2.197
X-200.587 Y0.023
X-200.584 Y-3.237
X-200.585 Y-5.411
X-200.588 Y-7.584
X-200.591 Y-8.671
X-200.596 Y-9.758
X-200.603 Y-10.845
X-200.615 Y-11.931
X-200.632 Y-13.018
X-200.655 Y-14.104
X-200.688 Y-15.191
X-200.733 Y-16.277
X-200.793 Y-17.362
X-200.876 Y-18.445
X-200.99 Y-19.526
X-201.143 Y-20.468
X-201.302 Y-21.145
X-201.452 Y-21.631
X-201.566 Y-21.925
X-201.681 Y-22.171
X-201.776 Y-22.341
X-201.79 Y-22.362
X-201.923 Y-22.52
X-202.091 Y-22.64
X-202.283 Y-22.716
X-202.488 Y-22.741
X-203.484
G2 X-203.747 Y-22.564 Z-7.279 I0.01 J0.3
G1 X-203.766 Y-22.509 Z-7.156 F1200
X-203.773 Y-22.452 Z-7.033
X-203.774 Y-22.431 Z-6.99
X-205.303 Y22.432
X-205.298 Y22.499 Z-7.135
X-205.277 Y22.564 Z-7.279
G2 X-205.014 Y22.742 Z-7.99 I0.274 J-0.122 F200
G1 X-204.027 Y22.741
X-203.877 Y22.734
X-203.729 Y22.709
X-203.584 Y22.67
X-203.443 Y22.618
X-203.302 Y22.554
X-203.141 Y22.467
X-202.979 Y22.365
X-202.792 Y22.227
X-202.608 Y22.072
X-202.396 Y21.865
X-202.188 Y21.632
X-201.945 Y21.318
X-201.705 Y20.961
X-201.457 Y20.53
X-201.173 Y19.945
X-200.925 Y19.328
X-200.647 Y18.472
X-200.384 Y17.418
X-200.193 Y16.348
X-200.049 Y15.27
X-199.939 Y14.189
X-199.853 Y13.106
X-199.786 Y12.021
X-199.735 Y10.936
X-199.695 Y9.85
X-199.665 Y8.763
X-199.642 Y7.677
X-199.625 Y6.59
X-199.612 Y5.503
X-199.603 Y4.416
X-199.597 Y3.33
X-199.592 Y2.243
X-199.589 Y1.156
X-199.586 Y-1.017
X-199.585 Y-4.278
X-199.586 Y-6.451
X-199.588 Y-7.538
X-199.591 Y-8.625
X-199.596 Y-9.712
X-199.604 Y-10.799
X-199.616 Y-11.885
X-199.633 Y-12.972
X-199.656 Y-14.058
X-199.689 Y-15.145
X-199.733 Y-16.231
X-199.794 Y-17.316
X-199.875 Y-18.4
X-199.988 Y-19.48
X-200.139 Y-20.428
X-200.3 Y-21.122
X-200.45 Y-21.614
X-200.565 Y-21.914
X-200.681 Y-22.162
X-200.776 Y-22.334
X-200.793 Y-22.36
X-200.926 Y-22.519
X-201.094 Y-22.64
X-201.287 Y-22.715
X-201.492 Y-22.741
X-202.488
G2 X-202.751 Y-22.564 Z-7.279 I0.01 J0.3
G1 X-202.77 Y-22.509 Z-7.156 F1200
X-202.777 Y-22.452 Z-7.033
X-202.778 Y-22.431 Z-6.99
X-204.316 Y22.431
X-204.311 Y22.499 Z-7.135
X-204.29 Y22.564 Z-7.279
G2 X-204.027 Y22.741 Z-7.99 I0.274 J-0.122 F200
G1 X-203.039
X-202.89 Y22.734
X-202.741 Y22.71
X-202.596 Y22.671
X-202.455 Y22.62
X-202.314 Y22.557
X-202.155 Y22.472
X-201.993 Y22.37
X-201.808 Y22.235
X-201.624 Y22.08
X-201.414 Y21.877
X-201.205 Y21.645
X-200.963 Y21.336
X-200.722 Y20.98
X-200.477 Y20.556
X-200.193 Y19.977
X-199.943 Y19.364
X-199.666 Y18.518
X-199.399 Y17.464
X-199.205 Y16.395
X-199.059 Y15.318
X-198.947 Y14.237
X-198.86 Y13.153
X-198.792 Y12.069
X-198.74 Y10.983
X-198.699 Y9.897
X-198.668 Y8.811
X-198.645 Y7.724
X-198.627 Y6.638
X-198.614 Y5.551
X-198.605 Y4.464
X-198.598 Y3.377
X-198.593 Y2.291
X-198.59 Y1.204
X-198.586 Y-0.97
X-198.585 Y-4.23
X-198.586 Y-6.404
X-198.588 Y-7.491
X-198.591 Y-8.577
X-198.597 Y-9.664
X-198.605 Y-10.751
X-198.616 Y-11.838
X-198.633 Y-12.924
X-198.657 Y-14.011
X-198.69 Y-15.097
X-198.734 Y-16.183
X-198.794 Y-17.268
X-198.874 Y-18.352
X-198.985 Y-19.433
X-199.136 Y-20.392
X-199.298 Y-21.099
X-199.448 Y-21.596
X-199.565 Y-21.902
X-199.681 Y-22.154
X-199.776 Y-22.326
X-199.796 Y-22.358
X-199.929 Y-22.517
X-200.097 Y-22.639
X-200.291 Y-22.715
X-200.497 Y-22.741
X-201.492
G2 X-201.756 Y-22.564 Z-7.279 I0.01 J0.3
G1 X-201.774 Y-22.509 Z-7.157 F1200
X-201.782 Y-22.452 Z-7.034
X-201.783 Y-22.431 Z-6.99
X-203.329 Y22.431
X-203.323 Y22.499 Z-7.135
X-203.303 Y22.564 Z-7.279
G2 X-203.039 Y22.741 Z-7.99 I0.274 J-0.122 F200
G1 X-202.052
X-201.902 Y22.734
X-201.754 Y22.711
X-201.609 Y22.673
X-201.468 Y22.622
X-201.326 Y22.559
X-201.169 Y22.476
X-201.007 Y22.375
X-200.823 Y22.242
X-200.638 Y22.088
X-200.43 Y21.888
X-200.22 Y21.656
X-199.981 Y21.353
X-199.739 Y20.996
X-199.495 Y20.579
X-199.212 Y20.007
X-198.961 Y19.394
X-198.683 Y18.559
X-198.414 Y17.513
X-198.218 Y16.444
X-198.07 Y15.367
X-197.956 Y14.286
X-197.867 Y13.203
X-197.798 Y12.119
X-197.745 Y11.033
X-197.703 Y9.947
X-197.671 Y8.861
X-197.647 Y7.774
X-197.629 Y6.688
X-197.616 Y5.601
X-197.606 Y4.514
X-197.599 Y3.427
X-197.594 Y2.341
X-197.59 Y1.254
X-197.586 Y-0.92
X-197.585 Y-4.18
X-197.586 Y-6.354
X-197.588 Y-7.441
X-197.592 Y-8.527
X-197.597 Y-9.614
X-197.605 Y-10.701
X-197.617 Y-11.788
X-197.634 Y-12.874
X-197.658 Y-13.961
X-197.69 Y-15.047
X-197.734 Y-16.133
X-197.794 Y-17.218
X-197.873 Y-18.302
X-197.983 Y-19.383
X-198.132 Y-20.352
X-198.294 Y-21.073
X-198.445 Y-21.576
X-198.563 Y-21.889
X-198.68 Y-22.144
X-198.775 Y-22.318
X-198.799 Y-22.356
X-198.932 Y-22.516
X-199.101 Y-22.638
X-199.294 Y-22.715
X-199.501 Y-22.741
X-200.497
G2 X-200.76 Y-22.563 Z-7.279 I0.01 J0.3
G1 X-200.779 Y-22.509 Z-7.157 F1200
X-200.786 Y-22.451 Z-7.034
X-200.787 Y-22.431 Z-6.99
X-202.342 Y22.431
X-202.336 Y22.499 Z-7.135
X-202.316 Y22.564 Z-7.279
G2 X-202.052 Y22.741 Z-7.99 I0.274 J-0.122 F200
G1 X-201.065
X-200.915 Y22.733
X-200.767 Y22.711
X-200.621 Y22.674
X-200.48 Y22.624
X-200.338 Y22.562
X-200.183 Y22.48
X-200.02 Y22.379
X-199.838 Y22.248
X-199.653 Y22.095
X-199.447 Y21.898
X-199.236 Y21.667
X-198.999 Y21.369
X-198.755 Y21.013
X-198.513 Y20.601
X-198.231 Y20.036
X-197.977 Y19.424
X-197.701 Y18.601
X-197.432 Y17.566
X-197.231 Y16.498
X-197.081 Y15.422
X-196.965 Y14.341
X-196.875 Y13.258
X-196.805 Y12.173
X-196.75 Y11.088
X-196.708 Y10.002
X-196.675 Y8.916
X-196.65 Y7.829
X-196.631 Y6.743
X-196.617 Y5.656
X-196.607 Y4.569
X-196.6 Y3.482
X-196.594 Y2.396
X-196.591 Y1.309
X-196.587 Y-0.865
X-196.585 Y-4.125
X-196.586 Y-6.299
X-196.588 Y-7.386
X-196.592 Y-8.472
X-196.597 Y-9.559
X-196.606 Y-10.646
X-196.617 Y-11.733
X-196.635 Y-12.819
X-196.658 Y-13.906
X-196.691 Y-14.992
X-196.735 Y-16.078
X-196.793 Y-17.163
X-196.872 Y-18.247
X-196.979 Y-19.329
X-197.127 Y-20.308
X-197.29 Y-21.045
X-197.441 Y-21.553
X-197.561 Y-21.875
X-197.679 Y-22.133
X-197.774 Y-22.31
X-197.801 Y-22.353
X-197.935 Y-22.514
X-198.104 Y-22.637
X-198.298 Y-22.714
X-198.505 Y-22.74
X-199.501 Y-22.741
G2 X-199.764 Y-22.563 Z-7.279 I0.01 J0.3
G1 X-199.783 Y-22.509 Z-7.157 F1200
X-199.79 Y-22.451 Z-7.034
X-199.791 Y-22.431 Z-6.99
X-201.354 Y22.431
X-201.349 Y22.499 Z-7.135
X-201.328 Y22.564 Z-7.279
G2 X-201.065 Y22.741 Z-7.99 I0.274 J-0.122 F200
G1 X-200.078
X-199.928 Y22.733
X-199.779 Y22.712
X-199.634 Y22.675
X-199.492 Y22.626
X-199.35 Y22.564
X-199.197 Y22.484
X-199.034 Y22.384
X-198.853 Y22.255
X-198.667 Y22.102
X-198.463 Y21.908
X-198.251 Y21.678
X-198.017 Y21.384
X-197.772 Y21.029
X-197.531 Y20.623
X-197.25 Y20.065
X-196.994 Y19.454
X-196.719 Y18.644
X-196.449 Y17.618
X-196.245 Y16.551
X-196.092 Y15.475
X-195.974 Y14.394
X-195.883 Y13.311
X-195.811 Y12.227
X-195.755 Y11.141
X-195.712 Y10.055
X-195.678 Y8.969
X-195.653 Y7.883
X-195.633 Y6.796
X-195.619 Y5.709
X-195.608 Y4.623
X-195.601 Y3.536
X-195.595 Y2.449
X-195.591 Y1.362
X-195.587 Y-0.811
X-195.585 Y-2.985
Y-5.158
X-195.589 Y-7.332
X-195.592 Y-8.419
X-195.598 Y-9.506
X-195.606 Y-10.592
X-195.618 Y-11.679
X-195.635 Y-12.766
X-195.659 Y-13.852
X-195.691 Y-14.939
X-195.735 Y-16.025
X-195.793 Y-17.11
X-195.87 Y-18.194
X-195.977 Y-19.275
X-196.122 Y-20.266
X-196.287 Y-21.016
X-196.437 Y-21.53
X-196.559 Y-21.861
X-196.677 Y-22.123
X-196.773 Y-22.301
X-196.804 Y-22.351
X-196.937 Y-22.513
X-197.106 Y-22.636
X-197.301 Y-22.714
X-197.509 Y-22.74
X-198.505
G2 X-198.769 Y-22.563 Z-7.279 I0.01 J0.3
G1 X-198.787 Y-22.508 Z-7.157 F1200
X-198.795 Y-22.451 Z-7.034
Y-22.43 Z-6.99
X-200.367 Y22.43
Y22.431
X-200.362 Y22.499 Z-7.135
X-200.341 Y22.563 Z-7.279
G2 X-200.078 Y22.741 Z-7.99 I0.274 J-0.122 F200
G1 X-199.091
X-198.941 Y22.733
X-198.792 Y22.713
X-198.647 Y22.677
X-198.505 Y22.628
X-198.362 Y22.566
X-198.211 Y22.488
X-198.047 Y22.388
X-197.868 Y22.261
X-197.682 Y22.109
X-197.479 Y21.918
X-197.267 Y21.689
X-197.035 Y21.4
X-196.788 Y21.046
X-196.549 Y20.644
X-196.27 Y20.094
X-196.012 Y19.484
X-195.738 Y18.686
X-195.466 Y17.67
X-195.258 Y16.603
X-195.103 Y15.527
X-194.983 Y14.447
X-194.891 Y13.364
X-194.818 Y12.28
X-194.761 Y11.195
X-194.716 Y10.109
X-194.682 Y9.022
X-194.656 Y7.936
X-194.636 Y6.849
X-194.621 Y5.763
X-194.61 Y4.676
X-194.602 Y3.589
X-194.596 Y2.502
X-194.592 Y1.416
X-194.587 Y-0.758
X-194.585 Y-2.932
X-194.586 Y-5.105
X-194.589 Y-7.279
X-194.593 Y-8.366
X-194.598 Y-9.452
X-194.606 Y-10.539
X-194.619 Y-11.626
X-194.636 Y-12.713
X-194.659 Y-13.799
X-194.692 Y-14.885
X-194.735 Y-15.971
X-194.792 Y-17.057
X-194.869 Y-18.141
X-194.974 Y-19.222
X-195.118 Y-20.224
X-195.283 Y-20.988
X-195.433 Y-21.507
X-195.557 Y-21.848
X-195.676 Y-22.112
X-195.772 Y-22.293
X-195.807 Y-22.348
X-195.94 Y-22.511
X-196.109 Y-22.636
X-196.304 Y-22.714
X-196.513 Y-22.74
X-197.509
G2 X-197.773 Y-22.563 Z-7.279 I0.01 J0.3
G1 X-197.791 Y-22.508 Z-7.157 F1200
X-197.799 Y-22.451 Z-7.034
Y-22.43 Z-6.99
X-199.38 Y22.43
Y22.431
X-199.375 Y22.498 Z-7.135
X-199.354 Y22.563 Z-7.279
G2 X-199.091 Y22.741 Z-7.99 I0.274 J-0.122 F200
G1 X-198.103 Y22.74
X-197.954 Y22.733
X-197.805 Y22.713
X-197.659 Y22.678
X-197.517 Y22.63
X-197.374 Y22.569
X-197.225 Y22.492
X-197.061 Y22.393
X-196.883 Y22.268
X-196.696 Y22.116
X-196.495 Y21.928
X-196.282 Y21.699
X-196.052 Y21.415
X-195.805 Y21.063
X-195.567 Y20.666
X-195.289 Y20.124
X-195.029 Y19.515
X-194.756 Y18.729
X-194.483 Y17.722
X-194.272 Y16.655
X-194.114 Y15.58
X-193.993 Y14.5
X-193.898 Y13.417
X-193.824 Y12.333
X-193.766 Y11.248
X-193.721 Y10.162
X-193.686 Y9.076
X-193.659 Y7.989
X-193.638 Y6.903
X-193.623 Y5.816
X-193.611 Y4.729
X-193.603 Y3.643
X-193.597 Y2.556
X-193.592 Y1.469
X-193.587 Y-0.704
X-193.585 Y-2.878
X-193.586 Y-5.052
X-193.587 Y-6.138
X-193.589 Y-7.225
X-193.593 Y-8.312
X-193.598 Y-9.399
X-193.607 Y-10.486
X-193.619 Y-11.572
X-193.636 Y-12.659
X-193.66 Y-13.745
X-193.692 Y-14.832
X-193.735 Y-15.918
X-193.792 Y-17.003
X-193.868 Y-18.087
X-193.971 Y-19.169
X-194.113 Y-20.181
X-194.279 Y-20.959
X-194.429 Y-21.484
X-194.555 Y-21.834
X-194.674 Y-22.102
X-194.77 Y-22.284
X-194.809 Y-22.346
X-194.942 Y-22.51
X-195.112 Y-22.635
X-195.308 Y-22.713
X-195.517 Y-22.74
X-196.513
G2 X-196.777 Y-22.563 Z-7.279 I0.01 J0.3
G1 X-196.795 Y-22.508 Z-7.157 F1200
X-196.802 Y-22.451 Z-7.034
X-196.803 Y-22.43 Z-6.99
X-198.393 Y22.43
X-198.387 Y22.498 Z-7.135
X-198.367 Y22.563 Z-7.279
G2 X-198.103 Y22.74 Z-7.99 I0.274 J-0.122 F200
G1 X-197.116
X-196.966 Y22.733
X-196.818 Y22.714
X-196.672 Y22.679
X-196.529 Y22.632
X-196.386 Y22.571
X-196.239 Y22.496
X-196.075 Y22.398
X-195.898 Y22.274
X-195.711 Y22.123
X-195.512 Y21.939
X-195.298 Y21.711
X-195.07 Y21.431
X-194.822 Y21.08
X-194.585 Y20.689
X-194.309 Y20.154
X-194.047 Y19.546
X-193.775 Y18.772
X-193.501 Y17.774
X-193.286 Y16.709
X-193.125 Y15.634
X-193.002 Y14.554
X-192.906 Y13.471
X-192.831 Y12.387
X-192.772 Y11.302
X-192.725 Y10.216
X-192.689 Y9.13
X-192.662 Y8.044
X-192.64 Y6.957
X-192.624 Y5.87
X-192.613 Y4.784
X-192.604 Y3.697
X-192.597 Y2.61
X-192.593 Y1.523
X-192.59 Y0.437
X-192.586 Y-1.737
X-192.585 Y-3.911
X-192.587 Y-6.084
X-192.589 Y-7.171
X-192.593 Y-8.258
X-192.599 Y-9.345
X-192.607 Y-10.431
X-192.62 Y-11.518
X-192.637 Y-12.605
X-192.66 Y-13.691
X-192.692 Y-14.778
X-192.735 Y-15.864
X-192.792 Y-16.949
X-192.867 Y-18.033
X-192.968 Y-19.115
X-193.109 Y-20.138
X-193.274 Y-20.93
X-193.424 Y-21.46
X-193.553 Y-21.82
X-193.672 Y-22.091
X-193.769 Y-22.276
X-193.811 Y-22.344
X-193.944 Y-22.508
X-194.114 Y-22.634
X-194.31 Y-22.713
X-194.52 Y-22.74
X-195.517
G2 X-195.78 Y-22.563 Z-7.279 I0.01 J0.3
G1 X-195.799 Y-22.508 Z-7.157 F1200
X-195.806 Y-22.451 Z-7.034
X-195.807 Y-22.43 Z-6.99
X-197.406 Y22.43
X-197.4 Y22.498 Z-7.135
X-197.38 Y22.563 Z-7.279
G2 X-197.116 Y22.74 Z-7.99 I0.274 J-0.122 F200
G1 X-196.054
X-195.905 Y22.733
X-195.757 Y22.706
X-195.613 Y22.664
X-195.473 Y22.611
X-195.323 Y22.541
X-195.171 Y22.457
X-194.993 Y22.342
X-194.819 Y22.212
X-194.616 Y22.036
X-194.42 Y21.841
X-194.187 Y21.574
X-193.964 Y21.281
X-193.713 Y20.899
X-193.452 Y20.433
X-193.197 Y19.894
X-192.906 Y19.15
X-192.632 Y18.276
X-192.38 Y17.219
X-192.198 Y16.148
X-192.059 Y15.07
X-191.952 Y13.988
X-191.867 Y12.905
X-191.801 Y11.82
X-191.748 Y10.735
X-191.708 Y9.648
X-191.676 Y8.562
X-191.651 Y7.476
X-191.633 Y6.389
X-191.619 Y5.302
X-191.608 Y4.216
X-191.601 Y3.129
X-191.595 Y2.042
X-191.592 Y0.955
X-191.587 Y-1.218
X-191.586 Y-3.392
X-191.587 Y-5.566
X-191.588 Y-6.652
X-191.592 Y-7.739
X-191.596 Y-8.826
X-191.604 Y-9.913
X-191.614 Y-10.999
X-191.629 Y-12.086
X-191.65 Y-13.173
X-191.678 Y-14.259
X-191.715 Y-15.345
X-191.765 Y-16.431
X-191.831 Y-17.516
X-191.919 Y-18.599
X-192.044 Y-19.679
X-192.195 Y-20.562
X-192.352 Y-21.208
X-192.497 Y-21.661
X-192.612 Y-21.953
X-192.724 Y-22.186
X-192.821 Y-22.358
X-192.827 Y-22.367
X-192.96 Y-22.522
X-193.127 Y-22.64
X-193.318 Y-22.714
X-193.521 Y-22.74
X-194.52
G2 X-194.784 Y-22.562 Z-7.279 I0.01 J0.3
G1 X-194.802 Y-22.508 Z-7.156 F1200
X-194.81 Y-22.45 Z-7.033
Y-22.43 Z-6.99
X-196.344 Y22.43
X-196.338 Y22.498 Z-7.135
X-196.318 Y22.563 Z-7.279
G2 X-196.054 Y22.74 Z-7.99 I0.274 J-0.122 F200
G1 X-195.067
X-194.917 Y22.732
X-194.77 Y22.706
X-194.625 Y22.666
X-194.485 Y22.614
X-194.345 Y22.55
X-194.183 Y22.462
X-194.023 Y22.36
X-193.834 Y22.22
X-193.651 Y22.063
X-193.433 Y21.85
X-193.226 Y21.616
X-192.985 Y21.304
X-192.751 Y20.952
X-192.485 Y20.486
X-192.205 Y19.904
X-191.947 Y19.258
X-191.665 Y18.378
X-191.406 Y17.323
X-191.218 Y16.252
X-191.075 Y15.175
X-190.965 Y14.094
X-190.878 Y13.011
X-190.809 Y11.926
X-190.756 Y10.84
X-190.713 Y9.754
X-190.68 Y8.668
X-190.655 Y7.582
X-190.636 Y6.495
X-190.621 Y5.408
X-190.61 Y4.322
X-190.602 Y3.235
X-190.596 Y2.148
X-190.592 Y1.061
X-190.587 Y-1.112
X-190.586 Y-3.286
X-190.587 Y-5.459
X-190.589 Y-6.546
X-190.592 Y-7.633
X-190.596 Y-8.72
X-190.604 Y-9.807
X-190.614 Y-10.893
X-190.629 Y-11.98
X-190.649 Y-13.067
X-190.677 Y-14.153
X-190.713 Y-15.239
X-190.762 Y-16.325
X-190.826 Y-17.41
X-190.912 Y-18.493
X-191.03 Y-19.574
X-191.185 Y-20.501
X-191.345 Y-21.169
X-191.495 Y-21.648
X-191.609 Y-21.938
X-191.724 Y-22.18
X-191.819 Y-22.349
X-191.828 Y-22.364
X-191.961 Y-22.52
X-192.129 Y-22.639
X-192.32 Y-22.714
X-192.524 Y-22.739
X-193.521 Y-22.74
G2 X-193.785 Y-22.562 Z-7.279 I0.01 J0.3
G1 X-193.803 Y-22.507 Z-7.157 F1200
X-193.811 Y-22.45 Z-7.034
X-193.812 Y-22.43 Z-6.99
X-195.357 Y22.43
X-195.351 Y22.498 Z-7.135
X-195.331 Y22.563 Z-7.279
G2 X-195.067 Y22.74 Z-7.99 I0.274 J-0.122 F200
G1 X-194.08
X-193.93 Y22.732
X-193.782 Y22.707
X-193.638 Y22.668
X-193.497 Y22.616
X-193.355 Y22.552
X-193.195 Y22.465
X-193.033 Y22.362
X-192.848 Y22.226
X-192.664 Y22.07
X-192.449 Y21.86
X-192.24 Y21.626
X-191.996 Y21.31
X-191.755 Y20.951
X-191.503 Y20.511
X-191.215 Y19.917
X-190.963 Y19.291
X-190.683 Y18.424
X-190.421 Y17.369
X-190.23 Y16.299
X-190.085 Y15.222
X-189.973 Y14.141
X-189.885 Y13.058
X-189.815 Y11.974
X-189.76 Y10.888
X-189.717 Y9.802
X-189.684 Y8.716
X-189.658 Y7.629
X-189.638 Y6.543
X-189.623 Y5.456
X-189.611 Y4.369
X-189.603 Y3.283
X-189.597 Y2.196
X-189.593 Y1.109
X-189.588 Y-1.065
X-189.586 Y-3.238
X-189.587 Y-5.412
X-189.589 Y-6.498
X-189.592 Y-7.585
X-189.597 Y-8.672
X-189.604 Y-9.759
X-189.615 Y-10.846
X-189.629 Y-11.932
X-189.65 Y-13.019
X-189.677 Y-14.105
X-189.714 Y-15.191
X-189.762 Y-16.277
X-189.826 Y-17.362
X-189.911 Y-18.446
X-190.027 Y-19.526
X-190.181 Y-20.465
X-190.343 Y-21.148
X-190.494 Y-21.634
X-190.608 Y-21.928
X-190.723 Y-22.173
X-190.818 Y-22.342
X-190.83 Y-22.362
X-190.964 Y-22.519
X-191.131 Y-22.639
X-191.323 Y-22.714
X-191.528 Y-22.739
X-192.524
G2 X-192.788 Y-22.562 Z-7.279 I0.01 J0.3
G1 X-192.806 Y-22.507 Z-7.157 F1200
X-192.814 Y-22.45 Z-7.034
X-192.815 Y-22.429 Z-6.99
X-194.369 Y22.429
Y22.43
X-194.364 Y22.497 Z-7.135
X-194.343 Y22.562 Z-7.279
G2 X-194.08 Y22.74 Z-7.99 I0.274 J-0.122 F200
G1 X-193.093
X-192.943 Y22.732
X-192.795 Y22.708
X-192.65 Y22.669
X-192.509 Y22.618
X-192.367 Y22.554
X-192.208 Y22.468
X-192.046 Y22.367
X-191.86 Y22.23
X-191.676 Y22.075
X-191.463 Y21.869
X-191.254 Y21.637
X-191.01 Y21.323
X-190.769 Y20.966
X-190.519 Y20.534
X-190.233 Y19.948
X-189.982 Y19.33
X-189.701 Y18.473
X-189.436 Y17.419
X-189.242 Y16.35
X-189.095 Y15.273
X-188.981 Y14.192
X-188.892 Y13.109
X-188.821 Y12.024
X-188.766 Y10.939
X-188.722 Y9.853
X-188.687 Y8.767
X-188.661 Y7.68
X-188.64 Y6.594
X-188.624 Y5.507
X-188.613 Y4.42
X-188.604 Y3.334
X-188.598 Y2.247
X-188.593 Y1.16
X-188.59 Y0.073
X-188.587 Y-2.1
X-188.586 Y-4.274
X-188.589 Y-6.447
X-188.592 Y-7.534
X-188.597 Y-8.621
X-188.604 Y-9.708
X-188.615 Y-10.795
X-188.63 Y-11.881
X-188.65 Y-12.968
X-188.678 Y-14.054
X-188.714 Y-15.14
X-188.762 Y-16.226
X-188.825 Y-17.311
X-188.909 Y-18.395
X-189.023 Y-19.475
X-189.177 Y-20.426
X-189.339 Y-21.124
X-189.49 Y-21.615
X-189.606 Y-21.915
X-189.722 Y-22.163
X-189.817 Y-22.334
X-189.833 Y-22.359
X-189.966 Y-22.517
X-190.134 Y-22.638
X-190.326 Y-22.713
X-190.532 Y-22.739
X-191.528
G2 X-191.791 Y-22.562 Z-7.279 I0.01 J0.3
G1 X-191.81 Y-22.507 Z-7.157 F1200
X-191.817 Y-22.45 Z-7.034
X-191.818 Y-22.429 Z-6.99
X-193.382 Y22.429
Y22.43
X-193.377 Y22.497 Z-7.135
X-193.356 Y22.562 Z-7.279
G2 X-193.093 Y22.74 Z-7.99 I0.274 J-0.122 F200
G1 X-192.106 Y22.739
X-191.956 Y22.732
X-191.808 Y22.709
X-191.662 Y22.67
X-191.521 Y22.62
X-191.38 Y22.557
X-191.221 Y22.473
X-191.059 Y22.372
X-190.874 Y22.237
X-190.69 Y22.083
X-190.479 Y21.881
X-190.27 Y21.65
X-190.028 Y21.342
X-189.786 Y20.986
X-189.539 Y20.563
X-189.253 Y19.984
X-189.002 Y19.372
X-188.722 Y18.526
X-188.452 Y17.473
X-188.255 Y16.404
X-188.106 Y15.328
X-187.99 Y14.247
X-187.899 Y13.164
X-187.828 Y12.08
X-187.771 Y10.994
X-187.726 Y9.909
X-187.691 Y8.822
X-187.663 Y7.736
X-187.642 Y6.649
X-187.626 Y5.563
X-187.614 Y4.476
X-187.605 Y3.389
X-187.599 Y2.302
X-187.594 Y1.216
X-187.591 Y0.129
X-187.587 Y-2.045
Y-4.218
X-187.589 Y-6.392
X-187.592 Y-7.479
X-187.597 Y-8.566
X-187.605 Y-9.652
X-187.615 Y-10.739
X-187.63 Y-11.826
X-187.651 Y-12.912
X-187.678 Y-13.999
X-187.714 Y-15.085
X-187.762 Y-16.171
X-187.824 Y-17.256
X-187.907 Y-18.339
X-188.019 Y-19.42
X-188.171 Y-20.382
X-188.335 Y-21.096
X-188.486 Y-21.594
X-188.603 Y-21.901
X-188.72 Y-22.153
X-188.815 Y-22.326
X-188.835 Y-22.357
X-188.968 Y-22.516
X-189.136 Y-22.637
X-189.329 Y-22.713
X-189.535 Y-22.739
X-190.532
G2 X-190.795 Y-22.562 Z-7.279 I0.01 J0.3
G1 X-190.813 Y-22.507 Z-7.157 F1200
X-190.821 Y-22.45 Z-7.034
X-190.822 Y-22.429 Z-6.99
X-192.395 Y22.429
X-192.39 Y22.497 Z-7.135
X-192.369 Y22.562 Z-7.279
G2 X-192.106 Y22.739 Z-7.99 I0.274 J-0.122 F200
G1 X-191.118
X-190.969 Y22.732
X-190.82 Y22.709
X-190.675 Y22.672
X-190.533 Y22.622
X-190.392 Y22.56
X-190.235 Y22.478
X-190.073 Y22.377
X-189.889 Y22.245
X-189.705 Y22.092
X-189.497 Y21.894
X-189.286 Y21.663
X-189.047 Y21.361
X-188.804 Y21.007
X-188.559 Y20.592
X-188.275 Y20.021
X-188.022 Y19.412
X-187.742 Y18.579
X-187.47 Y17.536
X-187.27 Y16.467
X-187.118 Y15.391
X-187 Y14.311
X-186.908 Y13.228
X-186.834 Y12.144
X-186.777 Y11.058
X-186.731 Y9.973
X-186.695 Y8.886
X-186.667 Y7.8
X-186.645 Y6.713
X-186.628 Y5.627
X-186.616 Y4.54
X-186.606 Y3.453
X-186.6 Y2.366
X-186.595 Y1.28
X-186.591 Y0.193
X-186.587 Y-1.981
Y-4.154
X-186.588 Y-5.241
X-186.589 Y-6.328
X-186.593 Y-7.415
X-186.598 Y-8.501
X-186.605 Y-9.588
X-186.616 Y-10.675
X-186.631 Y-11.762
X-186.651 Y-12.848
X-186.678 Y-13.935
X-186.714 Y-15.021
X-186.761 Y-16.107
X-186.823 Y-17.192
X-186.904 Y-18.275
X-187.014 Y-19.357
X-187.164 Y-20.331
X-187.329 Y-21.063
X-187.48 Y-21.567
X-187.6 Y-21.885
X-187.717 Y-22.14
X-187.812 Y-22.315
X-187.837 Y-22.354
X-187.97 Y-22.514
X-188.139 Y-22.636
X-188.332 Y-22.713
X-188.539 Y-22.739
X-189.535
G2 X-189.799 Y-22.562 Z-7.279 I0.01 J0.3
G1 X-189.817 Y-22.507 Z-7.157 F1200
X-189.825 Y-22.45 Z-7.034
Y-22.429 Z-6.99
X-191.408 Y22.429
X-191.402 Y22.497 Z-7.135
X-191.382 Y22.562 Z-7.279
G2 X-191.118 Y22.739 Z-7.99 I0.274 J-0.122 F200
G1 X-190.131
X-189.981 Y22.731
X-189.833 Y22.71
X-189.687 Y22.674
X-189.546 Y22.625
X-189.404 Y22.563
X-189.249 Y22.482
X-189.087 Y22.383
X-188.905 Y22.253
X-188.72 Y22.101
X-188.514 Y21.906
X-188.303 Y21.677
X-188.066 Y21.381
X-187.822 Y21.027
X-187.579 Y20.619
X-187.296 Y20.057
X-187.041 Y19.45
X-186.762 Y18.631
X-186.49 Y17.601
X-186.285 Y16.534
X-186.13 Y15.458
X-186.01 Y14.378
X-185.916 Y13.295
X-185.842 Y12.211
X-185.782 Y11.126
X-185.736 Y10.04
X-185.699 Y8.954
X-185.67 Y7.867
X-185.648 Y6.781
X-185.63 Y5.694
X-185.617 Y4.607
X-185.608 Y3.521
X-185.601 Y2.434
X-185.595 Y1.347
X-185.592 Y0.26
X-185.588 Y-1.913
X-185.587 Y-4.087
X-185.588 Y-5.174
X-185.59 Y-6.26
X-185.593 Y-7.347
X-185.598 Y-8.434
X-185.605 Y-9.521
X-185.616 Y-10.608
X-185.631 Y-11.694
X-185.651 Y-12.781
X-185.678 Y-13.867
X-185.714 Y-14.953
X-185.76 Y-16.039
X-185.821 Y-17.124
X-185.901 Y-18.208
X-186.009 Y-19.29
X-186.157 Y-20.277
X-186.323 Y-21.027
X-186.473 Y-21.539
X-186.596 Y-21.867
X-186.714 Y-22.127
X-186.809 Y-22.304
X-186.838 Y-22.351
X-186.972 Y-22.512
X-187.141 Y-22.635
X-187.335 Y-22.712
X-187.543 Y-22.739
X-188.539
G2 X-188.802 Y-22.561 Z-7.279 I0.01 J0.3
G1 X-188.821 Y-22.507 Z-7.157 F1200
X-188.828 Y-22.45 Z-7.034
X-188.829 Y-22.429 Z-6.99
X-190.421 Y22.429
X-190.415 Y22.497 Z-7.135
X-190.395 Y22.562 Z-7.279
G2 X-190.131 Y22.739 Z-7.99 I0.274 J-0.122 F200
G1 X-189.083
X-188.933 Y22.731
X-188.786 Y22.704
X-188.642 Y22.662
X-188.501 Y22.609
X-188.348 Y22.537
X-188.197 Y22.453
X-188.02 Y22.337
X-187.843 Y22.204
X-187.64 Y22.027
X-187.443 Y21.829
X-187.208 Y21.559
X-186.983 Y21.262
X-186.727 Y20.869
X-186.477 Y20.42
X-186.209 Y19.85
X-185.912 Y19.082
X-185.657 Y18.261
X-185.408 Y17.203
X-185.225 Y16.131
X-185.085 Y15.054
X-184.976 Y13.972
X-184.889 Y12.889
X-184.821 Y11.804
X-184.766 Y10.719
X-184.723 Y9.633
X-184.689 Y8.547
X-184.663 Y7.46
X-184.642 Y6.374
X-184.626 Y5.287
X-184.614 Y4.2
X-184.606 Y3.114
X-184.599 Y2.027
X-184.594 Y0.94
X-184.591 Y-0.147
X-184.588 Y-2.32
X-184.587 Y-4.494
X-184.589 Y-5.581
X-184.591 Y-6.667
X-184.595 Y-7.754
X-184.601 Y-8.841
X-184.61 Y-9.928
X-184.622 Y-11.015
X-184.639 Y-12.101
X-184.662 Y-13.188
X-184.692 Y-14.274
X-184.732 Y-15.36
X-184.784 Y-16.446
X-184.852 Y-17.53
X-184.942 Y-18.613
X-185.069 Y-19.693
X-185.226 Y-20.6
X-185.38 Y-21.222
X-185.526 Y-21.678
X-185.64 Y-21.962
X-185.751 Y-22.194
X-185.851 Y-22.367
X-185.984 Y-22.522
X-186.151 Y-22.64
X-186.341 Y-22.713
X-186.544 Y-22.738
X-187.543 Y-22.739
G2 X-187.806 Y-22.561 Z-7.279 I0.01 J0.3
G1 X-187.824 Y-22.506 Z-7.156 F1200
X-187.832 Y-22.449 Z-7.033
X-187.833 Y-22.429 Z-6.99
X-189.372 Y22.429
X-189.367 Y22.497 Z-7.135
X-189.346 Y22.561 Z-7.279
G2 X-189.083 Y22.739 Z-7.99 I0.274 J-0.122 F200
G1 X-188.096
X-187.946 Y22.731
X-187.798 Y22.705
X-187.654 Y22.664
X-187.514 Y22.611
X-187.374 Y22.547
X-187.212 Y22.458
X-187.052 Y22.356
X-186.862 Y22.215
X-186.677 Y22.057
X-186.459 Y21.843
X-186.253 Y21.61
X-186.008 Y21.291
X-185.776 Y20.941
X-185.503 Y20.46
X-185.227 Y19.884
X-184.973 Y19.245
X-184.692 Y18.364
X-184.434 Y17.308
X-184.245 Y16.237
X-184.101 Y15.16
X-183.989 Y14.079
X-183.9 Y12.996
X-183.83 Y11.912
X-183.774 Y10.826
X-183.729 Y9.74
X-183.694 Y8.654
X-183.667 Y7.568
X-183.645 Y6.481
X-183.629 Y5.394
X-183.616 Y4.308
X-183.607 Y3.221
X-183.6 Y2.134
X-183.595 Y1.047
X-183.592 Y-0.039
X-183.588 Y-2.213
Y-4.387
X-183.589 Y-5.473
X-183.591 Y-6.56
X-183.595 Y-7.647
X-183.601 Y-8.734
X-183.61 Y-9.82
X-183.622 Y-10.907
X-183.638 Y-11.994
X-183.661 Y-13.08
X-183.691 Y-14.167
X-183.73 Y-15.253
X-183.781 Y-16.339
X-183.847 Y-17.423
X-183.934 Y-18.507
X-184.055 Y-19.587
X-184.209 Y-20.506
X-184.37 Y-21.176
X-184.52 Y-21.653
X-184.634 Y-21.942
X-184.748 Y-22.182
X-184.843 Y-22.351
X-184.851 Y-22.363
X-184.984 Y-22.519
X-185.152 Y-22.638
X-185.343 Y-22.713
X-185.547 Y-22.738
X-186.544
G2 X-186.807 Y-22.561 Z-7.279 I0.01 J0.3
G1 X-186.826 Y-22.506 Z-7.157 F1200
X-186.833 Y-22.449 Z-7.034
X-186.834 Y-22.428 Z-6.99
X-188.385 Y22.428
Y22.429
X-188.38 Y22.496 Z-7.135
X-188.359 Y22.561 Z-7.279
G2 X-188.096 Y22.739 Z-7.99 I0.274 J-0.122 F200
G1 X-187.109 Y22.738
X-186.959 Y22.731
X-186.811 Y22.705
X-186.666 Y22.666
X-186.526 Y22.614
X-186.384 Y22.549
X-186.223 Y22.462
X-186.061 Y22.359
X-185.875 Y22.221
X-185.691 Y22.065
X-185.473 Y21.852
X-185.264 Y21.617
X-185.018 Y21.299
X-184.778 Y20.939
X-184.527 Y20.499
X-184.239 Y19.903
X-183.989 Y19.278
X-183.707 Y18.404
X-183.447 Y17.349
X-183.256 Y16.279
X-183.11 Y15.202
X-182.996 Y14.121
X-182.907 Y13.038
X-182.835 Y11.954
X-182.778 Y10.868
X-182.733 Y9.783
X-182.697 Y8.696
X-182.669 Y7.61
X-182.647 Y6.523
X-182.631 Y5.437
X-182.618 Y4.35
X-182.608 Y3.263
X-182.601 Y2.176
X-182.596 Y1.09
X-182.592 Y0.003
X-182.588 Y-2.171
Y-4.344
X-182.589 Y-5.431
X-182.591 Y-6.518
X-182.595 Y-7.605
X-182.601 Y-8.691
X-182.61 Y-9.778
X-182.622 Y-10.865
X-182.639 Y-11.952
X-182.662 Y-13.038
X-182.691 Y-14.125
X-182.73 Y-15.211
X-182.781 Y-16.296
X-182.847 Y-17.381
X-182.933 Y-18.464
X-183.052 Y-19.545
X-183.208 Y-20.484
X-183.369 Y-21.161
X-183.52 Y-21.644
X-183.634 Y-21.934
X-183.748 Y-22.177
X-183.843 Y-22.346
X-183.854 Y-22.362
X-183.987 Y-22.518
X-184.154 Y-22.638
X-184.346 Y-22.713
X-184.55 Y-22.738
X-185.547
G2 X-185.81 Y-22.561 Z-7.279 I0.01 J0.3
G1 X-185.829 Y-22.506 Z-7.157 F1200
X-185.836 Y-22.449 Z-7.034
X-185.837 Y-22.428 Z-6.99
X-187.398 Y22.428
X-187.393 Y22.496 Z-7.135
X-187.372 Y22.561 Z-7.279
G2 X-187.109 Y22.738 Z-7.99 I0.274 J-0.122 F200
G1 X-186.121
X-185.972 Y22.731
X-185.824 Y22.706
X-185.679 Y22.667
X-185.538 Y22.616
X-185.396 Y22.552
X-185.236 Y22.466
X-185.074 Y22.364
X-184.887 Y22.227
X-184.703 Y22.072
X-184.49 Y21.865
X-184.282 Y21.633
X-184.036 Y21.318
X-183.796 Y20.962
X-183.546 Y20.528
X-183.26 Y19.941
X-183.01 Y19.324
X-182.728 Y18.459
X-182.463 Y17.405
X-182.269 Y16.336
X-182.121 Y15.259
X-182.005 Y14.179
X-181.914 Y13.096
X-181.842 Y12.011
X-181.784 Y10.926
X-181.737 Y9.84
X-181.701 Y8.754
X-181.672 Y7.668
X-181.65 Y6.581
X-181.633 Y5.495
X-181.619 Y4.408
X-181.609 Y3.321
X-181.602 Y2.234
X-181.597 Y1.148
X-181.593 Y0.061
X-181.59 Y-1.026
X-181.588 Y-3.2
X-181.589 Y-5.373
X-181.592 Y-6.46
X-181.596 Y-7.547
X-181.602 Y-8.634
X-181.61 Y-9.72
X-181.623 Y-10.807
X-181.639 Y-11.894
X-181.662 Y-12.98
X-181.691 Y-14.067
X-181.73 Y-15.153
X-181.78 Y-16.238
X-181.845 Y-17.323
X-181.931 Y-18.407
X-182.047 Y-19.487
X-182.201 Y-20.435
X-182.364 Y-21.132
X-182.515 Y-21.621
X-182.631 Y-21.919
X-182.746 Y-22.166
X-182.841 Y-22.337
X-182.856 Y-22.359
X-182.989 Y-22.517
X-183.157 Y-22.637
X-183.349 Y-22.712
X-183.554 Y-22.738
X-184.55
G2 X-184.814 Y-22.561 Z-7.279 I0.01 J0.3
G1 X-184.832 Y-22.506 Z-7.157 F1200
X-184.84 Y-22.449 Z-7.034
Y-22.428 Z-6.99
X-186.411 Y22.428
X-186.405 Y22.496 Z-7.135
X-186.385 Y22.561 Z-7.279
G2 X-186.121 Y22.738 Z-7.99 I0.274 J-0.122 F200
G1 X-185.134
X-184.984 Y22.731
X-184.836 Y22.707
X-184.691 Y22.669
X-184.55 Y22.618
X-184.408 Y22.555
X-184.25 Y22.471
X-184.088 Y22.37
X-183.902 Y22.235
X-183.718 Y22.081
X-183.507 Y21.878
X-183.298 Y21.647
X-183.055 Y21.338
X-182.814 Y20.983
X-182.567 Y20.558
X-182.281 Y19.978
X-182.03 Y19.365
X-181.748 Y18.513
X-181.479 Y17.46
X-181.282 Y16.392
X-181.131 Y15.315
X-181.014 Y14.235
X-180.922 Y13.152
X-180.848 Y12.068
X-180.789 Y10.983
X-180.742 Y9.897
X-180.705 Y8.811
X-180.675 Y7.724
X-180.652 Y6.638
X-180.634 Y5.551
X-180.621 Y4.464
X-180.611 Y3.378
X-180.603 Y2.291
X-180.597 Y1.204
X-180.593 Y0.117
X-180.59 Y-0.97
X-180.588 Y-3.143
Y-4.23
X-180.589 Y-5.317
X-180.592 Y-6.404
X-180.596 Y-7.49
X-180.602 Y-8.577
X-180.611 Y-9.664
X-180.623 Y-10.751
X-180.64 Y-11.837
X-180.662 Y-12.924
X-180.692 Y-14.01
X-180.73 Y-15.096
X-180.78 Y-16.182
X-180.844 Y-17.267
X-180.928 Y-18.35
X-181.042 Y-19.431
X-181.195 Y-20.392
X-181.359 Y-21.104
X-181.511 Y-21.6
X-181.628 Y-21.905
X-181.744 Y-22.155
X-181.839 Y-22.328
X-181.858 Y-22.356
X-181.991 Y-22.515
X-182.159 Y-22.636
X-182.352 Y-22.712
X-182.557 Y-22.738
X-183.554
G2 X-183.817 Y-22.56 Z-7.279 I0.01 J0.3
G1 X-183.836 Y-22.506 Z-7.157 F1200
X-183.843 Y-22.449 Z-7.034
X-183.844 Y-22.428 Z-6.99
X-185.424 Y22.428
X-185.418 Y22.496 Z-7.135
X-185.398 Y22.561 Z-7.279
G2 X-185.134 Y22.738 Z-7.99 I0.274 J-0.122 F200
G1 X-184.147
X-183.997 Y22.73
X-183.849 Y22.708
X-183.704 Y22.671
X-183.562 Y22.621
X-183.42 Y22.558
X-183.264 Y22.476
X-183.101 Y22.375
X-182.918 Y22.243
X-182.733 Y22.09
X-182.525 Y21.891
X-182.315 Y21.66
X-182.075 Y21.357
X-181.832 Y21.003
X-181.587 Y20.587
X-181.302 Y20.014
X-181.049 Y19.404
X-180.768 Y18.565
X-180.494 Y17.514
X-180.294 Y16.445
X-180.142 Y15.369
X-180.023 Y14.289
X-179.929 Y13.206
X-179.854 Y12.122
X-179.794 Y11.037
X-179.746 Y9.951
X-179.708 Y8.865
X-179.678 Y7.779
X-179.655 Y6.692
X-179.636 Y5.606
X-179.622 Y4.519
X-179.612 Y3.432
X-179.604 Y2.345
X-179.598 Y1.259
X-179.594 Y0.172
X-179.591 Y-0.915
X-179.588 Y-3.089
X-179.589 Y-4.175
X-179.59 Y-5.262
X-179.592 Y-6.349
X-179.596 Y-7.436
X-179.602 Y-8.523
X-179.611 Y-9.609
X-179.623 Y-10.696
X-179.64 Y-11.783
X-179.662 Y-12.869
X-179.692 Y-13.956
X-179.73 Y-15.042
X-179.779 Y-16.127
X-179.843 Y-17.212
X-179.926 Y-18.296
X-180.038 Y-19.377
X-180.19 Y-20.349
X-180.355 Y-21.075
X-180.506 Y-21.577
X-180.625 Y-21.891
X-180.742 Y-22.145
X-180.837 Y-22.319
X-180.859 Y-22.354
X-180.993 Y-22.513
X-181.161 Y-22.635
X-181.355 Y-22.711
X-181.561 Y-22.737
X-182.557 Y-22.738
G2 X-182.821 Y-22.56 Z-7.279 I0.01 J0.3
G1 X-182.839 Y-22.506 Z-7.157 F1200
X-182.847 Y-22.448 Z-7.034
X-182.848 Y-22.428 Z-6.99
X-184.436 Y22.427
Y22.428
X-184.431 Y22.496 Z-7.135
X-184.41 Y22.561 Z-7.279
G2 X-184.147 Y22.738 Z-7.99 I0.274 J-0.122 F200
G1 X-183.16
X-183.01 Y22.73
X-182.861 Y22.709
X-182.716 Y22.672
X-182.574 Y22.623
X-182.432 Y22.561
X-182.278 Y22.48
X-182.115 Y22.381
X-181.933 Y22.251
X-181.748 Y22.098
X-181.542 Y21.903
X-181.331 Y21.673
X-181.094 Y21.376
X-180.849 Y21.023
X-180.606 Y20.613
X-180.323 Y20.049
X-180.068 Y19.441
X-179.787 Y18.615
X-179.513 Y17.578
X-179.309 Y16.511
X-179.154 Y15.435
X-179.033 Y14.355
X-178.937 Y13.273
X-178.861 Y12.189
X-178.8 Y11.103
X-178.751 Y10.018
X-178.712 Y8.932
X-178.682 Y7.845
X-178.658 Y6.759
X-178.639 Y5.672
X-178.624 Y4.585
X-178.613 Y3.499
X-178.605 Y2.412
X-178.599 Y1.325
X-178.594 Y0.238
X-178.591 Y-0.848
X-178.59 Y-1.935
X-178.589 Y-4.109
X-178.59 Y-5.196
X-178.592 Y-6.282
X-178.596 Y-7.369
X-178.603 Y-8.456
X-178.611 Y-9.543
X-178.624 Y-10.629
X-178.64 Y-11.716
X-178.662 Y-12.803
X-178.691 Y-13.889
X-178.729 Y-14.975
X-178.778 Y-16.061
X-178.841 Y-17.146
X-178.923 Y-18.23
X-179.033 Y-19.311
X-179.182 Y-20.295
X-179.348 Y-21.04
X-179.499 Y-21.549
X-179.621 Y-21.873
X-179.738 Y-22.131
X-179.834 Y-22.308
X-179.861 Y-22.351
X-179.994 Y-22.512
X-180.163 Y-22.634
X-180.357 Y-22.711
X-180.564 Y-22.737
X-181.561
G2 X-181.824 Y-22.56 Z-7.279 I0.01 J0.3
G1 X-181.843 Y-22.505 Z-7.157 F1200
X-181.85 Y-22.448 Z-7.034
X-181.851 Y-22.427 Z-6.99
X-183.449 Y22.427
Y22.428
X-183.444 Y22.496 Z-7.135
X-183.423 Y22.56 Z-7.279
G2 X-183.16 Y22.738 Z-7.99 I0.274 J-0.122 F200
G1 X-182.173
X-182.023 Y22.73
X-181.874 Y22.71
X-181.729 Y22.674
X-181.587 Y22.625
X-181.444 Y22.564
X-181.292 Y22.485
X-181.129 Y22.386
X-180.949 Y22.258
X-180.763 Y22.107
X-180.559 Y21.915
X-180.347 Y21.686
X-180.113 Y21.395
X-179.867 Y21.043
X-179.625 Y20.639
X-179.343 Y20.084
X-179.086 Y19.476
X-178.807 Y18.667
X-178.532 Y17.642
X-178.324 Y16.575
X-178.166 Y15.5
X-178.043 Y14.42
X-177.946 Y13.338
X-177.868 Y12.254
X-177.806 Y11.169
X-177.756 Y10.083
X-177.717 Y8.997
X-177.685 Y7.911
X-177.66 Y6.824
X-177.641 Y5.738
X-177.626 Y4.651
X-177.615 Y3.564
X-177.606 Y2.478
X-177.6 Y1.391
X-177.595 Y0.304
X-177.592 Y-0.783
X-177.59 Y-1.87
X-177.589 Y-2.956
Y-4.043
X-177.59 Y-5.13
X-177.593 Y-6.217
X-177.597 Y-7.304
X-177.603 Y-8.39
X-177.612 Y-9.477
X-177.624 Y-10.564
