(1001)
(Machine)
(  vendor: Autodesk)
(  description: Generic 3-axis)
(T1  D=3 CR=0 - ZMIN=-28.2 - flat end mill)
G90 G94
G17
G21
G28 G91 Z0
G90

(Adaptive4)
T1
S18000 M3
G54
G0 X260.975 Y10.007
Z3.001
Z-0.9
G1 Z-1.2 F700
X260.969 Y10.012 Z-1.267
X260.952 Y10.026 Z-1.33
X260.925 Y10.049 Z-1.387
X260.888 Y10.079 Z-1.435
X260.844 Y10.115 Z-1.47
X260.795 Y10.155 Z-1.492
X260.743 Y10.198 Z-1.5
G2 X259.588 Y11.376 I4.86 J5.919
G3 X259.205 Y11.757 I-1.502 J-1.128
G1 X259.041 Y11.957
X258.89 Y12.166
X258.751 Y12.384
X258.626 Y12.61
X258.514 Y12.842
X258.417 Y13.081
X258.334 Y13.326
X258.266 Y13.575
X258.213 Y13.828
X258.175 Y14.083
X258.153 Y14.34
X258.146 Y14.598
X258.154 Y14.856
X258.178 Y15.113
G2 X258.084 Y19.449 I58.19 J3.431
G1 X258.083 Y24.503
Y62.047
Y64.409
X258.11 Y64.571
X258.188 Y64.716
X258.309 Y64.827
X258.46 Y64.894
X258.522 Y64.9
X258.585 Y64.894
X258.644 Y64.875
X258.664 Y64.862
X258.676 Y64.842
X258.68 Y64.819
X258.675 Y64.796
X258.747 Y64.752
X258.745 Y64.802
G3 X258.46 Y64.894 I-0.222 J-0.202
G1 X258.412 Y64.881
X258.248 Y64.855
X258.084 Y64.84
G3 X256.947 Y63.28 I0.6 J-1.632
X256.584 Y56.858 I27.935 J-4.8
G1 X256.583 Y51.082
X256.584 Y20.758
G3 X256.654 Y14.983 I134.923 J-1.237
X257.319 Y12.258 I4.793 J-0.274
G1 X257.456 Y12.189
X257.606 Y12.164
X258.084 Y12.16
G3 X258.34 Y12.316 I-0.008 J0.3
X258.03 Y12.546 I-0.171 J0.093
X257.862 Y12.321 I0.71 J-0.704
G2 X257.606 Y12.164 I-0.263 J0.143
G1 X257.133
G2 X255.525 Y14.126 I0.545 J2.087
X255.087 Y19.87 I22.432 J4.598
G1 X255.084 Y21.314
X255.083 Y25.646
X255.084 Y55.97
G2 X255.176 Y61.744 I102.272 J1.252
X256.063 Y64.729 I4.954 J0.153
G1 X256.208 Y64.808
X256.372 Y64.836
X257.592
X258.084 Y64.84
G2 X258.349 Y64.666 Z-0.789 I-0.008 J-0.3
G1 X258.37 Y64.601 Z-0.645 F1200
X258.376 Y64.533 Z-0.5
G2 X257.912 Y64.109 I-0.436 J0.011
X256.751 Y64.578 I0.131 J1.996
G1 X256.65 Y64.67 Z-0.789
X256.58 Y64.741 Z-1 F700
X256.536 Y64.779 Z-1.125
X256.485 Y64.809 Z-1.25
X256.43 Y64.828 Z-1.375
X256.372 Y64.836 Z-1.5
X255.861
X255.664 Y64.764
X255.473 Y64.678
X255.288 Y64.579
X255.111 Y64.467
X254.942 Y64.342
X254.783 Y64.205
X254.635 Y64.057
X254.497 Y63.898
X254.372 Y63.73
X254.259 Y63.554
X254.159 Y63.369
X254.072 Y63.178
X254 Y62.981
X253.942 Y62.78
X253.899 Y62.574
X253.871 Y62.367
X253.858 Y62.157
X253.86 Y61.947
X253.878 Y61.738
G3 X253.584 Y55.237 I36.714 J-4.913
G1 X253.583 Y50.183
X253.584 Y22.748
G3 X253.729 Y15.532 I84.622 J-1.905
X254.994 Y12.19 I4.649 J-0.149
G1 X255.154 Y12.164
X257.133
G3 X257.387 Y12.323 Z-0.834 I-0.01 J0.3
G1 X257.397 Y12.341 Z-0.789
X257.424 Y12.404 Z-0.645 F1200
X257.445 Y12.469 Z-0.5
G3 X256.587 Y13.294 I-0.658 J0.174
X255.488 Y12.459 I0.586 J-1.912
G1 X255.418 Y12.341 Z-0.789
X255.408 Y12.323 Z-0.834 F700
G2 X255.154 Y12.164 Z-1.5 I-0.265 J0.141
G1 X254.549
X254.341 Y12.245
X254.138 Y12.339
X253.943 Y12.448
X253.756 Y12.57
X253.578 Y12.705
X253.409 Y12.852
X253.252 Y13.011
X253.105 Y13.18
X252.972 Y13.359
X252.851 Y13.547
X252.743 Y13.743
X252.649 Y13.946
X252.57 Y14.155
X252.506 Y14.369
X252.457 Y14.587
X252.423 Y14.808
X252.405 Y15.031
X252.402 Y15.254
X252.415 Y15.477
G2 X252.116 Y22.694 I36.561 J5.13
G1 X252.083 Y27.028
X252.084 Y53.742
G2 X252.274 Y61.677 I87.866 J1.866
X253.484 Y64.744 I5.486 J-0.392
G1 X253.621 Y64.812
X253.772 Y64.836
X255.861
G2 X256.125 Y64.658 Z-0.789 I-0.01 J-0.3
G1 X256.145 Y64.594 Z-0.645 F1200
X256.151 Y64.526 Z-0.5
X256.143 Y64.467
X256.124 Y64.412
X256.095 Y64.361
X256.056 Y64.317
G2 X255.576 Y64.109 I-0.531 J0.57
X254.151 Y64.578 I-0.132 J1.996
G1 X254.05 Y64.67 Z-0.789
X253.981 Y64.741 Z-1 F700
X253.937 Y64.779 Z-1.125
X253.886 Y64.809 Z-1.25
X253.83 Y64.828 Z-1.375
X253.772 Y64.836 Z-1.5
X253.163
X252.952 Y64.758
X252.746 Y64.665
X252.547 Y64.558
X252.356 Y64.438
X252.174 Y64.304
X252.002 Y64.158
X251.84 Y64.001
X251.69 Y63.832
X251.552 Y63.654
X251.427 Y63.466
X251.315 Y63.27
X251.217 Y63.067
X251.133 Y62.857
X251.065 Y62.642
X251.011 Y62.423
X250.973 Y62.201
X250.951 Y61.976
X250.944 Y61.751
X250.953 Y61.525
G3 X250.63 Y54.314 I31.723 J-5.036
G1 X250.583 Y51.423
Y24.709
G3 X250.856 Y15.335 I71.032 J-2.626
X252.276 Y12.187 I4.605 J0.183
G1 X252.424 Y12.164
X254.549
G3 X254.804 Y12.323 Z-0.834 I-0.01 J0.3
G1 X254.813 Y12.341 Z-0.789
X254.84 Y12.404 Z-0.645 F1200
X254.861 Y12.469 Z-0.5
G3 X254.043 Y13.342 I-0.678 J0.185
X252.758 Y12.459 I0.4 J-1.96
G1 X252.688 Y12.341 Z-0.789
X252.678 Y12.323 Z-0.834 F700
G2 X252.424 Y12.164 Z-1.5 I-0.265 J0.141
G1 X251.851
X251.643 Y12.23
X251.439 Y12.309
X251.242 Y12.403
X251.051 Y12.51
X250.869 Y12.63
X250.695 Y12.763
X250.531 Y12.907
X250.378 Y13.063
X250.235 Y13.229
X250.105 Y13.404
X249.987 Y13.588
X249.883 Y13.78
X249.792 Y13.979
X249.715 Y14.183
X249.653 Y14.393
X249.605 Y14.606
X249.573 Y14.822
X249.555 Y15.04
X249.553 Y15.258
G2 X249.085 Y23.181 I36.18 J6.111
G1 X249.083 Y26.069
X249.084 Y52.061
G2 X249.326 Y61.438 I97.033 J2.184
X250.713 Y64.745 I6.168 J-0.643
G1 X250.85 Y64.812
X251.001 Y64.836
X253.163
G2 X253.427 Y64.658 Z-0.789 I-0.01 J-0.3
G1 X253.447 Y64.593 Z-0.645 F1200
X253.453 Y64.526 Z-0.5
X253.445 Y64.467
X253.426 Y64.412
X253.396 Y64.361
X253.358 Y64.316
G2 X252.958 Y64.125 I-0.506 J0.542
X251.38 Y64.578 I-0.285 J1.98
G1 X251.279 Y64.67 Z-0.789
X251.21 Y64.74 Z-1 F700
X251.166 Y64.779 Z-1.125
X251.115 Y64.809 Z-1.25
X251.059 Y64.828 Z-1.375
X251.001 Y64.836 Z-1.5
X250.375
X250.158 Y64.759
X249.946 Y64.667
X249.741 Y64.561
X249.544 Y64.441
X249.356 Y64.308
X249.177 Y64.162
X249.009 Y64.004
X248.852 Y63.835
X248.707 Y63.655
X248.575 Y63.466
X248.456 Y63.268
X248.351 Y63.063
X248.261 Y62.851
X248.185 Y62.633
X248.124 Y62.411
X248.079 Y62.184
X248.05 Y61.956
X248.037 Y61.725
X248.039 Y61.495
G3 X247.648 Y52.85 I36.075 J-5.964
G1 X247.583 Y48.514
X247.584 Y25.41
G3 X247.911 Y15.317 I84.796 J-2.305
X249.327 Y12.247 I5.979 J0.897
G1 X249.458 Y12.186
X249.602 Y12.165
X251.851 Y12.164
G3 X252.105 Y12.323 Z-0.834 I-0.01 J0.3
G1 X252.115 Y12.342 Z-0.789
X252.142 Y12.404 Z-0.645 F1200
X252.164 Y12.469 Z-0.5
G3 X251.394 Y13.369 I-0.689 J0.191
X249.935 Y12.459 I0.227 J-1.987
G1 X249.866 Y12.342 Z-0.789
X249.856 Y12.323 Z-0.834 F700
G2 X249.602 Y12.165 Z-1.5 I-0.265 J0.141
G1 X248.973
X248.763 Y12.238
X248.558 Y12.324
X248.359 Y12.424
X248.168 Y12.537
X247.984 Y12.662
X247.808 Y12.798
X247.642 Y12.946
X247.486 Y13.104
X247.34 Y13.272
X247.206 Y13.449
X247.084 Y13.635
X246.973 Y13.828
X246.876 Y14.028
X246.792 Y14.233
X246.722 Y14.444
X246.665 Y14.659
X246.623 Y14.877
X246.594 Y15.098
X246.581 Y15.319
X246.582 Y15.542
G2 X246.148 Y24.183 I34.542 J6.062
G1 X246.083 Y27.075
X246.084 Y50.901
G2 X246.484 Y61.71 I66.474 J2.949
X247.877 Y64.754 I5.771 J-0.8
G1 X248.008 Y64.815
X248.15 Y64.835
X250.375 Y64.836
G2 X250.629 Y64.677 Z-0.834 I-0.01 J-0.3
G1 X250.639 Y64.658 Z-0.789
X250.666 Y64.596 Z-0.645 F1200
X250.687 Y64.531 Z-0.5
G2 X249.907 Y63.635 I-0.687 J-0.19
X248.484 Y64.541 I0.262 J1.983
G1 X248.414 Y64.658 Z-0.789
X248.404 Y64.677 Z-0.834 F700
G3 X248.15 Y64.835 Z-1.5 I-0.265 J-0.141
G1 X247.496
X247.282 Y64.756
X247.073 Y64.663
X246.871 Y64.557
X246.676 Y64.438
X246.489 Y64.306
X246.311 Y64.163
X246.143 Y64.009
X245.985 Y63.844
X245.837 Y63.669
X245.702 Y63.485
X245.579 Y63.293
X245.468 Y63.093
X245.37 Y62.887
X245.286 Y62.674
X245.216 Y62.457
X245.16 Y62.235
X245.118 Y62.011
X245.091 Y61.784
X245.079 Y61.556
X245.081 Y61.328
G3 X244.647 Y52.685 I35.177 J-6.099
G1 X244.584 Y50.514
X244.583 Y29.577
G3 X244.872 Y15.87 I149.701 J-3.7
X246.435 Y12.26 I7.245 J0.992
G1 X246.574 Y12.189
X246.728 Y12.165
X248.973
G3 X249.236 Y12.342 Z-0.789 I-0.01 J0.3
G1 X249.257 Y12.407 Z-0.645 F1200
X249.262 Y12.475 Z-0.5
X249.254 Y12.533
X249.235 Y12.589
X249.206 Y12.64
X249.167 Y12.684
G3 X248.89 Y12.835 I-0.432 J-0.463
X247.107 Y12.422 I-0.491 J-1.939
G1 X247.006 Y12.331 Z-0.789
X246.937 Y12.26 Z-1 F700
X246.892 Y12.221 Z-1.125
X246.842 Y12.192 Z-1.25
X246.786 Y12.173 Z-1.375
X246.728 Y12.165 Z-1.5
X246.11
X245.89 Y12.237
X245.674 Y12.324
X245.465 Y12.426
X245.264 Y12.542
X245.071 Y12.672
X244.888 Y12.814
X244.714 Y12.969
X244.552 Y13.135
X244.401 Y13.312
X244.263 Y13.499
X244.138 Y13.694
X244.027 Y13.898
X243.93 Y14.109
X243.848 Y14.327
X243.78 Y14.549
X243.729 Y14.775
X243.692 Y15.005
X243.672 Y15.236
X243.668 Y15.469
G2 X243.142 Y23.38 I28.568 J5.871
G1 X243.086 Y24.827
X243.084 Y26.993
X243.083 Y41.433
X243.084 Y50.097
G2 X243.489 Y61.63 I88.805 J2.655
X244.99 Y64.754 I6.372 J-1.139
G1 X245.121 Y64.815
X245.263 Y64.835
X247.496
G2 X247.751 Y64.677 Z-0.834 I-0.01 J-0.3
G1 X247.76 Y64.658 Z-0.789
X247.788 Y64.596 Z-0.645 F1200
X247.809 Y64.531 Z-0.5
G2 X247.032 Y63.633 I-0.688 J-0.19
X245.597 Y64.541 I0.25 J1.984
G1 X245.527 Y64.658 Z-0.789
X245.517 Y64.676 Z-0.834 F700
G3 X245.263 Y64.835 Z-1.5 I-0.265 J-0.141
G1 X244.634
X244.422 Y64.764
X244.215 Y64.679
X244.014 Y64.58
X243.82 Y64.469
X243.633 Y64.346
X243.455 Y64.211
X243.286 Y64.065
X243.127 Y63.908
X242.978 Y63.741
X242.84 Y63.564
X242.714 Y63.38
X242.6 Y63.187
X242.499 Y62.987
X242.411 Y62.782
X242.337 Y62.571
X242.276 Y62.356
X242.229 Y62.137
X242.197 Y61.916
X242.179 Y61.693
X242.175 Y61.469
G3 X241.642 Y53.558 I28.797 J-5.915
G1 X241.589 Y52.833
X241.585 Y51.389
X241.584 Y48.501
Y28.285
G3 X242.092 Y15.317 I73.671 J-3.604
X243.553 Y12.244 I5.955 J0.946
G1 X243.682 Y12.185
X243.822 Y12.165
X246.11
G3 X246.374 Y12.342 Z-0.789 I-0.01 J0.3
G1 X246.394 Y12.407 Z-0.645 F1200
X246.4 Y12.475 Z-0.5
G3 X246.184 Y12.773 I-0.33 J-0.011
X244.201 Y12.422 I-0.691 J-1.877
G1 X244.1 Y12.331 Z-0.789
X244.031 Y12.26 Z-1 F700
X243.987 Y12.221 Z-1.125
X243.936 Y12.192 Z-1.25
X243.88 Y12.173 Z-1.375
X243.822 Y12.165 Z-1.5
X243.158
X242.94 Y12.246
X242.728 Y12.34
X242.522 Y12.448
X242.323 Y12.568
X242.132 Y12.701
X241.951 Y12.846
X241.779 Y13.003
X241.617 Y13.17
X241.466 Y13.347
X241.327 Y13.533
X241.2 Y13.728
X241.086 Y13.93
X240.985 Y14.14
X240.898 Y14.355
X240.824 Y14.575
X240.765 Y14.8
X240.72 Y15.028
X240.69 Y15.259
X240.675 Y15.49
X240.674 Y15.723
G2 X240.142 Y23.637 I29.625 J5.966
G1 X240.09 Y24.363
X240.086 Y25.807
X240.084 Y28.695
Y48.188
G2 X240.511 Y61.165 I88.239 J3.587
X242.204 Y64.811 I5.928 J-0.536
G1 X242.356 Y64.835
X244.634
G2 X244.898 Y64.658 Z-0.789 I-0.01 J-0.3
G1 X244.918 Y64.593 Z-0.645 F1200
X244.924 Y64.525 Z-0.5
X244.916 Y64.467
X244.897 Y64.411
X244.867 Y64.36
X244.828 Y64.316
X244.763 Y64.264
X244.691 Y64.222
X244.613 Y64.192
G2 X242.735 Y64.577 I-0.586 J1.912
G1 X242.634 Y64.669 Z-0.789
X242.565 Y64.74 Z-1 F700
X242.521 Y64.779 Z-1.125
X242.47 Y64.808 Z-1.25
X242.414 Y64.827 Z-1.375
X242.356 Y64.835 Z-1.5
X241.682
X241.463 Y64.754
X241.25 Y64.659
X241.043 Y64.551
X240.844 Y64.43
X240.653 Y64.296
X240.471 Y64.151
X240.298 Y63.994
X240.136 Y63.826
X239.985 Y63.648
X239.846 Y63.461
X239.719 Y63.266
X239.604 Y63.063
X239.503 Y62.853
X239.416 Y62.636
X239.342 Y62.415
X239.283 Y62.189
X239.239 Y61.961
X239.209 Y61.729
X239.194 Y61.497
Y61.263
G3 X238.644 Y53.35 I29.222 J-6.007
G1 X238.591 Y52.625
X238.587 Y51.181
X238.584 Y49.015
X238.583 Y39.629
X238.584 Y28.077
G3 X239.046 Y15.825 I79.108 J-3.152
X240.754 Y12.188 I5.97 J0.585
G1 X240.905 Y12.165
X243.158
G3 X243.412 Y12.324 Z-0.834 I-0.01 J0.3
G1 X243.422 Y12.342 Z-0.789
X243.449 Y12.405 Z-0.645 F1200
X243.471 Y12.469 Z-0.5
G3 X242.702 Y13.371 I-0.689 J0.191
X241.239 Y12.459 I0.222 J-1.988
G1 X241.169 Y12.342 Z-0.789
X241.159 Y12.324 Z-0.834 F700
G2 X240.905 Y12.165 Z-1.5 I-0.265 J0.141
G1 X240.28
X240.065 Y12.235
X239.856 Y12.319
X239.653 Y12.416
X239.456 Y12.526
X239.267 Y12.649
X239.086 Y12.783
X238.914 Y12.929
X238.752 Y13.086
X238.601 Y13.253
X238.46 Y13.429
X238.331 Y13.614
X238.215 Y13.807
X238.111 Y14.007
X238.02 Y14.213
X237.943 Y14.425
X237.88 Y14.641
X237.83 Y14.861
X237.796 Y15.083
X237.775 Y15.308
X237.769 Y15.533
G2 X237.154 Y24.879 I33.753 J6.914
G1 X237.087 Y26.328
X237.084 Y28.494
X237.083 Y37.157
X237.084 Y47.987
G2 X237.476 Y60.967 I117.907 J2.929
X239.152 Y64.757 I7.619 J-1.104
G1 X239.281 Y64.815
X239.421 Y64.835
X241.682
G2 X241.945 Y64.658 Z-0.789 I-0.01 J-0.3
G1 X241.966 Y64.593 Z-0.645 F1200
X241.971 Y64.525 Z-0.5
G2 X241.739 Y64.211 I-0.344 J0.012
X239.8 Y64.577 I-0.646 J1.893
G1 X239.699 Y64.669 Z-0.789
X239.63 Y64.74 Z-1 F700
X239.585 Y64.778 Z-1.125
X239.535 Y64.808 Z-1.25
X239.479 Y64.827 Z-1.375
X239.421 Y64.835 Z-1.5
X238.803
X238.58 Y64.762
X238.361 Y64.675
X238.149 Y64.573
X237.945 Y64.456
X237.749 Y64.326
X237.562 Y64.184
X237.386 Y64.028
X237.22 Y63.861
X237.066 Y63.684
X236.925 Y63.496
X236.796 Y63.299
X236.682 Y63.093
X236.581 Y62.881
X236.495 Y62.662
X236.425 Y62.438
X236.369 Y62.209
X236.33 Y61.977
X236.306 Y61.744
X236.298 Y61.509
G3 X235.655 Y52.166 I33.146 J-6.974
G1 X235.587 Y50.717
X235.584 Y48.551
X235.583 Y42.053
X235.584 Y29.779
G3 X235.991 Y16.078 I124.443 J-3.157
G1 X236.217 Y15.378
G3 X237.831 Y12.185 I4.958 J0.501
G1 X237.971 Y12.165
X240.28
G3 X240.534 Y12.324 Z-0.834 I-0.01 J0.3
G1 X240.543 Y12.342 Z-0.789
X240.571 Y12.405 Z-0.645 F1200
X240.592 Y12.469 Z-0.5
G3 X239.85 Y13.378 I-0.692 J0.192
X238.305 Y12.46 I0.141 J-1.995
G1 X238.235 Y12.342 Z-0.789
X238.225 Y12.324 Z-0.834 F700
G2 X237.971 Y12.165 Z-1.5 I-0.265 J0.141
G1 X237.327
X237.11 Y12.24
X236.898 Y12.329
X236.693 Y12.431
X236.494 Y12.545
X236.303 Y12.673
X236.12 Y12.812
X235.947 Y12.962
X235.784 Y13.124
X235.631 Y13.295
X235.49 Y13.476
X235.36 Y13.666
X235.243 Y13.863
X235.139 Y14.067
X235.048 Y14.278
X234.97 Y14.494
X234.907 Y14.715
X234.857 Y14.939
X234.823 Y15.166
X234.802 Y15.394
X234.797 Y15.624
G2 X234.155 Y24.969 I33.925 J7.023
G1 X234.091 Y25.695
X234.087 Y27.139
X234.084 Y29.305
X234.083 Y37.969
X234.084 Y47.355
G2 X234.58 Y61.05 I91.637 J3.535
X236.338 Y64.811 I6.34 J-0.672
G1 X236.491 Y64.835
X238.803
G2 X239.058 Y64.676 Z-0.834 I-0.01 J-0.3
G1 X239.067 Y64.658 Z-0.789
X239.095 Y64.595 Z-0.645 F1200
X239.116 Y64.53 Z-0.5
G2 X238.375 Y63.621 I-0.692 J-0.192
X236.825 Y64.54 I0.135 J1.995
G1 X236.755 Y64.658 Z-0.789
X236.745 Y64.676 Z-0.834 F700
G3 X236.491 Y64.835 Z-1.5 I-0.265 J-0.141
G1 X235.851
X235.633 Y64.76
X235.421 Y64.672
X235.215 Y64.571
X235.015 Y64.456
X234.824 Y64.329
X234.641 Y64.19
X234.467 Y64.04
X234.303 Y63.878
X234.15 Y63.707
X234.008 Y63.526
X233.878 Y63.336
X233.76 Y63.139
X233.656 Y62.934
X233.564 Y62.723
X233.487 Y62.507
X233.423 Y62.286
X233.374 Y62.062
X233.339 Y61.834
X233.318 Y61.605
X233.313 Y61.376
G3 X232.656 Y52.031 I33.828 J-7.074
G1 X232.592 Y51.305
X232.587 Y49.861
X232.584 Y47.695
X232.583 Y40.475
X232.584 Y30.367
G3 X233.11 Y15.952 I93.19 J-3.818
X234.878 Y12.189 I6.352 J0.689
G1 X235.031 Y12.165
X237.327
G3 X237.591 Y12.343 Z-0.789 I-0.01 J0.3
G1 X237.611 Y12.408 Z-0.645 F1200
X237.617 Y12.475 Z-0.5
Y12.476
G3 X237.406 Y12.769 I-0.325 J-0.011
X235.41 Y12.423 I-0.703 J-1.872
G1 X235.309 Y12.331 Z-0.789
X235.24 Y12.261 Z-1 F700
X235.196 Y12.222 Z-1.125
X235.145 Y12.192 Z-1.25
X235.089 Y12.173 Z-1.375
X235.031 Y12.165 Z-1.5
X234.375 Y12.166
X234.156 Y12.242
X233.942 Y12.333
X233.734 Y12.437
X233.534 Y12.555
X233.341 Y12.684
X233.157 Y12.826
X232.982 Y12.979
X232.818 Y13.143
X232.664 Y13.317
X232.522 Y13.501
X232.391 Y13.693
X232.274 Y13.893
X232.169 Y14.101
X232.077 Y14.314
X232 Y14.533
X231.936 Y14.756
X231.887 Y14.983
X231.853 Y15.213
X231.833 Y15.444
X231.828 Y15.677
G2 X231.157 Y25.021 I33.965 J7.133
G1 X231.093 Y25.747
X231.088 Y27.191
X231.085 Y29.357
X231.083 Y34.411
X231.084 Y46.685
G2 X231.637 Y61.098 I90.168 J3.754
X233.398 Y64.811 I6.242 J-0.686
G1 X233.55 Y64.834
X235.851 Y64.835
G2 X236.105 Y64.676 Z-0.834 I-0.01 J-0.3
G1 X236.115 Y64.657 Z-0.789
X236.142 Y64.595 Z-0.645 F1200
X236.164 Y64.53 Z-0.5
G2 X235.417 Y63.622 I-0.692 J-0.192
X233.883 Y64.54 I0.151 J1.994
G1 X233.814 Y64.657 Z-0.789
X233.804 Y64.676 Z-0.834 F700
G3 X233.55 Y64.834 Z-1.5 I-0.265 J-0.141
G1 X232.899
X232.68 Y64.759
X232.467 Y64.67
X232.26 Y64.567
X232.059 Y64.451
X231.867 Y64.323
X231.683 Y64.183
X231.509 Y64.031
X231.344 Y63.869
X231.191 Y63.696
X231.048 Y63.514
X230.918 Y63.323
X230.8 Y63.124
X230.695 Y62.919
X230.603 Y62.706
X230.525 Y62.489
X230.461 Y62.267
X230.411 Y62.041
X230.376 Y61.812
X230.356 Y61.582
X230.35 Y61.351
G3 X229.659 Y52.009 I33.577 J-7.179
X229.583 Y43.341 I137.301 J-5.534
G1 X229.584 Y31.067
G3 X230.086 Y15.927 I125.902 J-3.401
X231.79 Y12.258 I7.936 J1.455
G1 X231.927 Y12.189
X232.08 Y12.166
X234.375
G3 X234.638 Y12.343 Z-0.789 I-0.01 J0.3
G1 X234.659 Y12.408 Z-0.645 F1200
X234.664 Y12.476 Z-0.5
X234.656 Y12.534
X234.637 Y12.59
X234.608 Y12.641
X234.569 Y12.685
X234.514 Y12.729
X234.453 Y12.766
X234.388 Y12.793
G3 X232.459 Y12.423 I-0.637 J-1.896
G1 X232.358 Y12.332 Z-0.789
X232.288 Y12.261 Z-1 F700
X232.244 Y12.222 Z-1.125
X232.193 Y12.193 Z-1.25
X232.138 Y12.173 Z-1.375
X232.08 Y12.166 Z-1.5
X231.422
X231.203 Y12.243
X230.989 Y12.333
X230.781 Y12.437
X230.58 Y12.554
X230.387 Y12.684
X230.203 Y12.826
X230.028 Y12.979
X229.863 Y13.143
X229.709 Y13.317
X229.566 Y13.5
X229.435 Y13.692
X229.317 Y13.893
X229.212 Y14.1
X229.12 Y14.313
X229.042 Y14.532
X228.978 Y14.756
X228.929 Y14.983
X228.894 Y15.213
X228.873 Y15.444
X228.868 Y15.677
G2 X228.161 Y25.019 I33.589 J7.238
X228.085 Y30.076 I56.188 J3.38
G1 X228.083 Y35.13
X228.084 Y45.96
G2 X228.607 Y61.098 I121.415 J3.384
X230.308 Y64.742 I7.877 J-1.459
G1 X230.446 Y64.811
X230.597 Y64.834
X232.899
G2 X233.153 Y64.676 Z-0.834 I-0.01 J-0.3
G1 X233.162 Y64.657 Z-0.789
X233.19 Y64.595 Z-0.645 F1200
X233.211 Y64.53 Z-0.5
G2 X232.465 Y63.622 I-0.692 J-0.192
X230.931 Y64.54 I0.151 J1.994
G1 X230.861 Y64.657 Z-0.789
X230.851 Y64.676 Z-0.834 F700
G3 X230.597 Y64.834 Z-1.5 I-0.265 J-0.141
G1 X229.946
X229.727 Y64.759
X229.514 Y64.67
X229.306 Y64.567
X229.106 Y64.452
X228.913 Y64.324
X228.729 Y64.184
X228.554 Y64.032
X228.389 Y63.87
X228.235 Y63.697
X228.092 Y63.515
X227.961 Y63.325
X227.843 Y63.126
X227.737 Y62.92
X227.645 Y62.708
X227.566 Y62.49
X227.502 Y62.268
X227.452 Y62.042
X227.416 Y61.814
X227.395 Y61.583
X227.389 Y61.352
G3 X226.663 Y52.012 I33.273 J-7.282
X226.583 Y42.623 I187.815 J-6.293
G1 X226.584 Y31.793
G3 X227.183 Y15.938 I100.3 J-4.152
X228.971 Y12.19 I6.424 J0.764
G1 X229.123 Y12.166
X231.422
G3 X231.686 Y12.343 Z-0.789 I-0.01 J0.3
G1 X231.706 Y12.408 Z-0.645 F1200
X231.712 Y12.476 Z-0.5
X231.704 Y12.534
X231.685 Y12.59
X231.656 Y12.641
X231.617 Y12.685
X231.564 Y12.728
X231.506 Y12.763
X231.443 Y12.789
G3 X229.503 Y12.423 I-0.648 J-1.892
G1 X229.402 Y12.332 Z-0.789
X229.332 Y12.261 Z-1 F700
X229.288 Y12.222 Z-1.125
X229.237 Y12.193 Z-1.25
X229.182 Y12.174 Z-1.375
X229.123 Y12.166 Z-1.5
X228.47
X228.251 Y12.242
X228.036 Y12.332
X227.828 Y12.435
X227.627 Y12.552
X227.434 Y12.681
X227.25 Y12.822
X227.074 Y12.974
X226.909 Y13.137
X226.755 Y13.311
X226.611 Y13.493
X226.48 Y13.685
X226.362 Y13.885
X226.256 Y14.091
X226.163 Y14.304
X226.085 Y14.523
X226.02 Y14.746
X225.97 Y14.973
X225.934 Y15.202
X225.913 Y15.433
X225.906 Y15.665
G2 X225.166 Y25.004 I33.315 J7.341
X225.083 Y33.672 I171.778 J5.965
G1 X225.084 Y44.502
G2 X225.521 Y60.37 I156.17 J3.641
G1 X225.733 Y61.073
G2 X227.489 Y64.81 I6.184 J-0.624
G1 X227.64 Y64.834
X229.946
G2 X230.201 Y64.675 Z-0.834 I-0.01 J-0.3
G1 X230.21 Y64.657 Z-0.789
X230.237 Y64.595 Z-0.645 F1200
X230.259 Y64.53 Z-0.5
G2 X229.515 Y63.621 I-0.692 J-0.192
X227.974 Y64.54 I0.145 J1.995
G1 X227.905 Y64.657 Z-0.789
X227.895 Y64.675 Z-0.834 F700
G3 X227.64 Y64.834 Z-1.5 I-0.265 J-0.141
G1 X226.994
X226.775 Y64.759
X226.561 Y64.671
X226.354 Y64.569
X226.153 Y64.454
X225.96 Y64.327
X225.775 Y64.188
X225.6 Y64.037
X225.435 Y63.875
X225.28 Y63.703
X225.137 Y63.522
X225.005 Y63.331
X224.886 Y63.133
X224.78 Y62.928
X224.687 Y62.716
X224.608 Y62.499
X224.542 Y62.277
X224.491 Y62.052
X224.455 Y61.823
X224.433 Y61.593
X224.426 Y61.362
G3 X223.668 Y52.025 I33.075 J-7.384
X223.585 Y46.246 I90.297 J-4.187
G1 X223.583 Y41.192
X223.584 Y32.528
G3 X224.036 Y16.66 I153.268 J-3.574
G1 X224.247 Y15.957
G3 X226.013 Y12.19 I6.261 J0.637
G1 X226.165 Y12.166
X228.47
G3 X228.734 Y12.343 Z-0.789 I-0.01 J0.3
G1 X228.754 Y12.408 Z-0.645 F1200
X228.759 Y12.476 Z-0.5
X228.752 Y12.534
X228.733 Y12.59
X228.703 Y12.641
X228.664 Y12.685
X228.615 Y12.725
X228.562 Y12.757
X228.504 Y12.782
G3 X226.544 Y12.424 I-0.668 J-1.885
G1 X226.443 Y12.332 Z-0.789
X226.374 Y12.261 Z-1 F700
X226.329 Y12.222 Z-1.125
X226.279 Y12.193 Z-1.25
X226.223 Y12.174 Z-1.375
X226.165 Y12.166 Z-1.5
X225.518
X225.298 Y12.241
X225.084 Y12.33
X224.876 Y12.432
X224.675 Y12.547
X224.481 Y12.675
X224.297 Y12.815
X224.121 Y12.966
X223.955 Y13.128
X223.8 Y13.301
X223.657 Y13.483
X223.525 Y13.673
X223.405 Y13.872
X223.299 Y14.078
X223.206 Y14.29
X223.126 Y14.508
X223.061 Y14.73
X223.01 Y14.956
X222.973 Y15.185
X222.951 Y15.416
X222.944 Y15.647
G2 X222.171 Y24.984 I33.123 J7.441
X222.083 Y35.095 I151.283 J6.365
G1 X222.084 Y44.48
G2 X222.549 Y60.347 I150.398 J3.533
G1 X222.76 Y61.05
G2 X224.529 Y64.81 I6.253 J-0.646
G1 X224.681 Y64.834
X226.994
G2 X227.248 Y64.675 Z-0.834 I-0.01 J-0.3
G1 X227.258 Y64.657 Z-0.789
X227.285 Y64.594 Z-0.645 F1200
X227.306 Y64.53 Z-0.5
G2 X226.566 Y63.621 I-0.692 J-0.192
X225.014 Y64.54 I0.133 J1.996
G1 X224.945 Y64.657 Z-0.789
X224.935 Y64.675 Z-0.834 F700
G3 X224.681 Y64.834 Z-1.5 I-0.265 J-0.141
G1 X224.042
X223.823 Y64.761
X223.609 Y64.674
X223.401 Y64.573
X223.2 Y64.46
X223.007 Y64.334
X222.822 Y64.196
X222.647 Y64.046
X222.481 Y63.886
X222.326 Y63.715
X222.182 Y63.535
X222.05 Y63.346
X221.93 Y63.148
X221.823 Y62.944
X221.73 Y62.733
X221.649 Y62.517
X221.583 Y62.296
X221.531 Y62.071
X221.494 Y61.844
X221.471 Y61.614
X221.463 Y61.384
G3 X220.673 Y52.05 I32.899 J-7.483
X220.584 Y42.661 I139.363 J-6.029
G1 Y33.275
G3 X221.115 Y16.691 I123.068 J-4.362
G1 X221.272 Y15.983
G3 X223.05 Y12.19 I6.337 J0.658
G1 X223.203 Y12.166
X225.518
G3 X225.781 Y12.343 Z-0.789 I-0.01 J0.3
G1 X225.802 Y12.408 Z-0.645 F1200
X225.807 Y12.476 Z-0.5
X225.799 Y12.535
X225.78 Y12.59
X225.751 Y12.641
X225.712 Y12.685
X225.669 Y12.72
X225.622 Y12.749
X225.572 Y12.772
G3 X223.582 Y12.424 I-0.698 J-1.874
G1 X223.481 Y12.332 Z-0.789
X223.412 Y12.261 Z-1 F700
X223.368 Y12.223 Z-1.125
X223.317 Y12.193 Z-1.25
X223.261 Y12.174 Z-1.375
X223.203 Y12.166 Z-1.5
X222.565
X222.347 Y12.239
X222.133 Y12.326
X221.925 Y12.426
X221.724 Y12.539
X221.531 Y12.665
X221.346 Y12.803
X221.17 Y12.953
X221.004 Y13.113
X220.849 Y13.283
X220.705 Y13.463
X220.572 Y13.652
X220.452 Y13.849
X220.345 Y14.054
X220.251 Y14.264
X220.171 Y14.48
X220.104 Y14.701
X220.052 Y14.926
X220.014 Y15.153
X219.991 Y15.383
X219.982 Y15.613
G2 X219.177 Y24.946 I32.886 J7.539
X219.083 Y35.779 I220.848 J7.324
G1 X219.084 Y43.721
G2 X219.625 Y60.305 I122.009 J4.323
G1 X219.781 Y61.012
G2 X221.565 Y64.81 I6.375 J-0.676
G1 X221.717 Y64.834
X224.042
G2 X224.305 Y64.656 Z-0.789 I-0.01 J-0.3
G1 X224.326 Y64.592 Z-0.645 F1200
X224.331 Y64.524 Z-0.5
G2 X224.138 Y64.248 I-0.308 J0.011
X222.096 Y64.576 I-0.75 J1.854
G1 X221.995 Y64.668 Z-0.789
X221.926 Y64.738 Z-1 F700
X221.882 Y64.777 Z-1.125
X221.831 Y64.807 Z-1.25
X221.775 Y64.826 Z-1.375
X221.717 Y64.834 Z-1.5
X221.089
X220.871 Y64.763
X220.658 Y64.678
X220.451 Y64.58
X220.251 Y64.469
X220.058 Y64.345
X219.873 Y64.209
X219.698 Y64.062
X219.532 Y63.904
X219.377 Y63.735
X219.232 Y63.557
X219.1 Y63.371
X218.979 Y63.176
X218.872 Y62.973
X218.777 Y62.765
X218.696 Y62.55
X218.629 Y62.331
X218.576 Y62.109
X218.537 Y61.883
X218.513 Y61.655
X218.503 Y61.426
G3 X217.68 Y52.096 I32.605 J-7.578
X217.584 Y41.985 I183.791 J-6.809
G1 Y34.043
G3 X218.073 Y16.733 I166.595 J-3.957
G1 X218.29 Y16.03
G3 X219.972 Y12.242 I7.283 J0.966
G1 X220.099 Y12.186
X220.236 Y12.166
X222.565
G3 X222.829 Y12.344 Z-0.789 I-0.01 J0.3
G1 X222.849 Y12.409 Z-0.645 F1200
X222.855 Y12.476 Z-0.5
Y12.477
G3 X222.665 Y12.749 I-0.305 J-0.011
X220.615 Y12.424 I-0.757 J-1.851
G1 X220.514 Y12.332 Z-0.789
X220.445 Y12.262 Z-1 F700
X220.401 Y12.223 Z-1.125
X220.35 Y12.193 Z-1.25
X220.294 Y12.174 Z-1.375
X220.236 Y12.166 Z-1.5
X219.613 Y12.167
X219.395 Y12.237
X219.183 Y12.321
X218.976 Y12.418
X218.776 Y12.528
X218.583 Y12.651
X218.399 Y12.786
X218.223 Y12.933
X218.058 Y13.09
X217.902 Y13.258
X217.758 Y13.435
X217.625 Y13.621
X217.505 Y13.815
X217.397 Y14.016
X217.302 Y14.224
X217.221 Y14.438
X217.153 Y14.656
X217.099 Y14.878
X217.06 Y15.103
X217.035 Y15.33
X217.025 Y15.558
G2 X216.184 Y24.887 I32.48 J7.63
X216.084 Y34.998 I180.02 J6.847
G1 Y42.94
G2 X216.577 Y60.25 I169.586 J3.832
G1 X216.798 Y60.952
G2 X218.486 Y64.757 I7.321 J-0.971
G1 X218.613 Y64.814
X218.751 Y64.833
X221.089 Y64.834
G2 X221.343 Y64.675 Z-0.834 I-0.01 J-0.3
G1 X221.353 Y64.656 Z-0.789
X221.38 Y64.594 Z-0.645 F1200
X221.402 Y64.529 Z-0.5
G2 X220.674 Y63.618 I-0.693 J-0.193
X219.085 Y64.539 I0.096 J1.998
G1 X219.015 Y64.656 Z-0.789
X219.005 Y64.675 Z-0.834 F700
G3 X218.751 Y64.833 Z-1.5 I-0.265 J-0.141
G1 X218.137
X217.921 Y64.766
X217.709 Y64.684
X217.503 Y64.589
X217.304 Y64.481
X217.112 Y64.361
X216.928 Y64.229
X216.753 Y64.085
X216.588 Y63.93
X216.433 Y63.765
X216.288 Y63.59
X216.156 Y63.407
X216.035 Y63.215
X215.927 Y63.016
X215.831 Y62.811
X215.749 Y62.6
X215.681 Y62.384
X215.626 Y62.164
X215.586 Y61.941
X215.56 Y61.716
X215.549 Y61.49
G3 X214.688 Y52.164 I32.057 J-7.661
X214.585 Y44.22 I141.611 J-5.813
G1 X214.583 Y39.166
X214.584 Y33.39
G3 X215.266 Y16.094 I109.86 J-4.331
X217.006 Y12.244 I7.755 J1.186
G1 X217.134 Y12.186
X217.273 Y12.167
X219.613
G3 X219.867 Y12.325 Z-0.834 I-0.01 J0.3
G1 X219.877 Y12.344 Z-0.789
X219.904 Y12.406 Z-0.645 F1200
X219.926 Y12.471 Z-0.5
G3 X219.199 Y13.382 I-0.693 J0.193
X217.607 Y12.461 I0.093 J-1.998
G1 X217.537 Y12.344 Z-0.789
X217.527 Y12.325 Z-0.834 F700
G2 X217.273 Y12.167 Z-1.5 I-0.265 J0.141
G1 X216.661
X216.434 Y12.237
X216.213 Y12.323
X215.998 Y12.423
X215.79 Y12.538
X215.591 Y12.666
X215.4 Y12.808
X215.22 Y12.962
X215.05 Y13.127
X214.892 Y13.304
X214.746 Y13.491
X214.613 Y13.688
X214.494 Y13.893
X214.388 Y14.105
X214.298 Y14.324
X214.222 Y14.549
X214.161 Y14.778
X214.116 Y15.011
X214.087 Y15.246
X214.074 Y15.483
G2 X213.193 Y24.806 I31.746 J7.702
X213.084 Y35.639 I209.694 J7.537
G1 Y42.137
G2 X213.588 Y60.168 I176.81 J4.084
G1 X213.81 Y60.871
G2 X215.519 Y64.756 I7.446 J-0.958
G1 X215.648 Y64.813
X215.787 Y64.833
X218.137
G2 X218.391 Y64.675 Z-0.834 I-0.01 J-0.3
G1 X218.401 Y64.656 Z-0.789
X218.428 Y64.594 Z-0.645 F1200
X218.449 Y64.529 Z-0.5
G2 X217.728 Y63.617 I-0.693 J-0.193
X216.121 Y64.539 I0.078 J1.998
G1 X216.051 Y64.656 Z-0.789
X216.041 Y64.675 Z-0.834 F700
G3 X215.787 Y64.833 Z-1.5 I-0.265 J-0.141
G1 X215.111
X214.887 Y64.751
X214.669 Y64.656
X214.457 Y64.547
X214.253 Y64.425
X214.057 Y64.29
X213.869 Y64.143
X213.692 Y63.985
X213.524 Y63.815
X213.367 Y63.636
X213.223 Y63.447
X213.09 Y63.25
X212.97 Y63.044
X212.863 Y62.831
X212.769 Y62.612
X212.69 Y62.388
X212.625 Y62.159
X212.574 Y61.927
X212.538 Y61.691
X212.517 Y61.454
X212.511 Y61.216
G3 X211.688 Y51.881 I33.896 J-7.693
X211.584 Y39.605 I265.195 J-8.387
G1 X211.585 Y33.829
G3 X212.214 Y16.529 I120.875 J-4.264
G1 X212.391 Y15.824
G3 X214.161 Y12.189 I6.042 J0.694
G1 X214.31 Y12.167
X216.661
G3 X216.915 Y12.325 Z-0.834 I-0.01 J0.3
G1 X216.924 Y12.344 Z-0.789
X216.952 Y12.406 Z-0.645 F1200
X216.973 Y12.471 Z-0.5
G3 X216.252 Y13.383 I-0.693 J0.193
X214.643 Y12.461 I0.076 J-1.999
G1 X214.574 Y12.344 Z-0.789
X214.564 Y12.326 Z-0.834 F700
G2 X214.31 Y12.167 Z-1.5 I-0.265 J0.141
G1 X213.634
X213.41 Y12.248
X213.191 Y12.344
X212.978 Y12.453
X212.773 Y12.576
X212.575 Y12.711
X212.387 Y12.858
X212.208 Y13.017
X212.04 Y13.186
X211.883 Y13.367
X211.738 Y13.556
X211.604 Y13.755
X211.484 Y13.961
X211.377 Y14.175
X211.283 Y14.394
X211.204 Y14.62
X211.138 Y14.85
X211.088 Y15.083
X211.052 Y15.32
X211.032 Y15.558
X211.026 Y15.797
G2 X210.191 Y25.131 I33.915 J7.739
X210.084 Y35.963 I218.074 J7.574
G1 Y41.739
G2 X210.558 Y59.773 I190.215 J4.026
G1 X210.759 Y60.479
X210.905 Y61.186
G2 X212.669 Y64.811 I6.028 J-0.693
G1 X212.817 Y64.833
X215.111
G2 X215.374 Y64.656 Z-0.789 I-0.01 J-0.3
G1 X215.395 Y64.591 Z-0.645 F1200
X215.4 Y64.523 Z-0.5
X215.392 Y64.465
X215.373 Y64.409
X215.344 Y64.358
X215.305 Y64.314
X215.248 Y64.268
X215.186 Y64.232
X215.119 Y64.204
G2 X213.197 Y64.576 I-0.63 J1.898
G1 X213.096 Y64.667 Z-0.789
X213.026 Y64.738 Z-1 F700
X212.982 Y64.777 Z-1.125
X212.931 Y64.806 Z-1.25
X212.876 Y64.825 Z-1.375
X212.817 Y64.833 Z-1.5
X212.158
X211.936 Y64.755
X211.719 Y64.664
X211.508 Y64.559
X211.304 Y64.44
X211.108 Y64.309
X210.921 Y64.166
X210.744 Y64.011
X210.576 Y63.846
X210.419 Y63.67
X210.274 Y63.484
X210.141 Y63.29
X210.02 Y63.088
X209.913 Y62.878
X209.819 Y62.662
X209.739 Y62.441
X209.673 Y62.215
X209.621 Y61.985
X209.584 Y61.752
X209.562 Y61.518
X209.555 Y61.282
G3 X208.696 Y51.952 I33.124 J-7.756
X208.584 Y38.954 I289.158 J-8.995
G1 X208.585 Y33.9
G3 X209.228 Y16.599 I120.417 J-4.188
G1 X209.404 Y15.895
G3 X211.183 Y12.19 I6.176 J0.686
G1 X211.333 Y12.167
X213.634
G3 X213.898 Y12.344 Z-0.789 I-0.01 J0.3
G1 X213.918 Y12.409 Z-0.645 F1200
X213.924 Y12.477 Z-0.5
G3 X213.717 Y12.767 I-0.322 J-0.011
X211.712 Y12.425 I-0.712 J-1.869
G1 X211.611 Y12.333 Z-0.789
X211.542 Y12.262 Z-1 F700
X211.498 Y12.223 Z-1.125
X211.447 Y12.194 Z-1.25
X211.391 Y12.175 Z-1.375
X211.333 Y12.167 Z-1.5
X210.682
X210.461 Y12.242
X210.246 Y12.331
X210.037 Y12.433
X209.834 Y12.549
X209.64 Y12.677
X209.453 Y12.817
X209.276 Y12.969
X209.11 Y13.131
X208.953 Y13.304
X208.808 Y13.487
X208.675 Y13.678
X208.555 Y13.877
X208.447 Y14.084
X208.353 Y14.297
X208.272 Y14.515
X208.206 Y14.739
X208.153 Y14.966
X208.116 Y15.196
X208.092 Y15.427
X208.084 Y15.66
G2 X207.202 Y24.988 I32.808 J7.809
X207.325 Y57.475 I574.87 J14.065
X207.899 Y61.045 I53.521 J-6.772
X209.691 Y64.809 I6.332 J-0.706
G1 X209.842 Y64.833
X212.158
G2 X212.413 Y64.674 Z-0.834 I-0.01 J-0.3
G1 X212.422 Y64.656 Z-0.789
X212.449 Y64.593 Z-0.645 F1200
X212.471 Y64.529 Z-0.5
G2 X211.732 Y63.619 I-0.692 J-0.192
X210.176 Y64.539 I0.129 J1.996
G1 X210.106 Y64.656 Z-0.789
X210.097 Y64.674 Z-0.834 F700
G3 X209.842 Y64.833 Z-1.5 I-0.265 J-0.141
G1 X209.206
X208.986 Y64.76
X208.772 Y64.674
X208.564 Y64.575
X208.362 Y64.462
X208.168 Y64.336
X207.982 Y64.199
X207.805 Y64.05
X207.638 Y63.89
X207.482 Y63.72
X207.337 Y63.54
X207.204 Y63.352
X207.082 Y63.155
X206.974 Y62.951
X206.879 Y62.74
X206.797 Y62.524
X206.73 Y62.303
X206.676 Y62.078
X206.637 Y61.851
X206.613 Y61.621
X206.603 Y61.39
G3 X205.705 Y52.065 I32.617 J-7.847
X205.584 Y39.789 I255.247 J-8.659
G1 X205.585 Y34.735
G3 X206.234 Y16.713 I126.921 J-4.454
G1 X206.4 Y16.007
G3 X208.204 Y12.191 I6.514 J0.745
G1 X208.357 Y12.167
X210.682
G3 X210.946 Y12.344 Z-0.789 I-0.01 J0.3
G1 X210.966 Y12.409 Z-0.645 F1200
X210.971 Y12.477 Z-0.5
G3 X210.78 Y12.752 I-0.308 J-0.011
X208.736 Y12.425 I-0.751 J-1.853
G1 X208.635 Y12.333 Z-0.789
X208.566 Y12.262 Z-1 F700
X208.521 Y12.224 Z-1.125
X208.471 Y12.194 Z-1.25
X208.415 Y12.175 Z-1.375
X208.357 Y12.167 Z-1.5
X207.73
X207.511 Y12.239
X207.297 Y12.324
X207.089 Y12.422
X206.887 Y12.534
X206.693 Y12.658
X206.508 Y12.794
X206.331 Y12.942
X206.164 Y13.1
X206.008 Y13.269
X205.862 Y13.448
X205.729 Y13.635
X205.607 Y13.831
X205.498 Y14.034
X205.403 Y14.243
X205.321 Y14.458
X205.252 Y14.678
X205.198 Y14.902
X205.158 Y15.128
X205.133 Y15.357
X205.123 Y15.587
G2 X204.21 Y24.91 I32.607 J7.897
X204.381 Y58.117 I521.332 J13.925
G3 X204.901 Y60.968 I-141.58 J27.288
G2 X206.602 Y64.757 I7.393 J-1.043
G1 X206.729 Y64.813
X206.866 Y64.833
X209.206
G2 X209.46 Y64.674 Z-0.834 I-0.01 J-0.3
G1 X209.47 Y64.656 Z-0.789
X209.497 Y64.593 Z-0.645 F1200
X209.518 Y64.529 Z-0.5
G2 X208.792 Y63.617 I-0.693 J-0.193
X207.2 Y64.538 I0.094 J1.998
G1 X207.13 Y64.656 Z-0.789
X207.121 Y64.674 Z-0.834 F700
G3 X206.866 Y64.833 Z-1.5 I-0.265 J-0.141
G1 X206.254
X206.036 Y64.765
X205.824 Y64.683
X205.617 Y64.588
X205.417 Y64.479
X205.224 Y64.359
X205.039 Y64.226
X204.863 Y64.081
X204.696 Y63.926
X204.54 Y63.761
X204.395 Y63.585
X204.261 Y63.401
X204.139 Y63.209
X204.03 Y63.009
X203.934 Y62.803
X203.851 Y62.591
X203.782 Y62.374
X203.726 Y62.154
X203.685 Y61.93
X203.659 Y61.704
X203.646 Y61.476
G3 X202.715 Y52.157 I32.178 J-7.923
X202.887 Y18.95 I510.655 J-13.951
G2 X203.401 Y16.098 I-165.058 J-31.229
G3 X205.12 Y12.244 I7.496 J1.033
G1 X205.248 Y12.187
X205.386 Y12.167
X207.73
G3 X207.984 Y12.326 Z-0.834 I-0.01 J0.3
G1 X207.994 Y12.344 Z-0.789
X208.021 Y12.407 Z-0.645 F1200
X208.042 Y12.472 Z-0.5
G3 X207.318 Y13.383 I-0.693 J0.193
X205.72 Y12.462 I0.088 J-1.998
G1 X205.65 Y12.344 Z-0.789
X205.64 Y12.326 Z-0.834 F700
G2 X205.386 Y12.167 Z-1.5 I-0.265 J0.141
G1 X204.777
X204.55 Y12.237
X204.329 Y12.322
X204.113 Y12.422
X203.905 Y12.536
X203.705 Y12.663
X203.514 Y12.804
X203.332 Y12.958
X203.162 Y13.123
X203.003 Y13.299
X202.856 Y13.486
X202.722 Y13.682
X202.602 Y13.886
X202.495 Y14.098
X202.404 Y14.317
X202.327 Y14.542
X202.265 Y14.771
X202.219 Y15.004
X202.188 Y15.239
X202.174 Y15.476
G2 X201.221 Y24.792 I31.787 J7.957
X201.39 Y57.999 I502.053 J14.06
G3 X201.9 Y60.851 I-169.226 J31.735
G2 X203.629 Y64.755 I7.547 J-1.009
G1 X203.758 Y64.813
X203.897 Y64.832
X206.254 Y64.833
G2 X206.508 Y64.674 Z-0.834 I-0.01 J-0.3
G1 X206.517 Y64.655 Z-0.789
X206.545 Y64.593 Z-0.645 F1200
X206.566 Y64.528 Z-0.5
G2 X205.848 Y63.616 I-0.693 J-0.193
X204.231 Y64.538 I0.068 J1.999
G1 X204.161 Y64.655 Z-0.789
X204.151 Y64.674 Z-0.834 F700
G3 X203.897 Y64.832 Z-1.5 I-0.265 J-0.141
G1 X203.301
X203.077 Y64.767
X202.857 Y64.686
X202.644 Y64.59
X202.438 Y64.481
X202.239 Y64.357
X202.049 Y64.221
X201.869 Y64.072
X201.699 Y63.911
X201.541 Y63.739
X201.394 Y63.557
X201.26 Y63.366
X201.14 Y63.166
X201.033 Y62.958
X200.94 Y62.743
X200.862 Y62.523
X200.8 Y62.298
X200.752 Y62.069
X200.72 Y61.837
X200.704 Y61.604
G3 X199.727 Y52.292 I31.109 J-7.972
X199.894 Y19.086 I495.653 J-14.108
X200.56 Y15.529 I50.987 J7.703
X202.273 Y12.188 I5.416 J0.668
G1 X202.414 Y12.168
X204.777 Y12.167
G3 X205.032 Y12.326 Z-0.834 I-0.01 J0.3
G1 X205.041 Y12.345 Z-0.789
X205.069 Y12.407 Z-0.645 F1200
X205.09 Y12.472 Z-0.5
G3 X204.376 Y13.385 I-0.694 J0.193
X202.748 Y12.462 I0.058 J-1.999
G1 X202.678 Y12.345 Z-0.789
X202.668 Y12.326 Z-0.834 F700
G2 X202.414 Y12.168 Z-1.5 I-0.265 J0.141
G1 X201.735
X201.51 Y12.249
X201.291 Y12.345
X201.078 Y12.454
X200.873 Y12.577
X200.675 Y12.712
X200.487 Y12.859
X200.308 Y13.018
X200.139 Y13.187
X199.982 Y13.367
X199.836 Y13.557
X199.702 Y13.755
X199.581 Y13.961
X199.474 Y14.175
X199.38 Y14.395
X199.299 Y14.62
X199.234 Y14.85
X199.182 Y15.083
X199.146 Y15.32
X199.124 Y15.558
X199.118 Y15.797
G2 X198.218 Y25.126 I33.948 J7.984
X198.377 Y57.611 I507.066 J13.749
X198.992 Y61.175 I57.283 J-8.043
X200.778 Y64.81 I6.096 J-0.739
G1 X200.926 Y64.832
X203.301
G2 X203.555 Y64.674 Z-0.834 I-0.01 J-0.3
G1 X203.565 Y64.655 Z-0.789
X203.592 Y64.593 Z-0.645 F1200
X203.614 Y64.528 Z-0.5
G2 X202.906 Y63.615 I-0.694 J-0.193
X201.26 Y64.538 I0.039 J2
G1 X201.19 Y64.655 Z-0.789
X201.18 Y64.674 Z-0.834 F700
G3 X200.926 Y64.832 Z-1.5 I-0.265 J-0.141
G1 X200.259
X200.034 Y64.752
X199.814 Y64.658
X199.601 Y64.55
X199.395 Y64.429
X199.197 Y64.295
X199.008 Y64.149
X198.829 Y63.991
X198.659 Y63.823
X198.501 Y63.644
X198.355 Y63.455
X198.22 Y63.258
X198.099 Y63.052
X197.99 Y62.839
X197.895 Y62.62
X197.814 Y62.396
X197.748 Y62.166
X197.696 Y61.933
X197.658 Y61.697
X197.636 Y61.459
X197.629 Y61.221
G3 X196.72 Y51.893 I33.774 J-7.997
X196.885 Y19.408 I498.16 J-13.712
X197.504 Y15.844 I58.667 J8.344
X199.284 Y12.19 I6.123 J0.723
G1 X199.433 Y12.168
X201.735
G3 X201.998 Y12.345 Z-0.789 I-0.01 J0.3
G1 X202.019 Y12.41 Z-0.645 F1200
X202.024 Y12.478 Z-0.5
X202.016 Y12.536
X201.997 Y12.592
X201.968 Y12.643
X201.929 Y12.687
X201.878 Y12.728
X201.822 Y12.762
X201.761 Y12.788
G3 X199.812 Y12.425 I-0.657 J-1.889
G1 X199.711 Y12.334 Z-0.789
X199.642 Y12.263 Z-1 F700
X199.598 Y12.224 Z-1.125
X199.547 Y12.195 Z-1.25
X199.491 Y12.176 Z-1.375
X199.433 Y12.168 Z-1.5
X198.782
X198.561 Y12.244
X198.344 Y12.333
X198.133 Y12.436
X197.93 Y12.552
X197.734 Y12.681
X197.547 Y12.822
X197.369 Y12.975
X197.201 Y13.139
X197.044 Y13.312
X196.898 Y13.496
X196.764 Y13.688
X196.643 Y13.889
X196.534 Y14.096
X196.439 Y14.311
X196.358 Y14.53
X196.291 Y14.755
X196.238 Y14.983
X196.2 Y15.214
X196.176 Y15.447
X196.167 Y15.682
G2 X195.229 Y25.005 I33.009 J8.032
X195.434 Y58.209 I463.811 J13.731
G3 X195.986 Y61.056 I-107.528 J22.334
G2 X197.792 Y64.809 I6.337 J-0.737
G1 X197.942 Y64.832
X200.259
G2 X200.522 Y64.655 Z-0.789 I-0.01 J-0.3
G1 X200.543 Y64.59 Z-0.645 F1200
X200.548 Y64.522 Z-0.5
G2 X200.35 Y64.241 I-0.313 J0.011
X198.321 Y64.575 I-0.736 J1.859
G1 X198.22 Y64.666 Z-0.789
X198.151 Y64.737 Z-1 F700
X198.107 Y64.776 Z-1.125
X198.056 Y64.805 Z-1.25
X198 Y64.824 Z-1.375
X197.942 Y64.832 Z-1.5
X197.306
X197.087 Y64.76
X196.872 Y64.675
X196.663 Y64.576
X196.461 Y64.464
X196.267 Y64.34
X196.08 Y64.203
X195.903 Y64.055
X195.736 Y63.895
X195.579 Y63.726
X195.433 Y63.547
X195.299 Y63.359
X195.177 Y63.162
X195.068 Y62.959
X194.972 Y62.749
X194.89 Y62.533
X194.822 Y62.312
X194.767 Y62.088
X194.727 Y61.86
X194.702 Y61.631
X194.691 Y61.4
G3 X193.733 Y52.081 I32.709 J-8.071
X193.938 Y18.876 I457.653 J-13.782
G2 X194.479 Y16.028 I-102.33 J-20.899
G3 X196.186 Y12.243 I7.422 J1.072
G1 X196.313 Y12.187
X196.45 Y12.168
X198.782
G3 X199.037 Y12.327 Z-0.834 I-0.01 J0.3
G1 X199.046 Y12.345 Z-0.789
X199.074 Y12.407 Z-0.645 F1200
X199.095 Y12.472 Z-0.5
G3 X198.364 Y13.383 I-0.693 J0.193
X196.784 Y12.462 I0.105 J-1.997
G1 X196.715 Y12.345 Z-0.789
X196.705 Y12.327 Z-0.834 F700
G2 X196.45 Y12.168 Z-1.5 I-0.265 J0.141
G1 X195.83
X195.611 Y12.238
X195.397 Y12.322
X195.189 Y12.419
X194.988 Y12.529
X194.794 Y12.652
X194.608 Y12.787
X194.431 Y12.933
X194.264 Y13.091
X194.107 Y13.259
X193.961 Y13.436
X193.827 Y13.622
X193.705 Y13.817
X193.595 Y14.018
X193.499 Y14.227
X193.416 Y14.441
X193.347 Y14.66
X193.291 Y14.883
X193.251 Y15.109
X193.224 Y15.337
X193.212 Y15.566
G2 X192.239 Y24.883 I32.582 J8.111
X192.44 Y58.087 I455.609 J13.852
G3 X192.975 Y60.936 I-106.381 J21.473
G2 X194.695 Y64.756 I7.5 J-1.079
G1 X194.822 Y64.812
X194.96 Y64.832
X197.306
G2 X197.561 Y64.673 Z-0.834 I-0.01 J-0.3
G1 X197.57 Y64.655 Z-0.789
X197.597 Y64.592 Z-0.645 F1200
X197.619 Y64.528 Z-0.5
G2 X196.896 Y63.616 I-0.693 J-0.193
X195.293 Y64.538 I0.083 J1.998
G1 X195.224 Y64.655 Z-0.789
X195.214 Y64.673 Z-0.834 F700
G3 X194.96 Y64.832 Z-1.5 I-0.265 J-0.141
G1 X194.28
G3 X192.04 Y62.519 I0.711 J-2.93
X190.754 Y53.989 I27.073 J-8.443
X190.908 Y19.343 I519.838 J-15.017
X191.556 Y15.782 I75.369 J11.868
X193.333 Y12.19 I5.99 J0.73
G1 X193.48 Y12.168
X195.83
G3 X196.084 Y12.327 Z-0.834 I-0.01 J0.3
G1 X196.094 Y12.345 Z-0.789
X196.121 Y12.408 Z-0.645 F1200
X196.143 Y12.472 Z-0.5
G3 X195.421 Y13.384 I-0.693 J0.193
X193.814 Y12.463 I0.078 J-1.998
G1 X193.744 Y12.345 Z-0.789
X193.735 Y12.327 Z-0.834 F700
G2 X193.48 Y12.168 Z-1.5 I-0.265 J0.141
G1 X192.804
X192.579 Y12.249
X192.359 Y12.344
X192.146 Y12.453
X191.94 Y12.575
X191.742 Y12.71
X191.553 Y12.856
X191.373 Y13.015
X191.204 Y13.184
X191.046 Y13.364
X190.899 Y13.553
X190.765 Y13.752
X190.644 Y13.958
X190.535 Y14.171
X190.441 Y14.391
X190.36 Y14.617
X190.294 Y14.847
X190.243 Y15.08
X190.206 Y15.317
X190.184 Y15.555
X190.177 Y15.794
G2 X189.238 Y25.12 I34.053 J8.139
X189.517 Y58.322 I368.451 J13.511
X190.043 Y61.167 I184.809 J-32.718
X191.836 Y64.809 I6.165 J-0.772
G1 X191.984 Y64.832
X194.28
G2 X194.534 Y64.673 Z-0.834 I-0.01 J-0.3
G1 X194.544 Y64.655 Z-0.789
X194.571 Y64.592 Z-0.645 F1200
X194.593 Y64.528 Z-0.5
G2 X193.844 Y63.62 I-0.691 J-0.192
X192.317 Y64.537 I0.159 J1.994
G1 X192.248 Y64.655 Z-0.789
X192.238 Y64.673 Z-0.834 F700
G3 X191.984 Y64.832 Z-1.5 I-0.265 J-0.141
G1 X191.328
X191.104 Y64.754
X190.886 Y64.663
X190.675 Y64.559
X190.47 Y64.441
X190.273 Y64.31
X190.085 Y64.167
X189.906 Y64.013
X189.738 Y63.848
X189.58 Y63.672
X189.433 Y63.487
X189.299 Y63.293
X189.177 Y63.09
X189.068 Y62.881
X188.973 Y62.665
X188.891 Y62.443
X188.824 Y62.217
X188.771 Y61.987
X188.733 Y61.754
X188.709 Y61.519
X188.7 Y61.283
G3 X187.744 Y51.96 I33.366 J-8.135
X188.02 Y18.759 I365.753 J-13.553
X188.54 Y15.913 I231.158 J40.751
X190.342 Y12.191 I6.293 J0.751
G1 X190.492 Y12.168
X192.804
G3 X193.067 Y12.346 Z-0.789 I-0.01 J0.3
G1 X193.088 Y12.41 Z-0.645 F1200
X193.093 Y12.478 Z-0.5
X193.085 Y12.537
X193.066 Y12.592
X193.037 Y12.643
X192.998 Y12.687
X192.953 Y12.724
X192.904 Y12.754
X192.851 Y12.778
G3 X190.872 Y12.426 I-0.687 J-1.878
G1 X190.771 Y12.334 Z-0.789
X190.701 Y12.264 Z-1 F700
X190.657 Y12.225 Z-1.125
X190.606 Y12.195 Z-1.25
X190.551 Y12.176 Z-1.375
X190.492 Y12.168 Z-1.5
X189.852
X189.631 Y12.241
X189.416 Y12.328
X189.207 Y12.428
X189.005 Y12.541
X188.81 Y12.667
X188.623 Y12.805
X188.446 Y12.954
X188.279 Y13.115
X188.122 Y13.285
X187.976 Y13.466
X187.842 Y13.655
X187.72 Y13.852
X187.611 Y14.057
X187.516 Y14.268
X187.433 Y14.485
X187.365 Y14.707
X187.311 Y14.932
X187.272 Y15.161
X187.247 Y15.391
X187.237 Y15.623
G2 X186.252 Y24.941 I32.936 J8.191
X186.473 Y58.144 I423.908 J13.776
G3 X187.024 Y60.99 I-100.601 J20.935
G2 X188.846 Y64.808 I6.564 J-0.79
G1 X188.999 Y64.831
X191.328 Y64.832
G2 X191.591 Y64.654 Z-0.789 I-0.01 J-0.3
G1 X191.612 Y64.589 Z-0.645 F1200
X191.617 Y64.522 Z-0.5
Y64.521
G2 X191.427 Y64.249 I-0.305 J0.011
X189.378 Y64.574 I-0.757 J1.851
G1 X189.277 Y64.666 Z-0.789
X189.208 Y64.736 Z-1 F700
X189.164 Y64.775 Z-1.125
X189.113 Y64.805 Z-1.25
X189.057 Y64.824 Z-1.375
X188.999 Y64.831 Z-1.5
X188.375
X188.156 Y64.762
X187.942 Y64.678
X187.734 Y64.581
X187.532 Y64.471
X187.338 Y64.348
X187.152 Y64.213
X186.975 Y64.067
X186.808 Y63.909
X186.651 Y63.742
X186.504 Y63.564
X186.37 Y63.378
X186.248 Y63.184
X186.138 Y62.982
X186.041 Y62.774
X185.958 Y62.559
X185.888 Y62.34
X185.833 Y62.118
X185.792 Y61.892
X185.765 Y61.663
X185.753 Y61.434
G3 X184.73 Y50.676 I38.192 J-9.059
X185.031 Y18.918 I338.751 J-12.676
X185.518 Y16.068 I117.14 J18.579
X187.245 Y12.245 I7.578 J1.121
G1 X187.372 Y12.188
X187.51 Y12.169
X189.852 Y12.168
G3 X190.106 Y12.327 Z-0.834 I-0.01 J0.3
G1 X190.115 Y12.346 Z-0.789
X190.143 Y12.408 Z-0.645 F1200
X190.164 Y12.473 Z-0.5
G3 X189.438 Y13.384 I-0.693 J0.193
X187.844 Y12.463 I0.091 J-1.998
G1 X187.774 Y12.346 Z-0.789
X187.764 Y12.327 Z-0.834 F700
G2 X187.51 Y12.169 Z-1.5 I-0.265 J0.141
G1 X186.899
X186.682 Y12.236
X186.469 Y12.318
X186.262 Y12.412
X186.061 Y12.52
X185.868 Y12.64
X185.683 Y12.772
X185.506 Y12.916
X185.339 Y13.071
X185.183 Y13.236
X185.037 Y13.411
X184.902 Y13.594
X184.78 Y13.786
X184.67 Y13.985
X184.572 Y14.191
X184.489 Y14.403
X184.418 Y14.619
X184.362 Y14.84
X184.32 Y15.063
X184.292 Y15.289
X184.279 Y15.516
G2 X183.264 Y24.828 I32.429 J8.247
X183.478 Y58.031 I417.409 J13.901
G3 X184.016 Y60.879 I-112.39 J22.683
G2 X185.753 Y64.754 I7.584 J-1.074
G1 X185.881 Y64.812
X186.02 Y64.831
X188.375
G2 X188.63 Y64.673 Z-0.834 I-0.01 J-0.3
G1 X188.639 Y64.654 Z-0.789
X188.667 Y64.592 Z-0.645 F1200
X188.688 Y64.527 Z-0.5
G2 X187.969 Y63.615 I-0.693 J-0.193
X186.353 Y64.537 I0.07 J1.999
G1 X186.284 Y64.654 Z-0.789
X186.274 Y64.673 Z-0.834 F700
G3 X186.02 Y64.831 Z-1.5 I-0.265 J-0.141
G1 X185.423
X185.197 Y64.765
X184.977 Y64.683
X184.762 Y64.587
X184.555 Y64.476
X184.355 Y64.352
X184.164 Y64.215
X183.983 Y64.065
X183.812 Y63.903
X183.653 Y63.73
X183.506 Y63.547
X183.371 Y63.354
X183.25 Y63.152
X183.142 Y62.943
X183.049 Y62.728
X182.97 Y62.506
X182.907 Y62.28
X182.859 Y62.049
X182.827 Y61.816
X182.81 Y61.582
G3 X181.77 Y52.275 I31.591 J-8.242
X181.98 Y19.072 I414.767 J-13.976
X182.674 Y15.52 I56.939 J9.278
X184.396 Y12.189 I5.435 J0.698
G1 X184.536 Y12.169
X186.899
G3 X187.153 Y12.327 Z-0.834 I-0.01 J0.3
G1 X187.163 Y12.346 Z-0.789
X187.19 Y12.408 Z-0.645 F1200
X187.212 Y12.473 Z-0.5
G3 X186.497 Y13.386 I-0.694 J0.193
X184.87 Y12.463 I0.058 J-1.999
G1 X184.801 Y12.346 Z-0.789
X184.791 Y12.327 Z-0.834 F700
G2 X184.536 Y12.169 Z-1.5 I-0.265 J0.141
G1 X183.857
X183.631 Y12.251
X183.41 Y12.348
X183.196 Y12.458
X182.99 Y12.581
X182.791 Y12.717
X182.602 Y12.865
X182.422 Y13.024
X182.252 Y13.195
X182.094 Y13.376
X181.947 Y13.566
X181.812 Y13.766
X181.691 Y13.973
X181.582 Y14.188
X181.487 Y14.409
X181.406 Y14.635
X181.34 Y14.866
X181.288 Y15.101
X181.251 Y15.338
X181.229 Y15.578
X181.221 Y15.818
G2 X180.259 Y25.142 I34.427 J8.267
X180.46 Y57.624 I422.872 J13.616
X181.101 Y61.185 I64.275 J-9.739
X182.897 Y64.809 I6.103 J-0.767
G1 X183.044 Y64.831
X185.423
G2 X185.677 Y64.673 Z-0.834 I-0.01 J-0.3
G1 X185.687 Y64.654 Z-0.789
X185.714 Y64.592 Z-0.645 F1200
X185.736 Y64.527 Z-0.5
G2 X185.029 Y63.614 I-0.694 J-0.193
X183.378 Y64.537 I0.034 J2
G1 X183.308 Y64.654 Z-0.789
X183.299 Y64.672 Z-0.834 F700
G3 X183.044 Y64.831 Z-1.5 I-0.265 J-0.141
G1 X182.38
X182.155 Y64.752
X181.936 Y64.658
X181.722 Y64.552
X181.516 Y64.431
X181.318 Y64.299
X181.128 Y64.153
X180.948 Y63.997
X180.779 Y63.829
X180.62 Y63.651
X180.473 Y63.463
X180.337 Y63.266
X180.215 Y63.062
X180.106 Y62.849
X180.01 Y62.631
X179.928 Y62.407
X179.86 Y62.178
X179.807 Y61.945
X179.769 Y61.71
X179.746 Y61.472
X179.738 Y61.234
G3 X178.763 Y51.912 I34.034 J-8.272
X178.966 Y19.43 I416.83 J-13.63
X179.604 Y15.869 I64.77 J9.762
X181.401 Y12.192 I6.211 J0.757
G1 X181.55 Y12.169
X183.857
G3 X184.12 Y12.346 Z-0.789 I-0.01 J0.3
G1 X184.141 Y12.411 Z-0.645 F1200
X184.146 Y12.479 Z-0.5
G3 X183.942 Y12.766 I-0.319 J-0.011
X181.929 Y12.427 I-0.72 J-1.866
G1 X181.828 Y12.335 Z-0.789
X181.759 Y12.264 Z-1 F700
X181.715 Y12.225 Z-1.125
X181.664 Y12.196 Z-1.25
X181.608 Y12.177 Z-1.375
X181.55 Y12.169 Z-1.5
X180.904
X180.683 Y12.243
X180.466 Y12.331
X180.256 Y12.433
X180.052 Y12.548
X179.856 Y12.675
X179.669 Y12.815
X179.491 Y12.966
X179.322 Y13.128
X179.165 Y13.301
X179.018 Y13.483
X178.884 Y13.674
X178.762 Y13.873
X178.652 Y14.08
X178.556 Y14.293
X178.474 Y14.512
X178.406 Y14.735
X178.352 Y14.962
X178.312 Y15.193
X178.288 Y15.425
X178.277 Y15.658
G2 X177.272 Y24.975 I33.226 J8.297
X177.462 Y57.457 I413.087 J13.826
X178.081 Y61.02 I66.314 J-9.678
X179.903 Y64.808 I6.44 J-0.767
G1 X180.054 Y64.831
X182.38
G2 X182.644 Y64.654 Z-0.789 I-0.01 J-0.3
G1 X182.664 Y64.589 Z-0.645 F1200
X182.67 Y64.521 Z-0.5
X182.662 Y64.463
X182.643 Y64.407
X182.613 Y64.356
X182.575 Y64.312
X182.521 Y64.27
X182.46 Y64.239
G2 X180.433 Y64.573 I-0.734 J1.86
G1 X180.332 Y64.665 Z-0.789
X180.263 Y64.736 Z-1 F700
X180.219 Y64.775 Z-1.125
X180.168 Y64.804 Z-1.25
X180.112 Y64.823 Z-1.375
X180.054 Y64.831 Z-1.5
X179.428
X179.209 Y64.761
X178.995 Y64.678
X178.787 Y64.581
X178.585 Y64.472
X178.391 Y64.349
X178.204 Y64.215
X178.027 Y64.069
X177.86 Y63.911
X177.702 Y63.744
X177.556 Y63.567
X177.421 Y63.381
X177.299 Y63.187
X177.189 Y62.985
X177.092 Y62.777
X177.009 Y62.563
X176.939 Y62.344
X176.883 Y62.121
X176.842 Y61.896
X176.815 Y61.667
X176.803 Y61.438
G3 X175.747 Y50.683 I38.357 J-9.194
X176.022 Y18.924 I376.734 J-12.624
G2 X176.568 Y16.078 I-112.876 J-23.114
G3 X178.299 Y12.245 I7.579 J1.117
G1 X178.426 Y12.189
X178.564 Y12.169
X180.904
G3 X181.158 Y12.328 Z-0.834 I-0.01 J0.3
G1 X181.168 Y12.346 Z-0.789
X181.195 Y12.409 Z-0.645 F1200
X181.217 Y12.473 Z-0.5
G3 X180.49 Y13.385 I-0.693 J0.193
X178.898 Y12.464 I0.094 J-1.998
G1 X178.829 Y12.346 Z-0.789
X178.819 Y12.328 Z-0.834 F700
G2 X178.564 Y12.169 Z-1.5 I-0.265 J0.141
G1 X177.952
X177.734 Y12.237
X177.521 Y12.318
X177.314 Y12.413
X177.113 Y12.521
X176.919 Y12.641
X176.734 Y12.773
X176.557 Y12.917
X176.39 Y13.072
X176.233 Y13.237
X176.087 Y13.412
X175.952 Y13.596
X175.829 Y13.788
X175.719 Y13.987
X175.621 Y14.193
X175.537 Y14.405
X175.466 Y14.621
X175.41 Y14.842
X175.367 Y15.066
X175.339 Y15.292
X175.326 Y15.519
G2 X174.253 Y26.272 I38.031 J9.223
X174.522 Y58.031 I373.812 J12.714
G3 X175.062 Y60.877 I-130.937 J26.324
G2 X176.803 Y64.754 I7.606 J-1.086
G1 X176.931 Y64.811
X177.07 Y64.831
X179.428
G2 X179.682 Y64.672 Z-0.834 I-0.01 J-0.3
G1 X179.692 Y64.654 Z-0.789
X179.719 Y64.591 Z-0.645 F1200
X179.741 Y64.527 Z-0.5
G2 X179.024 Y63.614 I-0.694 J-0.193
X177.403 Y64.536 I0.065 J1.999
G1 X177.334 Y64.654 Z-0.789
X177.324 Y64.672 Z-0.834 F700
G3 X177.07 Y64.831 Z-1.5 I-0.265 J-0.141
G1 X176.402
G3 X174.172 Y62.592 I0.658 J-2.886
X172.814 Y54.074 I26.764 J-8.631
X172.982 Y19.43 I431.674 J-15.233
X173.63 Y15.87 I82.332 J13.144
X175.439 Y12.192 I6.23 J0.781
G1 X175.588 Y12.169
X177.952
G3 X178.206 Y12.328 Z-0.834 I-0.01 J0.3
G1 X178.216 Y12.346 Z-0.789
X178.243 Y12.409 Z-0.645 F1200
X178.264 Y12.474 Z-0.5
G3 X177.55 Y13.386 I-0.694 J0.193
X175.922 Y12.464 I0.057 J-1.999
G1 X175.852 Y12.346 Z-0.789
X175.842 Y12.328 Z-0.834 F700
G2 X175.588 Y12.169 Z-1.5 I-0.265 J0.141
G1 X174.926
X174.701 Y12.248
X174.481 Y12.341
X174.268 Y12.447
X174.062 Y12.566
X173.864 Y12.699
X173.675 Y12.843
X173.495 Y12.999
X173.326 Y13.166
X173.167 Y13.343
X173.019 Y13.53
X172.884 Y13.726
X172.762 Y13.931
X172.652 Y14.142
X172.556 Y14.36
X172.474 Y14.583
X172.406 Y14.811
X172.353 Y15.043
X172.314 Y15.278
X172.291 Y15.515
X172.282 Y15.753
G2 X171.25 Y26.515 I39.898 J9.255
X171.554 Y58.272 I362.442 J12.408
G3 X172.131 Y61.114 I-108.052 J23.402
G2 X173.937 Y64.808 I6.255 J-0.77
G1 X174.086 Y64.831
X176.402
G2 X176.665 Y64.653 Z-0.789 I-0.01 J-0.3
G1 X176.686 Y64.588 Z-0.645 F1200
X176.691 Y64.521 Z-0.5
X176.683 Y64.462
X176.664 Y64.407
X176.635 Y64.356
X176.596 Y64.311
X176.554 Y64.277
X176.507 Y64.248
X176.457 Y64.226
G2 X174.466 Y64.573 I-0.699 J1.874
G1 X174.365 Y64.665 Z-0.789
X174.295 Y64.735 Z-1 F700
X174.251 Y64.774 Z-1.125
X174.2 Y64.804 Z-1.25
X174.145 Y64.823 Z-1.375
X174.086 Y64.831 Z-1.5
X173.449 Y64.83
X173.229 Y64.759
X173.014 Y64.673
X172.804 Y64.574
X172.602 Y64.462
X172.406 Y64.337
X172.219 Y64.2
X172.042 Y64.052
X171.874 Y63.892
X171.716 Y63.722
X171.57 Y63.543
X171.435 Y63.354
X171.312 Y63.158
X171.202 Y62.954
X171.106 Y62.743
X171.023 Y62.527
X170.954 Y62.306
X170.899 Y62.081
X170.858 Y61.853
X170.832 Y61.623
X170.821 Y61.391
G3 X169.791 Y52.078 I33.15 J-8.379
X170.048 Y18.878 I372.474 J-13.712
G2 X170.607 Y16.033 I-89.376 J-19.044
G3 X172.33 Y12.244 I7.436 J1.094
G1 X172.456 Y12.189
X172.593 Y12.17
X174.926 Y12.169
G3 X175.189 Y12.347 Z-0.789 I-0.01 J0.3
G1 X175.21 Y12.412 Z-0.645 F1200
X175.215 Y12.479 Z-0.5
X175.207 Y12.538
X175.188 Y12.594
X175.159 Y12.644
X175.12 Y12.689
X175.073 Y12.725
X175.02 Y12.753
G3 X172.972 Y12.427 I-0.755 J-1.852
G1 X172.871 Y12.336 Z-0.789
X172.802 Y12.265 Z-1 F700
X172.758 Y12.226 Z-1.125
X172.707 Y12.196 Z-1.25
X172.651 Y12.177 Z-1.375
X172.593 Y12.17 Z-1.5
X171.973
X171.755 Y12.239
X171.541 Y12.321
X171.333 Y12.418
X171.131 Y12.527
X170.937 Y12.649
X170.751 Y12.782
X170.574 Y12.928
X170.407 Y13.084
X170.249 Y13.251
X170.103 Y13.427
X169.968 Y13.613
X169.845 Y13.806
X169.735 Y14.007
X169.638 Y14.215
X169.554 Y14.428
X169.484 Y14.646
X169.428 Y14.868
X169.386 Y15.093
X169.359 Y15.321
X169.346 Y15.55
G2 X168.263 Y26.302 I38.505 J9.308
X168.549 Y58.06 I359.184 J12.644
G3 X169.095 Y60.906 I-136.379 J27.616
G2 X170.833 Y64.754 I7.61 J-1.121
G1 X170.96 Y64.811
X171.099 Y64.83
X173.449
G2 X173.704 Y64.672 Z-0.834 I-0.01 J-0.3
G1 X173.713 Y64.653 Z-0.789
X173.741 Y64.591 Z-0.645 F1200
X173.762 Y64.526 Z-0.5
G2 X173.041 Y63.614 I-0.693 J-0.193
X171.432 Y64.536 I0.077 J1.999
G1 X171.363 Y64.653 Z-0.789
X171.353 Y64.672 Z-0.834 F700
G3 X171.099 Y64.83 Z-1.5 I-0.265 J-0.141
G1 X170.497
X170.27 Y64.762
X170.048 Y64.678
X169.832 Y64.579
X169.623 Y64.467
X169.422 Y64.34
X169.23 Y64.201
X169.047 Y64.048
X168.876 Y63.884
X168.716 Y63.709
X168.568 Y63.523
X168.433 Y63.328
X168.311 Y63.124
X168.203 Y62.913
X168.11 Y62.694
X168.031 Y62.47
X167.968 Y62.242
X167.92 Y62.009
X167.888 Y61.774
X167.872 Y61.537
G3 X166.805 Y52.231 I32.27 J-8.416
X167.048 Y19.031 I368.628 J-13.9
G2 X167.589 Y16.184 I-103.292 J-21.1
G3 X169.345 Y12.248 I7.687 J1.069
G1 X169.473 Y12.19
X169.613 Y12.17
X171.973
G3 X172.228 Y12.328 Z-0.834 I-0.01 J0.3
G1 X172.237 Y12.347 Z-0.789
X172.265 Y12.409 Z-0.645 F1200
X172.286 Y12.474 Z-0.5
G3 X171.57 Y13.387 I-0.694 J0.193
X169.947 Y12.464 I0.063 J-1.999
G1 X169.878 Y12.347 Z-0.789
X169.868 Y12.328 Z-0.834 F700
G2 X169.613 Y12.17 Z-1.5 I-0.265 J0.141
G1 X168.931
G2 X166.682 Y14.481 I0.704 J2.935
X165.335 Y23.003 I27.647 J8.739
X165.515 Y57.645 I406.067 J15.205
X166.178 Y61.203 I78.445 J-12.774
X167.975 Y64.808 I6.071 J-0.776
G1 X168.122 Y64.83
X170.497
G2 X170.751 Y64.672 Z-0.834 I-0.01 J-0.3
G1 X170.761 Y64.653 Z-0.789
X170.788 Y64.591 Z-0.645 F1200
X170.81 Y64.526 Z-0.5
G2 X170.102 Y63.613 I-0.694 J-0.193
X168.456 Y64.536 I0.04 J2
G1 X168.386 Y64.653 Z-0.789
X168.376 Y64.671 Z-0.834 F700
G3 X168.122 Y64.83 Z-1.5 I-0.265 J-0.141
G1 X167.455
X167.229 Y64.75
X167.009 Y64.657
X166.795 Y64.549
X166.588 Y64.429
X166.39 Y64.295
X166.2 Y64.149
X166.02 Y63.992
X165.849 Y63.824
X165.69 Y63.645
X165.543 Y63.457
X165.407 Y63.26
X165.285 Y63.054
X165.175 Y62.842
X165.079 Y62.622
X164.997 Y62.398
X164.929 Y62.168
X164.876 Y61.935
X164.838 Y61.699
X164.814 Y61.461
X164.806 Y61.222
G3 X163.762 Y50.46 I40.294 J-9.339
X164.09 Y18.704 I345.165 J-12.318
G2 X164.675 Y15.864 I-106.569 J-23.419
G3 X166.478 Y12.193 I6.23 J0.781
G1 X166.626 Y12.17
X168.931
G3 X169.194 Y12.347 Z-0.789 I-0.01 J0.3
G1 X169.215 Y12.412 Z-0.645 F1200
X169.22 Y12.48 Z-0.5
G3 X169.014 Y12.768 I-0.321 J-0.011
X167.006 Y12.427 I-0.716 J-1.867
G1 X166.905 Y12.336 Z-0.789
X166.835 Y12.265 Z-1 F700
X166.791 Y12.226 Z-1.125
X166.74 Y12.197 Z-1.25
X166.685 Y12.178 Z-1.375
X166.626 Y12.17 Z-1.5
X165.978
X165.756 Y12.245
X165.539 Y12.334
X165.327 Y12.437
X165.123 Y12.552
X164.927 Y12.681
X164.738 Y12.821
X164.56 Y12.974
X164.391 Y13.137
X164.233 Y13.31
X164.086 Y13.493
X163.951 Y13.686
X163.828 Y13.886
X163.719 Y14.093
X163.622 Y14.307
X163.54 Y14.527
X163.471 Y14.752
X163.417 Y14.98
X163.378 Y15.211
X163.353 Y15.445
X163.343 Y15.679
G2 X162.306 Y24.994 I33.613 J8.454
X162.582 Y58.192 I354.237 J13.658
G3 X163.154 Y61.035 I-93.314 J20.245
G2 X164.977 Y64.807 I6.422 J-0.778
G1 X165.128 Y64.83
X167.455
G2 X167.718 Y64.653 Z-0.789 I-0.01 J-0.3
G1 X167.739 Y64.588 Z-0.645 F1200
X167.744 Y64.52 Z-0.5
G2 X167.553 Y64.246 I-0.307 J0.011
X165.507 Y64.572 I-0.753 J1.853
G1 X165.406 Y64.664 Z-0.789
X165.337 Y64.735 Z-1 F700
X165.293 Y64.774 Z-1.125
X165.242 Y64.803 Z-1.25
X165.186 Y64.822 Z-1.375
X165.128 Y64.83 Z-1.5
X164.502
X164.283 Y64.761
X164.069 Y64.678
X163.861 Y64.581
X163.659 Y64.472
X163.464 Y64.349
X163.278 Y64.215
X163.1 Y64.069
X162.933 Y63.912
X162.775 Y63.745
X162.629 Y63.568
X162.494 Y63.382
X162.371 Y63.188
X162.261 Y62.986
X162.164 Y62.778
X162.08 Y62.565
X162.01 Y62.346
X161.955 Y62.123
X161.913 Y61.897
X161.886 Y61.669
X161.873 Y61.44
G3 X160.777 Y50.688 I38.699 J-9.38
X161.081 Y18.931 I345.175 J-12.568
G2 X161.634 Y16.087 I-109.073 J-22.653
G3 X163.373 Y12.247 I7.618 J1.137
G1 X163.5 Y12.19
X163.639 Y12.17
X165.978
G3 X166.233 Y12.329 Z-0.834 I-0.01 J0.3
G1 X166.242 Y12.347 Z-0.789
X166.27 Y12.41 Z-0.645 F1200
X166.291 Y12.474 Z-0.5
G3 X165.564 Y13.386 I-0.693 J0.193
X163.972 Y12.464 I0.094 J-1.998
G1 X163.903 Y12.347 Z-0.789
X163.893 Y12.329 Z-0.834 F700
G2 X163.639 Y12.17 Z-1.5 I-0.265 J0.141
G1 X163.026
X162.808 Y12.238
X162.595 Y12.319
X162.388 Y12.413
X162.187 Y12.521
X161.993 Y12.641
X161.807 Y12.773
X161.63 Y12.917
X161.463 Y13.072
X161.305 Y13.237
X161.159 Y13.411
X161.024 Y13.595
X160.901 Y13.787
X160.79 Y13.986
X160.692 Y14.192
X160.608 Y14.404
X160.537 Y14.62
X160.48 Y14.841
X160.437 Y15.065
X160.408 Y15.291
X160.394 Y15.518
G2 X159.282 Y26.267 I38.309 J9.394
X159.582 Y58.024 I342.601 J12.65
G3 X160.128 Y60.869 I-126.672 J25.807
G2 X161.874 Y64.753 I7.642 J-1.102
G1 X162.002 Y64.81
X162.141 Y64.83
X164.502
G2 X164.756 Y64.671 Z-0.834 I-0.01 J-0.3
G1 X164.766 Y64.653 Z-0.789
X164.793 Y64.59 Z-0.645 F1200
X164.815 Y64.526 Z-0.5
G2 X164.099 Y63.613 I-0.694 J-0.193
X162.475 Y64.535 I0.061 J1.999
G1 X162.405 Y64.653 Z-0.789
X162.395 Y64.671 Z-0.834 F700
G3 X162.141 Y64.83 Z-1.5 I-0.265 J-0.141
G1 X161.476
G3 X159.244 Y62.599 I0.651 J-2.884
X157.859 Y54.085 I26.966 J-8.757
X158.039 Y19.444 I388.024 J-15.308
X158.693 Y15.885 I83.173 J13.456
X160.51 Y12.193 I6.292 J0.804
G1 X160.659 Y12.17
X163.026
G3 X163.28 Y12.329 Z-0.834 I-0.01 J0.3
G1 X163.29 Y12.347 Z-0.789
X163.317 Y12.41 Z-0.645 F1200
X163.339 Y12.475 Z-0.5
G3 X162.626 Y13.387 I-0.694 J0.193
X160.992 Y12.465 I0.052 J-1.999
G1 X160.923 Y12.347 Z-0.789
X160.913 Y12.329 Z-0.834 F700
G2 X160.659 Y12.17 Z-1.5 I-0.265 J0.141
G1 X160
X159.775 Y12.248
X159.556 Y12.34
X159.343 Y12.446
X159.137 Y12.565
X158.939 Y12.696
X158.749 Y12.84
X158.569 Y12.995
X158.399 Y13.162
X158.24 Y13.338
X158.093 Y13.525
X157.957 Y13.72
X157.834 Y13.924
X157.724 Y14.134
X157.628 Y14.352
X157.545 Y14.575
X157.477 Y14.802
X157.423 Y15.034
X157.384 Y15.268
X157.36 Y15.505
X157.35 Y15.742
G2 X156.279 Y26.501 I40.09 J9.424
X156.612 Y58.256 I334.833 J12.363
G3 X157.193 Y61.096 I-104.607 J22.859
G2 X159.007 Y64.807 I6.303 J-0.783
G1 X159.156 Y64.83
X161.476
G2 X161.73 Y64.671 Z-0.834 I-0.01 J-0.3
G1 X161.74 Y64.652 Z-0.789
X161.767 Y64.59 Z-0.645 F1200
X161.789 Y64.525 Z-0.5
G2 X161.052 Y63.616 I-0.692 J-0.192
X159.49 Y64.535 I0.124 J1.996
G1 X159.421 Y64.653 Z-0.789
X159.411 Y64.671 Z-0.834 F700
G3 X159.156 Y64.83 Z-1.5 I-0.265 J-0.141
G1 X158.524 Y64.829
X158.303 Y64.759
X158.088 Y64.674
X157.879 Y64.576
X157.676 Y64.464
X157.481 Y64.34
X157.294 Y64.204
X157.116 Y64.057
X156.948 Y63.898
X156.79 Y63.729
X156.643 Y63.55
X156.508 Y63.362
X156.385 Y63.166
X156.275 Y62.963
X156.178 Y62.753
X156.094 Y62.537
X156.025 Y62.317
X155.969 Y62.093
X155.928 Y61.865
X155.901 Y61.635
X155.889 Y61.404
G3 X154.826 Y52.094 I33.407 J-8.531
X155.104 Y18.896 I343.215 J-13.724
G2 X155.666 Y16.053 I-91.019 J-19.464
G3 X157.4 Y12.246 I7.51 J1.121
G1 X157.527 Y12.19
X157.664 Y12.171
X160 Y12.17
G3 X160.263 Y12.348 Z-0.789 I-0.01 J0.3
G1 X160.284 Y12.413 Z-0.645 F1200
X160.289 Y12.48 Z-0.5
Y12.481
G3 X160.104 Y12.748 I-0.301 J-0.01
X158.043 Y12.428 I-0.769 J-1.846
G1 X157.942 Y12.336 Z-0.789
X157.873 Y12.266 Z-1 F700
X157.829 Y12.227 Z-1.125
X157.778 Y12.197 Z-1.25
X157.722 Y12.178 Z-1.375
X157.664 Y12.171 Z-1.5
X157.047
X156.829 Y12.239
X156.616 Y12.32
X156.408 Y12.415
X156.207 Y12.524
X156.012 Y12.644
X155.826 Y12.777
X155.649 Y12.922
X155.482 Y13.077
X155.324 Y13.243
X155.178 Y13.418
X155.043 Y13.602
X154.919 Y13.795
X154.809 Y13.995
X154.711 Y14.201
X154.627 Y14.414
X154.556 Y14.631
X154.499 Y14.852
X154.457 Y15.077
X154.428 Y15.303
X154.415 Y15.531
G2 X153.293 Y26.28 I38.643 J9.465
X153.605 Y58.036 I332.379 J12.616
G3 X154.154 Y60.881 I-138.185 J28.129
G2 X155.901 Y64.752 I7.661 J-1.127
G1 X156.029 Y64.81
X156.167 Y64.829
X158.524
G2 X158.778 Y64.671 Z-0.834 I-0.01 J-0.3
G1 X158.787 Y64.652 Z-0.789
X158.815 Y64.59 Z-0.645 F1200
X158.836 Y64.525 Z-0.5
G2 X158.118 Y63.613 I-0.693 J-0.193
X156.501 Y64.535 I0.068 J1.999
G1 X156.432 Y64.652 Z-0.789
X156.422 Y64.671 Z-0.834 F700
G3 X156.167 Y64.829 Z-1.5 I-0.265 J-0.141
G1 X155.571
X155.345 Y64.762
X155.124 Y64.68
X154.908 Y64.584
X154.7 Y64.473
X154.5 Y64.348
X154.308 Y64.21
X154.126 Y64.06
X153.955 Y63.898
X153.795 Y63.724
X153.647 Y63.541
X153.512 Y63.347
X153.39 Y63.145
X153.281 Y62.936
X153.188 Y62.719
X153.108 Y62.497
X153.044 Y62.27
X152.996 Y62.039
X152.963 Y61.806
X152.946 Y61.57
G3 X151.841 Y52.269 I32.259 J-8.546
X152.102 Y19.071 I338.481 J-13.948
X152.811 Y15.523 I57.671 J9.686
X154.541 Y12.191 I5.459 J0.719
G1 X154.681 Y12.171
X157.047
G3 X157.302 Y12.329 Z-0.834 I-0.01 J0.3
G1 X157.311 Y12.348 Z-0.789
X157.339 Y12.41 Z-0.645 F1200
X157.36 Y12.475 Z-0.5
G3 X156.647 Y13.388 I-0.694 J0.193
X155.015 Y12.465 I0.053 J-1.999
G1 X154.945 Y12.348 Z-0.789
X154.935 Y12.329 Z-0.834 F700
G2 X154.681 Y12.171 Z-1.5 I-0.265 J0.141
G1 X154.005
G2 X151.76 Y14.445 I0.674 J2.911
X150.403 Y23.68 I25.832 J8.513
X150.644 Y58.32 I321.977 J15.084
G3 X151.229 Y61.159 I-135.823 J29.479
G2 X153.041 Y64.807 I6.199 J-0.804
G1 X153.188 Y64.829
X155.571
G2 X155.826 Y64.671 Z-0.834 I-0.01 J-0.3
G1 X155.835 Y64.652 Z-0.789
X155.862 Y64.59 Z-0.645 F1200
X155.884 Y64.525 Z-0.5
G2 X155.18 Y63.612 I-0.694 J-0.193
X153.522 Y64.535 I0.027 J2
G1 X153.453 Y64.652 Z-0.789
X153.443 Y64.67 Z-0.834 F700
G3 X153.188 Y64.829 Z-1.5 I-0.265 J-0.141
G1 X152.529
X152.304 Y64.751
X152.084 Y64.658
X151.87 Y64.552
X151.664 Y64.433
X151.465 Y64.301
X151.275 Y64.157
X151.095 Y64.001
X150.925 Y63.834
X150.765 Y63.656
X150.618 Y63.469
X150.482 Y63.274
X150.359 Y63.069
X150.248 Y62.858
X150.152 Y62.64
X150.069 Y62.417
X150.001 Y62.188
X149.947 Y61.956
X149.908 Y61.721
X149.883 Y61.484
X149.874 Y61.246
G3 X148.832 Y51.93 I34.53 J-8.579
X149.08 Y19.453 I342.243 J-13.624
X149.73 Y15.895 I65.739 J10.174
X151.541 Y12.194 I6.283 J0.781
G1 X151.69 Y12.171
X154.005
G3 X154.259 Y12.329 Z-0.834 I-0.01 J0.3
G1 X154.269 Y12.348 Z-0.789
X154.296 Y12.41 Z-0.645 F1200
X154.317 Y12.475 Z-0.5
G3 X153.578 Y13.384 I-0.692 J0.192
X152.023 Y12.465 I0.131 J-1.996
G1 X151.954 Y12.348 Z-0.789
X151.944 Y12.33 Z-0.834 F700
G2 X151.69 Y12.171 Z-1.5 I-0.265 J0.141
G1 X151.053
X150.832 Y12.243
X150.616 Y12.329
X150.406 Y12.429
X150.203 Y12.541
X150.007 Y12.666
X149.82 Y12.804
X149.642 Y12.953
X149.473 Y13.113
X149.316 Y13.283
X149.169 Y13.463
X149.034 Y13.652
X148.911 Y13.849
X148.801 Y14.053
X148.704 Y14.264
X148.621 Y14.481
X148.551 Y14.703
X148.496 Y14.928
X148.456 Y15.157
X148.429 Y15.387
X148.418 Y15.619
G2 X147.343 Y24.929 I33.566 J8.593
X147.632 Y58.125 I329.776 J13.725
G3 X148.197 Y60.968 I-101.611 J21.687
G2 X149.928 Y64.754 I7.471 J-1.126
G1 X150.054 Y64.81
X150.191 Y64.829
X152.529
G2 X152.783 Y64.67 Z-0.834 I-0.01 J-0.3
G1 X152.793 Y64.652 Z-0.789
X152.82 Y64.59 Z-0.645 F1200
X152.841 Y64.525 Z-0.5
G2 X152.114 Y63.613 I-0.693 J-0.193
X150.524 Y64.535 I0.096 J1.998
G1 X150.455 Y64.652 Z-0.789
X150.445 Y64.67 Z-0.834 F700
G3 X150.191 Y64.829 Z-1.5 I-0.265 J-0.141
G1 X149.576
X149.358 Y64.761
X149.144 Y64.68
X148.936 Y64.585
X148.735 Y64.477
X148.541 Y64.356
X148.355 Y64.223
X148.177 Y64.079
X148.01 Y63.924
X147.852 Y63.758
X147.705 Y63.583
X147.57 Y63.399
X147.447 Y63.206
X147.336 Y63.006
X147.238 Y62.8
X147.154 Y62.588
X147.083 Y62.37
X147.026 Y62.149
X146.983 Y61.924
X146.955 Y61.698
X146.941 Y61.47
G3 X145.807 Y50.722 I38.77 J-9.526
X146.134 Y18.967 I320.238 J-12.579
G2 X146.685 Y16.123 I-146.915 J-29.954
G3 X148.435 Y12.248 I7.694 J1.142
G1 X148.563 Y12.191
X148.702 Y12.171
X151.053
G3 X151.307 Y12.33 Z-0.834 I-0.01 J0.3
G1 X151.316 Y12.348 Z-0.789
X151.344 Y12.411 Z-0.645 F1200
X151.365 Y12.475 Z-0.5
G3 X150.644 Y13.387 I-0.693 J0.193
X149.035 Y12.465 I0.077 J-1.999
G1 X148.966 Y12.348 Z-0.789
X148.956 Y12.33 Z-0.834 F700
G2 X148.702 Y12.171 Z-1.5 I-0.265 J0.141
G1 X148.026
G2 X145.775 Y14.467 I0.696 J2.935
X144.417 Y23.703 I25.936 J8.53
X144.669 Y58.341 I311.599 J15.056
G3 X145.258 Y61.179 I-125.381 J27.501
G2 X147.062 Y64.807 I6.122 J-0.782
G1 X147.209 Y64.829
X149.576
G2 X149.831 Y64.67 Z-0.834 I-0.01 J-0.3
G1 X149.84 Y64.652 Z-0.789
X149.868 Y64.589 Z-0.645 F1200
X149.889 Y64.525 Z-0.5
G2 X149.177 Y63.612 I-0.694 J-0.193
X147.543 Y64.534 I0.052 J1.999
G1 X147.474 Y64.652 Z-0.789
X147.464 Y64.67 Z-0.834 F700
G3 X147.209 Y64.829 Z-1.5 I-0.265 J-0.141
G1 X146.55
X146.326 Y64.751
X146.107 Y64.66
X145.894 Y64.555
X145.689 Y64.437
X145.491 Y64.307
X145.302 Y64.164
X145.122 Y64.009
X144.953 Y63.844
X144.794 Y63.668
X144.646 Y63.482
X144.511 Y63.287
X144.388 Y63.085
X144.278 Y62.875
X144.182 Y62.658
X144.099 Y62.436
X144.031 Y62.209
X143.977 Y61.978
X143.938 Y61.745
X143.913 Y61.509
X143.904 Y61.272
G3 X142.804 Y50.516 I40.29 J-9.554
X143.163 Y18.763 I312.788 J-12.344
G2 X143.743 Y15.923 I-133.327 J-28.715
G3 X145.565 Y12.194 I6.367 J0.802
G1 X145.715 Y12.171
X148.026
G3 X148.281 Y12.33 Z-0.834 I-0.01 J0.3
G1 X148.29 Y12.348 Z-0.789
X148.318 Y12.411 Z-0.645 F1200
X148.339 Y12.476 Z-0.5
G3 X147.598 Y13.384 I-0.692 J0.192
X146.048 Y12.466 I0.136 J-1.995
G1 X145.979 Y12.348 Z-0.789
X145.969 Y12.33 Z-0.834 F700
G2 X145.715 Y12.171 Z-1.5 I-0.265 J0.141
G1 X145.074
X144.853 Y12.244
X144.636 Y12.331
X144.426 Y12.431
X144.222 Y12.545
X144.026 Y12.671
X143.838 Y12.809
X143.66 Y12.959
X143.491 Y13.12
X143.333 Y13.291
X143.186 Y13.472
X143.05 Y13.661
X142.927 Y13.859
X142.817 Y14.065
X142.72 Y14.276
X142.637 Y14.494
X142.567 Y14.717
X142.512 Y14.943
X142.471 Y15.172
X142.445 Y15.404
X142.433 Y15.637
G2 X141.355 Y24.946 I33.801 J8.632
X141.656 Y58.142 I319.155 J13.709
G3 X142.224 Y60.984 I-102.321 J21.941
G2 X144.061 Y64.805 I6.61 J-0.826
G1 X144.213 Y64.829
X146.55
G2 X146.814 Y64.651 Z-0.789 I-0.01 J-0.3
G1 X146.834 Y64.586 Z-0.645 F1200
X146.84 Y64.519 Z-0.5
X146.832 Y64.46
X146.813 Y64.405
X146.783 Y64.354
X146.744 Y64.309
X146.702 Y64.277
X146.655 Y64.252
G2 X144.592 Y64.571 I-0.77 J1.846
G1 X144.491 Y64.663 Z-0.789
X144.422 Y64.733 Z-1 F700
X144.378 Y64.772 Z-1.125
X144.327 Y64.802 Z-1.25
X144.271 Y64.821 Z-1.375
X144.213 Y64.829 Z-1.5
X143.598
X143.38 Y64.761
X143.166 Y64.679
X142.958 Y64.585
X142.757 Y64.477
X142.563 Y64.356
X142.377 Y64.224
X142.199 Y64.08
X142.032 Y63.925
X141.874 Y63.759
X141.728 Y63.584
X141.593 Y63.4
X141.469 Y63.207
X141.359 Y63.008
X141.261 Y62.801
X141.176 Y62.589
X141.106 Y62.372
X141.049 Y62.151
X141.006 Y61.926
X140.978 Y61.7
X140.965 Y61.472
G3 X139.818 Y50.725 I38.886 J-9.583
X140.155 Y18.971 I310.884 J-12.585
G2 X140.704 Y16.127 I-175.206 J-35.316
G3 X142.458 Y12.249 I7.71 J1.151
G1 X142.586 Y12.191
X142.724 Y12.172
X145.074 Y12.171
G3 X145.328 Y12.33 Z-0.834 I-0.01 J0.3
G1 X145.338 Y12.349 Z-0.789
X145.365 Y12.411 Z-0.645 F1200
X145.387 Y12.476 Z-0.5
G3 X144.665 Y13.388 I-0.693 J0.193
X143.058 Y12.466 I0.079 J-1.998
G1 X142.989 Y12.349 Z-0.789
X142.979 Y12.33 Z-0.834 F700
G2 X142.724 Y12.172 Z-1.5 I-0.265 J0.141
G1 X142.122
X141.894 Y12.24
X141.672 Y12.324
X141.456 Y12.422
X141.247 Y12.534
X141.045 Y12.661
X140.853 Y12.8
X140.671 Y12.952
X140.499 Y13.116
X140.339 Y13.291
X140.19 Y13.477
X140.055 Y13.672
X139.933 Y13.875
X139.824 Y14.086
X139.73 Y14.304
X139.651 Y14.528
X139.587 Y14.757
X139.539 Y14.989
X139.506 Y15.225
X139.489 Y15.461
G2 X138.371 Y24.762 I32.687 J8.649
X138.65 Y57.958 I316.227 J13.935
G3 X139.196 Y60.803 I-130.927 J26.566
G2 X140.96 Y64.75 I7.721 J-1.084
G1 X141.089 Y64.808
X141.229 Y64.828
X143.598 Y64.829
G2 X143.852 Y64.67 Z-0.834 I-0.01 J-0.3
G1 X143.862 Y64.651 Z-0.789
X143.889 Y64.589 Z-0.645 F1200
X143.91 Y64.524 Z-0.5
G2 X143.199 Y63.611 I-0.694 J-0.193
X141.563 Y64.534 I0.049 J1.999
G1 X141.493 Y64.651 Z-0.789
X141.483 Y64.67 Z-0.834 F700
G3 X141.229 Y64.828 Z-1.5 I-0.265 J-0.141
G1 X140.555
G3 X138.311 Y62.56 I0.671 J-2.909
X136.936 Y53.327 I25.926 J-8.582
X137.197 Y18.69 I302.164 J-15.039
G2 X137.778 Y15.852 I-232.785 J-49.11
G3 X139.595 Y12.194 I6.236 J0.818
G1 X139.743 Y12.172
X142.122
G3 X142.376 Y12.33 Z-0.834 I-0.01 J0.3
G1 X142.385 Y12.349 Z-0.789
X142.413 Y12.411 Z-0.645 F1200
X142.434 Y12.476 Z-0.5
G3 X141.728 Y13.389 I-0.694 J0.193
X140.076 Y12.466 I0.034 J-2
G1 X140.007 Y12.349 Z-0.789
X139.997 Y12.33 Z-0.834 F700
G2 X139.743 Y12.172 Z-1.5 I-0.265 J0.141
G1 X139.079
X138.853 Y12.251
X138.633 Y12.345
X138.418 Y12.452
X138.211 Y12.572
X138.012 Y12.705
X137.822 Y12.85
X137.641 Y13.007
X137.471 Y13.175
X137.311 Y13.354
X137.163 Y13.542
X137.027 Y13.739
X136.903 Y13.944
X136.793 Y14.156
X136.697 Y14.375
X136.614 Y14.6
X136.545 Y14.83
X136.492 Y15.063
X136.452 Y15.299
X136.428 Y15.537
X136.419 Y15.776
G2 X135.316 Y26.533 I40.772 J9.614
X135.692 Y58.285 I302.403 J12.304
G3 X136.28 Y61.123 I-128.129 J28.033
G2 X138.09 Y64.806 I6.257 J-0.79
G1 X138.239 Y64.828
X140.555
G2 X140.81 Y64.67 Z-0.834 I-0.01 J-0.3
G1 X140.819 Y64.651 Z-0.789
X140.846 Y64.589 Z-0.645 F1200
X140.868 Y64.524 Z-0.5
G2 X140.129 Y63.615 I-0.692 J-0.192
X138.573 Y64.534 I0.129 J1.996
G1 X138.503 Y64.651 Z-0.789
X138.493 Y64.669 Z-0.834 F700
G3 X138.239 Y64.828 Z-1.5 I-0.265 J-0.141
G1 X137.603
X137.382 Y64.756
X137.166 Y64.671
X136.956 Y64.571
X136.753 Y64.459
X136.558 Y64.334
X136.37 Y64.197
X136.192 Y64.048
X136.023 Y63.889
X135.865 Y63.719
X135.719 Y63.539
X135.583 Y63.35
X135.46 Y63.154
X135.35 Y62.949
X135.253 Y62.738
X135.17 Y62.522
X135.1 Y62.301
X135.045 Y62.075
X135.004 Y61.847
X134.977 Y61.616
X134.965 Y61.384
G3 X133.871 Y52.077 I33.718 J-8.683
X134.18 Y18.882 I309.921 J-13.717
G2 X134.745 Y16.04 I-117.582 J-24.891
G3 X136.48 Y12.247 I7.488 J1.131
G1 X136.606 Y12.191
X136.743 Y12.172
X139.079
G3 X139.333 Y12.33 Z-0.834 I-0.01 J0.3
G1 X139.343 Y12.349 Z-0.789
X139.37 Y12.411 Z-0.645 F1200
X139.392 Y12.476 Z-0.5
G3 X138.663 Y13.387 I-0.693 J0.193
X137.077 Y12.466 I0.099 J-1.998
G1 X137.007 Y12.349 Z-0.789
X136.997 Y12.331 Z-0.834 F700
G2 X136.743 Y12.172 Z-1.5 I-0.265 J0.141
G1 X136.127
X135.908 Y12.24
X135.694 Y12.322
X135.486 Y12.417
X135.285 Y12.525
X135.09 Y12.646
X134.904 Y12.779
X134.727 Y12.924
X134.559 Y13.079
X134.401 Y13.245
X134.254 Y13.421
X134.119 Y13.605
X133.995 Y13.798
X133.885 Y13.998
X133.787 Y14.205
X133.702 Y14.417
X133.631 Y14.635
X133.574 Y14.856
X133.532 Y15.081
X133.503 Y15.308
X133.489 Y15.537
G2 X132.333 Y26.283 I39.052 J9.639
X132.679 Y58.035 I301.594 J12.591
G3 X133.231 Y60.879 I-187.323 J37.871
G2 X134.983 Y64.751 I7.701 J-1.152
G1 X135.111 Y64.808
X135.249 Y64.828
X137.603
G2 X137.857 Y64.669 Z-0.834 I-0.01 J-0.3
G1 X137.867 Y64.651 Z-0.789
X137.894 Y64.589 Z-0.645 F1200
X137.915 Y64.524 Z-0.5
G2 X137.196 Y63.612 I-0.693 J-0.193
X135.583 Y64.534 I0.073 J1.999
G1 X135.514 Y64.651 Z-0.789
X135.504 Y64.669 Z-0.834 F700
G3 X135.249 Y64.828 Z-1.5 I-0.265 J-0.141
G1 X134.577
G3 X132.326 Y62.543 I0.688 J-2.929
X130.949 Y53.31 I25.969 J-8.591
X131.215 Y18.673 I295.921 J-15.048
G2 X131.803 Y15.836 I-143.207 J-31.173
G3 X133.612 Y12.194 I6.161 J0.791
G1 X133.76 Y12.172
X136.127
G3 X136.381 Y12.331 Z-0.834 I-0.01 J0.3
G1 X136.39 Y12.349 Z-0.789
X136.418 Y12.412 Z-0.645 F1200
X136.439 Y12.476 Z-0.5
G3 X135.727 Y13.389 I-0.694 J0.193
X134.093 Y12.466 I0.052 J-1.999
G1 X134.024 Y12.349 Z-0.789
X134.014 Y12.331 Z-0.834 F700
G2 X133.76 Y12.172 Z-1.5 I-0.265 J0.141
G1 X133.101
X132.876 Y12.25
X132.657 Y12.341
X132.444 Y12.446
X132.238 Y12.564
X132.04 Y12.695
X131.851 Y12.839
X131.671 Y12.994
X131.501 Y13.159
X131.342 Y13.336
X131.194 Y13.522
X131.059 Y13.716
X130.936 Y13.919
X130.826 Y14.13
X130.729 Y14.347
X130.646 Y14.569
X130.578 Y14.796
X130.524 Y15.028
X130.484 Y15.262
X130.46 Y15.498
X130.45 Y15.735
G2 X129.329 Y26.489 I40.573 J9.666
X129.706 Y58.241 I297.259 J12.347
G3 X130.288 Y61.08 I-153.41 J32.913
G2 X132.112 Y64.805 I6.365 J-0.808
G1 X132.262 Y64.828
X134.577
G2 X134.84 Y64.651 Z-0.789 I-0.01 J-0.3
G1 X134.861 Y64.586 Z-0.645 F1200
X134.866 Y64.518 Z-0.5
X134.858 Y64.46
X134.839 Y64.404
X134.81 Y64.353
X134.771 Y64.309
X134.728 Y64.274
X134.681 Y64.245
X134.631 Y64.222
G2 X132.641 Y64.57 I-0.698 J1.874
G1 X132.54 Y64.662 Z-0.789
X132.471 Y64.733 Z-1 F700
X132.427 Y64.771 Z-1.125
X132.376 Y64.801 Z-1.25
X132.32 Y64.82 Z-1.375
X132.262 Y64.828 Z-1.5
X131.624
X131.403 Y64.756
X131.187 Y64.67
X130.977 Y64.57
X130.773 Y64.458
X130.577 Y64.333
X130.389 Y64.195
X130.211 Y64.046
X130.042 Y63.886
X129.884 Y63.716
X129.737 Y63.536
X129.601 Y63.347
X129.478 Y63.149
X129.367 Y62.945
X129.27 Y62.734
X129.186 Y62.517
X129.117 Y62.295
X129.061 Y62.069
X129.02 Y61.84
X128.993 Y61.609
X128.981 Y61.377
G3 X127.883 Y52.07 I33.897 J-8.717
X128.2 Y18.876 I303.34 J-13.706
G2 X128.767 Y16.034 I-114.714 J-24.382
G3 X130.498 Y12.247 I7.482 J1.13
G1 X130.624 Y12.191
X130.761 Y12.172
X133.101
G3 X133.355 Y12.331 Z-0.834 I-0.01 J0.3
G1 X133.364 Y12.349 Z-0.789
X133.392 Y12.412 Z-0.645 F1200
X133.413 Y12.476 Z-0.5
G3 X132.686 Y13.388 I-0.693 J0.193
X131.094 Y12.467 I0.094 J-1.998
G1 X131.025 Y12.349 Z-0.789
X131.015 Y12.331 Z-0.834 F700
G2 X130.761 Y12.172 Z-1.5 I-0.265 J0.141
G1 X130.148
X129.93 Y12.24
X129.716 Y12.321
X129.509 Y12.416
X129.307 Y12.524
X129.113 Y12.644
X128.927 Y12.776
X128.75 Y12.92
X128.582 Y13.075
X128.424 Y13.241
X128.277 Y13.416
X128.142 Y13.6
X128.019 Y13.792
X127.908 Y13.992
X127.81 Y14.198
X127.725 Y14.41
X127.654 Y14.627
X127.597 Y14.848
X127.555 Y15.073
X127.526 Y15.299
X127.512 Y15.527
G2 X126.344 Y26.272 I39.098 J9.687
X126.696 Y58.024 I296.061 J12.598
G3 X127.246 Y60.868 I-211.965 J42.5
G2 X129.003 Y64.751 I7.723 J-1.156
G1 X129.131 Y64.808
X129.27 Y64.828
X131.624
G2 X131.879 Y64.669 Z-0.834 I-0.01 J-0.3
G1 X131.888 Y64.651 Z-0.789
X131.916 Y64.588 Z-0.645 F1200
X131.937 Y64.523 Z-0.5
G2 X131.218 Y63.611 I-0.693 J-0.193
X129.604 Y64.533 I0.071 J1.999
G1 X129.534 Y64.651 Z-0.789
X129.524 Y64.669 Z-0.834 F700
G3 X129.27 Y64.828 Z-1.5 I-0.265 J-0.141
G1 X128.672
X128.445 Y64.76
X128.223 Y64.678
X128.008 Y64.581
X127.799 Y64.47
X127.598 Y64.345
X127.406 Y64.207
X127.224 Y64.056
X127.052 Y63.893
X126.892 Y63.719
X126.744 Y63.535
X126.608 Y63.342
X126.485 Y63.139
X126.377 Y62.929
X126.283 Y62.712
X126.203 Y62.49
X126.139 Y62.262
X126.09 Y62.031
X126.057 Y61.797
X126.039 Y61.561
G3 X124.899 Y52.263 I32.662 J-8.723
X125.192 Y19.069 I300.92 J-13.943
X125.906 Y15.522 I54.913 J9.208
X127.638 Y12.193 I5.465 J0.727
G1 X127.778 Y12.173
X130.148 Y12.172
G3 X130.402 Y12.331 Z-0.834 I-0.01 J0.3
G1 X130.412 Y12.35 Z-0.789
X130.439 Y12.412 Z-0.645 F1200
X130.461 Y12.477 Z-0.5
G3 X129.75 Y13.39 I-0.694 J0.193
X128.112 Y12.467 I0.047 J-1.999
G1 X128.042 Y12.35 Z-0.789
X128.032 Y12.331 Z-0.834 F700
G2 X127.778 Y12.173 Z-1.5 I-0.265 J0.141
G1 X127.106
G2 X124.861 Y14.433 I0.663 J2.904
X123.468 Y23.664 I26.02 J8.648
X123.737 Y58.299 I287.895 J15.079
G3 X124.318 Y61.137 I-377.304 J78.664
G2 X126.139 Y64.805 I6.277 J-0.83
G1 X126.287 Y64.827
X128.672 Y64.828
G2 X128.926 Y64.669 Z-0.834 I-0.01 J-0.3
G1 X128.936 Y64.65 Z-0.789
X128.963 Y64.588 Z-0.645 F1200
X128.985 Y64.523 Z-0.5
G2 X128.282 Y63.61 I-0.694 J-0.193
X126.621 Y64.533 I0.025 J2
G1 X126.552 Y64.65 Z-0.789
X126.542 Y64.669 Z-0.834 F700
G3 X126.287 Y64.827 Z-1.5 I-0.265 J-0.141
G1 X125.629
X125.404 Y64.749
X125.184 Y64.657
X124.97 Y64.552
X124.764 Y64.433
X124.565 Y64.301
X124.375 Y64.157
X124.194 Y64.001
X124.024 Y63.835
X123.864 Y63.658
X123.716 Y63.471
X123.58 Y63.275
X123.456 Y63.071
X123.346 Y62.86
X123.248 Y62.642
X123.165 Y62.419
X123.096 Y62.191
X123.042 Y61.959
X123.002 Y61.724
X122.977 Y61.487
X122.967 Y61.249
G3 X121.888 Y51.937 I34.843 J-8.758
X122.23 Y18.744 I296.816 J-13.543
G2 X122.819 Y15.906 I-114.29 J-25.201
G3 X124.636 Y12.196 I6.319 J0.795
G1 X124.785 Y12.173
X127.106
G3 X127.36 Y12.331 Z-0.834 I-0.01 J0.3
G1 X127.369 Y12.35 Z-0.789
X127.397 Y12.412 Z-0.645 F1200
X127.418 Y12.477 Z-0.5
G3 X126.681 Y13.387 I-0.692 J0.192
X125.119 Y12.467 I0.123 J-1.996
G1 X125.05 Y12.35 Z-0.789
X125.04 Y12.331 Z-0.834 F700
G2 X124.785 Y12.173 Z-1.5 I-0.265 J0.141
G1 X124.153
X123.933 Y12.244
X123.717 Y12.329
X123.507 Y12.427
X123.304 Y12.538
X123.109 Y12.663
X122.922 Y12.799
X122.743 Y12.947
X122.575 Y13.106
X122.417 Y13.275
X122.27 Y13.454
X122.135 Y13.642
X122.011 Y13.838
X121.901 Y14.041
X121.804 Y14.251
X121.72 Y14.467
X121.65 Y14.688
X121.594 Y14.913
X121.553 Y15.141
X121.526 Y15.37
X121.514 Y15.602
G2 X120.4 Y24.907 I33.879 J8.773
X120.718 Y58.1 I296.71 J13.76
G3 X121.282 Y60.942 I-132.796 J27.84
G2 X123.025 Y64.752 I7.557 J-1.154
G1 X123.152 Y64.808
X123.289 Y64.827
X125.629
G2 X125.884 Y64.669 Z-0.834 I-0.01 J-0.3
G1 X125.893 Y64.65 Z-0.789
X125.921 Y64.588 Z-0.645 F1200
X125.942 Y64.523 Z-0.5
G2 X125.216 Y63.612 I-0.693 J-0.193
X123.623 Y64.533 I0.093 J1.998
G1 X123.553 Y64.65 Z-0.789
X123.543 Y64.668 Z-0.834 F700
G3 X123.289 Y64.827 Z-1.5 I-0.265 J-0.141
G1 X122.603
G3 X120.335 Y62.478 I0.73 J-2.975
X118.912 Y51.798 I31.273 J-9.6
X119.26 Y18.605 I279.877 J-13.67
G2 X119.86 Y15.77 I-195.499 J-42.889
G3 X121.652 Y12.195 I6.028 J0.784
G1 X121.799 Y12.173
X124.153
G3 X124.407 Y12.331 Z-0.834 I-0.01 J0.3
G1 X124.417 Y12.35 Z-0.789
X124.444 Y12.412 Z-0.645 F1200
X124.466 Y12.477 Z-0.5
G3 X123.747 Y13.389 I-0.693 J0.193
X122.132 Y12.467 I0.071 J-1.999
G1 X122.063 Y12.35 Z-0.789
X122.053 Y12.332 Z-0.834 F700
G2 X121.799 Y12.173 Z-1.5 I-0.265 J0.141
G1 X121.127
X120.901 Y12.254
X120.68 Y12.348
X120.466 Y12.456
X120.259 Y12.578
X120.06 Y12.712
X119.869 Y12.859
X119.689 Y13.017
X119.519 Y13.186
X119.359 Y13.366
X119.211 Y13.555
X119.076 Y13.753
X118.953 Y13.959
X118.843 Y14.173
X118.747 Y14.393
X118.665 Y14.618
X118.598 Y14.849
X118.545 Y15.083
X118.506 Y15.32
X118.483 Y15.559
X118.475 Y15.799
G2 X117.347 Y26.554 I41.132 J9.748
X117.748 Y58.304 I285.293 J12.282
G3 X118.339 Y61.141 I-164.949 J35.897
G2 X120.151 Y64.805 I6.243 J-0.807
G1 X120.299 Y64.827
X122.603
G2 X122.867 Y64.65 Z-0.789 I-0.01 J-0.3
G1 X122.887 Y64.585 Z-0.645 F1200
X122.893 Y64.517 Z-0.5
G2 X122.687 Y64.228 I-0.321 J0.011
X120.678 Y64.569 I-0.716 J1.867
G1 X120.577 Y64.661 Z-0.789
X120.508 Y64.732 Z-1 F700
X120.464 Y64.771 Z-1.125
X120.413 Y64.8 Z-1.25
X120.358 Y64.819 Z-1.375
X120.299 Y64.827 Z-1.5
X119.651
X119.428 Y64.752
X119.21 Y64.662
X118.998 Y64.56
X118.793 Y64.444
X118.596 Y64.315
X118.407 Y64.174
X118.227 Y64.022
X118.058 Y63.858
X117.899 Y63.684
X117.752 Y63.501
X117.616 Y63.308
X117.493 Y63.108
X117.383 Y62.9
X117.286 Y62.685
X117.203 Y62.465
X117.133 Y62.24
X117.079 Y62.011
X117.039 Y61.779
X117.013 Y61.545
X117.002 Y61.31
G3 X115.903 Y52.001 I34.296 J-8.771
X116.241 Y18.809 I292.338 J-13.616
G2 X116.822 Y15.97 I-118.699 J-25.776
G3 X118.652 Y12.196 I6.457 J0.8
G1 X118.802 Y12.173
X121.127
G3 X121.39 Y12.35 Z-0.789 I-0.01 J0.3
G1 X121.411 Y12.415 Z-0.645 F1200
X121.416 Y12.483 Z-0.5
X121.409 Y12.541
X121.39 Y12.597
X121.36 Y12.648
X121.321 Y12.692
X121.266 Y12.735
X121.203 Y12.767
G3 X119.182 Y12.431 I-0.729 J-1.862
G1 X119.081 Y12.339 Z-0.789
X119.011 Y12.268 Z-1 F700
X118.967 Y12.229 Z-1.125
X118.916 Y12.2 Z-1.25
X118.861 Y12.181 Z-1.375
X118.802 Y12.173 Z-1.5
X118.175
X117.955 Y12.243
X117.74 Y12.327
X117.53 Y12.425
X117.328 Y12.536
X117.132 Y12.659
X116.945 Y12.794
X116.767 Y12.941
X116.599 Y13.1
X116.441 Y13.268
X116.294 Y13.446
X116.159 Y13.633
X116.035 Y13.828
X115.925 Y14.031
X115.827 Y14.24
X115.744 Y14.455
X115.673 Y14.675
X115.617 Y14.899
X115.576 Y15.126
X115.549 Y15.356
X115.536 Y15.586
G2 X114.363 Y26.332 I39.623 J9.763
X114.735 Y58.083 I286.162 J12.525
G3 X115.295 Y60.925 I-165.528 J34.124
G2 X117.041 Y64.751 I7.635 J-1.173
G1 X117.168 Y64.807
X117.306 Y64.827
X119.651
G2 X119.905 Y64.668 Z-0.834 I-0.01 J-0.3
G1 X119.915 Y64.65 Z-0.789
X119.942 Y64.587 Z-0.645 F1200
X119.963 Y64.523 Z-0.5
G2 X119.239 Y63.611 I-0.693 J-0.193
X117.64 Y64.532 I0.086 J1.998
G1 X117.57 Y64.65 Z-0.789
X117.56 Y64.668 Z-0.834 F700
G3 X117.306 Y64.827 Z-1.5 I-0.265 J-0.141
G1 X116.698
X116.481 Y64.76
X116.268 Y64.68
X116.06 Y64.587
X115.859 Y64.48
X115.665 Y64.361
X115.479 Y64.23
X115.301 Y64.087
X115.134 Y63.933
X114.976 Y63.769
X114.829 Y63.595
X114.693 Y63.412
X114.569 Y63.221
X114.458 Y63.023
X114.36 Y62.817
X114.274 Y62.606
X114.203 Y62.39
X114.145 Y62.17
X114.101 Y61.947
X114.072 Y61.721
X114.057 Y61.494
G3 X112.868 Y50.752 I38.913 J-9.742
X113.235 Y19.001 I284.651 J-12.589
G2 X113.786 Y16.158 I-196.266 J-39.54
G3 X115.547 Y12.251 I7.74 J1.137
G1 X115.676 Y12.193
X115.815 Y12.173
X118.175
G3 X118.429 Y12.332 Z-0.834 I-0.01 J0.3
G1 X118.438 Y12.35 Z-0.789
X118.466 Y12.413 Z-0.645 F1200
X118.487 Y12.477 Z-0.5
G3 X117.771 Y13.39 I-0.694 J0.193
X116.148 Y12.468 I0.063 J-1.999
G1 X116.079 Y12.35 Z-0.789
X116.069 Y12.332 Z-0.834 F700
G2 X115.815 Y12.173 Z-1.5 I-0.265 J0.141
G1 X115.132
G2 X112.871 Y14.503 I0.718 J2.959
X111.489 Y23.739 I26.631 J8.706
X111.773 Y58.372 I280.732 J15.011
G3 X112.372 Y61.207 I-154.847 J34.158
G2 X114.177 Y64.805 I6.078 J-0.799
G1 X114.324 Y64.827
X116.698
G2 X116.953 Y64.668 Z-0.834 I-0.01 J-0.3
G1 X116.962 Y64.65 Z-0.789
X116.99 Y64.587 Z-0.645 F1200
X117.011 Y64.522 Z-0.5
G2 X116.303 Y63.609 I-0.694 J-0.193
X114.657 Y64.532 I0.04 J2
G1 X114.588 Y64.65 Z-0.789
X114.578 Y64.668 Z-0.834 F700
G3 X114.324 Y64.827 Z-1.5 I-0.265 J-0.141
G1 X113.656
X113.43 Y64.747
X113.209 Y64.654
X112.995 Y64.547
X112.788 Y64.426
X112.589 Y64.293
X112.399 Y64.148
X112.218 Y63.991
X112.048 Y63.822
X111.888 Y63.644
X111.74 Y63.456
X111.604 Y63.259
X111.481 Y63.053
X111.37 Y62.841
X111.274 Y62.622
X111.191 Y62.397
X111.123 Y62.168
X111.069 Y61.934
X111.03 Y61.698
X111.006 Y61.46
X110.997 Y61.221
G3 X109.86 Y50.466 I41.119 J-9.783
X110.268 Y18.717 I281.186 J-12.259
G2 X110.86 Y15.881 I-163.806 J-35.624
G3 X112.677 Y12.196 I6.295 J0.815
G1 X112.826 Y12.174
X115.132 Y12.173
G3 X115.396 Y12.351 Z-0.789 I-0.01 J0.3
G1 X115.416 Y12.416 Z-0.645 F1200
X115.421 Y12.483 Z-0.5
Y12.484
G3 X115.217 Y12.77 I-0.319 J-0.011
X113.205 Y12.431 I-0.72 J-1.866
G1 X113.104 Y12.339 Z-0.789
X113.035 Y12.269 Z-1 F700
X112.99 Y12.23 Z-1.125
X112.94 Y12.2 Z-1.25
X112.884 Y12.181 Z-1.375
X112.826 Y12.174 Z-1.5
X112.18
X111.957 Y12.248
X111.739 Y12.337
X111.528 Y12.439
X111.323 Y12.554
X111.126 Y12.682
X110.938 Y12.822
X110.759 Y12.973
X110.589 Y13.136
X110.43 Y13.309
X110.283 Y13.492
X110.147 Y13.683
X110.024 Y13.883
X109.914 Y14.09
X109.817 Y14.304
X109.733 Y14.523
X109.664 Y14.748
X109.609 Y14.976
X109.568 Y15.207
X109.542 Y15.44
X109.531 Y15.675
G2 X108.42 Y24.982 I34.303 J8.816
X108.757 Y58.174 I288.024 J13.675
G3 X109.336 Y61.013 I-119.955 J25.937
G2 X111.172 Y64.803 I6.504 J-0.812
G1 X111.323 Y64.826
X113.656 Y64.827
G2 X113.91 Y64.668 Z-0.834 I-0.01 J-0.3
G1 X113.92 Y64.649 Z-0.789
X113.947 Y64.587 Z-0.645 F1200
X113.968 Y64.522 Z-0.5
G2 X113.238 Y63.611 I-0.693 J-0.193
X111.657 Y64.532 I0.104 J1.997
G1 X111.587 Y64.649 Z-0.789
X111.578 Y64.668 Z-0.834 F700
G3 X111.323 Y64.826 Z-1.5 I-0.265 J-0.141
G1 X110.63
G3 X108.358 Y62.444 I0.746 J-2.987
X106.932 Y51.762 I31.855 J-9.688
X107.293 Y18.57 I275.037 J-13.606
G2 X107.904 Y15.737 I-181.819 J-40.745
G3 X109.691 Y12.195 I5.959 J0.784
G1 X109.837 Y12.174
X112.18
G3 X112.434 Y12.332 Z-0.834 I-0.01 J0.3
G1 X112.444 Y12.351 Z-0.789
X112.471 Y12.413 Z-0.645 F1200
X112.492 Y12.478 Z-0.5
G3 X111.767 Y13.39 I-0.693 J0.193
X110.17 Y12.468 I0.088 J-1.998
G1 X110.101 Y12.351 Z-0.789
X110.091 Y12.332 Z-0.834 F700
G2 X109.837 Y12.174 Z-1.5 I-0.265 J0.141
G1 X109.154
G2 X106.886 Y14.511 I0.707 J2.956
X105.44 Y25.187 I31.218 J9.662
X105.791 Y58.379 I273.524 J13.71
G3 X106.392 Y61.213 I-198.804 J43.698
G2 X108.186 Y64.804 I6.089 J-0.798
G1 X108.333 Y64.826
X110.63
G2 X110.893 Y64.649 Z-0.789 I-0.01 J-0.3
G1 X110.914 Y64.584 Z-0.645 F1200
X110.919 Y64.516 Z-0.5
X110.911 Y64.458
X110.892 Y64.402
X110.863 Y64.351
X110.824 Y64.307
X110.77 Y64.263
X110.71 Y64.228
X110.646 Y64.201
G2 X108.712 Y64.569 I-0.641 J1.894
G1 X108.611 Y64.66 Z-0.789
X108.542 Y64.731 Z-1 F700
X108.498 Y64.77 Z-1.125
X108.447 Y64.799 Z-1.25
X108.391 Y64.818 Z-1.375
X108.333 Y64.826 Z-1.5
X107.677
X107.452 Y64.748
X107.233 Y64.656
X107.019 Y64.55
X106.813 Y64.431
X106.615 Y64.3
X106.425 Y64.156
X106.245 Y64
X106.075 Y63.834
X105.915 Y63.657
X105.768 Y63.47
X105.632 Y63.275
X105.509 Y63.071
X105.398 Y62.86
X105.302 Y62.642
X105.219 Y62.419
X105.15 Y62.191
X105.096 Y61.96
X105.057 Y61.725
X105.033 Y61.488
X105.023 Y61.25
G3 X103.872 Y50.498 I40.756 J-9.801
X104.28 Y18.749 I278.682 J-12.293
G2 X104.87 Y15.912 I-147.808 J-32.224
G3 X106.692 Y12.197 I6.349 J0.808
G1 X106.841 Y12.174
X109.154
G3 X109.408 Y12.332 Z-0.834 I-0.01 J0.3
G1 X109.417 Y12.351 Z-0.789
X109.445 Y12.413 Z-0.645 F1200
X109.466 Y12.478 Z-0.5
G3 X108.726 Y13.387 I-0.692 J0.192
X107.175 Y12.468 I0.135 J-1.995
G1 X107.105 Y12.351 Z-0.789
X107.095 Y12.333 Z-0.834 F700
G2 X106.841 Y12.174 Z-1.5 I-0.265 J0.141
G1 X106.201
X105.979 Y12.247
X105.763 Y12.334
X105.552 Y12.435
X105.348 Y12.548
X105.152 Y12.675
X104.964 Y12.813
X104.785 Y12.963
X104.616 Y13.124
X104.457 Y13.296
X104.31 Y13.477
X104.175 Y13.667
X104.051 Y13.865
X103.941 Y14.071
X103.844 Y14.283
X103.76 Y14.501
X103.691 Y14.724
X103.635 Y14.95
X103.594 Y15.18
X103.568 Y15.412
X103.556 Y15.645
G2 X102.433 Y24.951 I34.142 J8.843
X102.773 Y58.142 I283.766 J13.686
G3 X103.345 Y60.981 I-163.244 J34.349
G2 X105.189 Y64.802 I6.65 J-0.854
G1 X105.341 Y64.826
X107.677
G2 X107.941 Y64.649 Z-0.789 I-0.01 J-0.3
G1 X107.961 Y64.584 Z-0.645 F1200
X107.967 Y64.516 Z-0.5
G2 X107.782 Y64.249 I-0.3 J0.01
X105.72 Y64.568 I-0.77 J1.846
G1 X105.619 Y64.66 Z-0.789
X105.55 Y64.731 Z-1 F700
X105.506 Y64.77 Z-1.125
X105.455 Y64.799 Z-1.25
X105.399 Y64.818 Z-1.375
X105.341 Y64.826 Z-1.5
X104.725
X104.506 Y64.758
X104.292 Y64.676
X104.084 Y64.581
X103.882 Y64.473
X103.687 Y64.352
X103.5 Y64.219
X103.323 Y64.074
X103.154 Y63.918
X102.997 Y63.752
X102.849 Y63.577
X102.714 Y63.392
X102.59 Y63.199
X102.479 Y62.999
X102.381 Y62.792
X102.296 Y62.579
X102.225 Y62.361
X102.168 Y62.139
X102.125 Y61.914
X102.097 Y61.687
X102.083 Y61.458
G3 X100.887 Y50.716 I39.378 J-9.82
X101.271 Y18.966 I277.814 J-12.515
G2 X101.826 Y16.124 I-321.995 J-64.314
G3 X103.584 Y12.251 I7.743 J1.179
G1 X103.712 Y12.194
X103.851 Y12.174
X106.201
G3 X106.455 Y12.333 Z-0.834 I-0.01 J0.3
G1 X106.465 Y12.351 Z-0.789
X106.492 Y12.414 Z-0.645 F1200
X106.514 Y12.478 Z-0.5
G3 X105.793 Y13.39 I-0.693 J0.193
X104.184 Y12.468 I0.077 J-1.999
G1 X104.115 Y12.351 Z-0.789
X104.105 Y12.333 Z-0.834 F700
G2 X103.851 Y12.174 Z-1.5 I-0.265 J0.141
G1 X103.249
G2 X101.072 Y14.127 I0.454 J2.696
X99.547 Y23.321 I23.131 J8.561
X99.839 Y58.674 I266.387 J15.476
G1 X100.044 Y59.38
X100.168 Y60.092
X100.313 Y60.799
G2 X102.086 Y64.747 I7.759 J-1.111
G1 X102.214 Y64.806
X102.354 Y64.826
X104.725
G2 X104.979 Y64.667 Z-0.834 I-0.01 J-0.3
G1 X104.989 Y64.649 Z-0.789
X105.016 Y64.586 Z-0.645 F1200
X105.038 Y64.522 Z-0.5
G2 X104.327 Y63.609 I-0.694 J-0.193
X102.688 Y64.531 I0.046 J1.999
G1 X102.618 Y64.649 Z-0.789
X102.609 Y64.667 Z-0.834 F700
G3 X102.354 Y64.826 Z-1.5 I-0.265 J-0.141
G1 X101.682
G3 X99.432 Y62.56 I0.667 J-2.913
X98.019 Y53.332 I26.164 J-8.73
X98.305 Y18.7 I272.547 J-15.069
G2 X98.894 Y15.863 I-209.156 J-44.951
G3 X100.719 Y12.197 I6.287 J0.842
G1 X100.867 Y12.174
X103.249
G3 X103.503 Y12.333 Z-0.834 I-0.01 J0.3
G1 X103.513 Y12.351 Z-0.789
X103.54 Y12.414 Z-0.645 F1200
X103.561 Y12.478 Z-0.5
G3 X102.857 Y13.392 I-0.694 J0.193
X101.201 Y12.469 I0.029 J-2
G1 X101.131 Y12.351 Z-0.789
X101.121 Y12.333 Z-0.834 F700
G2 X100.867 Y12.174 Z-1.5 I-0.265 J0.141
G1 X100.206
X99.98 Y12.253
X99.76 Y12.346
X99.545 Y12.452
X99.338 Y12.572
X99.139 Y12.705
X98.948 Y12.849
X98.767 Y13.006
X98.597 Y13.173
X98.437 Y13.351
X98.288 Y13.539
X98.152 Y13.735
X98.028 Y13.94
X97.917 Y14.152
X97.82 Y14.371
X97.737 Y14.595
X97.668 Y14.824
X97.613 Y15.057
X97.574 Y15.293
X97.549 Y15.531
X97.539 Y15.77
G2 X96.384 Y26.522 I41.145 J9.856
X96.801 Y58.27 I273.206 J12.295
G3 X97.392 Y61.106 I-158.758 J34.562
G2 X99.212 Y64.803 I6.306 J-0.809
G1 X99.361 Y64.826
X101.682
G2 X101.946 Y64.648 Z-0.789 I-0.01 J-0.3
G1 X101.966 Y64.584 Z-0.645 F1200
X101.972 Y64.516 Z-0.5
X101.964 Y64.457
X101.945 Y64.402
X101.915 Y64.351
X101.877 Y64.307
X101.818 Y64.261
X101.752 Y64.228
G2 X99.74 Y64.568 I-0.719 J1.866
G1 X99.639 Y64.66 Z-0.789
X99.57 Y64.73 Z-1 F700
X99.526 Y64.769 Z-1.125
X99.475 Y64.799 Z-1.25
X99.419 Y64.818 Z-1.375
X99.361 Y64.826 Z-1.5
X98.73
X98.51 Y64.755
X98.294 Y64.671
X98.084 Y64.573
X97.881 Y64.462
X97.685 Y64.338
X97.498 Y64.202
X97.319 Y64.055
X97.151 Y63.896
X96.992 Y63.727
X96.845 Y63.549
X96.709 Y63.361
X96.586 Y63.165
X96.475 Y62.962
X96.378 Y62.752
X96.293 Y62.537
X96.223 Y62.316
X96.167 Y62.092
X96.125 Y61.864
X96.098 Y61.634
X96.085 Y61.403
G3 X94.948 Y52.1 I33.995 J-8.877
X95.29 Y18.91 I278.6 J-13.724
G2 X95.854 Y16.069 I-183.678 J-37.941
G3 X97.603 Y12.25 I7.584 J1.163
G1 X97.73 Y12.194
X97.867 Y12.174
X100.206
G3 X100.461 Y12.333 Z-0.834 I-0.01 J0.3
G1 X100.47 Y12.352 Z-0.789
X100.497 Y12.414 Z-0.645 F1200
X100.519 Y12.479 Z-0.5
G3 X99.792 Y13.39 I-0.693 J0.193
X98.201 Y12.469 I0.094 J-1.998
G1 X98.131 Y12.351 Z-0.789
X98.121 Y12.333 Z-0.834 F700
G2 X97.867 Y12.174 Z-1.5 I-0.265 J0.141
G1 X97.18 Y12.175
G2 X94.909 Y14.526 I0.732 J2.98
X93.46 Y25.203 I31.547 J9.718
X93.825 Y58.394 I265.314 J13.681
G3 X94.429 Y61.228 I-231.39 J50.745
G2 X96.225 Y64.804 I6.041 J-0.796
G1 X96.371 Y64.825
X98.73 Y64.826
G2 X98.984 Y64.667 Z-0.834 I-0.01 J-0.3
G1 X98.994 Y64.648 Z-0.789
X99.021 Y64.586 Z-0.645 F1200
X99.043 Y64.521 Z-0.5
G2 X98.326 Y63.609 I-0.694 J-0.193
X96.705 Y64.531 I0.065 J1.999
G1 X96.635 Y64.648 Z-0.789
X96.626 Y64.667 Z-0.834 F700
G3 X96.371 Y64.825 Z-1.5 I-0.265 J-0.141
G1 X95.704
X95.478 Y64.746
X95.258 Y64.652
X95.044 Y64.545
X94.837 Y64.425
X94.638 Y64.292
X94.448 Y64.146
X94.267 Y63.989
X94.097 Y63.821
X93.937 Y63.643
X93.789 Y63.455
X93.653 Y63.257
X93.53 Y63.052
X93.42 Y62.84
X93.324 Y62.621
X93.241 Y62.396
X93.173 Y62.167
X93.119 Y61.933
X93.08 Y61.697
X93.057 Y61.459
X93.048 Y61.22
G3 X91.89 Y50.468 I41.221 J-9.875
X92.314 Y18.72 I270.314 J-12.265
G2 X92.907 Y15.884 I-177.431 J-38.545
G3 X94.726 Y12.197 I6.3 J0.816
G1 X94.875 Y12.175
X97.18
G3 X97.443 Y12.352 Z-0.789 I-0.01 J0.3
G1 X97.464 Y12.417 Z-0.645 F1200
X97.469 Y12.485 Z-0.5
X97.462 Y12.543
X97.443 Y12.599
X97.413 Y12.65
X97.374 Y12.694
X97.325 Y12.733
X97.272 Y12.766
X97.214 Y12.791
G3 X95.254 Y12.432 I-0.668 J-1.885
G1 X95.153 Y12.341 Z-0.789
X95.084 Y12.27 Z-1 F700
X95.039 Y12.231 Z-1.125
X94.989 Y12.202 Z-1.25
X94.933 Y12.182 Z-1.375
X94.875 Y12.175 Z-1.5
X94.228
X94.005 Y12.249
X93.787 Y12.338
X93.575 Y12.44
X93.371 Y12.556
X93.173 Y12.684
X92.985 Y12.824
X92.805 Y12.976
X92.636 Y13.139
X92.477 Y13.312
X92.33 Y13.495
X92.194 Y13.687
X92.07 Y13.887
X91.96 Y14.095
X91.863 Y14.309
X91.779 Y14.528
X91.71 Y14.753
X91.655 Y14.981
X91.614 Y15.213
X91.589 Y15.446
X91.578 Y15.681
G2 X90.452 Y24.987 I34.468 J8.889
X90.809 Y58.177 I274.996 J13.642
G3 X91.386 Y61.015 I-186.316 J39.351
G2 X93.222 Y64.802 I6.512 J-0.819
G1 X93.373 Y64.825
X95.704
G2 X95.967 Y64.648 Z-0.789 I-0.01 J-0.3
G1 X95.988 Y64.583 Z-0.645 F1200
X95.993 Y64.515 Z-0.5
G2 X95.805 Y64.244 I-0.304 J0.011
X95.045 Y64.094 I-0.76 J1.85
G1 X95.044
G2 X93.752 Y64.568 I0 J2
G1 X93.651 Y64.659 Z-0.789
X93.582 Y64.73 Z-1 F700
X93.538 Y64.769 Z-1.125
X93.487 Y64.798 Z-1.25
X93.431 Y64.817 Z-1.375
X93.373 Y64.825 Z-1.5
X92.752
X92.532 Y64.756
X92.318 Y64.674
X92.109 Y64.578
X91.906 Y64.468
X91.711 Y64.347
X91.525 Y64.213
X91.347 Y64.067
X91.178 Y63.91
X91.02 Y63.744
X90.873 Y63.567
X90.738 Y63.381
X90.614 Y63.187
X90.503 Y62.986
X90.406 Y62.778
X90.321 Y62.564
X90.25 Y62.346
X90.194 Y62.123
X90.151 Y61.897
X90.123 Y61.669
X90.11 Y61.44
G3 X88.906 Y50.697 I39.66 J-9.882
X89.303 Y18.949 I269.751 J-12.505
G2 X89.859 Y16.107 I-336.612 J-67.334
G3 X91.616 Y12.251 I7.715 J1.186
G1 X91.743 Y12.194
X91.881 Y12.175
X94.228
G3 X94.482 Y12.333 Z-0.834 I-0.01 J0.3
G1 X94.492 Y12.352 Z-0.789
X94.519 Y12.414 Z-0.645 F1200
X94.54 Y12.479 Z-0.5
G3 X93.817 Y13.391 I-0.693 J0.193
X92.215 Y12.469 I0.083 J-1.998
G1 X92.145 Y12.352 Z-0.789
X92.136 Y12.334 Z-0.834 F700
G2 X91.881 Y12.175 Z-1.5 I-0.265 J0.141
G1 X91.275
G2 X89.091 Y14.15 I0.468 J2.714
X87.568 Y23.347 I23.443 J8.606
X87.874 Y58.698 I259.577 J15.432
G1 X88.078 Y59.404
X88.203 Y60.115
X88.349 Y60.822
G2 X90.116 Y64.747 I7.751 J-1.13
G1 X90.245 Y64.805
X90.384 Y64.825
X92.752
G2 X93.006 Y64.666 Z-0.834 I-0.01 J-0.3
G1 X93.015 Y64.648 Z-0.789
X93.043 Y64.586 Z-0.645 F1200
X93.064 Y64.521 Z-0.5
G2 X92.352 Y63.608 I-0.694 J-0.193
X90.718 Y64.531 I0.052 J1.999
G1 X90.648 Y64.648 Z-0.789
X90.639 Y64.666 Z-0.834 F700
G3 X90.384 Y64.825 Z-1.5 I-0.265 J-0.141
G1 X89.709
G3 X87.452 Y62.532 I0.688 J-2.934
X86.04 Y53.302 I26.467 J-8.772
X86.338 Y18.671 I265.239 J-15.039
G2 X86.93 Y15.836 I-217.926 J-47.022
G3 X88.75 Y12.197 I6.2 J0.826
G1 X88.897 Y12.175
X91.275
G3 X91.53 Y12.334 Z-0.834 I-0.01 J0.3
G1 X91.539 Y12.352 Z-0.789
X91.567 Y12.415 Z-0.645 F1200
X91.588 Y12.479 Z-0.5
G3 X90.882 Y13.393 I-0.694 J0.193
X89.231 Y12.469 I0.035 J-2
G1 X89.161 Y12.352 Z-0.789
X89.151 Y12.334 Z-0.834 F700
G2 X88.897 Y12.175 Z-1.5 I-0.265 J0.141
G1 X88.233
X88.007 Y12.254
X87.786 Y12.348
X87.571 Y12.455
X87.364 Y12.575
X87.165 Y12.708
X86.974 Y12.853
X86.793 Y13.01
X86.622 Y13.178
X86.462 Y13.356
X86.314 Y13.544
X86.177 Y13.741
X86.053 Y13.946
X85.943 Y14.159
X85.846 Y14.378
X85.763 Y14.603
X85.694 Y14.832
X85.64 Y15.066
X85.6 Y15.302
X85.576 Y15.54
X85.566 Y15.78
G2 X84.403 Y26.531 I41.386 J9.914
X84.832 Y58.278 I265.786 J12.282
G3 X85.424 Y61.114 I-199.127 J43.002
G2 X87.244 Y64.802 I6.301 J-0.817
G1 X87.393 Y64.825
X89.709
G2 X89.972 Y64.648 Z-0.789 I-0.01 J-0.3
G1 X89.993 Y64.583 Z-0.645 F1200
X89.998 Y64.515 Z-0.5
G2 X89.8 Y64.234 I-0.313 J0.011
X87.772 Y64.567 I-0.736 J1.86
G1 X87.671 Y64.659 Z-0.789
X87.602 Y64.73 Z-1 F700
X87.558 Y64.768 Z-1.125
X87.507 Y64.798 Z-1.25
X87.451 Y64.817 Z-1.375
X87.393 Y64.825 Z-1.5
X86.757
X86.535 Y64.753
X86.319 Y64.667
X86.109 Y64.568
X85.905 Y64.455
X85.709 Y64.33
X85.521 Y64.193
X85.342 Y64.044
X85.173 Y63.884
X85.015 Y63.714
X84.867 Y63.534
X84.731 Y63.345
X84.608 Y63.148
X84.497 Y62.944
X84.4 Y62.732
X84.316 Y62.516
X84.246 Y62.294
X84.19 Y62.068
X84.148 Y61.839
X84.121 Y61.608
X84.109 Y61.376
G3 X82.939 Y51.352 I37.093 J-9.409
X83.32 Y18.883 I268.983 J-13.078
G2 X83.89 Y16.044 I-178.059 J-37.187
G3 X85.631 Y12.25 I7.513 J1.151
G1 X85.757 Y12.194
X85.894 Y12.175
X88.233
G3 X88.487 Y12.334 Z-0.834 I-0.01 J0.3
G1 X88.497 Y12.352 Z-0.789
X88.524 Y12.415 Z-0.645 F1200
X88.545 Y12.479 Z-0.5
G3 X87.818 Y13.391 I-0.693 J0.193
X86.227 Y12.47 I0.094 J-1.998
G1 X86.158 Y12.352 Z-0.789
X86.148 Y12.334 Z-0.834 F700
G2 X85.894 Y12.175 Z-1.5 I-0.265 J0.141
G1 X85.207
G2 X82.935 Y14.536 I0.736 J2.982
X81.48 Y25.214 I31.799 J9.77
X81.856 Y58.403 I258.852 J13.661
G3 X82.461 Y61.236 I-326.696 J71.226
G2 X84.256 Y64.803 I6.022 J-0.796
G1 X84.402 Y64.825
X86.757
G2 X87.011 Y64.666 Z-0.834 I-0.01 J-0.3
G1 X87.02 Y64.648 Z-0.789
X87.048 Y64.585 Z-0.645 F1200
X87.069 Y64.52 Z-0.5
G2 X86.35 Y63.608 I-0.693 J-0.193
X84.736 Y64.53 I0.072 J1.999
G1 X84.667 Y64.648 Z-0.789
X84.657 Y64.666 Z-0.834 F700
G3 X84.402 Y64.825 Z-1.5 I-0.265 J-0.141
G1 X83.73
G3 X81.475 Y62.553 I0.662 J-2.913
X80.053 Y53.324 I26.4 J-8.793
X80.35 Y18.694 I262.291 J-15.068
G2 X80.942 Y15.859 I-299.663 J-64.106
G3 X82.755 Y12.198 I6.25 J0.816
G1 X82.903 Y12.175
X85.207
G3 X85.461 Y12.334 Z-0.834 I-0.01 J0.3
G1 X85.47 Y12.353 Z-0.789
X85.498 Y12.415 Z-0.645 F1200
X85.519 Y12.48 Z-0.5
G3 X84.774 Y13.388 I-0.692 J0.192
X83.237 Y12.47 I0.148 J-1.994
G1 X83.167 Y12.352 Z-0.789
X83.158 Y12.334 Z-0.834 F700
G2 X82.903 Y12.175 Z-1.5 I-0.265 J0.141
G1 X82.254 Y12.176
X82.031 Y12.251
X81.812 Y12.341
X81.6 Y12.444
X81.395 Y12.561
X81.197 Y12.69
X81.008 Y12.831
X80.828 Y12.984
X80.658 Y13.148
X80.499 Y13.323
X80.352 Y13.507
X80.216 Y13.7
X80.092 Y13.901
X79.982 Y14.11
X79.885 Y14.325
X79.802 Y14.546
X79.733 Y14.772
X79.678 Y15.001
X79.637 Y15.234
X79.612 Y15.468
X79.601 Y15.704
G2 X78.417 Y26.452 I40.565 J9.909
X78.843 Y58.198 I262.356 J12.351
G3 X79.421 Y61.036 I-353.676 J73.408
G2 X81.234 Y64.786 I6.499 J-0.83
G1 X81.378 Y64.812
X81.762 Y64.824
X83.73 Y64.825
G2 X83.985 Y64.666 Z-0.834 I-0.01 J-0.3
G1 X83.994 Y64.647 Z-0.789
X84.021 Y64.585 Z-0.645 F1200
X84.042 Y64.52 Z-0.5
G2 X83.386 Y63.66 I-0.661 J-0.176
X81.721 Y64.529 I-0.015 J2
G1 X81.648 Y64.644 Z-0.789
X81.638 Y64.662 Z-0.834 F700
G3 X81.378 Y64.812 Z-1.5 I-0.26 J-0.15
G1 X81.27 Y64.809
X81.179 Y64.805
X80.614 Y64.749
X80.399 Y64.674
X80.189 Y64.584
X79.986 Y64.48
X79.791 Y64.363
X79.604 Y64.232
X79.426 Y64.089
X79.259 Y63.934
X79.103 Y63.768
X78.959 Y63.591
X78.827 Y63.405
X78.708 Y63.21
X78.603 Y63.008
X78.512 Y62.799
X78.436 Y62.584
X78.374 Y62.365
X78.328 Y62.142
G3 X76.964 Y51.442 I35.148 J-9.918
X77.405 Y18.255 I256.075 J-13.188
G2 X78.059 Y15.431 I-495.498 J-116.152
G3 X79.465 Y12.509 I5.021 J0.617
G1 X79.564 Y12.467
G3 X82.253 Y12.188 I2.12 J7.355
G1 X82.313 Y12.194 Z-1.367
X82.371 Y12.212 Z-1.233
X82.425 Y12.243 Z-1.1
X82.471 Y12.284 Z-0.967
X82.508 Y12.334 Z-0.834
X82.518 Y12.353 Z-0.789
X82.54 Y12.417 Z-0.645 F1200
X82.549 Y12.485 Z-0.5
G3 X82.399 Y12.782 I-0.345 J0.012
X79.969 Y12.652 I-1.13 J-1.65
G1 X79.868 Y12.559 Z-0.789
X79.854 Y12.545 Z-0.834 F700
G2 X79.564 Y12.467 Z-1.5 I-0.212 J0.212
X78.318 Y13 I0.763 J3.507
X76.16 Y17.809 I3.877 J4.628
X75.234 Y35.821 I106.908 J14.529
X76.054 Y59.617 I181.275 J5.662
X76.825 Y62.41 I84.952 J-21.92
X77.16 Y63.154 I1.2 J-0.094
X80.614 Y64.749 I3.949 J-4.013
X80.883 Y64.616 Z-0.834 I0.019 J-0.299
G1 X80.894 Y64.598 Z-0.789
X80.926 Y64.538 Z-0.645 F1200
X80.95 Y64.474 Z-0.5
G2 X80.834 Y63.955 I-0.516 J-0.158
X77.604 Y63.136 I-2.228 J2.009
G1 X77.476 Y63.185 Z-0.789
X77.457 Y63.193 Z-0.834 F700
G3 X77.16 Y63.154 Z-1.5 I-0.115 J-0.277
X75.451 Y60.869 I9.487 J-8.877
X74.1 Y53.571 I13.646 J-6.301
X74.421 Y18.218 I248.55 J-15.423
X74.763 Y17.105 I2.399 J0.129
X77.967 Y13.15 I12.813 J7.105
G1 X78.318 Y13
G3 X78.617 Y13.02 Z-0.834 I0.132 J0.269
G1 X78.634 Y13.032 Z-0.789
X78.743 Y13.114 Z-0.5 F1200
G3 X79.059 Y15.352 I-1.052 J1.29
X75.2 Y17.031 I-3.287 J-2.28
G1 X75.066 Y17.009 Z-0.789
X75.045 Y17.005 Z-0.834 F700
G2 X74.763 Y17.105 Z-1.5 I-0.055 J0.295
G1 X73.976 Y18.096
X73.889 Y18.201
X73.829 Y18.259
G2 X72.568 Y24.067 I8.016 J4.781
X72.863 Y57.92 I245.86 J14.784
G1 X73.017 Y58.019
X73.1 Y58.108
G3 X75.429 Y60.881 I-5.832 J7.262
G1 X75.477 Y60.929 Z-1.367
X75.532 Y60.965 Z-1.233
X75.593 Y60.989 Z-1.1
X75.657 Y60.999 Z-0.967
X75.72 Y60.996 Z-0.834
X75.741 Y60.993 Z-0.789
X75.807 Y60.975 Z-0.645 F1200
X75.867 Y60.944 Z-0.5
X75.915 Y60.905
X75.955 Y60.858
X75.985 Y60.804
G2 X73.545 Y58.095 I-1.831 J-0.804
G1 X73.417 Y58.141 Z-0.789
X73.397 Y58.149 Z-0.834 F700
G3 X73.1 Y58.108 Z-1.5 I-0.113 J-0.278
G1 X72.741 Y57.809
X72.413 Y57.545
X72.225 Y57.3
X72.05 Y57.047
X71.886 Y56.786
X71.736 Y56.517
X71.599 Y56.241
X71.475 Y55.959
X71.365 Y55.671
X71.269 Y55.378
X71.187 Y55.081
X71.12 Y54.78
X71.067 Y54.477
X71.029 Y54.171
X71.006 Y53.864
X70.998 Y53.556
X71.004 Y53.247
X71.026 Y52.94
X71.062 Y52.634
G3 X71.221 Y20.876 I247.96 J-14.639
X71.673 Y19.899 I1.194 J-0.041
G2 X73.829 Y18.259 I-3.971 J-7.458
G3 X74.141 Y18.202 Z-0.789 I0.202 J0.222
G1 X74.201 Y18.234 Z-0.645 F1200
X74.253 Y18.278 Z-0.5
X74.288 Y18.326
X74.313 Y18.379
X74.328 Y18.436
X74.331 Y18.495
G3 X73.821 Y19.523 I-1.422 J-0.065
X72.129 Y19.945 I-1.281 J-1.536
G1 X71.997 Y19.912 Z-0.789
X71.902 Y19.883 Z-1 F700
X71.845 Y19.87 Z-1.125
X71.786 Y19.868 Z-1.25
X71.728 Y19.878 Z-1.375
X71.673 Y19.899 Z-1.5
X71.069 Y20.226
G2 X69.726 Y22.793 I2.033 J2.699
X69.256 Y43.708 I168.53 J14.25
X69.978 Y56.261 I68.323 J2.368
G1 X70.186 Y56.357
X70.326 Y56.428
G3 X72.413 Y57.545 I-4.509 J10.932
G2 X72.73 Y57.559 Z-0.789 I0.17 J-0.247
G1 X72.785 Y57.519 Z-0.645 F1200
X72.83 Y57.468 Z-0.5
X72.859 Y57.416
X72.876 Y57.36
X72.883 Y57.302
X72.878 Y57.243
G2 X71.602 Y56.145 I-1.321 J0.244
X70.766 Y56.297 I-0.068 J1.999
G1 X70.642 Y56.354 Z-0.789
X70.554 Y56.4 Z-1 F700
X70.5 Y56.424 Z-1.125
X70.443 Y56.437 Z-1.25
X70.384 Y56.438 Z-1.375
X70.326 Y56.428 Z-1.5
X70.117 Y56.362
X69.789 Y56.261
G3 X68.229 Y53.842 I1.219 J-2.499
X67.746 Y34.375 I150.187 J-13.46
X68.288 Y22.126 I83.524 J-2.445
X68.829 Y21.046 I1.975 J0.314
G1 X68.969 Y20.984
G2 X71.073 Y20.234 I-1.771 J-8.287
G1 X71.129 Y20.211 Z-1.367
X71.19 Y20.2 Z-1.233
X71.251 Y20.202 Z-1.1
X71.311 Y20.217 Z-0.967
X71.368 Y20.245 Z-0.834
X71.385 Y20.257 Z-0.789
X71.439 Y20.298 Z-0.645 F1200
X71.489 Y20.344 Z-0.5
G3 X71.072 Y21.676 I-0.557 J0.557
X69.367 Y21.183 I-0.355 J-1.968
G1 X69.269 Y21.087 Z-0.789
X69.255 Y21.072 Z-0.834 F700
G2 X68.969 Y20.984 Z-1.5 I-0.219 J0.205
G1 X68.641 Y21.072
X68.477 Y21.095
X68.288 Y21.183
X68.107 Y21.284
X67.934 Y21.399
X67.769 Y21.526
X67.615 Y21.665
X67.471 Y21.815
X67.339 Y21.975
X67.219 Y22.144
X67.111 Y22.322
X67.017 Y22.507
X66.937 Y22.699
X66.872 Y22.896
X66.821 Y23.097
X66.785 Y23.302
X66.764 Y23.508
X66.759 Y23.716
G2 X66.229 Y36.687 I78.508 J9.702
X66.585 Y53.284 I169.341 J4.666
X67.425 Y55.697 I5.814 J-0.67
G1 X67.567 Y55.794
X67.733 Y55.838
G3 X69.789 Y56.261 I-0.174 J6.04
G2 X70.078 Y56.184 Z-0.834 I0.078 J-0.29
G1 X70.093 Y56.17 Z-0.789
X70.138 Y56.118 Z-0.645 F1200
X70.178 Y56.063 Z-0.5
G2 X69.387 Y54.807 I-0.672 J-0.454
X68.09 Y55.572 I0.292 J1.979
G1 X68.011 Y55.683 Z-0.789
X67.999 Y55.701 Z-0.834 F700
G3 X67.733 Y55.838 Z-1.5 I-0.252 J-0.163
G1 X67.492 Y55.816
X67.164 Y55.779
G3 X65.366 Y53.445 I0.869 J-2.53
X64.758 Y43.381 I44.25 J-7.722
X65.097 Y23.899 I190.503 J-6.435
X66.155 Y21.361 I6.131 J1.067
G1 X66.297 Y21.285
X66.455 Y21.258
G2 X68.477 Y21.095 I-4.146 J-63.995
G3 X68.745 Y21.228 Z-0.834 I0.019 J0.299
G1 X68.756 Y21.246 Z-0.789
X68.79 Y21.305 Z-0.645 F1200
X68.818 Y21.367 Z-0.5
G3 X67.899 Y22.375 I-0.704 J0.281
X66.791 Y21.549 I0.568 J-1.918
G1 X66.72 Y21.433 Z-0.789
X66.71 Y21.414 Z-0.834 F700
G2 X66.455 Y21.258 Z-1.5 I-0.263 J0.144
G1 X66.344 Y21.259
X65.926
X65.719 Y21.333
X65.517 Y21.421
X65.322 Y21.523
X65.135 Y21.639
X64.957 Y21.767
X64.788 Y21.908
X64.629 Y22.06
X64.482 Y22.223
X64.346 Y22.397
