(1001)
(Machine)
(  vendor: Autodesk)
(  description: Generic 3-axis)
(T1  D=3 CR=0 - ZMIN=-28.2 - flat end mill)
G90 G94
G17
G21
G28 G91 Z0
G90

(Adaptive4)
T1
S15000 M3
G54
G0 X158.425 Y37.162
Z2.501
Z2
G3 X157.444 Y39.838 Z1.844 I-0.49 J1.338 F333.3
X158.425 Y37.162 Z1.687 I0.49 J-1.338
X157.444 Y39.838 Z1.531 I-0.49 J1.338
X158.425 Y37.162 Z1.375 I0.49 J-1.338
X157.444 Y39.838 Z1.218 I-0.49 J1.338
X158.425 Y37.162 Z1.062 I0.49 J-1.338
X157.444 Y39.838 Z0.906 I-0.49 J1.338
X158.425 Y37.162 Z0.749 I0.49 J-1.338
X157.444 Y39.838 Z0.593 I-0.49 J1.338
X158.425 Y37.162 Z0.437 I0.49 J-1.338
X157.444 Y39.838 Z0.28 I-0.49 J1.338
X158.425 Y37.162 Z0.124 I0.49 J-1.338
X157.444 Y39.838 Z-0.032 I-0.49 J1.338
X158.425 Y37.162 Z-0.189 I0.49 J-1.338
X157.444 Y39.838 Z-0.345 I-0.49 J1.338
X158.425 Y37.162 Z-0.501 I0.49 J-1.338
X157.444 Y39.838 Z-0.658 I-0.49 J1.338
X158.425 Y37.162 Z-0.814 I0.49 J-1.338
X157.444 Y39.838 Z-0.97 I-0.49 J1.338
X158.425 Y37.162 Z-1.127 I0.49 J-1.338
X157.444 Y39.838 Z-1.283 I-0.49 J1.338
X158.425 Y37.162 Z-1.439 I0.49 J-1.338
X159.36 Y38.5 Z-1.5 I-0.49 J1.338
X156.51 Y38.5 I-1.425 J0
X159.36 Y38.5 I1.425 J0
G1 Y38.699 F500
X159.417 Y38.889
G3 X159.515 Y39.132 I-0.522 J0.35
G1 X159.525 Y39.198
X159.53 Y39.27
X159.529 Y39.347
X159.521 Y39.429
X159.506 Y39.516
X159.482 Y39.607
X159.45 Y39.701
X159.408 Y39.797
X159.356 Y39.894
X159.293 Y39.991
X159.22 Y40.086
X159.136 Y40.179
X159.041 Y40.268
X158.936 Y40.352
X158.822 Y40.43
X158.697 Y40.5
X158.564 Y40.562
X158.423 Y40.614
X158.276 Y40.656
X158.122 Y40.686
X157.964 Y40.704
X157.802 Y40.709
X157.638 Y40.701
X157.473 Y40.68
X157.308 Y40.645
X157.145 Y40.597
X156.985 Y40.535
X156.829 Y40.46
X156.679 Y40.372
X156.535 Y40.271
X156.399 Y40.159
X156.272 Y40.036
X156.155 Y39.902
X156.048 Y39.759
X155.953 Y39.607
X155.871 Y39.447
X155.801 Y39.281
X155.744 Y39.11
X155.702 Y38.934
X155.673 Y38.755
X155.66 Y38.574
Y38.393
X155.675 Y38.211
X155.705 Y38.032
X155.749 Y37.855
X155.807 Y37.682
X155.879 Y37.514
X155.964 Y37.353
X156.062 Y37.199
X156.172 Y37.053
X156.294 Y36.916
X156.426 Y36.79
X156.568 Y36.674
X156.718 Y36.57
X156.877 Y36.479
X157.042 Y36.401
X157.214 Y36.336
X157.389 Y36.285
X157.569 Y36.248
X157.751 Y36.226
X157.934 Y36.218
X158.117 Y36.226
X158.299 Y36.248
X158.478 Y36.284
X158.654 Y36.335
X158.826 Y36.399
X158.991 Y36.478
X159.15 Y36.569
X159.301 Y36.673
X159.443 Y36.788
X159.576 Y36.915
X159.698 Y37.052
X159.808 Y37.198
X159.915 Y37.366
X160.012 Y37.539
X160.104 Y37.716
X160.188 Y37.896
X160.264 Y38.08
X160.329 Y38.267
X160.382 Y38.459
X160.422 Y38.654
X160.447 Y38.851
X160.458 Y39.049
X160.453 Y39.248
X160.432 Y39.444
X160.395 Y39.636
X160.343 Y39.825
X160.276 Y40.01
X160.194 Y40.19
X160.097 Y40.363
X159.987 Y40.529
X159.864 Y40.685
X159.729 Y40.831
X159.583 Y40.966
X159.428 Y41.09
X159.263 Y41.201
X159.091 Y41.3
X158.912 Y41.386
X158.727 Y41.459
X158.537 Y41.519
X158.344 Y41.565
X158.147 Y41.597
X157.95 Y41.616
X157.751 Y41.62
X157.552 Y41.612
X157.355 Y41.589
X157.159 Y41.554
X156.966 Y41.506
X156.777 Y41.445
X156.592 Y41.372
X156.412 Y41.287
X156.238 Y41.19
X156.071 Y41.083
X155.911 Y40.965
X155.76 Y40.836
X155.616 Y40.699
X155.482 Y40.552
X155.357 Y40.398
X155.242 Y40.235
X155.138 Y40.066
X155.044 Y39.89
X154.962 Y39.709
X154.891 Y39.524
X154.833 Y39.334
X154.786 Y39.141
X154.751 Y38.945
X154.728 Y38.747
X154.718 Y38.549
X154.721 Y38.35
X154.735 Y38.152
X154.762 Y37.955
X154.801 Y37.76
X154.853 Y37.568
X154.915 Y37.379
X154.99 Y37.195
X155.076 Y37.015
X155.172 Y36.842
X155.28 Y36.674
X155.397 Y36.514
X155.524 Y36.361
X155.66 Y36.216
X155.805 Y36.08
X155.958 Y35.953
X156.119 Y35.836
X156.287 Y35.729
X156.46 Y35.633
X156.64 Y35.547
X156.824 Y35.473
X157.013 Y35.41
X157.205 Y35.359
X157.4 Y35.32
X157.597 Y35.293
X157.795 Y35.278
X157.994 Y35.276
X158.193 Y35.286
X158.39 Y35.307
X158.586 Y35.341
X158.779 Y35.388
X158.97 Y35.446
X159.156 Y35.515
X159.338 Y35.596
X159.514 Y35.688
X159.684 Y35.791
X159.848 Y35.903
X160.004 Y36.026
X160.153 Y36.158
X160.295 Y36.298
X160.429 Y36.444
X160.556 Y36.597
X160.676 Y36.756
X160.788 Y36.92
X160.892 Y37.089
X160.989 Y37.263
X161.077 Y37.441
X161.156 Y37.624
X161.225 Y37.81
X161.286 Y37.999
X161.336 Y38.192
X161.376 Y38.386
X161.406 Y38.583
X161.425 Y38.781
X161.433 Y38.979
X161.43 Y39.178
X161.416 Y39.376
X161.391 Y39.574
X161.355 Y39.769
X161.308 Y39.962
X161.25 Y40.152
X161.181 Y40.339
X161.102 Y40.521
X161.012 Y40.699
X160.913 Y40.871
X160.804 Y41.038
X160.686 Y41.197
X160.559 Y41.35
X160.424 Y41.496
X160.281 Y41.634
X160.13 Y41.764
X159.973 Y41.885
X159.809 Y41.998
X159.639 Y42.102
X159.464 Y42.196
X159.284 Y42.28
X159.1 Y42.355
X158.912 Y42.42
X158.721 Y42.475
X158.528 Y42.52
X158.332 Y42.555
X158.135 Y42.579
X157.936 Y42.594
X157.738 Y42.598
X157.539 Y42.592
X157.341 Y42.575
X157.144 Y42.549
X156.948 Y42.513
X156.755 Y42.467
X156.564 Y42.411
X156.376 Y42.346
X156.192 Y42.272
X156.011 Y42.189
X155.835 Y42.096
X155.664 Y41.996
X155.497 Y41.887
X155.337 Y41.77
X155.182 Y41.645
X155.033 Y41.513
X154.891 Y41.373
X154.756 Y41.227
X154.628 Y41.075
X154.508 Y40.917
X154.396 Y40.753
X154.291 Y40.584
X154.195 Y40.41
X154.107 Y40.232
X154.028 Y40.049
X153.958 Y39.863
X153.896 Y39.674
X153.844 Y39.482
X153.801 Y39.288
X153.768 Y39.092
X153.743 Y38.895
X153.728 Y38.697
X153.723 Y38.498
X153.727 Y38.299
X153.74 Y38.101
X153.763 Y37.903
X153.795 Y37.707
X153.837 Y37.513
X153.887 Y37.32
X153.947 Y37.131
X154.015 Y36.944
X154.093 Y36.761
X154.179 Y36.582
X154.273 Y36.407
X154.375 Y36.236
X154.486 Y36.071
X154.604 Y35.911
X154.729 Y35.757
X154.862 Y35.608
X155.001 Y35.467
X155.147 Y35.332
X155.299 Y35.204
X155.457 Y35.083
X155.621 Y34.97
X155.79 Y34.865
X155.963 Y34.768
X156.141 Y34.679
X156.323 Y34.599
X156.508 Y34.527
X156.697 Y34.464
X156.888 Y34.41
X157.082 Y34.365
X157.277 Y34.33
X157.474 Y34.304
X157.673 Y34.286
X157.871 Y34.279
X158.07 Y34.28
X158.268 Y34.291
X158.466 Y34.312
X158.663 Y34.341
X158.858 Y34.38
X159.051 Y34.428
X159.241 Y34.485
X159.429 Y34.551
X159.613 Y34.626
X159.794 Y34.709
X159.97 Y34.801
X160.142 Y34.9
X160.31 Y35.007
X160.472 Y35.121
X160.63 Y35.243
X160.782 Y35.371
X160.929 Y35.505
X161.07 Y35.645
X161.205 Y35.79
G3 X161.685 Y36.423 I-3.742 J3.335
G1 X161.789 Y36.593
X161.886 Y36.767
X161.975 Y36.944
X162.058 Y37.125
X162.133 Y37.309
X162.2 Y37.496
X162.26 Y37.686
X162.312 Y37.878
X162.356 Y38.072
X162.391 Y38.267
X162.418 Y38.464
X162.437 Y38.662
X162.448 Y38.861
X162.45 Y39.059
X162.443 Y39.258
X162.428 Y39.456
X162.404 Y39.654
X162.372 Y39.85
X162.331 Y40.044
X162.282 Y40.237
X162.224 Y40.427
X162.159 Y40.615
X162.085 Y40.8
X162.003 Y40.981
X161.913 Y41.158
X161.816 Y41.331
X161.711 Y41.5
X161.599 Y41.664
X161.48 Y41.824
X161.354 Y41.977
X161.221 Y42.126
X161.082 Y42.268
X160.938 Y42.404
X160.787 Y42.534
X160.631 Y42.658
X160.47 Y42.774
X160.304 Y42.884
X160.134 Y42.986
X159.96 Y43.082
X159.781 Y43.169
X159.599 Y43.25
X159.414 Y43.322
X159.226 Y43.387
X159.036 Y43.444
X158.843 Y43.493
X158.648 Y43.534
X158.452 Y43.567
X158.255 Y43.591
X158.057 Y43.608
X157.858 Y43.617
X157.66 Y43.618
X157.461 Y43.61
G3 X156.674 Y43.5 I0.292 J-4.975
G1 X156.481 Y43.453
G3 X155.731 Y43.19 I1.295 J-4.879
X154.708 Y42.582 I2.06 J-4.637
X153.982 Y41.905 I3.118 J-4.07
X153.4 Y41.101 I3.875 J-3.415
X152.984 Y40.2 I4.484 J-2.622
X152.746 Y39.237 I4.922 J-1.724
X152.696 Y38.245 I5.178 J-0.758
X152.835 Y37.262 I5.244 J0.239
X153.157 Y36.323 I5.114 J1.23
X153.65 Y35.462 I4.797 J2.177
X154.443 Y34.575 I4.292 J3.037
X155.075 Y34.092 I3.518 J3.952
X156.14 Y33.561 I2.868 J4.417
X156.905 Y33.347 I1.81 J4.985
X158.091 Y33.247 I1.033 J5.172
X159.076 Y33.37 I-0.159 J5.281
X160.38 Y33.845 I-1.163 J5.211
X161.372 Y34.504 I-2.582 J4.965
X163.338 Y37.654 I-3.759 J4.535
X163.492 Y39.232 I-5.588 J1.343
X163.204 Y40.791 I-5.644 J-0.237
X161.415 Y43.37 I-5.344 J-1.796
X159.689 Y44.336 I-3.625 J-4.451
G1 X159.5 Y44.399
X159.31 Y44.456
X159.117 Y44.505
G3 X156.945 Y44.616 I-1.382 J-5.762
X154.703 Y43.846 I0.804 J-5.993
X152.48 Y41.621 I3.1 J-5.32
X151.651 Y37.994 I5.392 J-3.14
X154.166 Y33.435 I6.27 J0.486
X159.64 Y32.419 I3.771 J5.059
X161.275 Y33.13 I-1.74 J6.237
X163.177 Y34.857 I-3.546 J5.816
X164.535 Y38.332 I-5.499 J4.151
X164.234 Y41.079 I-6.721 J0.653
X161.66 Y44.521 I-6.392 J-2.096
X158.725 Y45.669 I-3.902 J-5.647
X155.393 Y45.342 I-0.998 J-6.96
X152.443 Y43.383 I2.372 J-6.773
X151.324 Y41.747 I5.361 J-4.866
X151.001 Y35.954 I6.562 J-3.272
X157.672 Y31.111 I6.932 J2.531
X160.779 Y31.671 I0.266 J7.43
X163.253 Y33.303 I-2.95 J7.161
X165.633 Y38.417 I-5.561 J5.698
X165.003 Y42.104 I-7.813 J0.565
X161.4 Y45.941 I-7.185 J-3.138
X157.367 Y46.821 I-3.665 J-7.117
X153.088 Y45.385 I0.365 J-8.18
X149.906 Y41.177 I4.718 J-6.873
G1 X149.844 Y40.988
G3 X151.633 Y32.82 I8.062 J-2.515
X159.762 Y30.21 I6.304 J5.671
X162.677 Y31.437 I-1.849 J8.47
X165.975 Y35.326 I-4.944 J7.536
X166.483 Y41.159 I-8.199 J3.653
X162.105 Y46.811 I-8.66 J-2.186
X157.721 Y47.93 I-4.369 J-7.969
X152.816 Y46.525 I0.003 J-9.275
X152.001 Y45.957 I4.809 J-7.771
X148.396 Y39.336 I5.829 J-7.466
X152.352 Y30.701 I9.518 J-0.863
X159.913 Y29.111 I5.586 J7.792
X163.537 Y30.681 I-2.003 J9.593
X167.86 Y39.193 I-5.81 J8.305
X163.148 Y47.486 I-10.031 J-0.214
G1 X162.979 Y47.591
X162.807 Y47.691
X162.634 Y47.789
G3 X156.289 Y48.943 I-4.912 J-8.987
X150.632 Y46.253 I1.445 J-10.331
X147.258 Y39.053 I7.196 J-7.763
X152.215 Y29.45 I10.657 J-0.58
X160.037 Y27.998 I5.725 J9.045
X164.37 Y29.903 I-2.127 J10.72
X167.519 Y33.439 I-6.6 J9.046
X168.81 Y40.929 I-9.761 J5.538
X163.037 Y48.842 I-10.992 J-1.958
X157.09 Y50.145 I-5.31 J-10.007
X150.513 Y47.629 I0.633 J-11.512
X146.222 Y40.026 I7.303 J-9.133
X148.975 Y30.779 I11.679 J-1.556
X159.294 Y26.746 I8.962 J7.711
X164.485 Y28.616 I-1.368 J11.934
X169.352 Y34.73 I-6.721 J10.345
X168.377 Y45.263 I-11.546 J4.243
X161.137 Y50.813 I-10.602 J-6.333
X156.412 Y51.222 I-3.42 J-12.007
X148.97 Y47.779 I1.319 J-12.615
X144.993 Y38.737 I8.858 J-9.292
X150.063 Y28.207 I12.918 J-0.266
X160.001 Y25.702 I7.878 J10.289
X165.644 Y28.038 I-2.081 J13.011
X167.717 Y29.887 I-7.766 J10.798
X171.171 Y40.334 I-9.977 J9.092
X164.328 Y50.71 I-13.356 J-1.363
X156.868 Y52.396 I-6.605 J-11.876
X149.343 Y49.586 I0.851 J-13.758
X144.154 Y41.353 I8.463 J-11.084
X148.532 Y28.004 I13.75 J-2.884
X159.365 Y24.475 I9.407 J10.486
X165.685 Y26.691 I-1.434 J14.207
X170.982 Y32.747 I-7.897 J12.253
X172.193 Y41.278 I-13.204 J6.227
X164.932 Y51.676 I-14.379 J-2.307
X156.708 Y53.527 I-7.21 J-12.841
X149.121 Y50.836 I1.007 J-14.879
X143.174 Y42.17 I8.678 J-12.33
X143.812 Y32.806 I14.705 J-3.702
X157.737 Y23.265 I14.122 J5.679
X164.838 Y24.897 I0.209 J15.357
X170.874 Y30.238 I-7.012 J14.004
X172.945 Y43.181 I-13.104 J8.734
X171.788 Y46.138 I-15.225 J-4.249
X163.2 Y53.727 I-14.004 J-7.194
X154.006 Y54.268 I-5.493 J-14.949
X146.163 Y49.807 I3.725 J-15.671
X141.583 Y37.888 I11.67 J-11.324
X143.195 Y31.374 I16.288 J0.573
X158.272 Y22.123 I14.741 J7.113
X166.056 Y24.248 I-0.328 J16.524
X172.356 Y30.451 I-8.241 J14.67
X173.812 Y44.264 I-14.579 J8.52
X164.768 Y54.321 I-16.017 J-5.308
X154.862 Y55.611 I-7.058 J-15.52
X145.767 Y51.029 I2.863 J-17.002
X140.575 Y40.758 I12.049 J-12.537
X140.505 Y36.791 I17.218 J-2.288
X154.999 Y21.221 I17.423 J1.688
X164.19 Y22.114 I2.954 J17.348
X170.909 Y26.604 I-6.314 J16.718
X175.395 Y35.118 I-13.148 J12.368
X167.043 Y54.424 I-17.582 J3.853
X157.371 Y56.996 I-9.32 J-15.576
X147.626 Y53.978 I0.339 J-18.338
X142.544 Y49.002 I10.129 J-15.429
X140.202 Y32.668 I15.321 J-10.532
X154.046 Y20.232 I17.726 J5.81
X164.044 Y20.838 I3.907 J18.331
X167.127 Y22.211 I-6.058 J17.752
X175.533 Y31.702 I-9.331 J16.732
X169.749 Y53.948 I-17.724 J7.267
X158.18 Y58.146 I-12.023 J-15.096
X146.735 Y54.769 I-0.472 J-19.486
X138.985 Y44.249 I11.053 J-16.258
X142.133 Y26.527 I18.907 J-5.782
X146.388 Y22.38 I15.75 J11.905
X160.709 Y18.86 I11.557 J16.128
X169.498 Y22.34 I-2.779 J19.857
X176.435 Y30.869 I-11.702 J16.604
X177.245 Y44.866 I-18.647 J8.101
X166.716 Y57.223 I-19.447 J-5.906
X155.904 Y59.227 I-9.003 J-18.4
X144.195 Y54.275 I1.813 J-20.602
X138.701 Y46.813 I13.581 J-15.754
X140.148 Y27.373 I19.185 J-8.347
X157.378 Y17.519 I17.787 J11.111
X166.289 Y19.228 I0.576 J21.088
X175.064 Y26.187 I-8.437 J19.65
X178.273 Y45.457 I-17.291 J12.782
X166.402 Y58.644 I-20.483 J-6.503
G1 X166.22 Y58.724
G3 X152.394 Y59.806 I-8.517 J-19.956
X141.089 Y52.791 I5.338 J-21.22
X135.835 Y37.358 I16.745 J-14.311
X136.868 Y31.703 I21.982 J1.095
X156.11 Y16.429 I21.064 J6.78
X166.426 Y18.029 I1.845 J22.168
X175.778 Y25.207 I-8.566 J20.84
X176.699 Y26.504 I-17.084 J13.113
X179.514 Y45.364 I-18.93 J12.466
X167.283 Y59.519 I-21.723 J-6.409
X156.456 Y61.59 I-9.569 J-20.691
X143.151 Y56.424 I1.258 J-22.958
X135.146 Y43.26 I14.65 J-17.924
X139.351 Y24.444 I22.749 J-4.794
X157.692 Y15.194 I18.586 J14.043
X168.794 Y17.85 I0.259 J23.448
X177.689 Y25.898 I-10.953 J21.047
X180.036 Y30.492 I-19.834 J13.029
X173.253 Y57.062 I-22.231 J8.475
X158.321 Y62.777 I-15.528 J-18.205
X153.766 Y62.461 I-0.631 J-23.907
X139.607 Y54.625 I3.965 J-23.874
X133.506 Y37.443 I18.224 J-16.144
X138.503 Y23.639 I24.39 J1.022
X158.339 Y14.033 I19.436 J14.852
X169.934 Y17.144 I-0.39 J24.624
X179.338 Y26.352 I-12.103 J21.767
X180.186 Y27.927 I-20.675 J12.145
X180.53 Y49.281 I-22.402 J11.04
X166.318 Y62.429 I-22.754 J-10.341
X158.345 Y63.941 I-8.599 J-23.571
X143.025 Y59.251 I-0.636 J-25.291
X133.38 Y45.752 I14.763 J-20.742
X134.069 Y29.174 I24.494 J-7.286
X155.458 Y12.988 I23.863 J9.308
X167.911 Y14.869 I2.498 J25.614
X175.559 Y19.797 I-10.014 J23.94
X182.963 Y45.992 I-17.792 J19.173
X169.785 Y62.178 I-25.171 J-7.035
X154.557 Y64.925 I-12.076 J-23.363
X140.4 Y58.672 I3.157 J-26.301
X131.489 Y42.68 I17.406 J-20.177
X140.155 Y18.456 I26.415 J-4.212
X159.365 Y11.738 I17.787 J20.037
X161.739 Y11.968 I-1.335 J26.146
X174.736 Y17.557 I-3.819 J26.789
X184.806 Y35.051 I-16.958 J21.407
X182.832 Y49.837 I-26.988 J3.921
X168.697 Y63.987 I-25.046 J-10.884
X164.474 Y65.435 I-10.907 J-24.933
G1 X164.417 Y65.447
X164.359 Y65.454
X164.302 Y65.456
X152.265
X152.066 Y65.446
G3 X151.274 Y65.381 I0.168 J-6.902
X149.911 Y65.106 I1.655 J-11.724
X147.828 Y64.442 I5.01 J-19.302
X144.226 Y62.766 I9.259 J-24.61
X132.301 Y49.588 I13.54 J-24.237
X131.504 Y29.398 I25.566 J-11.12
X132.538 Y26.815 I25.968 J8.893
X150.399 Y11.571 I25.393 J11.667
G1 X150.462 Y11.556
X150.526 Y11.547
X150.59 Y11.544
X164.145
X164.343 Y11.554
G3 X165.135 Y11.624 I-0.162 J6.318
X166.494 Y11.92 I-1.688 J11.01
X168.377 Y12.553 I-5.159 J18.486
X171.786 Y14.173 I-9.583 J24.559
X182.204 Y24.326 I-13.942 J24.728
X183.823 Y50.486 I-24.419 J14.641
X168.332 Y65.405 I-26.045 J-11.543
G1 X168.247 Y65.433
X168.16 Y65.45
X168.071 Y65.456
X164.302
X163.516
X153.05
X152.265
X148.485
X148.286 Y65.446
X148.088 Y65.434
X147.89 Y65.412
G3 X147.111 Y65.253 I0.853 J-6.165
X145.98 Y64.877 I2.759 J-10.191
X144.173 Y64.05 I6.726 J-17.085
X141.283 Y62.303 I12.062 J-23.223
X132.829 Y53.194 I16.446 J-23.739
X130.267 Y29.413 I25.034 J-14.726
X132.209 Y24.845 I27.462 J8.977
X146.757 Y11.599 I25.72 J13.635
G1 X146.844 Y11.568
X146.935 Y11.55
X147.027 Y11.544
X150.465
G0 Z2.501
X163.133 Y11.918
Z-0.9
G1 Z-1.2 F500
X163.14 Y11.915 Z-1.267
X163.159 Y11.903 Z-1.33
X163.189 Y11.885 Z-1.387
X163.23 Y11.861 Z-1.435
X163.279 Y11.832 Z-1.47
X163.334 Y11.799 Z-1.492
X163.391 Y11.765 Z-1.5
G3 X164.145 Y11.544 I0.809 J1.36
G1 X167.744
X167.943 Y11.554
X168.141 Y11.568
X168.339 Y11.591
G3 X169.116 Y11.758 I-0.896 J6.072
X170.243 Y12.147 I-2.845 J10.073
X172.04 Y12.995 I-6.934 J17.019
X174.749 Y14.658 I-12.466 J23.346
X182.807 Y23.076 I-16.878 J24.221
X184.848 Y51.057 I-25.024 J15.891
X184.25 Y52.314 I-29.174 J-13.124
X171.217 Y65.38 I-26.465 J-13.364
G1 X171.116 Y65.422
X171.01 Y65.448
X170.901 Y65.456
X168.194
G0 Z2.501
X149.496 Y65.081
Z-0.9
G1 Z-1.2 F500
X149.49 Y65.085 Z-1.267
X149.471 Y65.097 Z-1.33
X149.44 Y65.115 Z-1.387
X149.399 Y65.139 Z-1.435
X149.35 Y65.168 Z-1.47
X149.296 Y65.201 Z-1.492
X149.238 Y65.235 Z-1.5
G3 X148.485 Y65.456 I-0.809 J-1.36
G1 X145.695
X145.496 Y65.446
X145.298 Y65.433
X145.101 Y65.408
X144.905 Y65.373
X144.711 Y65.329
G3 X143.953 Y65.089 I1.611 J-6.399
X142.689 Y64.51 I4.107 J-10.652
X140.98 Y63.496 I9.181 J-17.406
X138.128 Y61.338 I15.159 J-22.999
X130.014 Y50.184 I19.624 J-22.805
X131.49 Y23.722 I27.867 J-11.719
X143.944 Y11.623 I26.429 J14.747
G1 X144.047 Y11.58
X144.156 Y11.553
X144.267 Y11.544
X147.027
G0 Z2.501
X166.733 Y11.919
Z-0.9
G1 Z-1.2 F500
X166.739 Y11.915 Z-1.267
X166.759 Y11.903 Z-1.33
X166.789 Y11.885 Z-1.387
X166.83 Y11.861 Z-1.435
X166.879 Y11.832 Z-1.47
X166.934 Y11.799 Z-1.492
X166.991 Y11.765 Z-1.5
G3 X167.744 Y11.544 I0.809 J1.36
G1 X170.444
X170.643 Y11.554
X170.841 Y11.567
X171.039 Y11.593
X171.234 Y11.628
X171.428 Y11.673
G3 X172.184 Y11.917 I-1.613 J6.299
X173.445 Y12.503 I-4.132 J10.536
X175.147 Y13.529 I-9.313 J17.374
X177.988 Y15.702 I-15.573 J23.3
X185.792 Y26.126 I-20.152 J23.22
X185.022 Y53.368 I-27.998 J12.841
X173.672 Y65.357 I-27.242 J-14.425
G1 X173.559 Y65.411
X173.438 Y65.445
X173.312 Y65.456
X170.901
G0 Z2.501
X146.706 Y65.081
Z-0.9
G1 Z-1.2 F500
X146.7 Y65.085 Z-1.267
X146.681 Y65.097 Z-1.33
X146.65 Y65.115 Z-1.387
X146.609 Y65.139 Z-1.435
X146.56 Y65.168 Z-1.47
X146.506 Y65.201 Z-1.492
X146.448 Y65.235 Z-1.5
G3 X145.695 Y65.456 I-0.809 J-1.36
G1 X143.265
X143.066 Y65.446
X142.868 Y65.428
X142.672 Y65.398
X142.477 Y65.356
X142.285 Y65.305
X142.095 Y65.246
G3 X141.358 Y64.948 I2.183 J-6.469
X140.14 Y64.278 I4.988 J-10.52
X138.508 Y63.144 I10.591 J-16.968
X135.813 Y60.794 I17.248 J-22.504
X128.943 Y50.656 I21.918 J-22.25
X130.62 Y22.881 I28.939 J-12.19
X141.524 Y11.647 I27.293 J15.583
G1 X141.639 Y11.59
X141.762 Y11.556
X141.89 Y11.544
X144.267
G0 Z2.501
X169.433 Y11.919
Z-0.9
G1 Z-1.2 F500
X169.439 Y11.915 Z-1.267
X169.459 Y11.903 Z-1.33
X169.489 Y11.885 Z-1.387
X169.53 Y11.861 Z-1.435
X169.579 Y11.832 Z-1.47
X169.633 Y11.799 Z-1.492
X169.691 Y11.765 Z-1.5
G3 X170.444 Y11.544 I0.809 J1.36
G1 X172.874
X173.073 Y11.554
X173.271 Y11.574
X173.467 Y11.608
X173.661 Y11.651
X173.852 Y11.705
G3 X174.595 Y11.986 I-1.8 J5.872
X175.651 Y12.541 I-4.274 J9.415
X177.298 Y13.652 I-9.448 J15.781
X179.438 Y15.43 I-16.287 J21.77
X185.094 Y22.323 I-21.442 J23.367
X186.085 Y53.864 I-27.308 J16.644
G1 X185.991 Y54.04
X185.896 Y54.215
G3 X175.871 Y65.334 I-28.104 J-15.26
G1 X175.748 Y65.401
X175.615 Y65.442
X175.477 Y65.456
X173.312
G0 Z2.501
X144.276 Y65.081
Z-0.9
G1 Z-1.2 F500
X144.27 Y65.085 Z-1.267
X144.251 Y65.097 Z-1.33
X144.22 Y65.115 Z-1.387
X144.179 Y65.139 Z-1.435
X144.13 Y65.168 Z-1.47
X144.076 Y65.201 Z-1.492
X144.018 Y65.235 Z-1.5
G3 X143.265 Y65.456 I-0.809 J-1.36
G1 X141.105
X140.906 Y65.446
X140.709 Y65.426
X140.513 Y65.391
X140.319 Y65.345
X140.129 Y65.288
X139.941 Y65.224
G3 X139.215 Y64.899 I2.228 J-5.955
X138.028 Y64.175 I5.1 J-9.699
X136.607 Y63.088 I10.771 J-15.553
X134.289 Y60.913 I18.028 J-21.531
X129.362 Y54.201 I23.283 J-22.257
X127.718 Y26.174 I28.507 J-15.734
X129.633 Y22.246 I29.857 J12.127
X139.344 Y11.67 I28.288 J16.227
G1 X139.468 Y11.601
X139.603 Y11.558
X139.744 Y11.544
X141.89
G0 Z2.501
X171.863 Y11.919
Z-0.9
G1 Z-1.2 F500
X171.869 Y11.915 Z-1.267
X171.888 Y11.903 Z-1.33
X171.919 Y11.885 Z-1.387
X171.96 Y11.861 Z-1.435
X172.009 Y11.832 Z-1.47
X172.063 Y11.799 Z-1.492
X172.121 Y11.765 Z-1.5
G3 X172.874 Y11.544 I0.809 J1.36
G1 X174.944
X175.143 Y11.554
X175.341 Y11.571
X175.537 Y11.603
X175.731 Y11.647
X175.922 Y11.702
X176.111 Y11.765
G3 X176.837 Y12.087 I-2.127 J5.793
X177.861 Y12.698 I-4.763 J9.144
X179.445 Y13.897 I-10.281 J15.226
X181.347 Y15.646 I-17.594 J21.037
X186.112 Y21.74 I-23.209 J23.056
X187.021 Y54.599 I-28.324 J17.226
G1 X186.926 Y54.774
G3 X177.899 Y65.313 I-29.131 J-15.816
G1 X177.769 Y65.391
X177.626 Y65.44
X177.475 Y65.456
X175.477
G0 Z2.501
X142.116 Y65.081
Z-0.9
G1 Z-1.2 F500
X142.11 Y65.085 Z-1.267
X142.091 Y65.097 Z-1.33
X142.06 Y65.115 Z-1.387
X142.019 Y65.139 Z-1.435
X141.97 Y65.168 Z-1.47
X141.916 Y65.201 Z-1.492
X141.858 Y65.235 Z-1.5
G3 X141.105 Y65.456 I-0.809 J-1.36
G1 X139.125
X138.926 Y65.446
X138.729 Y65.424
X138.533 Y65.387
X138.341 Y65.338
X138.151 Y65.278
X137.965 Y65.209
X137.782 Y65.132
G3 X137.077 Y64.764 I2.746 J-6.125
X135.931 Y63.976 I5.853 J-9.742
X134.423 Y62.682 I12.182 J-15.723
X132.229 Y60.381 I19.991 J-21.245
X127.127 Y52.355 I25.377 J-21.768
X127.637 Y23.499 I30.749 J-13.889
X128.569 Y21.744 I28.8 J14.175
X137.33 Y11.689 I29.351 J16.73
G1 X137.461 Y11.61
X137.605 Y11.561
X137.757 Y11.544
X139.744
G0 Z2.501
X173.933 Y11.919
Z-0.9
G1 Z-1.2 F500
X173.939 Y11.915 Z-1.267
X173.958 Y11.903 Z-1.33
X173.989 Y11.885 Z-1.387
X174.03 Y11.861 Z-1.435
X174.079 Y11.832 Z-1.47
X174.133 Y11.799 Z-1.492
X174.191 Y11.765 Z-1.5
G3 X174.944 Y11.544 I0.809 J1.36
G1 X176.924
X177.123 Y11.554
X177.321 Y11.573
X177.517 Y11.608
X177.709 Y11.656
X177.899 Y11.715
X178.086 Y11.783
X178.27 Y11.859
G3 X178.976 Y12.224 I-2.667 J6.017
X180.123 Y13.011 I-5.757 J9.622
X181.631 Y14.305 I-12.146 J15.685
X183.826 Y16.604 I-20.252 J21.529
X188.623 Y23.891 I-25.806 J22.212
X187.989 Y55.276 I-30.831 J15.076
X179.803 Y65.294 I-30.213 J-16.336
G1 X179.667 Y65.382
X179.515 Y65.437
X179.354 Y65.456
X177.475
G0 Z2.501
X140.136 Y65.081
Z-0.9
G1 Z-1.2 F500
X140.13 Y65.085 Z-1.267
X140.111 Y65.097 Z-1.33
X140.08 Y65.115 Z-1.387
X140.039 Y65.139 Z-1.435
X139.99 Y65.168 Z-1.47
X139.936 Y65.201 Z-1.492
X139.878 Y65.235 Z-1.5
G3 X139.125 Y65.456 I-0.809 J-1.36
G1 X137.235
X137.036 Y65.446
X136.839 Y65.42
X136.645 Y65.379
X136.453 Y65.325
X136.266 Y65.26
X136.081 Y65.185
X135.9 Y65.103
G3 X135.207 Y64.714 I2.839 J-5.865
X134.089 Y63.887 I5.997 J-9.275
X132.63 Y62.537 I12.531 J-15.01
X130.649 Y60.31 I20.862 J-20.556
X126.414 Y53.601 I26.78 J-21.596
X125.798 Y24.685 I31.457 J-15.134
X127.472 Y21.301 I31.62 J13.536
X135.436 Y11.707 I30.443 J17.168
G1 X135.571 Y11.618
X135.723 Y11.563
X135.884 Y11.544
X137.757
G0 Z2.501
X175.913 Y11.919
Z-0.9
G1 Z-1.2 F500
X175.919 Y11.915 Z-1.267
X175.938 Y11.903 Z-1.33
X175.969 Y11.885 Z-1.387
X176.01 Y11.861 Z-1.435
X176.059 Y11.832 Z-1.47
X176.113 Y11.799 Z-1.492
X176.171 Y11.765 Z-1.5
G3 X176.924 Y11.544 I0.809 J1.36
G1 X178.814
X179.013 Y11.554
X179.21 Y11.578
X179.405 Y11.617
X179.597 Y11.67
X179.785 Y11.734
X179.97 Y11.807
X180.151 Y11.889
G3 X180.845 Y12.276 I-2.774 J5.788
X181.964 Y13.101 I-5.92 J9.195
X183.284 Y14.309 I-12.191 J14.65
X185.283 Y16.52 I-20.61 J20.646
X189.131 Y22.303 I-26.979 J22.121
X189.084 Y55.719 I-31.34 J16.663
X181.612 Y65.276 I-31.313 J-16.781
G1 X181.472 Y65.374
X181.312 Y65.435
X181.142 Y65.456
X179.354
G0 Z2.501
X138.246 Y65.081
Z-0.9
G1 Z-1.2 F500
X138.24 Y65.085 Z-1.267
X138.221 Y65.097 Z-1.33
X138.19 Y65.115 Z-1.387
X138.149 Y65.139 Z-1.435
X138.1 Y65.168 Z-1.47
X138.046 Y65.201 Z-1.492
X137.988 Y65.235 Z-1.5
G3 X137.235 Y65.456 I-0.809 J-1.36
G1 X135.525
X135.326 Y65.446
X135.146 Y65.427
X134.95 Y65.39
X134.758 Y65.339
X134.57 Y65.276
X134.385 Y65.202
X134.204 Y65.12
X134.027 Y65.03
G3 X133.35 Y64.613 I3.157 J-5.877
X132.265 Y63.743 I6.444 J-9.154
X130.858 Y62.34 I13.214 J-14.66
X128.958 Y60.043 I22.071 J-20.193
X125.267 Y53.925 I28.329 J-21.26
X124.797 Y24.042 I32.604 J-15.459
X126.289 Y21.011 I32.453 J14.096
X133.628 Y11.727 I31.623 J17.456
G1 X133.769 Y11.627
X133.929 Y11.565
X134.1 Y11.544
X135.884
G0 Z2.501
X177.803 Y11.919
Z-0.9
G1 Z-1.2 F500
X177.809 Y11.915 Z-1.267
X177.828 Y11.903 Z-1.33
X177.859 Y11.885 Z-1.387
X177.9 Y11.861 Z-1.435
X177.949 Y11.832 Z-1.47
X178.003 Y11.799 Z-1.492
X178.061 Y11.765 Z-1.5
G3 X178.814 Y11.544 I0.809 J1.36
G1 X180.614
X180.788 Y11.553
X180.977 Y11.577
X181.171 Y11.619
X181.362 Y11.674
X181.55 Y11.741
X181.733 Y11.818
X181.913 Y11.902
G3 X182.598 Y12.305 I-2.777 J5.511
X183.544 Y13.03 I-5.681 J8.389
X184.839 Y14.264 I-11.526 J13.397
X186.661 Y16.367 I-20.44 J19.546
X189.654 Y20.817 I-27.799 J21.927
X190.228 Y56.069 I-31.863 J18.15
X183.343 Y65.263 I-32.461 J-17.134
G1 X183.2 Y65.368
X183.035 Y65.434
X182.859 Y65.456
X181.142
G0 Z2.501
X136.536 Y65.081
Z-0.9
G1 Z-1.2 F500
X136.53 Y65.085 Z-1.267
X136.511 Y65.097 Z-1.33
X136.48 Y65.115 Z-1.387
X136.439 Y65.139 Z-1.435
X136.39 Y65.168 Z-1.47
X136.336 Y65.201 Z-1.492
X136.278 Y65.235 Z-1.5
G3 X135.525 Y65.456 I-0.809 J-1.36
G1 X133.815
X133.616 Y65.446
X133.44 Y65.425
X133.245 Y65.387
X133.054 Y65.333
X132.866 Y65.267
X132.683 Y65.19
X132.503 Y65.104
X132.328 Y65.011
G3 X131.661 Y64.579 I3.176 J-5.64
X130.598 Y63.682 I6.462 J-8.735
X129.361 Y62.39 I13.007 J-13.685
X127.512 Y60.052 I22.281 J-19.519
X124.541 Y55.118 I29.35 J-21.035
X122.912 Y25.583 I33.324 J-16.651
X125.121 Y20.697 I34.745 J12.768
X131.896 Y11.743 I32.792 J17.772
G1 X132.04 Y11.635
X132.206 Y11.567
X132.385 Y11.544
X134.1
G0 Z2.501
X179.603 Y11.919
Z-0.9
G1 Z-1.2 F500
X179.609 Y11.915 Z-1.267
X179.628 Y11.903 Z-1.33
X179.659 Y11.885 Z-1.387
X179.7 Y11.861 Z-1.435
X179.749 Y11.832 Z-1.47
X179.803 Y11.799 Z-1.492
X179.861 Y11.765 Z-1.5
G3 X180.614 Y11.544 I0.809 J1.36
G1 X182.234
X182.433 Y11.554
X182.606 Y11.572
X182.801 Y11.609
X182.993 Y11.661
X183.181 Y11.726
X183.365 Y11.802
X183.545 Y11.886
X183.721 Y11.979
G3 X184.389 Y12.408 I-3.109 J5.579
X185.309 Y13.167 I-6.131 J8.363
X186.561 Y14.444 I-12.18 J13.201
X188.314 Y16.605 I-21.495 J19.225
X190.985 Y20.791 I-29.159 J21.552
X191.426 Y56.313 I-33.193 J18.175
X185.02 Y65.245 I-33.653 J-17.373
G1 X184.873 Y65.359
X184.702 Y65.431
X184.518 Y65.456
X182.859
G0 Z2.501
X134.826 Y65.081
Z-0.9
G1 Z-1.2 F500
X134.82 Y65.085 Z-1.267
X134.801 Y65.097 Z-1.33
X134.77 Y65.115 Z-1.387
X134.729 Y65.139 Z-1.435
X134.68 Y65.168 Z-1.47
X134.626 Y65.201 Z-1.492
X134.569 Y65.235 Z-1.5
G3 X133.815 Y65.456 I-0.809 J-1.36
G1 X132.195
X131.996 Y65.446
X131.898 Y65.435
X131.716 Y65.406
X131.523 Y65.36
X131.334 Y65.299
X131.149 Y65.226
X130.968 Y65.143
X130.791 Y65.051
X130.619 Y64.952
G3 X129.965 Y64.5 I3.399 J-5.612
X128.93 Y63.572 I6.769 J-8.596
X127.731 Y62.245 I13.473 J-13.368
X126.061 Y60.02 I22.892 J-18.927
X123.189 Y55.027 I30.576 J-20.911
X121.517 Y25.997 I34.674 J-16.56
X123.972 Y20.351 I36.205 J12.388
X130.224 Y11.756 I33.934 J18.113
G1 X130.371 Y11.641
X130.542 Y11.569
X130.727 Y11.544
X132.385
G0 Z2.501
X181.223 Y11.919
Z-0.9
G1 Z-1.2 F500
X181.229 Y11.915 Z-1.267
X181.248 Y11.903 Z-1.33
X181.279 Y11.885 Z-1.387
X181.32 Y11.861 Z-1.435
X181.369 Y11.832 Z-1.47
X181.423 Y11.799 Z-1.492
X181.481 Y11.765 Z-1.5
G3 X182.234 Y11.544 I0.809 J1.36
G1 X183.944
X184.106 Y11.552
X184.28 Y11.575
X184.474 Y11.616
X184.665 Y11.673
X184.851 Y11.742
X185.033 Y11.822
X185.211 Y11.911
X185.385 Y12.007
G3 X186.043 Y12.452 I-3.215 J5.467
X186.944 Y13.234 I-6.26 J8.121
X188.163 Y14.542 I-12.398 J12.768
X189.744 Y16.586 I-21.808 J18.508
X192.336 Y20.822 I-30.204 J21.393
X192.596 Y56.608 I-34.54 J18.145
X186.646 Y65.23 I-34.811 J-17.658
G1 X186.537 Y65.325
X186.411 Y65.397
X186.274 Y65.441
X186.13 Y65.456
X184.518
G0 Z2.501
X133.206 Y65.081
Z-0.9
G1 Z-1.2 F500
X133.2 Y65.085 Z-1.267
X133.181 Y65.097 Z-1.33
X133.15 Y65.115 Z-1.387
X133.109 Y65.139 Z-1.435
X133.06 Y65.168 Z-1.47
X133.006 Y65.201 Z-1.492
X132.949 Y65.235 Z-1.5
G3 X132.195 Y65.456 I-0.809 J-1.36
G1 X130.575
X130.376 Y65.446
X130.209 Y65.424
X130.016 Y65.383
X129.826 Y65.326
X129.64 Y65.256
X129.458 Y65.175
X129.281 Y65.085
X129.108 Y64.987
G3 X128.456 Y64.533 I3.156 J-5.231
X127.57 Y63.735 I6.15 J-7.718
X126.381 Y62.399 I12.246 J-12.102
X124.85 Y60.318 I21.896 J-17.703
X122.541 Y56.374 I30.706 J-20.625
X118.367 Y35.581 I35.281 J-17.898
X122.725 Y20.193 I39.512 J2.88
X128.599 Y11.77 I35.167 J18.262
G1 X128.708 Y11.674
X128.834 Y11.603
X128.971 Y11.559
X129.115 Y11.544
X130.727
G0 Z2.501
X182.933 Y11.919
Z-0.9
G1 Z-1.2 F500
X182.939 Y11.915 Z-1.267
X182.958 Y11.903 Z-1.33
X182.989 Y11.885 Z-1.387
X183.03 Y11.861 Z-1.435
X183.079 Y11.832 Z-1.47
X183.133 Y11.799 Z-1.492
X183.191 Y11.765 Z-1.5
G3 X183.944 Y11.544 I0.809 J1.36
G1 X185.474
X185.673 Y11.554
X185.837 Y11.573
X186.025 Y11.611
X186.216 Y11.665
X186.403 Y11.733
X186.585 Y11.813
X186.763 Y11.902
X186.937 Y11.999
G3 X187.591 Y12.449 I-3.073 J5.17
X188.48 Y13.243 I-6.059 J7.674
X189.674 Y14.575 I-12.167 J12.106
X191.099 Y16.487 I-21.625 J17.61
X193.447 Y20.408 I-30.851 J21.135
X197.773 Y43.127 I-35.642 J18.558
X193.813 Y56.804 I-39.94 J-4.15
X188.35 Y65.078 I-35.996 J-17.831
G1 X188.218 Y65.228
X188.11 Y65.324
X187.984 Y65.396
X187.846 Y65.441
X187.701 Y65.456
X186.13
G0 Z2.501
X184.463 Y11.919
Z-0.9
G1 Z-1.2 F500
X184.469 Y11.915 Z-1.267
X184.488 Y11.903 Z-1.33
X184.519 Y11.885 Z-1.387
X184.56 Y11.861 Z-1.435
X184.609 Y11.832 Z-1.47
X184.663 Y11.799 Z-1.492
X184.721 Y11.765 Z-1.5
G3 X185.474 Y11.544 I0.809 J1.36
G1 X187.094
X187.239 Y11.551
X187.403 Y11.573
X187.589 Y11.613
X187.78 Y11.67
X187.966 Y11.74
X188.147 Y11.822
X188.323 Y11.913
X188.495 Y12.013
X188.663 Y12.12
G3 X189.296 Y12.601 I-3.68 J5.493
X190.289 Y13.575 I-7.133 J8.268
X191.426 Y14.955 I-14.08 J12.761
X192.998 Y17.251 I-24.404 J18.388
X195.438 Y21.804 I-33.349 J20.804
X195.019 Y57.022 I-37.638 J17.164
X189.903 Y65.053 I-37.226 J-18.066
G1 X189.775 Y65.205
X189.764 Y65.218
X189.655 Y65.318
X189.527 Y65.394
X189.386 Y65.44
X189.238 Y65.456
X187.701
G0 Z2.501
X186.083 Y11.919
Z-0.9
G1 Z-1.2 F500
X186.089 Y11.915 Z-1.267
X186.108 Y11.903 Z-1.33
X186.139 Y11.885 Z-1.387
X186.18 Y11.861 Z-1.435
X186.229 Y11.832 Z-1.47
X186.283 Y11.799 Z-1.492
X186.341 Y11.765 Z-1.5
G3 X187.094 Y11.544 I0.809 J1.36
G1 X188.624
X188.754 Y11.55
X188.913 Y11.571
X189.095 Y11.61
X189.286 Y11.667
X189.471 Y11.738
X189.652 Y11.821
X189.828 Y11.913
X189.999 Y12.014
X190.166 Y12.122
G3 X190.793 Y12.61 I-3.619 J5.297
X191.64 Y13.45 I-6.762 J7.66
X192.768 Y14.838 I-13.128 J11.82
X194.208 Y16.983 I-23.474 J17.325
X196.284 Y20.83 I-33.353 J20.478
X200.29 Y41.104 I-38.456 J18.132
X196.156 Y57.374 I-42.457 J-2.127
X191.468 Y64.975 I-38.315 J-18.387
G1 X191.344 Y65.13
X191.284 Y65.203
X191.174 Y65.31
X191.043 Y65.39
X190.898 Y65.439
X190.745 Y65.456
X189.238
G0 Z2.501
X187.613 Y11.919
Z-0.9
G1 Z-1.2 F500
X187.619 Y11.915 Z-1.267
X187.638 Y11.903 Z-1.33
X187.669 Y11.885 Z-1.387
X187.71 Y11.861 Z-1.435
X187.759 Y11.832 Z-1.47
X187.813 Y11.799 Z-1.492
X187.871 Y11.765 Z-1.5
G3 X188.624 Y11.544 I0.809 J1.36
G1 X190.064
X190.244 Y11.553
X190.4 Y11.573
X190.577 Y11.611
X190.767 Y11.668
X190.953 Y11.74
X191.133 Y11.823
X191.309 Y11.916
X191.48 Y12.018
X191.646 Y12.128
G3 X192.268 Y12.622 I-3.57 J5.131
X193.103 Y13.473 I-6.684 J7.394
X194.209 Y14.879 I-13.037 J11.396
X195.511 Y16.876 I-23.246 J16.583
X197.461 Y20.566 I-33.778 J20.205
X201.18 Y33.507 I-39.522 J18.364
X197.468 Y57.356 I-43.362 J5.464
X193.022 Y64.872 I-39.625 J-18.368
G1 X192.902 Y65.031
X192.78 Y65.187
X192.767 Y65.203
X192.657 Y65.309
X192.526 Y65.39
X192.381 Y65.439
X192.228 Y65.456
X190.874
G0 Z2.501
X189.053 Y11.919
Z-0.9
G1 Z-1.2 F500
X189.059 Y11.915 Z-1.267
X189.078 Y11.903 Z-1.33
X189.109 Y11.885 Z-1.387
X189.15 Y11.861 Z-1.435
X189.199 Y11.832 Z-1.47
X189.253 Y11.799 Z-1.492
X189.311 Y11.765 Z-1.5
G3 X190.064 Y11.544 I0.809 J1.36
G1 X191.504
X191.703 Y11.554
X191.855 Y11.573
X192.027 Y11.61
X192.218 Y11.666
X192.403 Y11.738
X192.584 Y11.821
X192.759 Y11.915
X192.929 Y12.018
X193.095 Y12.128
G3 X193.713 Y12.628 I-3.509 J4.977
X194.538 Y13.488 I-6.584 J7.144
X195.624 Y14.908 I-12.901 J10.989
X196.897 Y16.926 I-23.256 J16.076
X198.71 Y20.463 I-34.439 J19.886
X202.001 Y31.068 I-40.643 J18.428
X198.702 Y57.494 I-44.188 J7.902
X194.456 Y64.899 I-40.832 J-18.493
G1 X194.338 Y65.059
X194.243 Y65.183
X194.131 Y65.298
X193.997 Y65.384
X193.847 Y65.438
X193.688 Y65.456
X192.228
G0 Z2.501
X190.493 Y11.919
Z-0.9
G1 Z-1.2 F500
X190.499 Y11.915 Z-1.267
X190.518 Y11.903 Z-1.33
X190.549 Y11.885 Z-1.387
X190.59 Y11.861 Z-1.435
X190.639 Y11.832 Z-1.47
X190.693 Y11.799 Z-1.492
X190.751 Y11.765 Z-1.5
G3 X191.504 Y11.544 I0.809 J1.36
G1 X192.944
X193.143 Y11.554
X193.292 Y11.573
X193.462 Y11.609
X193.652 Y11.665
X193.838 Y11.737
X194.018 Y11.821
X194.193 Y11.916
X194.362 Y12.019
X194.527 Y12.131
G3 X195.141 Y12.635 I-3.469 J4.851
X195.957 Y13.504 I-6.51 J6.932
X197.025 Y14.939 I-12.783 J10.628
X198.171 Y16.801 I-22.826 J15.329
X199.952 Y20.354 I-34.737 J19.638
X202.619 Y28.254 I-41.573 J18.434
X199.937 Y57.623 I-44.808 J10.716
X195.996 Y64.746 I-42.064 J-18.622
G1 X195.883 Y64.91
X195.767 Y65.071
X195.686 Y65.178
X195.575 Y65.294
X195.44 Y65.383
X195.288 Y65.437
X195.128 Y65.456
X193.688
G0 Z2.501
X191.933 Y11.919
Z-0.9
G1 Z-1.2 F500
X191.939 Y11.915 Z-1.267
X191.958 Y11.903 Z-1.33
X191.989 Y11.885 Z-1.387
X192.03 Y11.861 Z-1.435
X192.079 Y11.832 Z-1.47
X192.133 Y11.799 Z-1.492
X192.191 Y11.765 Z-1.5
G3 X192.944 Y11.544 I0.809 J1.36
G1 X194.384
X194.567 Y11.553
X194.715 Y11.573
X194.883 Y11.608
X195.072 Y11.665
X195.257 Y11.737
X195.437 Y11.822
X195.611 Y11.918
X195.78 Y12.022
X195.944 Y12.135
X196.103 Y12.254
G3 X196.697 Y12.782 I-4.026 J5.119
X197.609 Y13.832 I-7.52 J7.451
X198.627 Y15.303 I-14.632 J11.215
X199.907 Y17.547 I-25.932 J16.291
X201.649 Y21.339 I-37.561 J19.55
X204.714 Y33.242 I-43.63 J17.578
X201.172 Y57.745 I-46.895 J5.729
X197.522 Y64.576 I-43.276 J-18.732
X197.113 Y65.173 I-9.394 J-6.003
G1 X197.001 Y65.291
X196.865 Y65.381
X196.712 Y65.437
X196.55 Y65.456
X195.128
G0 Z2.501
X193.373 Y11.919
Z-0.9
G1 Z-1.2 F500
X193.379 Y11.915 Z-1.267
X193.398 Y11.903 Z-1.33
X193.429 Y11.885 Z-1.387
X193.47 Y11.861 Z-1.435
X193.519 Y11.832 Z-1.47
X193.573 Y11.799 Z-1.492
X193.631 Y11.765 Z-1.5
G3 X194.384 Y11.544 I0.809 J1.36
G1 X195.824
X195.971 Y11.551
X196.117 Y11.57
X196.282 Y11.606
X196.468 Y11.661
X196.653 Y11.734
X196.833 Y11.819
X197.007 Y11.915
X197.175 Y12.02
X197.339 Y12.133
X197.497 Y12.253
G3 X198.087 Y12.786 I-3.98 J5.003
X198.869 Y13.686 I-7.153 J6.996
X199.886 Y15.157 I-13.608 J10.495
X201.063 Y17.231 I-24.509 J15.277
X202.646 Y20.659 I-36.861 J19.106
X205.208 Y29.011 I-44.25 J18.145
X202.334 Y58.031 I-47.398 J9.959
X198.937 Y64.548 I-44.409 J-19.006
G1 X198.83 Y64.716
X198.722 Y64.882
X198.61 Y65.047
X198.525 Y65.165
X198.413 Y65.287
X198.276 Y65.379
X198.121 Y65.437
X197.957 Y65.456
X196.55
G0 Z2.501
X194.813 Y11.919
Z-0.9
G1 Z-1.2 F500
X194.819 Y11.915 Z-1.267
X194.838 Y11.903 Z-1.33
X194.869 Y11.885 Z-1.387
X194.91 Y11.861 Z-1.435
X194.959 Y11.832 Z-1.47
X195.013 Y11.799 Z-1.492
X195.071 Y11.765 Z-1.5
G3 X195.824 Y11.544 I0.809 J1.36
G1 X197.174
X197.364 Y11.553
X197.508 Y11.572
X197.67 Y11.607
X197.853 Y11.662
X198.038 Y11.734
X198.218 Y11.819
X198.392 Y11.916
X198.56 Y12.022
X198.723 Y12.136
X198.881 Y12.256
G3 X199.467 Y12.793 I-3.939 J4.896
X200.241 Y13.7 I-7.073 J6.813
X201.242 Y15.182 I-13.513 J10.213
X202.306 Y17.092 I-24.044 J14.633
X203.867 Y20.53 I-36.903 J18.828
X206.134 Y27.729 I-45.141 J18.178
X203.574 Y58.132 I-48.324 J11.241
X200.344 Y64.512 I-45.59 J-19.08
G1 X200.239 Y64.681
G3 X199.907 Y65.181 I-7.018 J-4.29
G1 X199.796 Y65.296
X199.661 Y65.384
X199.51 Y65.438
X199.351 Y65.456
X198.074
G0 Z2.501
X196.163 Y11.919
Z-0.9
G1 Z-1.2 F500
X196.169 Y11.915 Z-1.267
X196.188 Y11.903 Z-1.33
X196.219 Y11.885 Z-1.387
X196.26 Y11.861 Z-1.435
X196.309 Y11.832 Z-1.47
X196.363 Y11.799 Z-1.492
X196.42 Y11.765 Z-1.5
G3 X197.174 Y11.544 I0.809 J1.36
G1 X198.614
X198.736 Y11.55
X198.879 Y11.569
X199.04 Y11.603
X199.22 Y11.657
X199.406 Y11.729
X199.585 Y11.815
X199.759 Y11.912
X199.927 Y12.018
X200.089 Y12.132
X200.247 Y12.254
G3 X200.83 Y12.793 I-3.893 J4.795
X201.597 Y13.707 I-7.008 J6.661
X202.584 Y15.198 I-13.4 J9.948
X203.628 Y17.119 I-24.003 J14.278
X205.153 Y20.573 I-37.318 J18.541
X207.18 Y27.016 I-46.113 J18.049
X204.818 Y58.219 I-49.369 J11.953
X201.848 Y64.285 I-46.838 J-19.171
X201.436 Y64.965 I-16.398 J-9.463
G1 X201.324 Y65.13
X201.296 Y65.169
X201.184 Y65.289
X201.048 Y65.38
X200.894 Y65.437
X200.731 Y65.456
X199.351
G0 Z2.501
X197.603 Y11.919
Z-0.9
G1 Z-1.2 F500
X197.609 Y11.915 Z-1.267
X197.628 Y11.903 Z-1.33
X197.659 Y11.885 Z-1.387
X197.7 Y11.861 Z-1.435
X197.749 Y11.832 Z-1.47
X197.803 Y11.799 Z-1.492
X197.86 Y11.765 Z-1.5
G3 X198.614 Y11.544 I0.809 J1.36
G1 X199.964
X200.103 Y11.551
X200.244 Y11.569
X200.402 Y11.603
X200.58 Y11.657
X200.765 Y11.729
X200.945 Y11.814
X201.118 Y11.912
X201.286 Y12.018
X201.448 Y12.133
X201.605 Y12.255
G3 X202.185 Y12.798 I-3.86 J4.71
X202.945 Y13.717 I-6.949 J6.52
X203.919 Y15.217 I-13.303 J9.706
X204.943 Y17.148 I-23.955 J13.94
X206.363 Y20.432 I-37.447 J18.142
X208.317 Y26.69 I-47.006 J18.109
X206.059 Y58.304 I-50.504 J12.28
X203.24 Y64.223 I-48.009 J-19.225
X202.838 Y64.909 I-17.85 J-10
G1 X202.73 Y65.076
X202.672 Y65.158
X202.56 Y65.282
X202.422 Y65.377
X202.265 Y65.436
X202.099 Y65.456
X200.731
G0 Z2.501
X198.953 Y11.919
Z-0.9
G1 Z-1.2 F500
X198.959 Y11.915 Z-1.267
X198.978 Y11.903 Z-1.33
X199.009 Y11.885 Z-1.387
X199.05 Y11.861 Z-1.435
X199.099 Y11.832 Z-1.47
X199.153 Y11.799 Z-1.492
X199.21 Y11.765 Z-1.5
G3 X199.964 Y11.544 I0.809 J1.36
G1 X201.314
X201.456 Y11.551
X201.596 Y11.569
X201.752 Y11.603
X201.928 Y11.656
X202.113 Y11.728
X202.292 Y11.814
X202.466 Y11.911
X202.633 Y12.018
X202.795 Y12.134
X202.951 Y12.256
G3 X203.529 Y12.802 I-3.829 J4.633
X204.283 Y13.726 I-6.889 J6.39
X205.244 Y15.233 I-13.196 J9.478
X206.251 Y17.174 I-23.878 J13.613
X207.57 Y20.285 I-37.508 J17.742
X209.5 Y26.551 I-47.888 J18.177
X207.3 Y58.381 I-51.683 J12.419
X204.628 Y64.15 I-49.167 J-19.268
X204.235 Y64.842 I-19.7 J-10.716
G1 X204.13 Y65.01
X204.04 Y65.145
X203.928 Y65.275
X203.788 Y65.373
X203.628 Y65.435
X203.458 Y65.456
X202.214
G0 Z2.501
X200.303 Y11.919
Z-0.9
G1 Z-1.2 F500
X200.309 Y11.915 Z-1.267
X200.328 Y11.903 Z-1.33
X200.359 Y11.885 Z-1.387
X200.4 Y11.861 Z-1.435
X200.449 Y11.832 Z-1.47
X200.503 Y11.799 Z-1.492
X200.56 Y11.765 Z-1.5
G3 X201.314 Y11.544 I0.809 J1.36
G1 X202.664
X202.799 Y11.551
X202.937 Y11.569
X203.091 Y11.602
X203.266 Y11.654
X203.451 Y11.726
X203.63 Y11.812
X203.803 Y11.91
X203.971 Y12.018
X204.132 Y12.134
X204.288 Y12.257
G3 X204.863 Y12.805 I-3.801 J4.566
X205.611 Y13.733 I-6.836 J6.273
X206.464 Y15.075 I-12.684 J8.997
X207.467 Y17.018 I-22.844 J13.03
X208.703 Y19.948 I-36.644 J17.19
X210.491 Y25.634 I-48.192 J18.278
X208.541 Y58.452 I-52.668 J13.337
X206.01 Y64.068 I-50.279 J-19.286
X205.627 Y64.765 I-21.989 J-11.616
G1 X205.525 Y64.935
X205.418 Y65.103
X205.38 Y65.157
X205.268 Y65.282
X205.13 Y65.377
X204.973 Y65.436
X204.806 Y65.456
X203.458
G0 Z2.501
X201.653 Y11.919
Z-0.9
G1 Z-1.2 F500
X201.659 Y11.915 Z-1.267
X201.678 Y11.903 Z-1.33
X201.709 Y11.885 Z-1.387
X201.75 Y11.861 Z-1.435
X201.799 Y11.832 Z-1.47
X201.853 Y11.799 Z-1.492
X201.91 Y11.765 Z-1.5
G3 X202.664 Y11.544 I0.809 J1.36
G1 X204.014
X204.132 Y11.55
X204.268 Y11.568
X204.422 Y11.601
X204.594 Y11.652
X204.78 Y11.724
X204.959 Y11.811
X205.132 Y11.909
X205.299 Y12.017
X205.46 Y12.133
X205.616 Y12.257
X205.766 Y12.387
G3 X206.321 Y12.955 I-4.353 J4.805
X207.045 Y13.903 I-7.552 J6.516
X207.966 Y15.436 I-14.039 J9.481
X208.926 Y17.4 I-24.897 J13.387
X210.244 Y20.726 I-39.481 J17.574
X211.951 Y26.644 I-50.13 J17.662
X209.782 Y58.518 I-54.13 J12.326
X207.386 Y63.977 I-51.474 J-19.338
X206.914 Y64.852 I-19.014 J-9.681
G1 X206.81 Y65.021
X206.731 Y65.141
X206.619 Y65.272
X206.479 Y65.372
X206.318 Y65.435
X206.147 Y65.456
X204.806
G0 Z2.501
X203.003 Y11.919
Z-0.9
G1 Z-1.2 F500
X203.009 Y11.915 Z-1.267
X203.028 Y11.903 Z-1.33
X203.059 Y11.885 Z-1.387
X203.1 Y11.861 Z-1.435
X203.149 Y11.832 Z-1.47
X203.203 Y11.799 Z-1.492
X203.26 Y11.765 Z-1.5
G3 X204.014 Y11.544 I0.809 J1.36
G1 X205.274
X205.461 Y11.553
X205.596 Y11.571
X205.748 Y11.604
X205.919 Y11.655
X206.104 Y11.727
X206.283 Y11.813
X206.456 Y11.912
X206.623 Y12.02
X206.784 Y12.137
X206.939 Y12.261
X207.089 Y12.391
G3 X207.642 Y12.963 I-4.327 J4.739
X208.36 Y13.914 I-7.503 J6.406
X209.27 Y15.454 I-13.951 J9.29
X210.215 Y17.425 I-24.842 J13.114
X211.442 Y20.574 I-39.469 J17.2
X213.174 Y26.691 I-50.984 J17.744
X211.02 Y58.585 I-55.348 J12.28
X208.753 Y63.883 I-52.58 J-19.355
X208.294 Y64.765 I-21.155 J-10.47
G1 X208.193 Y64.936
X208.088 Y65.105
X208.055 Y65.153
X207.943 Y65.28
X207.804 Y65.376
X207.646 Y65.436
X207.479 Y65.456
X206.264
G0 Z2.501
X204.263 Y11.919
Z-0.9
G1 Z-1.2 F500
X204.269 Y11.915 Z-1.267
X204.288 Y11.903 Z-1.33
X204.319 Y11.885 Z-1.387
X204.36 Y11.861 Z-1.435
X204.409 Y11.832 Z-1.47
X204.463 Y11.799 Z-1.492
X204.52 Y11.765 Z-1.5
G3 X205.274 Y11.544 I0.809 J1.36
G1 X206.624
X206.776 Y11.552
X206.91 Y11.569
X207.062 Y11.602
X207.232 Y11.652
X207.417 Y11.725
X207.596 Y11.811
X207.769 Y11.909
X207.935 Y12.018
X208.096 Y12.135
X208.251 Y12.26
X208.4 Y12.391
G3 X208.951 Y12.964 I-4.299 J4.68
X209.664 Y13.919 I-7.446 J6.303
X210.565 Y15.464 I-13.833 J9.1
X211.495 Y17.443 I-24.743 J12.844
X212.699 Y20.6 I-39.744 J16.971
X214.309 Y26.34 I-51.709 J17.595
X212.26 Y58.641 I-56.476 J12.632
X210.119 Y63.777 I-53.67 J-19.356
X209.671 Y64.664 I-23.508 J-11.3
G1 X209.575 Y64.838
X209.473 Y65.009
X209.393 Y65.134
X209.281 Y65.268
X209.139 Y65.37
X208.977 Y65.434
X208.804 Y65.456
X207.479
G0 Z2.501
X205.613 Y11.919
Z-0.9
G1 Z-1.2 F500
X205.619 Y11.915 Z-1.267
X205.638 Y11.903 Z-1.33
X205.669 Y11.885 Z-1.387
X205.71 Y11.861 Z-1.435
X205.758 Y11.832 Z-1.47
X205.813 Y11.799 Z-1.492
X205.87 Y11.765 Z-1.5
G3 X206.624 Y11.544 I0.809 J1.36
G1 X207.974
X208.085 Y11.55
X208.218 Y11.567
X208.369 Y11.599
X208.537 Y11.65
X208.723 Y11.722
X208.902 Y11.808
X209.074 Y11.907
X209.241 Y12.016
X209.401 Y12.133
X209.556 Y12.258
X209.705 Y12.39
G3 X210.253 Y12.965 I-4.274 J4.625
X210.962 Y13.924 I-7.395 J6.208
X211.853 Y15.474 I-13.729 J8.926
X212.77 Y17.459 I-24.673 J12.604
X213.89 Y20.435 I-39.556 J16.576
X215.486 Y26.179 I-52.344 J17.638
X215.009 Y53.751 I-57.632 J12.793
X213.499 Y58.693 I-56.681 J-14.62
X211.478 Y63.664 I-54.868 J-19.402
X211.042 Y64.557 I-25.823 J-12.054
G1 X210.949 Y64.733
X210.852 Y64.906
X210.749 Y65.076
X210.704 Y65.144
X210.592 Y65.274
X210.452 Y65.373
X210.292 Y65.435
X210.121 Y65.456
X208.804
G0 Z2.501
X206.962 Y11.919
Z-0.9
G1 Z-1.2 F500
X206.969 Y11.915 Z-1.267
X206.988 Y11.903 Z-1.33
X207.019 Y11.885 Z-1.387
X207.06 Y11.861 Z-1.435
X207.108 Y11.832 Z-1.47
X207.163 Y11.799 Z-1.492
X207.22 Y11.765 Z-1.5
G3 X207.974 Y11.544 I0.809 J1.36
G1 X209.234
X209.392 Y11.552
X209.525 Y11.569
X209.674 Y11.601
X209.841 Y11.651
X210.026 Y11.723
X210.205 Y11.81
X210.378 Y11.909
X210.544 Y12.018
X210.704 Y12.136
X210.858 Y12.261
X211.007 Y12.393
G3 X211.553 Y12.971 I-4.25 J4.57
X212.257 Y13.933 I-7.354 J6.12
X213.14 Y15.488 I-13.651 J8.772
X214.044 Y17.479 I-24.621 J12.381
X215.143 Y20.463 I-39.783 J16.357
X216.664 Y26.021 I-53.071 J17.503
X217.307 Y48.543 I-58.767 J12.948
X214.735 Y58.747 I-59.345 J-9.532
X212.83 Y63.55 I-56.007 J-19.428
X212.315 Y64.626 I-23.954 J-10.807
X212.01 Y65.155 I-5.558 J-2.857
G1 X211.898 Y65.281
X211.759 Y65.376
X211.602 Y65.436
X211.434 Y65.456
X210.121
G0 Z2.501
X208.222 Y11.919
Z-0.9
G1 Z-1.2 F500
X208.229 Y11.915 Z-1.267
X208.248 Y11.903 Z-1.33
X208.279 Y11.885 Z-1.387
X208.32 Y11.861 Z-1.435
X208.368 Y11.832 Z-1.47
X208.423 Y11.799 Z-1.492
X208.48 Y11.765 Z-1.5
G3 X209.234 Y11.544 I0.809 J1.36
G1 X210.584
X210.687 Y11.549
X210.819 Y11.566
X210.968 Y11.598
X211.134 Y11.648
X211.32 Y11.72
X211.499 Y11.807
X211.671 Y11.906
X211.837 Y12.015
X211.997 Y12.134
X212.151 Y12.259
X212.299 Y12.392
G3 X212.844 Y12.97 I-4.231 J4.526
X213.544 Y13.935 I-7.307 J6.038
X214.418 Y15.495 I-13.549 J8.617
X215.235 Y17.307 I-23.932 J11.881
X216.33 Y20.293 I-39.085 J16.024
X217.709 Y25.273 I-53.026 J17.369
X219.147 Y42.649 I-59.694 J13.686
X215.973 Y58.791 I-61.268 J-3.664
X214.18 Y63.425 I-57.137 J-19.442
X213.678 Y64.508 I-26.236 J-11.501
G1 X213.588 Y64.685
X213.494 Y64.86
X213.394 Y65.032
X213.33 Y65.132
X213.219 Y65.267
X213.077 Y65.37
X212.914 Y65.434
X212.74 Y65.456
X211.434
G0 Z2.501
X209.572 Y11.919
Z-0.9
G1 Z-1.2 F500
X209.579 Y11.915 Z-1.267
X209.598 Y11.903 Z-1.33
X209.629 Y11.885 Z-1.387
X209.67 Y11.861 Z-1.435
X209.718 Y11.832 Z-1.47
X209.773 Y11.799 Z-1.492
X209.83 Y11.765 Z-1.5
G3 X210.584 Y11.544 I0.809 J1.36
G1 X211.844
X211.982 Y11.551
X212.113 Y11.568
X212.261 Y11.6
X212.427 Y11.649
X212.61 Y11.721
X212.789 Y11.808
X212.962 Y11.907
X213.127 Y12.016
X213.287 Y12.135
X213.441 Y12.261
X213.589 Y12.393
G3 X214.132 Y12.974 I-4.207 J4.478
X214.828 Y13.941 I-7.262 J5.958
X215.694 Y15.506 I-13.473 J8.481
X216.501 Y17.323 I-23.863 J11.682
X217.578 Y20.315 I-39.227 J15.809
X218.887 Y25.108 I-53.571 J17.205
X220.418 Y40.697 I-60.772 J13.84
X217.208 Y58.837 I-62.545 J-1.714
X215.522 Y63.3 I-58.191 J-19.431
X215.034 Y64.388 I-28.68 J-12.223
G1 X214.946 Y64.566
X214.856 Y64.743
X214.76 Y64.918
X214.659 Y65.089
X214.624 Y65.142
X214.512 Y65.273
X214.372 Y65.372
X214.211 Y65.435
X214.04 Y65.456
X212.74
G0 Z2.501
X210.832 Y11.919
Z-0.9
G1 Z-1.2 F500
X210.839 Y11.915 Z-1.267
X210.858 Y11.903 Z-1.33
X210.889 Y11.885 Z-1.387
X210.93 Y11.861 Z-1.435
X210.978 Y11.832 Z-1.47
X211.033 Y11.799 Z-1.492
X211.09 Y11.765 Z-1.5
G3 X211.844 Y11.544 I0.809 J1.36
G1 X213.104
X213.271 Y11.552
X213.402 Y11.57
X213.549 Y11.601
X213.713 Y11.65
X213.896 Y11.721
X214.075 Y11.808
X214.247 Y11.907
X214.413 Y12.017
X214.572 Y12.136
X214.726 Y12.262
X214.874 Y12.395
G3 X215.415 Y12.977 I-4.185 J4.435
X216.107 Y13.947 I-7.225 J5.888
X216.879 Y15.337 I-12.99 J8.118
X217.762 Y17.337 I-23.354 J11.516
X218.763 Y20.145 I-38.646 J15.343
X220.063 Y24.941 I-53.86 J17.186
X221.612 Y37.548 I-61.739 J13.981
X218.443 Y58.88 I-63.763 J1.428
X216.86 Y63.169 I-59.303 J-19.443
X216.3 Y64.443 I-27.482 J-11.336
G1 X216.212 Y64.621
G3 X215.915 Y65.151 I-5.078 J-2.495
G1 X215.803 Y65.278
X215.664 Y65.375
X215.505 Y65.435
X215.337 Y65.456
X214.04
G0 Z2.501
X212.092 Y11.919
Z-0.9
G1 Z-1.2 F500
X212.099 Y11.915 Z-1.267
X212.118 Y11.903 Z-1.33
X212.149 Y11.885 Z-1.387
X212.189 Y11.861 Z-1.435
X212.238 Y11.832 Z-1.47
X212.293 Y11.799 Z-1.492
X212.35 Y11.765 Z-1.5
G3 X213.104 Y11.544 I0.809 J1.36
G1 X214.454
X214.55 Y11.549
X214.68 Y11.566
X214.827 Y11.597
X214.991 Y11.646
X215.173 Y11.717
X215.351 Y11.804
X215.524 Y11.903
X215.689 Y12.013
X215.849 Y12.132
X216.002 Y12.258
X216.15 Y12.391
G3 X216.69 Y12.974 I-4.162 J4.396
X217.379 Y13.947 I-7.178 J5.819
X218.145 Y15.34 I-12.914 J8.002
X219.019 Y17.344 I-23.235 J11.325
X220.004 Y20.158 I-38.687 J15.128
X221.239 Y24.766 I-54.26 J17.007
X222.769 Y36.578 I-62.765 J14.139
X219.678 Y58.915 I-64.924 J2.398
X218.121 Y63.213 I-60.038 J-19.316
X217.65 Y64.309 I-29.195 J-11.915
G1 X217.565 Y64.488
X217.478 Y64.667
X217.386 Y64.844
X217.289 Y65.017
X217.222 Y65.124
X217.111 Y65.262
X216.968 Y65.367
X216.803 Y65.433
X216.627 Y65.456
X215.337
G0 Z2.501
X213.442 Y11.919
Z-0.9
G1 Z-1.2 F500
X213.449 Y11.915 Z-1.267
X213.468 Y11.903 Z-1.33
X213.499 Y11.885 Z-1.387
X213.539 Y11.861 Z-1.435
X213.588 Y11.832 Z-1.47
X213.643 Y11.799 Z-1.492
X213.7 Y11.765 Z-1.5
G3 X214.454 Y11.544 I0.809 J1.36
G1 X215.714
X215.83 Y11.55
X215.96 Y11.567
X216.106 Y11.598
X216.268 Y11.647
X216.449 Y11.717
X216.628 Y11.804
X216.8 Y11.903
X216.966 Y12.013
X217.125 Y12.132
X217.278 Y12.259
X217.426 Y12.392
G3 X217.964 Y12.977 I-4.143 J4.358
X218.65 Y13.952 I-7.145 J5.757
X219.41 Y15.348 I-12.853 J7.896
X220.274 Y17.356 I-23.148 J11.151
X221.245 Y20.175 I-38.735 J14.92
X222.415 Y24.594 I-54.627 J16.823
X223.924 Y35.811 I-63.775 J14.291
X220.911 Y58.953 I-66.08 J3.164
X219.452 Y63.075 I-61.043 J-19.292
X218.911 Y64.357 I-28.331 J-11.197
G1 X218.826 Y64.537
X218.738 Y64.715
X218.646 Y64.891
X218.547 Y65.064
X218.503 Y65.133
X218.391 Y65.267
X218.249 Y65.37
X218.087 Y65.434
X217.913 Y65.456
X216.627
G0 Z2.501
X214.702 Y11.919
Z-0.9
G1 Z-1.2 F500
X214.709 Y11.915 Z-1.267
X214.728 Y11.903 Z-1.33
X214.759 Y11.885 Z-1.387
X214.799 Y11.861 Z-1.435
X214.848 Y11.832 Z-1.47
X214.903 Y11.799 Z-1.492
X214.96 Y11.765 Z-1.5
G3 X215.714 Y11.544 I0.809 J1.36
G1 X216.974
X217.105 Y11.551
X217.234 Y11.568
X217.38 Y11.599
X217.542 Y11.647
X217.721 Y11.717
X217.9 Y11.804
X218.072 Y11.903
X218.238 Y12.013
X218.397 Y12.133
X218.55 Y12.26
X218.697 Y12.393
G3 X219.234 Y12.979 I-4.126 J4.324
X219.917 Y13.956 I-7.11 J5.697
X220.671 Y15.355 I-12.789 J7.793
X221.526 Y17.367 I-23.059 J10.985
X222.426 Y20.001 I-38.199 J14.516
X223.59 Y24.421 I-54.72 J16.78
X225.006 Y34.051 I-64.598 J14.414
X222.143 Y58.988 I-67.169 J4.923
X220.706 Y63.118 I-61.614 J-19.124
X220.251 Y64.221 I-30.05 J-11.763
G1 X220.169 Y64.402
X220.085 Y64.582
X219.997 Y64.76
X219.903 Y64.935
X219.803 Y65.107
X219.781 Y65.14
X219.669 Y65.272
X219.528 Y65.372
X219.367 Y65.435
X219.196 Y65.456
X217.913
G0 Z2.501
X215.962 Y11.919
Z-0.9
G1 Z-1.2 F500
X215.969 Y11.915 Z-1.267
X215.988 Y11.903 Z-1.33
X216.019 Y11.885 Z-1.387
X216.059 Y11.861 Z-1.435
X216.108 Y11.832 Z-1.47
X216.163 Y11.799 Z-1.492
X216.22 Y11.765 Z-1.5
G3 X216.974 Y11.544 I0.809 J1.36
G1 X218.234
X218.376 Y11.551
X218.504 Y11.568
X218.649 Y11.599
X218.811 Y11.647
X218.989 Y11.717
X219.168 Y11.804
X219.34 Y11.903
X219.506 Y12.014
X219.665 Y12.133
X219.818 Y12.26
X219.965 Y12.394
G3 X220.501 Y12.981 I-4.107 J4.29
X221.181 Y13.96 I-7.075 J5.64
X221.929 Y15.362 I-12.732 J7.699
X222.776 Y17.378 I-22.955 J10.821
X223.663 Y20.015 I-38.198 J14.317
X224.808 Y24.441 I-55.254 J16.662
X226.152 Y33.48 I-65.574 J14.365
X223.375 Y59.021 I-68.314 J5.494
X222.03 Y62.973 I-62.547 J-19.081
X221.507 Y64.263 I-29.101 J-11.033
G1 X221.425 Y64.444
X221.341 Y64.624
X221.253 Y64.802
X221.158 Y64.977
X221.077 Y65.114
X220.965 Y65.256
X220.821 Y65.364
X220.654 Y65.433
X220.475 Y65.456
X219.314
G0 Z2.501
X217.222 Y11.919
Z-0.9
G1 Z-1.2 F500
X217.229 Y11.915 Z-1.267
X217.248 Y11.903 Z-1.33
X217.279 Y11.885 Z-1.387
X217.319 Y11.861 Z-1.435
X217.368 Y11.832 Z-1.47
X217.423 Y11.799 Z-1.492
X217.48 Y11.765 Z-1.5
G3 X218.234 Y11.544 I0.809 J1.36
G1 X219.494
X219.642 Y11.551
X219.771 Y11.568
X219.915 Y11.599
X220.076 Y11.647
X220.254 Y11.717
X220.433 Y11.803
X220.605 Y11.903
X220.77 Y12.013
X220.929 Y12.133
X221.082 Y12.26
X221.229 Y12.394
G3 X221.763 Y12.982 I-4.095 J4.262
X222.441 Y13.963 I-7.044 J5.588
X223.185 Y15.368 I-12.672 J7.609
X224.022 Y17.387 I-22.867 J10.672
X224.898 Y20.029 I-38.21 J14.131
X225.983 Y24.265 I-55.464 J16.464
X227.311 Y33.105 I-66.492 J14.511
X224.605 Y59.052 I-69.469 J5.869
X223.28 Y63.011 I-62.887 J-18.849
X222.841 Y64.12 I-31.224 J-11.736
X222.506 Y64.841 I-9.924 J-4.158
G1 X222.411 Y65.016
X222.347 Y65.12
X222.236 Y65.26
X222.092 Y65.366
X221.927 Y65.433
X221.749 Y65.456
X220.475
G0 Z2.501
X218.482 Y11.919
Z-0.9
G1 Z-1.2 F500
X218.489 Y11.915 Z-1.267
X218.508 Y11.903 Z-1.33
X218.539 Y11.885 Z-1.387
X218.579 Y11.861 Z-1.435
X218.628 Y11.832 Z-1.47
X218.683 Y11.799 Z-1.492
X218.74 Y11.765 Z-1.5
G3 X219.494 Y11.544 I0.809 J1.36
G1 X220.754
X220.906 Y11.552
X221.034 Y11.568
X221.178 Y11.599
X221.338 Y11.647
X221.515 Y11.716
X221.694 Y11.803
X221.866 Y11.903
X222.031 Y12.013
X222.19 Y12.133
X222.343 Y12.26
X222.489 Y12.395
G3 X223.023 Y12.983 I-4.079 J4.233
X223.698 Y13.966 I-7.012 J5.538
X224.437 Y15.373 I-12.613 J7.522
X225.267 Y17.396 I-22.772 J10.526
X226.131 Y20.041 I-38.187 J13.944
X227.199 Y24.281 I-55.943 J16.348
X228.47 Y32.729 I-67.434 J14.462
X225.835 Y59.082 I-70.624 J6.245
X224.597 Y62.86 I-63.744 J-18.788
X224.093 Y64.157 I-30.276 J-11.024
G1 X224.014 Y64.339
X223.933 Y64.521
X223.848 Y64.701
X223.758 Y64.878
X223.661 Y65.052
X223.615 Y65.126
X223.503 Y65.263
X223.36 Y65.368
X223.196 Y65.434
X223.021 Y65.456
X221.749
G0 Z2.501
X219.742 Y11.919
Z-0.9
G1 Z-1.2 F500
X219.749 Y11.915 Z-1.267
X219.768 Y11.903 Z-1.33
X219.799 Y11.885 Z-1.387
X219.839 Y11.861 Z-1.435
X219.888 Y11.832 Z-1.47
X219.943 Y11.799 Z-1.492
X220 Y11.765 Z-1.5
G3 X220.754 Y11.544 I0.809 J1.36
G1 X222.014
X222.166 Y11.552
X222.294 Y11.568
X222.437 Y11.599
X222.597 Y11.647
X222.773 Y11.716
X222.952 Y11.802
X223.124 Y11.902
X223.289 Y12.013
X223.448 Y12.133
X223.6 Y12.26
X223.747 Y12.395
G3 X224.279 Y12.984 I-4.065 J4.206
X224.952 Y13.969 I-6.985 J5.493
X225.686 Y15.378 I-12.563 J7.444
X226.509 Y17.404 I-22.687 J10.391
X227.363 Y20.052 I-38.179 J13.77
X228.415 Y24.297 I-56.403 J16.234
X229.628 Y32.352 I-68.338 J14.41
X227.064 Y59.11 I-71.778 J6.623
X225.844 Y62.893 I-63.928 J-18.522
X225.343 Y64.192 I-28.896 J-10.386
G1 X225.264 Y64.374
X225.183 Y64.556
X225.098 Y64.735
X225.007 Y64.912
X224.91 Y65.085
X224.88 Y65.132
X224.768 Y65.267
X224.626 Y65.37
X224.463 Y65.434
X224.289 Y65.456
X223.021
G0 Z2.501
X221.002 Y11.919
Z-0.9
G1 Z-1.2 F500
X221.009 Y11.915 Z-1.267
X221.028 Y11.903 Z-1.33
X221.059 Y11.885 Z-1.387
X221.099 Y11.861 Z-1.435
X221.148 Y11.832 Z-1.47
X221.203 Y11.799 Z-1.492
X221.26 Y11.765 Z-1.5
G3 X222.014 Y11.544 I0.809 J1.36
G1 X223.274
X223.423 Y11.552
X223.55 Y11.568
X223.693 Y11.599
X223.852 Y11.646
X224.028 Y11.715
X224.207 Y11.802
X224.379 Y11.902
X224.544 Y12.012
X224.703 Y12.132
X224.855 Y12.26
X225.001 Y12.395
G3 X225.533 Y12.985 I-4.053 J4.183
X226.203 Y13.971 I-6.963 J5.453
X226.934 Y15.383 I-12.507 J7.366
X227.749 Y17.411 I-22.584 J10.255
X228.538 Y19.872 I-37.499 J13.381
X229.588 Y24.117 I-56.169 J16.155
X230.661 Y30.788 I-68.591 J14.449
X228.292 Y59.136 I-72.799 J8.188
X227.155 Y62.737 I-64.569 J-18.402
X226.668 Y64.041 I-31.558 J-11.043
X226.347 Y64.768 I-11.181 J-4.5
G1 X226.255 Y64.944
X226.156 Y65.117
X226.142 Y65.138
X226.031 Y65.27
X225.889 Y65.371
X225.728 Y65.434
X225.556 Y65.456
X224.289
G0 Z2.501
X222.262 Y11.919
Z-0.9
G1 Z-1.2 F500
X222.269 Y11.915 Z-1.267
X222.288 Y11.904 Z-1.33
X222.319 Y11.885 Z-1.387
X222.359 Y11.861 Z-1.435
X222.408 Y11.832 Z-1.47
X222.463 Y11.799 Z-1.492
X222.52 Y11.765 Z-1.5
G3 X223.274 Y11.544 I0.809 J1.36
G1 X224.534
X224.677 Y11.551
X224.804 Y11.568
X224.947 Y11.598
X225.105 Y11.646
X225.281 Y11.714
X225.459 Y11.801
X225.631 Y11.901
X225.797 Y12.012
X225.955 Y12.132
X226.107 Y12.26
X226.253 Y12.394
X226.394 Y12.535
G3 X226.905 Y13.144 I-4.601 J4.384
X227.551 Y14.145 I-7.672 J5.663
X228.339 Y15.751 I-13.847 J7.786
X229.053 Y17.606 I-24.207 J10.382
X229.927 Y20.456 I-40.257 J13.902
X230.921 Y24.715 I-58.78 J15.972
X232.097 Y33.377 I-70.86 J14.026
X229.519 Y59.16 I-74.237 J5.599
X228.398 Y62.767 I-64.851 J-18.186
X227.915 Y64.072 I-30.493 J-10.544
X227.594 Y64.799 I-10.529 J-4.214
G1 X227.501 Y64.975
X227.424 Y65.108
X227.312 Y65.252
X227.168 Y65.363
X226.999 Y65.432
X226.819 Y65.456
X225.556
G0 Z2.501
X223.522 Y11.919
Z-0.9
G1 Z-1.2 F500
X223.529 Y11.915 Z-1.267
X223.548 Y11.904 Z-1.33
X223.579 Y11.885 Z-1.387
X223.619 Y11.861 Z-1.435
X223.668 Y11.832 Z-1.47
X223.723 Y11.799 Z-1.492
X223.78 Y11.765 Z-1.5
G3 X224.534 Y11.544 I0.809 J1.36
G1 X225.794
X225.928 Y11.551
X226.055 Y11.567
X226.197 Y11.598
X226.356 Y11.645
X226.53 Y11.713
X226.709 Y11.8
X226.881 Y11.9
X227.046 Y12.011
X227.205 Y12.131
X227.357 Y12.259
X227.502 Y12.394
X227.643 Y12.535
G3 X228.153 Y13.144 I-4.588 J4.359
X228.797 Y14.147 I-7.65 J5.624
X229.58 Y15.755 I-13.792 J7.71
X230.288 Y17.612 I-24.116 J10.256
X231.152 Y20.466 I-40.235 J13.739
X232.094 Y24.532 I-58.828 J15.772
X233.274 Y33.195 I-71.73 J14.178
X230.746 Y59.183 I-75.405 J5.783
X229.639 Y62.795 I-64.786 J-17.872
X229.16 Y64.101 I-29.451 J-10.065
X228.838 Y64.828 I-9.452 J-3.753
G1 X228.745 Y65.003
X228.68 Y65.113
X228.568 Y65.255
X228.424 Y65.364
X228.257 Y65.433
X228.078 Y65.456
X226.819
G0 Z2.501
X224.782 Y11.919
Z-0.9
G1 Z-1.2 F500
X224.789 Y11.915 Z-1.267
X224.808 Y11.904 Z-1.33
X224.838 Y11.885 Z-1.387
X224.879 Y11.861 Z-1.435
X224.928 Y11.832 Z-1.47
X224.983 Y11.799 Z-1.492
X225.04 Y11.765 Z-1.5
G3 X225.794 Y11.544 I0.809 J1.36
G1 X227.054
X227.177 Y11.55
X227.303 Y11.567
X227.445 Y11.597
X227.603 Y11.644
X227.778 Y11.712
X227.956 Y11.799
X228.128 Y11.899
X228.293 Y12.01
X228.452 Y12.13
X228.603 Y12.258
X228.749 Y12.394
X228.889 Y12.535
G3 X229.399 Y13.145 I-4.574 J4.335
X230.041 Y14.149 I-7.626 J5.585
X230.82 Y15.759 I-13.74 J7.639
X231.522 Y17.618 I-24.029 J10.136
X232.376 Y20.475 I-40.21 J13.583
X233.305 Y24.544 I-59.224 J15.664
X234.451 Y33.011 I-72.647 J14.138
X231.972 Y59.205 I-76.575 J5.967
X230.943 Y62.632 I-65.532 J-17.804
X230.477 Y63.943 I-32.109 J-10.684
X230.169 Y64.676 I-12.228 J-4.707
G1 X230.081 Y64.855
X229.987 Y65.03
X229.934 Y65.118
X229.822 Y65.258
X229.679 Y65.366
X229.513 Y65.433
X229.335 Y65.456
X228.078
G0 Z2.501
X226.042 Y11.919
Z-0.9
G1 Z-1.2 F500
X226.049 Y11.915 Z-1.267
X226.068 Y11.904 Z-1.33
X226.098 Y11.885 Z-1.387
X226.139 Y11.861 Z-1.435
X226.188 Y11.832 Z-1.47
X226.243 Y11.799 Z-1.492
X226.3 Y11.765 Z-1.5
G3 X227.054 Y11.544 I0.809 J1.36
G1 X228.314
X228.423 Y11.55
X228.55 Y11.566
X228.691 Y11.596
X228.849 Y11.644
X229.022 Y11.711
X229.201 Y11.798
X229.373 Y11.898
X229.538 Y12.009
X229.696 Y12.129
X229.848 Y12.258
X229.994 Y12.393
X230.134 Y12.534
G3 X230.642 Y13.145 I-4.562 J4.313
X231.282 Y14.151 I-7.608 J5.552
X232.057 Y15.762 I-13.692 J7.572
X232.754 Y17.624 I-23.937 J10.019
X233.599 Y20.483 I-40.18 J13.432
X234.516 Y24.555 I-59.594 J15.556
X235.612 Y32.628 I-73.46 J14.086
X233.197 Y59.226 I-77.729 J6.351
X232.181 Y62.657 I-65.399 J-17.49
X231.719 Y63.969 I-31.021 J-10.204
X231.411 Y64.702 I-11.61 J-4.447
G1 X231.322 Y64.88
X231.228 Y65.055
X231.186 Y65.122
X231.075 Y65.261
X230.932 Y65.367
X230.766 Y65.433
X230.59 Y65.456
X229.335
G0 Z2.501
X227.302 Y11.919
Z-0.9
G1 Z-1.2 F500
X227.309 Y11.915 Z-1.267
X227.328 Y11.904 Z-1.33
X227.358 Y11.885 Z-1.387
X227.399 Y11.861 Z-1.435
X227.448 Y11.832 Z-1.47
X227.503 Y11.799 Z-1.492
X227.56 Y11.765 Z-1.5
G3 X228.314 Y11.544 I0.809 J1.36
G1 X229.574
X229.667 Y11.549
X229.793 Y11.565
X229.935 Y11.596
X230.092 Y11.643
X230.265 Y11.71
X230.444 Y11.797
X230.616 Y11.897
X230.781 Y12.008
X230.939 Y12.128
X231.091 Y12.257
X231.236 Y12.392
X231.376 Y12.534
G3 X231.883 Y13.145 I-4.552 J4.293
X232.522 Y14.152 I-7.584 J5.516
X233.293 Y15.766 I-13.639 J7.505
X233.984 Y17.629 I-23.849 J9.908
X234.82 Y20.491 I-40.152 J13.289
X235.688 Y24.37 I-59.496 J15.344
X236.772 Y32.245 I-74.136 J14.216
X234.421 Y59.245 I-78.877 J6.736
X233.419 Y62.68 I-65.159 J-17.156
X232.959 Y63.994 I-30.052 J-9.779
X232.651 Y64.727 I-11.068 J-4.219
G1 X232.562 Y64.904
X232.467 Y65.079
X232.437 Y65.127
X232.325 Y65.264
X232.183 Y65.368
X232.018 Y65.434
X231.843 Y65.456
X230.59
G0 Z2.501
X228.562 Y11.919
Z-0.9
G1 Z-1.2 F500
X228.569 Y11.915 Z-1.267
X228.588 Y11.904 Z-1.33
X228.618 Y11.885 Z-1.387
X228.659 Y11.861 Z-1.435
X228.708 Y11.832 Z-1.47
X228.763 Y11.8 Z-1.492
X228.82 Y11.765 Z-1.5
G3 X229.574 Y11.544 I0.809 J1.36
G1 X230.744
X230.914 Y11.553
X231.039 Y11.569
X231.18 Y11.599
X231.337 Y11.646
X231.509 Y11.713
X231.688 Y11.8
X231.86 Y11.9
X232.025 Y12.011
X232.183 Y12.132
X232.334 Y12.261
X232.48 Y12.396
X232.619 Y12.538
G3 X233.126 Y13.15 I-4.542 J4.272
X233.762 Y14.158 I-7.57 J5.483
X234.529 Y15.774 I-13.608 J7.447
X235.215 Y17.639 I-23.787 J9.806
X236.042 Y20.504 I-40.16 J13.156
X236.899 Y24.386 I-59.843 J15.238
X237.949 Y32.064 I-74.966 J14.165
X235.644 Y59.269 I-80.043 J6.917
X234.714 Y62.518 I-65.855 J-17.098
X234.197 Y64.022 I-29.902 J-9.438
X233.888 Y64.755 I-10.657 J-4.057
G1 X233.798 Y64.932
X233.702 Y65.106
X233.685 Y65.132
X233.573 Y65.267
X233.432 Y65.37
X233.269 Y65.434
X233.095 Y65.456
X231.843
G0 Z2.501
X229.732 Y11.919
Z-0.9
G1 Z-1.2 F500
X229.739 Y11.915 Z-1.267
X229.758 Y11.904 Z-1.33
X229.788 Y11.885 Z-1.387
X229.829 Y11.861 Z-1.435
X229.878 Y11.832 Z-1.47
X229.933 Y11.8 Z-1.492
X229.99 Y11.765 Z-1.5
G3 X230.744 Y11.544 I0.809 J1.36
G1 X232.004
X232.152 Y11.552
X232.278 Y11.568
X232.419 Y11.598
X232.575 Y11.645
X232.747 Y11.712
X232.926 Y11.799
X233.098 Y11.899
X233.263 Y12.01
X233.421 Y12.131
X233.572 Y12.26
X233.718 Y12.395
X233.857 Y12.537
G3 X234.363 Y13.15 I-4.53 J4.252
X234.998 Y14.159 I-7.545 J5.451
X235.685 Y15.593 I-13.161 J7.189
X236.442 Y17.643 I-23.274 J9.759
X237.213 Y20.317 I-39.256 J12.766
X238.071 Y24.199 I-59.349 J15.154
X239.071 Y31.283 I-75.239 J14.24
X237.155 Y58.129 I-81.138 J7.7
X236.867 Y59.286 I-64.701 J-15.499
X235.948 Y62.538 I-66.049 J-16.909
X235.504 Y63.857 I-31.868 J-10
X235.209 Y64.596 I-12.912 J-4.731
G1 X235.126 Y64.776
X235.036 Y64.953
X234.938 Y65.127
X234.933 Y65.135
X234.821 Y65.269
X234.68 Y65.371
X234.517 Y65.434
X234.345 Y65.456
X233.095
G0 Z2.501
X230.992 Y11.919
Z-0.9
G1 Z-1.2 F500
X230.999 Y11.915 Z-1.267
X231.018 Y11.904 Z-1.33
X231.048 Y11.885 Z-1.387
X231.089 Y11.861 Z-1.435
X231.138 Y11.832 Z-1.47
X231.193 Y11.8 Z-1.492
X231.25 Y11.765 Z-1.5
G3 X232.004 Y11.544 I0.809 J1.36
G1 X233.264
X233.39 Y11.55
X233.515 Y11.567
X233.656 Y11.597
X233.812 Y11.644
X233.984 Y11.711
X234.163 Y11.797
X234.335 Y11.898
X234.499 Y12.009
X234.657 Y12.13
X234.809 Y12.258
X234.954 Y12.394
X235.093 Y12.536
G3 X235.598 Y13.15 I-4.522 J4.237
X236.231 Y14.16 I-7.525 J5.421
X236.916 Y15.594 I-13.105 J7.129
X237.668 Y17.647 I-23.176 J9.658
X238.383 Y20.13 I-38.518 J12.43
X239.279 Y24.207 I-59.255 J15.172
X240.146 Y30.106 I-75.094 J14.049
X239.577 Y52.101 I-82.085 J8.878
X238.09 Y59.303 I-81.006 J-12.97
X237.182 Y62.558 I-65.947 J-16.644
X236.741 Y63.878 I-31.198 J-9.695
X236.446 Y64.616 I-12.571 J-4.586
G1 X236.362 Y64.796
X236.272 Y64.974
X236.199 Y65.102
X236.088 Y65.248
X235.943 Y65.361
X235.773 Y65.432
X235.591 Y65.456
X234.345
G0 Z2.501
X232.252 Y11.919
Z-0.9
G1 Z-1.2 F500
X232.259 Y11.915 Z-1.267
X232.278 Y11.904 Z-1.33
X232.308 Y11.885 Z-1.387
X232.349 Y11.861 Z-1.435
X232.398 Y11.832 Z-1.47
X232.453 Y11.8 Z-1.492
X232.51 Y11.765 Z-1.5
G3 X233.264 Y11.544 I0.809 J1.36
G1 X234.524
X234.626 Y11.549
X234.751 Y11.566
X234.892 Y11.596
X235.047 Y11.642
X235.219 Y11.709
X235.398 Y11.796
X235.569 Y11.896
X235.734 Y12.007
X235.892 Y12.128
X236.043 Y12.257
X236.188 Y12.393
X236.328 Y12.535
G3 X236.832 Y13.149 I-4.514 J4.222
X237.464 Y14.16 I-7.506 J5.394
X238.145 Y15.596 I-13.069 J7.08
X238.893 Y17.651 I-23.1 J9.568
X239.601 Y20.136 I-38.477 J12.31
X240.488 Y24.215 I-59.506 J15.069
X241.321 Y29.918 I-75.679 J13.977
X241.093 Y49.948 I-83.182 J9.067
X239.312 Y59.318 I-82.891 J-10.901
X238.472 Y62.386 I-67.207 J-16.751
X237.976 Y63.897 I-31.266 J-9.425
X237.682 Y64.635 I-12.098 J-4.396
G1 X237.597 Y64.815
X237.507 Y64.992
X237.441 Y65.106
X237.33 Y65.251
X237.185 Y65.362
X237.016 Y65.432
X236.835 Y65.456
X235.591
G0 Z2.501
X233.512 Y11.919
Z-0.9
G1 Z-1.2 F500
X233.519 Y11.915 Z-1.267
X233.538 Y11.904 Z-1.33
X233.568 Y11.885 Z-1.387
X233.609 Y11.861 Z-1.435
X233.658 Y11.832 Z-1.47
X233.713 Y11.8 Z-1.492
X233.77 Y11.765 Z-1.5
G3 X234.524 Y11.544 I0.809 J1.36
G1 X235.694
X235.865 Y11.553
X235.989 Y11.569
X236.129 Y11.599
X236.285 Y11.645
X236.455 Y11.712
X236.634 Y11.799
X236.806 Y11.899
X236.971 Y12.01
X237.128 Y12.131
X237.28 Y12.26
X237.425 Y12.396
X237.564 Y12.539
G3 X238.067 Y13.153 I-4.508 J4.205
X238.697 Y14.165 I-7.496 J5.368
X239.376 Y15.603 I-13.044 J7.034
X240.118 Y17.659 I-23.047 J9.484
X240.82 Y20.146 I-38.45 J12.194
X241.66 Y24.032 I-59.255 J14.85
X242.56 Y30.328 I-76.732 J14.178
X242.502 Y48.187 I-84.351 J8.657
X240.532 Y59.338 I-84.463 J-9.176
X239.701 Y62.409 I-67.146 J-16.517
X239.208 Y63.921 I-30.499 J-9.107
X238.913 Y64.659 I-11.649 J-4.226
G1 X238.828 Y64.839
X238.737 Y65.015
X238.681 Y65.11
X238.57 Y65.254
X238.425 Y65.363
X238.257 Y65.432
X238.077 Y65.456
X236.954
G0 Z2.501
X234.682 Y11.919
Z-0.9
G1 Z-1.2 F500
X234.689 Y11.915 Z-1.267
X234.708 Y11.904 Z-1.33
X234.738 Y11.885 Z-1.387
X234.779 Y11.861 Z-1.435
X234.828 Y11.832 Z-1.47
X234.883 Y11.8 Z-1.492
X234.94 Y11.765 Z-1.5
G3 X235.694 Y11.544 I0.809 J1.36
G1 X236.954
X237.096 Y11.551
X237.221 Y11.568
X237.361 Y11.598
X237.516 Y11.644
X237.687 Y11.71
X237.865 Y11.797
X238.037 Y11.897
X238.202 Y12.009
X238.36 Y12.13
X238.511 Y12.259
X238.656 Y12.395
X238.795 Y12.537
G3 X239.298 Y13.153 I-4.498 J4.19
X239.926 Y14.165 I-7.475 J5.341
X240.602 Y15.604 I-12.999 J6.985
X241.34 Y17.662 I-22.968 J9.4
X242.036 Y20.151 I-38.41 J12.084
X242.868 Y24.038 I-59.446 J14.745
X243.736 Y30.138 I-77.293 J14.108
X243.817 Y47.009 I-85.44 J8.847
X241.753 Y59.352 I-85.809 J-8.006
X240.931 Y62.425 I-66.987 J-16.259
X240.508 Y63.75 I-32.456 J-9.643
X240.147 Y64.676 I-11.929 J-4.118
G1 X240.061 Y64.855
X239.969 Y65.032
X239.92 Y65.113
X239.809 Y65.255
X239.665 Y65.364
X239.498 Y65.433
X239.319 Y65.456
X238.077
G0 Z2.501
X235.942 Y11.919
Z-0.9
G1 Z-1.2 F500
X235.949 Y11.915 Z-1.267
X235.968 Y11.904 Z-1.33
X235.998 Y11.885 Z-1.387
X236.039 Y11.861 Z-1.435
X236.088 Y11.832 Z-1.47
X236.143 Y11.8 Z-1.492
X236.2 Y11.765 Z-1.5
G3 X236.954 Y11.544 I0.809 J1.36
G1 X238.214
X238.327 Y11.55
X238.451 Y11.566
X238.591 Y11.596
X238.746 Y11.642
X238.916 Y11.709
X239.095 Y11.796
X239.267 Y11.896
X239.432 Y12.007
X239.589 Y12.128
X239.74 Y12.258
X239.885 Y12.394
X240.024 Y12.536
G3 X240.527 Y13.152 I-4.493 J4.18
X241.154 Y14.165 I-7.458 J5.318
X241.828 Y15.605 I-12.961 J6.941
X242.562 Y17.664 I-22.89 J9.32
X243.252 Y20.155 I-38.342 J11.971
X244.075 Y24.044 I-59.604 J14.638
X244.932 Y30.146 I-77.998 J14.064
X245.096 Y46.027 I-86.544 J8.839
X242.973 Y59.365 I-87.096 J-7.027
X242.216 Y62.249 I-68.3 J-16.383
X241.74 Y63.766 I-32.405 J-9.339
X241.379 Y64.692 I-11.69 J-4.024
G1 X241.293 Y64.871
X241.2 Y65.047
X241.159 Y65.116
X241.047 Y65.257
X240.903 Y65.365
X240.737 Y65.433
X240.559 Y65.456
X239.319
G0 Z2.501
X237.202 Y11.919
Z-0.9
G1 Z-1.2 F500
X237.209 Y11.915 Z-1.267
X237.228 Y11.904 Z-1.33
X237.258 Y11.885 Z-1.387
X237.299 Y11.861 Z-1.435
X237.348 Y11.832 Z-1.47
X237.403 Y11.8 Z-1.492
X237.46 Y11.765 Z-1.5
G3 X238.214 Y11.544 I0.809 J1.36
G1 X239.383
X239.561 Y11.553
X239.685 Y11.569
X239.824 Y11.599
X239.979 Y11.645
X240.148 Y11.711
X240.327 Y11.798
X240.499 Y11.899
X240.664 Y12.01
X240.821 Y12.131
X240.972 Y12.261
X241.117 Y12.397
X241.256 Y12.539
G3 X241.757 Y13.156 I-4.485 J4.164
X242.383 Y14.17 I-7.446 J5.294
X243.054 Y15.611 I-12.934 J6.898
X243.784 Y17.672 I-22.84 J9.246
X244.468 Y20.164 I-38.315 J11.868
X245.282 Y24.055 I-59.812 J14.54
X246.108 Y29.961 I-78.503 J13.986
X246.388 Y44.652 I-87.568 J9.021
X244.191 Y59.383 I-88.385 J-5.655
X243.442 Y62.269 I-68.038 J-16.116
X242.969 Y63.787 I-31.663 J-9.045
X242.687 Y64.53 I-13.006 J-4.507
G1 X242.607 Y64.713
X242.521 Y64.892
X242.427 Y65.067
X242.395 Y65.12
X242.283 Y65.26
X242.14 Y65.366
X241.975 Y65.433
X241.797 Y65.456
X240.559
G0 Z2.501
X238.372 Y11.919
Z-0.9
G1 Z-1.2 F500
X238.379 Y11.915 Z-1.267
X238.398 Y11.904 Z-1.33
X238.428 Y11.885 Z-1.387
X238.469 Y11.861 Z-1.435
X238.518 Y11.832 Z-1.47
X238.573 Y11.8 Z-1.492
X238.63 Y11.765 Z-1.5
G3 X239.383 Y11.544 I0.809 J1.36
G1 X240.643
X240.787 Y11.551
X240.912 Y11.568
X241.051 Y11.597
X241.206 Y11.644
X241.375 Y11.71
X241.554 Y11.797
X241.726 Y11.897
X241.89 Y12.008
X242.048 Y12.13
X242.199 Y12.259
X242.343 Y12.395
X242.482 Y12.538
G3 X242.983 Y13.154 I-4.478 J4.152
X243.608 Y14.17 I-7.427 J5.271
X244.277 Y15.612 I-12.892 J6.855
X245.003 Y17.674 I-22.761 J9.17
X245.682 Y20.167 I-38.26 J11.766
X246.488 Y24.06 I-59.961 J14.441
X247.283 Y29.769 I-78.945 J13.908
X247.616 Y44.064 I-88.615 J9.211
X245.41 Y59.394 I-89.585 J-5.064
X244.669 Y62.282 I-67.817 J-15.863
X244.198 Y63.801 I-31.102 J-8.806
X243.917 Y64.545 I-12.8 J-4.422
G1 X243.837 Y64.727
X243.75 Y64.906
X243.657 Y65.081
X243.631 Y65.123
X243.519 Y65.261
X243.376 Y65.367
X243.211 Y65.433
X243.035 Y65.456
X241.797
G0 Z2.501
X239.632 Y11.919
Z-0.9
G1 Z-1.2 F500
X239.638 Y11.915 Z-1.267
X239.658 Y11.904 Z-1.33
X239.688 Y11.885 Z-1.387
X239.729 Y11.861 Z-1.435
X239.778 Y11.832 Z-1.47
X239.833 Y11.8 Z-1.492
X239.89 Y11.765 Z-1.5
G3 X240.643 Y11.544 I0.809 J1.36
G1 X241.903
X242.014 Y11.55
X242.138 Y11.566
X242.277 Y11.596
X242.431 Y11.642
X242.601 Y11.708
X242.78 Y11.795
X242.951 Y11.895
X243.116 Y12.007
X243.273 Y12.128
X243.424 Y12.257
X243.569 Y12.394
X243.708 Y12.536
G3 X244.208 Y13.153 I-4.469 J4.139
X244.832 Y14.169 I-7.412 J5.251
X245.499 Y15.612 I-12.855 J6.816
X246.221 Y17.676 I-22.681 J9.096
X246.896 Y20.17 I-38.186 J11.664
X247.694 Y24.065 I-60.09 J14.341
X248.459 Y29.577 I-79.338 J13.825
X248.838 Y43.475 I-89.639 J9.4
X246.629 Y59.405 I-90.779 J-4.472
X245.895 Y62.295 I-67.627 J-15.626
X245.491 Y63.626 I-33.119 J-9.337
X245.146 Y64.559 I-13.106 J-4.313
G1 X245.066 Y64.74
X244.979 Y64.919
X244.885 Y65.094
X244.866 Y65.125
X244.754 Y65.262
X244.611 Y65.368
X244.447 Y65.433
X244.271 Y65.456
X243.163
G0 Z2.501
X240.892 Y11.919
Z-0.9
G1 Z-1.2 F500
X240.898 Y11.915 Z-1.267
X240.918 Y11.904 Z-1.33
X240.948 Y11.885 Z-1.387
X240.989 Y11.861 Z-1.435
X241.038 Y11.832 Z-1.47
X241.092 Y11.8 Z-1.492
X241.15 Y11.765 Z-1.5
G3 X241.903 Y11.544 I0.809 J1.36
G1 X243.073
X243.244 Y11.553
X243.368 Y11.569
X243.506 Y11.599
X243.66 Y11.645
X243.829 Y11.71
X244.008 Y11.797
X244.179 Y11.898
X244.344 Y12.009
X244.501 Y12.131
X244.652 Y12.26
X244.797 Y12.397
X244.935 Y12.539
G3 X245.435 Y13.157 I-4.464 J4.127
X246.058 Y14.174 I-7.402 J5.23
X246.722 Y15.618 I-12.837 J6.781
X247.44 Y17.683 I-22.644 J9.034
X248.11 Y20.178 I-38.143 J11.567
X248.866 Y23.879 I-59.676 J14.122
X249.676 Y29.786 I-80.116 J13.999
X250.087 Y42.096 I-90.595 J9.182
X247.846 Y59.421 I-92.024 J-3.096
X247.172 Y62.121 I-69.283 J-15.85
X246.717 Y63.645 I-33.136 J-9.069
X246.372 Y64.577 I-12.91 J-4.239
G1 X246.292 Y64.759
X246.205 Y64.937
X246.109 Y65.112
X246.099 Y65.128
X245.987 Y65.265
X245.845 Y65.369
X245.681 Y65.434
X245.506 Y65.456
X244.271
G0 Z2.501
X242.062 Y11.919
Z-0.9
G1 Z-1.2 F500
X242.068 Y11.915 Z-1.267
X242.088 Y11.904 Z-1.33
X242.118 Y11.885 Z-1.387
X242.159 Y11.861 Z-1.435
X242.208 Y11.832 Z-1.47
X242.262 Y11.8 Z-1.492
X242.32 Y11.765 Z-1.5
G3 X243.073 Y11.544 I0.809 J1.36
G1 X244.333
X244.466 Y11.551
X244.591 Y11.567
X244.73 Y11.597
X244.883 Y11.643
X245.052 Y11.709
X245.231 Y11.795
X245.402 Y11.896
X245.567 Y12.007
X245.724 Y12.129
X245.875 Y12.258
X246.019 Y12.395
X246.158 Y12.538
G3 X246.658 Y13.156 I-4.457 J4.117
X247.279 Y14.173 I-7.389 J5.213
X247.942 Y15.618 I-12.801 J6.745
X248.657 Y17.684 I-22.565 J8.966
X249.322 Y20.181 I-38.082 J11.476
X250.071 Y23.882 I-59.77 J14.025
X250.852 Y29.593 I-80.448 J13.914
X251.283 Y41.903 I-91.621 J9.373
X249.063 Y59.43 I-93.185 J-2.899
X248.396 Y62.132 I-69.269 J-15.667
X247.944 Y63.657 I-32.716 J-8.88
X247.6 Y64.589 I-12.729 J-4.163
G1 X247.519 Y64.771
X247.432 Y64.949
X247.336 Y65.124
X247.332 Y65.13
X247.22 Y65.266
X247.078 Y65.369
X246.915 Y65.434
X246.74 Y65.456
X245.506
G0 Z2.501
X243.322 Y11.919
Z-0.9
G1 Z-1.2 F500
X243.328 Y11.915 Z-1.267
X243.348 Y11.904 Z-1.33
X243.378 Y11.885 Z-1.387
X243.419 Y11.861 Z-1.435
X243.468 Y11.832 Z-1.47
X243.522 Y11.8 Z-1.492
X243.58 Y11.765 Z-1.5
G3 X244.333 Y11.544 I0.809 J1.36
G1 X245.593
X245.689 Y11.549
X245.813 Y11.565
X245.952 Y11.595
X246.105 Y11.641
X246.274 Y11.706
X246.453 Y11.793
X246.625 Y11.894
X246.789 Y12.005
X246.946 Y12.127
X247.097 Y12.256
X247.241 Y12.393
X247.38 Y12.536
G3 X247.879 Y13.154 I-4.451 J4.107
X248.5 Y14.172 I-7.372 J5.193
X249.161 Y15.618 I-12.765 J6.709
X249.872 Y17.685 I-22.5 J8.904
X250.533 Y20.183 I-38.004 J11.382
X251.275 Y23.886 I-59.863 J13.931
X252.048 Y29.598 I-81.039 J13.87
X252.49 Y41.312 I-92.605 J9.362
X250.323 Y59.245 I-94.384 J-2.308
G1 X250.279 Y59.439
G3 X249.567 Y62.334 I-63.856 J-14.163
X249.17 Y63.668 I-30.942 J-8.503
X248.827 Y64.601 I-12.36 J-4.017
G1 X248.746 Y64.782
X248.658 Y64.961
X248.584 Y65.094
X248.474 Y65.244
X248.327 Y65.359
X248.156 Y65.431
X247.971 Y65.456
X246.74
G0 Z2.501
X244.582 Y11.919
Z-0.9
G1 Z-1.2 F500
X244.588 Y11.915 Z-1.267
X244.607 Y11.904 Z-1.33
X244.638 Y11.885 Z-1.387
X244.679 Y11.861 Z-1.435
X244.728 Y11.832 Z-1.47
X244.782 Y11.8 Z-1.492
X244.84 Y11.765 Z-1.5
G3 X245.593 Y11.544 I0.809 J1.36
G1 X246.763
X246.916 Y11.552
X247.039 Y11.568
X247.178 Y11.598
X247.331 Y11.643
X247.499 Y11.709
X247.678 Y11.796
X247.849 Y11.896
X248.014 Y12.008
X248.171 Y12.129
X248.322 Y12.259
X248.466 Y12.396
X248.604 Y12.539
G3 X249.103 Y13.157 I-4.448 J4.097
X249.722 Y14.176 I-7.365 J5.175
X250.381 Y15.623 I-12.747 J6.677
X251.089 Y17.691 I-22.467 J8.849
X251.745 Y20.19 I-37.983 J11.302
X252.481 Y23.895 I-59.989 J13.841
X253.225 Y29.41 I-81.328 J13.779
X253.69 Y40.925 I-93.554 J9.544
X251.58 Y59.065 I-95.56 J-1.919
G1 X251.537 Y59.259
X251.495 Y59.453
G3 X250.789 Y62.35 I-63.244 J-13.865
X250.393 Y63.684 I-30.366 J-8.286
X250.05 Y64.617 I-11.893 J-3.847
G1 X249.968 Y64.798
X249.88 Y64.976
X249.812 Y65.098
X249.701 Y65.246
X249.555 Y65.36
X249.385 Y65.431
X249.201 Y65.456
X247.971
G0 Z2.501
X245.752 Y11.919
Z-0.9
G1 Z-1.2 F500
X245.758 Y11.915 Z-1.267
X245.777 Y11.904 Z-1.33
X245.808 Y11.885 Z-1.387
X245.849 Y11.861 Z-1.435
X245.898 Y11.832 Z-1.47
X245.952 Y11.8 Z-1.492
X246.01 Y11.765 Z-1.5
G3 X246.763 Y11.544 I0.809 J1.36
G1 X248.023
X248.135 Y11.55
X248.259 Y11.566
X248.397 Y11.596
X248.55 Y11.641
X248.718 Y11.707
X248.897 Y11.794
X249.069 Y11.894
X249.233 Y12.006
X249.391 Y12.127
X249.541 Y12.257
X249.685 Y12.394
X249.824 Y12.537
G3 X250.322 Y13.156 I-4.441 J4.088
X250.941 Y14.175 I-7.351 J5.16
X251.598 Y15.622 I-12.712 J6.645
X252.303 Y17.691 I-22.392 J8.788
X252.955 Y20.192 I-37.9 J11.214
X253.685 Y23.897 I-60.058 J13.75
X254.401 Y29.216 I-81.551 J13.687
X254.887 Y40.531 I-94.478 J9.731
X252.795 Y59.072 I-96.724 J-1.524
G1 X252.753 Y59.267
X252.711 Y59.461
G3 X252.012 Y62.36 I-62.77 J-13.603
X251.618 Y63.694 I-29.993 J-8.124
X251.275 Y64.627 I-11.693 J-3.772
G1 X251.193 Y64.808
X251.104 Y64.986
X251.04 Y65.1
X250.929 Y65.247
X250.783 Y65.36
X250.613 Y65.432
X250.43 Y65.456
X249.201
G0 Z2.501
X247.012 Y11.919
Z-0.9
G1 Z-1.2 F500
X247.018 Y11.915 Z-1.267
X247.037 Y11.904 Z-1.33
X247.068 Y11.885 Z-1.387
X247.109 Y11.861 Z-1.435
X247.158 Y11.832 Z-1.47
X247.212 Y11.8 Z-1.492
X247.27 Y11.765 Z-1.5
G3 X248.023 Y11.544 I0.809 J1.36
G1 X249.193
X249.359 Y11.552
X249.483 Y11.569
X249.621 Y11.598
X249.773 Y11.644
X249.941 Y11.709
X250.12 Y11.796
X250.291 Y11.896
X250.456 Y12.008
X250.613 Y12.13
X250.764 Y12.26
X250.908 Y12.397
X251.046 Y12.54
G3 X251.544 Y13.159 I-4.436 J4.076
X252.161 Y14.179 I-7.343 J5.143
X252.816 Y15.627 I-12.701 J6.618
X253.518 Y17.697 I-22.372 J8.741
X254.121 Y20.005 I-37.12 J10.932
X254.856 Y23.71 I-59.087 J13.647
X255.556 Y28.83 I-81.079 J13.693
X256.008 Y34.969 I-93.014 J9.926
G1 X256.007 Y41.83
X255.997 Y42.028
G3 X255.922 Y44.611 I-46.494 J-0.072
X255.639 Y48.378 I-84.133 J-4.415
X253.989 Y59.181 I-96.739 J-9.253
X253.309 Y62.084 I-69.283 J-14.691
X252.871 Y63.613 I-32.275 J-8.415
X252.536 Y64.549 I-12.912 J-4.1
G1 X252.456 Y64.731
X252.371 Y64.911
X252.278 Y65.086
X252.256 Y65.121
X252.145 Y65.26
X252.002 Y65.367
X251.836 Y65.433
X251.659 Y65.456
X250.43
G0 Z2.501
X255.633 Y40.818
Z-0.9
G1 Z-1.2 F500
X255.637 Y40.825 Z-1.267
X255.648 Y40.844 Z-1.33
X255.666 Y40.874 Z-1.387
X255.69 Y40.915 Z-1.435
X255.72 Y40.964 Z-1.47
X255.752 Y41.019 Z-1.492
X255.786 Y41.076 Z-1.5
G3 X256.007 Y41.83 I-1.36 J0.809
G1 Y53.528
X255.997 Y53.727
G3 X255.896 Y55.114 I-13.517 J-0.284
X255.637 Y56.884 I-31.558 J-3.729
X254.568 Y61.94 I-67.042 J-11.529
X254.141 Y63.472 I-33.696 J-8.574
X253.817 Y64.412 I-14.275 J-4.389
G1 X253.743 Y64.596
X253.662 Y64.778
X253.575 Y64.957
X253.501 Y65.092
X253.39 Y65.243
X253.244 Y65.358
X253.072 Y65.431
X252.887 Y65.456
X251.659
G0 Z2.501
X255.632 Y52.517
Z-0.9
G1 Z-1.2 F500
X255.636 Y52.523 Z-1.267
X255.648 Y52.542 Z-1.33
X255.666 Y52.573 Z-1.387
X255.69 Y52.614 Z-1.435
X255.719 Y52.663 Z-1.47
X255.752 Y52.717 Z-1.492
X255.786 Y52.775 Z-1.5
G3 X256.007 Y53.528 I-1.36 J0.809
G1 Y59.737
X255.997 Y59.936
G3 X255.91 Y60.926 I-8.527 J-0.251
X255.56 Y62.68 I-16.804 J-2.441
X255.111 Y64.205 I-16.146 J-3.927
G1 X255.042 Y64.391
X254.969 Y64.576
X254.89 Y64.759
X254.805 Y64.938
X254.711 Y65.114
X254.704 Y65.125
X254.593 Y65.262
X254.45 Y65.367
X254.285 Y65.433
X254.109 Y65.456
G3 X253.832 Y65.072 I0.01 J-0.3
G1 X253.899 Y64.842
X255.419 Y59.663
G3 X256.007 Y59.737 I0.288 J0.084
G1 Y63.877
X255.997 Y64.076
X255.98 Y64.274
X255.95 Y64.47
X255.91 Y64.665
X255.855 Y64.856
X255.793 Y65.029
X255.784 Y65.047
X255.702 Y65.183
X255.591 Y65.298
X255.456 Y65.384
X255.306 Y65.438
X255.148 Y65.456
G3 X254.883 Y65.037 I0.01 J-0.3
G1 X254.963 Y64.851
X255.432 Y63.768
X255.442 Y63.747
G3 X256.007 Y63.877 I0.265 J0.141
G1 Y65.137
X256.003 Y65.182
X255.993 Y65.227
X255.975 Y65.272
X255.95 Y65.317
X255.943 Y65.327
X255.925 Y65.351
X255.902 Y65.375
X255.862 Y65.407
X255.853 Y65.412
X255.808 Y65.435
X255.763 Y65.448
X255.718 Y65.455
X255.673 Y65.456
X252.887
G0 Z2.501
X248.182 Y11.919
Z-0.9
G1 Z-1.2 F500
X248.188 Y11.915 Z-1.267
X248.207 Y11.904 Z-1.33
X248.238 Y11.885 Z-1.387
X248.279 Y11.861 Z-1.435
X248.328 Y11.832 Z-1.47
X248.382 Y11.8 Z-1.492
X248.44 Y11.765 Z-1.5
G3 X249.193 Y11.544 I0.809 J1.36
G1 X250.453
X250.577 Y11.55
X250.7 Y11.567
X250.839 Y11.596
X250.991 Y11.642
X251.159 Y11.707
X251.337 Y11.794
X251.509 Y11.894
X251.673 Y12.006
X251.831 Y12.128
X251.981 Y12.258
X252.125 Y12.395
X252.263 Y12.538
G3 X252.761 Y13.157 I-4.43 J4.069
X253.378 Y14.177 I-7.328 J5.127
X254.032 Y15.626 I-12.666 J6.587
X254.731 Y17.697 I-22.293 J8.682
X255.331 Y20.006 I-37.031 J10.849
X256.004 Y23.381 I-58.003 J13.323
G1 X256.007 Y23.42
X256.008 Y23.46
Y34.969
G0 Z2.501
X249.442 Y11.919
Z-0.9
G1 Z-1.2 F500
X249.448 Y11.915 Z-1.267
X249.467 Y11.904 Z-1.33
X249.498 Y11.885 Z-1.387
X249.539 Y11.861 Z-1.435
X249.588 Y11.832 Z-1.47
X249.642 Y11.8 Z-1.492
X249.7 Y11.765 Z-1.5
G3 X250.453 Y11.544 I0.809 J1.36
G1 X251.623
X251.799 Y11.553
X251.922 Y11.569
X252.06 Y11.599
X252.212 Y11.644
X252.379 Y11.709
X252.558 Y11.796
X252.73 Y11.897
X252.894 Y12.008
X253.051 Y12.13
X253.202 Y12.26
X253.346 Y12.397
X253.483 Y12.54
G3 X253.981 Y13.16 I-4.426 J4.059
X254.596 Y14.181 I-7.322 J5.112
X255.248 Y15.631 I-12.649 J6.56
X255.945 Y17.703 I-22.267 J8.637
G1 X255.98 Y17.823
X255.996 Y17.887
X256.005 Y17.952
X256.008 Y18.017
G3 X255.458 Y18.172 I-0.3 J-0.01
G1 X255.442 Y18.149
X251.466 Y12.134
X251.384 Y12.009
G3 X251.623 Y11.544 I0.25 J-0.165
G1 X252.883
X253.014 Y11.551
X253.138 Y11.567
X253.276 Y11.596
X253.428 Y11.642
X253.595 Y11.707
X253.774 Y11.794
X253.945 Y11.894
X254.11 Y12.006
X254.267 Y12.128
X254.417 Y12.258
X254.561 Y12.395
X254.699 Y12.538
G3 X255.196 Y13.158 I-4.421 J4.053
X255.811 Y14.179 I-7.307 J5.098
G1 X255.902 Y14.356
X255.936 Y14.426
X255.976 Y14.525
X256 Y14.628
X256.008 Y14.734
G3 X255.494 Y14.933 I-0.3 J-0.01
G1 X255.434 Y14.872
X252.744 Y12.12
X252.679 Y12.054
G3 X252.883 Y11.544 I0.215 J-0.21
G1 X254.143
X254.23 Y11.548
X254.353 Y11.565
X254.491 Y11.594
X254.643 Y11.64
X254.81 Y11.705
X254.989 Y11.792
X255.161 Y11.892
X255.325 Y12.004
X255.482 Y12.126
X255.633 Y12.256
X255.777 Y12.393
X255.813 Y12.43
X255.919 Y12.573
X255.985 Y12.739
X256.008 Y12.915
G3 X255.539 Y13.153 I-0.3 J-0.01
G1 X255.419 Y13.071
X254.012 Y12.11
X253.985 Y12.092
G3 X254.143 Y11.544 I0.169 J-0.248
G1 X255.313
X255.447 Y11.551
X255.625 Y11.601
X255.782 Y11.7
X255.904 Y11.839
X255.981 Y12.007
X256.008 Y12.19
G3 X255.511 Y12.406 I-0.3 J-0.01
G1 X255.429 Y12.334
X255.178 Y12.115
X255.126 Y12.07
G3 X255.313 Y11.544 I0.197 J-0.226
G1 X255.673
X255.718 Y11.545
X255.763 Y11.552
X255.808 Y11.565
X255.853 Y11.588
X255.862 Y11.593
X255.902 Y11.625
X255.925 Y11.649
X255.943 Y11.673
X255.95 Y11.683
X255.976 Y11.728
X255.994 Y11.773
X256.005 Y11.818
X256.008 Y11.863
Y23.46
G0 Z2.501
X131.586 Y65.081
Z-0.9
G1 Z-1.2 F500
X131.58 Y65.085 Z-1.267
X131.561 Y65.097 Z-1.33
X131.53 Y65.115 Z-1.387
X131.489 Y65.139 Z-1.435
X131.44 Y65.168 Z-1.47
X131.386 Y65.201 Z-1.492
X131.329 Y65.235 Z-1.5
G3 X130.575 Y65.456 I-0.809 J-1.36
G1 X129.045
X128.846 Y65.446
X128.687 Y65.427
X128.504 Y65.39
X128.313 Y65.335
X128.126 Y65.266
X127.945 Y65.186
X127.767 Y65.096
X127.595 Y64.997
X127.427 Y64.891
G3 X126.793 Y64.412 I3.589 J-5.407
X125.799 Y63.439 I6.997 J-8.142
X124.663 Y62.058 I13.886 J-12.581
X123.096 Y59.758 I24.074 J-18.088
X120.755 Y55.378 I32.785 J-20.33
X117.528 Y32.467 I37.081 J-16.906
X121.492 Y20.018 I40.338 J5.989
X126.885 Y11.933 I36.409 J18.443
G1 X127.016 Y11.783
X127.025 Y11.773
X127.133 Y11.676
X127.26 Y11.604
X127.398 Y11.559
X127.543 Y11.544
X129.115
G0 Z2.501
X130.056 Y65.081
Z-0.9
G1 Z-1.2 F500
X130.05 Y65.085 Z-1.267
X130.031 Y65.097 Z-1.33
X130 Y65.115 Z-1.387
X129.959 Y65.139 Z-1.435
X129.91 Y65.168 Z-1.47
X129.856 Y65.201 Z-1.492
X129.799 Y65.235 Z-1.5
G3 X129.045 Y65.456 I-0.809 J-1.36
G1 X127.515
X127.316 Y65.446
X127.158 Y65.425
X126.977 Y65.387
X126.787 Y65.33
X126.601 Y65.259
X126.42 Y65.177
X126.244 Y65.084
X126.073 Y64.983
X125.906 Y64.875
G3 X125.279 Y64.387 I3.607 J-5.274
X124.434 Y63.546 I6.734 J-7.612
X123.309 Y62.155 I13.055 J-11.714
X121.875 Y60.007 I23.241 J-17.067
X119.815 Y56.15 I32.948 J-20.072
X115.928 Y39.823 I37.956 J-17.662
X120.273 Y19.821 I41.955 J-1.359
X125.315 Y11.977 I37.61 J18.629
G1 X125.442 Y11.824
X125.476 Y11.785
X125.586 Y11.683
X125.714 Y11.607
X125.856 Y11.56
X126.005 Y11.544
X127.425
G0 Z2.501
X128.526 Y65.081
Z-0.9
G1 Z-1.2 F500
X128.52 Y65.085 Z-1.267
X128.501 Y65.097 Z-1.33
X128.47 Y65.115 Z-1.387
X128.429 Y65.139 Z-1.435
X128.38 Y65.168 Z-1.47
X128.326 Y65.201 Z-1.492
X128.269 Y65.235 Z-1.5
G3 X127.515 Y65.456 I-0.809 J-1.36
G1 X125.985
X125.833 Y65.448
X125.678 Y65.428
X125.501 Y65.39
X125.31 Y65.333
X125.125 Y65.262
X124.944 Y65.178
X124.769 Y65.085
X124.598 Y64.983
X124.432 Y64.873
G3 X123.811 Y64.378 I3.562 J-5.113
X122.977 Y63.526 I6.659 J-7.352
X121.874 Y62.119 I12.959 J-11.29
X120.577 Y60.117 I23.011 J-16.333
X118.643 Y56.419 I33.394 J-19.82
X115.143 Y44.44 I39.013 J-17.897
X119.126 Y19.485 I42.742 J-5.974
X123.738 Y12.07 I38.735 J18.952
G1 X123.861 Y11.913
X123.954 Y11.8
X124.065 Y11.692
X124.196 Y11.611
X124.342 Y11.561
X124.495 Y11.544
X126.005
G0 Z2.501
X126.996 Y65.081
Z-0.9
G1 Z-1.2 F500
X126.99 Y65.085 Z-1.267
X126.971 Y65.097 Z-1.33
X126.94 Y65.115 Z-1.387
X126.899 Y65.139 Z-1.435
X126.85 Y65.168 Z-1.47
X126.796 Y65.201 Z-1.492
X126.739 Y65.235 Z-1.5
G3 X125.985 Y65.456 I-0.809 J-1.36
G1 X124.545
X124.372 Y65.447
X124.22 Y65.427
X124.047 Y65.39
X123.856 Y65.333
X123.671 Y65.262
X123.491 Y65.178
X123.316 Y65.083
X123.146 Y64.98
X122.981 Y64.869
G3 X122.363 Y64.369 I3.519 J-4.969
X121.54 Y63.507 I6.585 J-7.116
X120.457 Y62.083 I12.859 J-10.903
X119.192 Y60.062 I23.07 J-15.85
X117.394 Y56.517 I34.069 J-19.506
X114.243 Y46.282 I40.142 J-17.96
X117.801 Y19.518 I43.639 J-7.817
X122.291 Y12.027 I40.026 J18.901
G1 X122.413 Y11.87
X122.467 Y11.804
X122.578 Y11.694
X122.71 Y11.612
X122.857 Y11.561
X123.011 Y11.544
X124.365
G0 Z2.501
X125.556 Y65.081
Z-0.9
G1 Z-1.2 F500
X125.55 Y65.085 Z-1.267
X125.531 Y65.096 Z-1.33
X125.5 Y65.115 Z-1.387
X125.459 Y65.139 Z-1.435
X125.411 Y65.168 Z-1.47
X125.356 Y65.201 Z-1.492
X125.299 Y65.235 Z-1.5
G3 X124.545 Y65.456 I-0.809 J-1.36
G1 X123.105
X122.934 Y65.447
X122.785 Y65.428
X122.615 Y65.391
X122.424 Y65.334
X122.239 Y65.262
X122.059 Y65.178
X121.884 Y65.083
X121.715 Y64.979
X121.551 Y64.867
G3 X120.938 Y64.361 I3.481 J-4.846
X120.123 Y63.491 I6.514 J-6.907
X119.06 Y62.053 I12.745 J-10.544
X117.92 Y60.187 I22.68 J-15.132
X116.154 Y56.627 I34.378 J-19.267
X113.582 Y48.904 I41.075 J-17.969
X116.645 Y19.207 I44.297 J-10.439
X120.733 Y12.168 I41.141 J19.19
G1 X120.85 Y12.007
X120.97 Y11.848
X121.003 Y11.807
X121.114 Y11.696
X121.246 Y11.613
X121.394 Y11.562
X121.55 Y11.544
X123.011
G0 Z2.501
X124.117 Y65.081
Z-0.9
G1 Z-1.2 F500
X124.11 Y65.085 Z-1.267
X124.091 Y65.096 Z-1.33
X124.06 Y65.115 Z-1.387
X124.019 Y65.139 Z-1.435
X123.971 Y65.168 Z-1.47
X123.916 Y65.201 Z-1.492
X123.859 Y65.235 Z-1.5
G3 X123.105 Y65.456 I-0.809 J-1.36
G1 X121.665
X121.517 Y65.448
X121.369 Y65.429
X121.202 Y65.393
X121.013 Y65.337
X120.828 Y65.265
X120.648 Y65.18
X120.474 Y65.084
X120.305 Y64.98
X120.141 Y64.867
X119.982 Y64.748
G3 X119.389 Y64.218 I4.018 J-5.098
X118.48 Y63.167 I7.492 J-7.401
X117.466 Y61.693 I14.543 J-11.095
X116.192 Y59.445 I25.715 J-16.049
X114.467 Y55.645 I37.127 J-19.144
X111.464 Y43.525 I43.145 J-17.123
X115.399 Y19.089 I46.416 J-5.06
X119.296 Y12.168 I42.367 J19.301
G1 X119.411 Y12.006
X119.53 Y11.846
X119.557 Y11.812
X119.668 Y11.699
X119.801 Y11.614
X119.95 Y11.562
X120.107 Y11.544
X121.55
G0 Z2.501
X122.677 Y65.081
Z-0.9
G1 Z-1.2 F500
X122.67 Y65.085 Z-1.267
X122.651 Y65.096 Z-1.33
X122.62 Y65.115 Z-1.387
X122.579 Y65.139 Z-1.435
X122.531 Y65.168 Z-1.47
X122.476 Y65.2 Z-1.492
X122.419 Y65.235 Z-1.5
G3 X121.665 Y65.456 I-0.809 J-1.36
G1 X120.315
X120.117 Y65.446
X120.018 Y65.433
X119.861 Y65.405
X119.684 Y65.357
X119.497 Y65.29
X119.315 Y65.21
X119.139 Y65.118
X118.969 Y65.015
X118.803 Y64.905
X118.643 Y64.787
G3 X118.048 Y64.26 I3.751 J-4.84
X117.262 Y63.364 I6.842 J-6.79
X116.243 Y61.894 I13.175 J-10.223
X115.16 Y59.995 I23.455 J-14.635
X113.57 Y56.57 I35.729 J-18.671
X111.181 Y48.995 I43.469 J-17.874
X114.126 Y19.042 I46.698 J-10.53
X117.72 Y12.407 I43.633 J19.345
X118.122 Y11.825 I9.128 J5.864
G1 X118.233 Y11.707
X118.369 Y11.618
X118.521 Y11.563
X118.683 Y11.544
X120.107
G0 Z2.501
X121.327 Y65.081
Z-0.9
G1 Z-1.2 F500
X121.32 Y65.085 Z-1.267
X121.301 Y65.096 Z-1.33
X121.27 Y65.115 Z-1.387
X121.229 Y65.139 Z-1.435
X121.181 Y65.168 Z-1.47
X121.126 Y65.2 Z-1.492
X121.069 Y65.235 Z-1.5
G3 X120.315 Y65.456 I-0.809 J-1.36
G1 X118.875
X118.728 Y65.449
X118.584 Y65.43
X118.422 Y65.395
X118.239 Y65.34
X118.054 Y65.268
X117.875 Y65.183
X117.701 Y65.086
X117.532 Y64.98
X117.37 Y64.866
X117.212 Y64.746
G3 X116.626 Y64.209 I3.922 J-4.868
X115.854 Y63.3 I7.051 J-6.773
X114.856 Y61.816 I13.422 J-10.104
X113.799 Y59.902 I23.809 J-14.399
X112.253 Y56.457 I36.498 J-18.45
X110.027 Y49.246 I44.599 J-17.715
X112.906 Y18.882 I47.849 J-10.781
X116.335 Y12.383 I44.777 J19.469
X116.712 Y11.825 I8.648 J5.44
G1 X116.824 Y11.708
X116.96 Y11.618
X117.112 Y11.563
X117.273 Y11.544
X118.683
G0 Z2.501
X119.887 Y65.081
Z-0.9
G1 Z-1.2 F500
X119.88 Y65.085 Z-1.267
X119.861 Y65.096 Z-1.33
X119.83 Y65.115 Z-1.387
X119.789 Y65.139 Z-1.435
X119.741 Y65.168 Z-1.47
X119.686 Y65.2 Z-1.492
X119.629 Y65.235 Z-1.5
G3 X118.875 Y65.456 I-0.809 J-1.36
G1 X117.525
X117.352 Y65.447
X117.21 Y65.429
X117.05 Y65.394
X116.87 Y65.341
X116.685 Y65.268
X116.505 Y65.183
X116.332 Y65.086
X116.164 Y64.979
X116.001 Y64.865
X115.844 Y64.743
G3 X115.261 Y64.203 I3.885 J-4.772
X114.497 Y63.288 I6.986 J-6.616
X113.513 Y61.794 I13.328 J-9.845
X112.477 Y59.869 I23.801 J-14.058
X111.039 Y56.594 I36.705 J-18.066
X108.932 Y49.76 I45.543 J-17.781
X111.66 Y18.789 I48.942 J-11.296
X114.818 Y12.595 I45.991 J19.549
X115.245 Y11.924 I12.207 J7.301
G1 X115.31 Y11.835
X115.422 Y11.713
X115.559 Y11.621
X115.714 Y11.564
X115.878 Y11.544
X117.273
G0 Z2.501
X118.537 Y65.081
Z-0.9
G1 Z-1.2 F500
X118.53 Y65.085 Z-1.267
X118.511 Y65.096 Z-1.33
X118.48 Y65.115 Z-1.387
X118.44 Y65.139 Z-1.435
X118.391 Y65.168 Z-1.47
X118.336 Y65.2 Z-1.492
X118.279 Y65.235 Z-1.5
G3 X117.525 Y65.456 I-0.809 J-1.36
G1 X116.175
X115.99 Y65.447
X115.849 Y65.428
X115.691 Y65.394
X115.514 Y65.341
X115.328 Y65.269
X115.149 Y65.183
X114.976 Y65.086
X114.808 Y64.979
X114.646 Y64.864
X114.489 Y64.742
G3 X113.91 Y64.198 I3.85 J-4.686
X113.152 Y63.278 I6.924 J-6.475
X112.182 Y61.776 I13.23 J-9.606
X111.164 Y59.84 I23.769 J-13.732
X109.759 Y56.551 I37.11 J-17.801
X107.841 Y50.282 I46.49 J-17.652
X110.414 Y18.704 I50.031 J-11.817
X113.413 Y12.651 I47.153 J19.598
X113.83 Y11.974 I13.076 J7.587
G1 X113.92 Y11.845
X114.032 Y11.719
X114.17 Y11.624
X114.328 Y11.564
X114.495 Y11.544
X115.878
G0 Z2.501
X117.187 Y65.081
Z-0.9
G1 Z-1.2 F500
X117.18 Y65.085 Z-1.267
X117.161 Y65.096 Z-1.33
X117.13 Y65.115 Z-1.387
X117.09 Y65.139 Z-1.435
X117.041 Y65.168 Z-1.47
X116.986 Y65.2 Z-1.492
X116.929 Y65.235 Z-1.5
G3 X116.175 Y65.456 I-0.809 J-1.36
G1 X114.825
X114.639 Y65.447
X114.5 Y65.428
X114.344 Y65.395
X114.169 Y65.342
X113.983 Y65.27
X113.804 Y65.184
X113.631 Y65.087
X113.464 Y64.98
X113.302 Y64.864
X113.146 Y64.741
G3 X112.569 Y64.195 I3.817 J-4.608
X111.817 Y63.269 I6.866 J-6.346
X110.859 Y61.759 I13.125 J-9.38
X109.86 Y59.815 I23.7 J-13.413
X108.554 Y56.698 I37.179 J-17.41
X106.659 Y50.422 I47.377 J-17.726
X109.167 Y18.625 I51.209 J-11.958
X112.013 Y12.719 I48.298 J19.633
X112.42 Y12.036 I14.611 J8.236
G1 X112.53 Y11.87
X112.558 Y11.833
X112.669 Y11.712
X112.806 Y11.62
X112.961 Y11.563
X113.124 Y11.544
X114.375
G0 Z2.501
X115.837 Y65.081
Z-0.9
G1 Z-1.2 F500
X115.83 Y65.085 Z-1.267
X115.811 Y65.096 Z-1.33
X115.78 Y65.115 Z-1.387
X115.74 Y65.139 Z-1.435
X115.691 Y65.168 Z-1.47
X115.636 Y65.2 Z-1.492
X115.579 Y65.235 Z-1.5
G3 X114.825 Y65.456 I-0.809 J-1.36
G1 X113.475
X113.299 Y65.447
X113.162 Y65.429
X113.007 Y65.396
X112.834 Y65.344
X112.649 Y65.272
X112.469 Y65.186
X112.296 Y65.088
X112.129 Y64.98
X111.968 Y64.864
X111.812 Y64.741
G3 X111.237 Y64.192 I3.789 J-4.541
X110.491 Y63.262 I6.811 J-6.23
X109.643 Y61.918 I12.622 J-8.909
X108.646 Y59.972 I22.671 J-12.84
X107.422 Y57.037 I36.32 J-16.87
X105.664 Y51.341 I47.688 J-17.835
X106.132 Y23.822 I52.18 J-12.877
X107.921 Y18.553 I51.404 J14.518
X110.62 Y12.796 I49.597 J19.739
X111.016 Y12.107 I17.955 J9.864
G1 X111.123 Y11.94
X111.187 Y11.847
X111.299 Y11.721
X111.438 Y11.625
X111.596 Y11.565
X111.764 Y11.544
X113.124
G0 Z2.501
X114.487 Y65.081
Z-0.9
G1 Z-1.2 F500
X114.48 Y65.085 Z-1.267
X114.461 Y65.096 Z-1.33
X114.43 Y65.115 Z-1.387
X114.39 Y65.139 Z-1.435
X114.341 Y65.168 Z-1.47
X114.286 Y65.2 Z-1.492
X114.229 Y65.235 Z-1.5
G3 X113.475 Y65.456 I-0.809 J-1.36
G1 X112.125
X111.969 Y65.448
X111.833 Y65.43
X111.68 Y65.397
X111.508 Y65.346
X111.323 Y65.274
X111.143 Y65.188
X110.97 Y65.089
X110.804 Y64.981
X110.642 Y64.865
X110.487 Y64.741
X110.337 Y64.611
G3 X109.782 Y64.041 I4.343 J-4.781
X109.061 Y63.092 I7.523 J-6.468
X108.144 Y61.557 I13.96 J-9.379
X107.191 Y59.589 I24.703 J-13.182
X105.887 Y56.258 I39.111 J-17.228
X104.213 Y50.33 I49.615 J-17.214
X106.676 Y18.487 I53.651 J-11.867
X109.232 Y12.883 I50.581 J19.69
X109.619 Y12.188 I20.04 J10.679
G1 X109.723 Y12.019
X109.831 Y11.852
X109.844 Y11.834
X109.956 Y11.713
X110.093 Y11.621
X110.248 Y11.564
X110.412 Y11.544
X111.764
G0 Z2.501
X113.137 Y65.081
Z-0.9
G1 Z-1.2 F500
X113.13 Y65.085 Z-1.267
X113.111 Y65.096 Z-1.33
X113.08 Y65.115 Z-1.387
X113.04 Y65.139 Z-1.435
X112.991 Y65.168 Z-1.47
X112.936 Y65.2 Z-1.492
X112.879 Y65.235 Z-1.5
G3 X112.125 Y65.456 I-0.809 J-1.36
G1 X110.775
X110.648 Y65.449
X110.513 Y65.432
X110.361 Y65.399
X110.19 Y65.348
X110.005 Y65.276
X109.826 Y65.19
X109.653 Y65.091
X109.486 Y64.983
X109.325 Y64.866
X109.17 Y64.742
X109.02 Y64.611
G3 X108.468 Y64.039 I4.313 J-4.715
X107.752 Y63.086 I7.468 J-6.359
X106.846 Y61.545 I13.855 J-9.186
X105.907 Y59.57 I24.624 J-12.907
X104.693 Y56.417 I39.079 J-16.859
X102.993 Y50.29 I50.461 J-17.303
X105.431 Y18.426 I54.864 J-11.828
X107.851 Y12.978 I51.681 J19.696
X108.327 Y12.105 I17.5 J8.98
G1 X108.433 Y11.937
X108.49 Y11.852
X108.602 Y11.724
X108.741 Y11.626
X108.901 Y11.565
X109.07 Y11.544
X110.412
G0 Z2.501
X111.787 Y65.081
Z-0.9
G1 Z-1.2 F500
X111.78 Y65.085 Z-1.267
X111.761 Y65.096 Z-1.33
X111.73 Y65.115 Z-1.387
X111.69 Y65.139 Z-1.435
X111.641 Y65.168 Z-1.47
X111.586 Y65.2 Z-1.492
X111.529 Y65.235 Z-1.5
G3 X110.775 Y65.456 I-0.809 J-1.36
G1 X109.515
X109.329 Y65.447
X109.195 Y65.429
X109.044 Y65.397
X108.875 Y65.346
X108.69 Y65.274
X108.511 Y65.187
X108.339 Y65.089
X108.172 Y64.98
X108.012 Y64.863
X107.857 Y64.738
X107.707 Y64.607
G3 X107.158 Y64.033 I4.288 J-4.654
X106.447 Y63.076 I7.422 J-6.258
X105.551 Y61.528 I13.766 J-9.007
X104.627 Y59.547 I24.577 J-12.66
X103.436 Y56.385 I39.385 J-16.639
X101.857 Y50.636 I51.201 J-17.156
X103.588 Y20.049 I55.989 J-12.174
X104.189 Y18.363 I50.875 J17.177
X106.39 Y13.253 I53.246 J19.909
X106.942 Y12.195 I21.445 J10.515
G1 X107.044 Y12.025
X107.151 Y11.857
X107.163 Y11.839
X107.275 Y11.716
X107.413 Y11.622
X107.569 Y11.564
X107.735 Y11.544
X109.07
G0 Z2.501
X110.527 Y65.081
Z-0.9
G1 Z-1.2 F500
X110.52 Y65.085 Z-1.267
X110.501 Y65.096 Z-1.33
X110.47 Y65.115 Z-1.387
X110.43 Y65.139 Z-1.435
X110.381 Y65.168 Z-1.47
X110.326 Y65.2 Z-1.492
X110.269 Y65.235 Z-1.5
G3 X109.515 Y65.456 I-0.809 J-1.36
G1 X108.165
X108.024 Y65.449
X107.891 Y65.431
X107.741 Y65.399
X107.572 Y65.349
X107.387 Y65.277
X107.208 Y65.19
X107.036 Y65.091
X106.869 Y64.982
X106.709 Y64.865
X106.555 Y64.74
X106.406 Y64.608
G3 X105.858 Y64.032 I4.262 J-4.6
X105.152 Y63.072 I7.37 J-6.164
X104.264 Y61.519 I13.661 J-8.836
X103.354 Y59.531 I24.514 J-12.426
X102.247 Y56.55 I39.207 J-16.255
X100.681 Y50.798 I51.84 J-17.204
X100.259 Y28.28 I57.105 J-12.333
X102.945 Y18.311 I57.476 J10.142
X105.108 Y13.184 I54.154 J19.829
X105.56 Y12.299 I22.83 J11.082
G1 X105.658 Y12.125
X105.76 Y11.955
X105.823 Y11.86
X105.935 Y11.728
X106.076 Y11.628
X106.237 Y11.565
X106.408 Y11.544
X107.735
G0 Z2.501
X109.177 Y65.081
Z-0.9
G1 Z-1.2 F500
X109.17 Y65.085 Z-1.267
X109.151 Y65.096 Z-1.33
X109.12 Y65.115 Z-1.387
X109.08 Y65.139 Z-1.435
X109.031 Y65.168 Z-1.47
X108.976 Y65.2 Z-1.492
X108.919 Y65.235 Z-1.5
G3 X108.165 Y65.456 I-0.809 J-1.36
G1 X106.905
X106.719 Y65.447
X106.587 Y65.429
X106.438 Y65.397
X106.271 Y65.347
X106.086 Y65.275
X105.907 Y65.188
X105.735 Y65.09
X105.569 Y64.98
X105.409 Y64.862
X105.255 Y64.737
X105.106 Y64.605
G3 X104.561 Y64.027 I4.241 J-4.548
X103.859 Y63.063 I7.328 J-6.077
X102.981 Y61.505 I13.582 J-8.681
X102.083 Y59.512 I24.455 J-12.203
X100.996 Y56.523 I39.434 J-16.04
X99.546 Y51.151 I52.436 J-17.035
X98.651 Y30.99 I58.196 J-12.684
X101.705 Y18.257 I59.158 J7.454
X103.747 Y13.294 I55.339 J19.871
X104.187 Y12.403 I25.228 J11.9
X104.51 Y11.848 I5.693 J2.942
G1 X104.622 Y11.721
X104.761 Y11.625
X104.92 Y11.565
X105.088 Y11.544
X106.408
G0 Z2.501
X107.917 Y65.081
Z-0.9
G1 Z-1.2 F500
X107.91 Y65.085 Z-1.267
X107.891 Y65.096 Z-1.33
X107.86 Y65.115 Z-1.387
X107.82 Y65.139 Z-1.435
X107.771 Y65.168 Z-1.47
X107.716 Y65.2 Z-1.492
X107.659 Y65.235 Z-1.5
G3 X106.905 Y65.456 I-0.809 J-1.36
G1 X105.555
X105.427 Y65.449
X105.295 Y65.432
X105.147 Y65.4
X104.981 Y65.351
X104.796 Y65.279
X104.617 Y65.192
X104.445 Y65.093
X104.279 Y64.983
X104.119 Y64.865
X103.965 Y64.739
X103.817 Y64.607
G3 X103.273 Y64.027 I4.216 J-4.501
X102.575 Y63.061 I7.278 J-5.994
X101.705 Y61.499 I13.475 J-8.527
X100.894 Y59.684 I23.772 J-11.712
X99.811 Y56.694 I38.744 J-15.72
X98.456 Y51.708 I52.524 J-16.948
X97.059 Y35.713 I59.144 J-13.226
X100.463 Y18.212 I60.777 J2.742
X102.388 Y13.417 I56.431 J19.865
X102.907 Y12.343 I23.523 J10.715
G1 X103.002 Y12.168
X103.102 Y11.996
X103.182 Y11.87
X103.294 Y11.735
X103.436 Y11.631
X103.599 Y11.566
X103.774 Y11.544
X105.088
G0 Z2.501
X106.567 Y65.081
Z-0.9
G1 Z-1.2 F500
X106.56 Y65.085 Z-1.267
X106.541 Y65.096 Z-1.33
X106.51 Y65.115 Z-1.387
X106.47 Y65.139 Z-1.435
X106.421 Y65.168 Z-1.47
X106.366 Y65.2 Z-1.492
X106.309 Y65.235 Z-1.5
G3 X105.555 Y65.456 I-0.809 J-1.36
G1 X104.295
X104.134 Y65.448
X104.003 Y65.431
X103.856 Y65.399
X103.691 Y65.35
X103.508 Y65.278
X103.329 Y65.192
X103.157 Y65.092
X102.991 Y64.983
X102.831 Y64.864
X102.678 Y64.738
X102.53 Y64.605
G3 X101.987 Y64.024 I4.196 J-4.457
X101.293 Y63.055 I7.238 J-5.918
X100.431 Y61.488 I13.402 J-8.395
X99.631 Y59.669 I23.694 J-11.512
X98.566 Y56.673 I38.873 J-15.504
X97.28 Y51.873 I53.07 J-16.788
X95.827 Y37.07 I60.225 J-13.382
X99.224 Y18.166 I62.009 J1.385
X101.036 Y13.54 I57.522 J19.865
X101.542 Y12.459 I25.802 J11.425
G1 X101.634 Y12.283
X101.73 Y12.109
X101.83 Y11.937
X101.88 Y11.861
X101.992 Y11.729
X102.133 Y11.629
X102.294 Y11.566
X102.466 Y11.544
X103.774
G0 Z2.501
X105.307 Y65.081
Z-0.9
G1 Z-1.2 F500
X105.3 Y65.085 Z-1.267
X105.281 Y65.096 Z-1.33
X105.251 Y65.115 Z-1.387
X105.21 Y65.139 Z-1.435
X105.161 Y65.168 Z-1.47
X105.106 Y65.2 Z-1.492
X105.049 Y65.235 Z-1.5
G3 X104.295 Y65.456 I-0.809 J-1.36
G1 X102.945
X102.853 Y65.451
X102.722 Y65.434
X102.575 Y65.403
X102.411 Y65.353
X102.229 Y65.282
X102.05 Y65.196
X101.877 Y65.096
X101.712 Y64.987
X101.552 Y64.868
X101.399 Y64.742
X101.251 Y64.609
G3 X100.71 Y64.026 I4.171 J-4.415
X100.019 Y63.055 I7.193 J-5.848
X99.251 Y61.663 I12.916 J-8.037
X98.373 Y59.661 I23.166 J-11.349
X97.384 Y56.848 I38.279 J-15.048
X96.148 Y52.241 I53.133 J-16.716
X94.637 Y39.629 I61.144 J-13.724
X97.984 Y18.128 I63.212 J-1.171
X99.688 Y13.673 I58.633 J19.866
X100.18 Y12.587 I28.198 J12.133
G1 X100.269 Y12.408
X100.36 Y12.232
X100.457 Y12.058
X100.559 Y11.888
X100.582 Y11.853
X100.694 Y11.724
X100.834 Y11.626
X100.993 Y11.565
X101.163 Y11.544
X102.466
G0 Z2.501
X103.957 Y65.081
Z-0.9
G1 Z-1.2 F500
X103.95 Y65.085 Z-1.267
X103.931 Y65.096 Z-1.33
X103.901 Y65.115 Z-1.387
X103.86 Y65.139 Z-1.435
X103.811 Y65.168 Z-1.47
X103.756 Y65.2 Z-1.492
X103.699 Y65.234 Z-1.5
G3 X102.945 Y65.456 I-0.809 J-1.36
G1 X101.685
X101.57 Y65.45
X101.44 Y65.433
X101.294 Y65.402
X101.131 Y65.353
X100.95 Y65.282
X100.771 Y65.196
X100.599 Y65.096
X100.433 Y64.986
X100.274 Y64.867
X100.121 Y64.741
X99.973 Y64.608
G3 X99.434 Y64.024 I4.151 J-4.374
X98.746 Y63.05 I7.158 J-5.782
X97.985 Y61.655 I12.857 J-7.927
X97.117 Y59.648 I23.086 J-11.171
X96.142 Y56.83 I38.357 J-14.843
X94.93 Y52.217 I53.784 J-16.607
X93.483 Y40.793 I62.2 J-13.682
X96.747 Y18.088 I64.372 J-2.333
X98.423 Y13.622 I59.411 J19.754
X98.912 Y12.534 I26.239 J11.125
G1 X99 Y12.356
X99.092 Y12.179
X99.19 Y12.006
X99.269 Y11.877
X99.381 Y11.739
X99.524 Y11.633
X99.689 Y11.567
X99.865 Y11.544
X101.163
G0 Z2.501
X102.697 Y65.081
Z-0.9
G1 Z-1.2 F500
X102.69 Y65.085 Z-1.267
X102.671 Y65.096 Z-1.33
X102.641 Y65.115 Z-1.387
X102.6 Y65.139 Z-1.435
X102.551 Y65.168 Z-1.47
X102.496 Y65.2 Z-1.492
X102.439 Y65.234 Z-1.5
G3 X101.685 Y65.456 I-0.809 J-1.36
G1 X100.425
X100.293 Y65.449
X100.164 Y65.432
X100.018 Y65.401
X99.856 Y65.352
X99.676 Y65.282
X99.497 Y65.196
X99.325 Y65.096
X99.159 Y64.986
X99 Y64.867
X98.847 Y64.74
X98.7 Y64.607
G3 X98.162 Y64.021 I4.132 J-4.337
X97.478 Y63.045 I7.121 J-5.719
X96.722 Y61.647 I12.796 J-7.822
X95.864 Y59.636 I23.004 J-11.002
X94.904 Y56.813 I38.407 J-14.641
X93.754 Y52.389 I54.15 J-16.428
X92.319 Y41.363 I63.217 J-13.837
X95.511 Y18.05 I65.534 J-2.902
X97.085 Y13.758 I60.432 J19.731
X97.561 Y12.664 I28.88 J11.908
G1 X97.646 Y12.485
X97.734 Y12.306
X97.827 Y12.131
X97.926 Y11.958
X97.982 Y11.87
X98.093 Y11.734
X98.235 Y11.631
X98.399 Y11.566
X98.573 Y11.544
X99.865
G0 Z2.501
X101.437 Y65.081
Z-0.9
G1 Z-1.2 F500
X101.43 Y65.085 Z-1.267
X101.411 Y65.096 Z-1.33
X101.381 Y65.115 Z-1.387
X101.34 Y65.139 Z-1.435
X101.291 Y65.168 Z-1.47
X101.236 Y65.2 Z-1.492
X101.179 Y65.234 Z-1.5
G3 X100.425 Y65.456 I-0.809 J-1.36
G1 X99.165
X99.021 Y65.449
X98.892 Y65.432
X98.747 Y65.401
X98.585 Y65.352
X98.406 Y65.282
X98.227 Y65.196
X98.055 Y65.096
X97.89 Y64.986
X97.731 Y64.867
X97.578 Y64.74
X97.431 Y64.606
G3 X96.894 Y64.02 I4.114 J-4.302
X96.213 Y63.041 I7.085 J-5.659
X95.462 Y61.64 I12.737 J-7.724
X94.614 Y59.625 I22.909 J-10.836
X93.724 Y56.988 I37.878 J-14.246
X92.58 Y52.563 I54.245 J-16.391
X91.231 Y43.124 I64.019 J-13.96
X94.275 Y18.014 I66.626 J-4.663
X95.751 Y13.898 I61.459 J19.712
X96.297 Y12.618 I27.862 J11.122
G1 X96.383 Y12.438
X96.471 Y12.26
X96.565 Y12.085
X96.665 Y11.913
X96.698 Y11.862
X96.81 Y11.73
X96.951 Y11.629
X97.112 Y11.566
X97.284 Y11.544
X98.445
G0 Z2.501
X100.177 Y65.081
Z-0.9
G1 Z-1.2 F500
X100.17 Y65.085 Z-1.267
X100.151 Y65.096 Z-1.33
X100.121 Y65.115 Z-1.387
X100.08 Y65.139 Z-1.435
X100.031 Y65.168 Z-1.47
X99.976 Y65.2 Z-1.492
X99.919 Y65.234 Z-1.5
G3 X99.165 Y65.456 I-0.809 J-1.36
G1 X97.905
X97.752 Y65.448
X97.624 Y65.431
X97.479 Y65.4
X97.318 Y65.352
X97.14 Y65.283
X96.961 Y65.196
X96.789 Y65.096
X96.624 Y64.986
X96.465 Y64.867
X96.312 Y64.739
X96.165 Y64.605
G3 X95.63 Y64.018 I4.097 J-4.27
X94.952 Y63.038 I7.049 J-5.603
X94.206 Y61.634 I12.674 J-7.628
X93.366 Y59.615 I22.813 J-10.679
X92.489 Y56.974 I37.883 J-14.053
X91.363 Y52.544 I54.786 J-16.279
X90.1 Y43.894 I64.947 J-13.904
X93.041 Y17.981 I67.757 J-5.433
X94.494 Y13.856 I62.004 J19.53
X94.954 Y12.756 I29.722 J11.754
G1 X95.036 Y12.575
X95.121 Y12.395
X95.21 Y12.217
X95.305 Y12.042
X95.406 Y11.871
X95.417 Y11.855
X95.529 Y11.725
X95.669 Y11.627
X95.829 Y11.565
X95.999 Y11.544
X97.284
G0 Z2.501
X98.917 Y65.081
Z-0.9
G1 Z-1.2 F500
X98.91 Y65.085 Z-1.267
X98.891 Y65.096 Z-1.33
X98.861 Y65.115 Z-1.387
X98.82 Y65.139 Z-1.435
X98.771 Y65.168 Z-1.47
X98.716 Y65.2 Z-1.492
X98.659 Y65.234 Z-1.5
G3 X97.905 Y65.456 I-0.809 J-1.36
G1 X96.645
X96.488 Y65.448
X96.36 Y65.431
X96.216 Y65.4
X96.055 Y65.352
X95.878 Y65.283
X95.699 Y65.196
X95.527 Y65.097
X95.361 Y64.986
X95.203 Y64.867
X95.05 Y64.739
X94.903 Y64.605
G3 X94.369 Y64.017 I4.083 J-4.241
X93.694 Y63.034 I7.019 J-5.552
X92.953 Y61.628 I12.616 J-7.54
X92.121 Y59.606 I22.717 J-10.528
X91.256 Y56.961 I37.88 J-13.867
X90.189 Y52.721 I54.995 J-16.086
X88.908 Y43.873 I65.936 J-14.064
X91.807 Y17.949 I68.942 J-5.413
X93.168 Y14.003 I62.902 J19.471
X93.694 Y12.715 I28.889 J11.066
G1 X93.777 Y12.534
X93.862 Y12.355
X93.951 Y12.177
X94.047 Y12.003
X94.119 Y11.883
X94.231 Y11.742
X94.375 Y11.635
X94.541 Y11.567
X94.719 Y11.544
X95.999
G0 Z2.501
X97.657 Y65.081
Z-0.9
G1 Z-1.2 F500
X97.65 Y65.085 Z-1.267
X97.631 Y65.096 Z-1.33
X97.601 Y65.115 Z-1.387
