(1001)
(Machine)
(  vendor: Autodesk)
(  description: Generic 3-axis)
(T1  D=3 CR=0 - ZMIN=-28.2 - flat end mill)
G90 G94
G17
G21
G28 G91 Z0
G90

(Adaptive4)
T1
S15000 M3
G54
G0 X196.145 Y39.873
Z2.502
Z2
G3 X195.38 Y37.127 Z1.844 I-0.383 J-1.373 F333.3
X196.145 Y39.873 Z1.687 I0.383 J1.373
X195.38 Y37.127 Z1.531 I-0.383 J-1.373
X196.145 Y39.873 Z1.375 I0.383 J1.373
X195.38 Y37.127 Z1.218 I-0.383 J-1.373
X196.145 Y39.873 Z1.062 I0.383 J1.373
X195.38 Y37.127 Z0.906 I-0.383 J-1.373
X196.145 Y39.873 Z0.749 I0.383 J1.373
X195.38 Y37.127 Z0.593 I-0.383 J-1.373
X196.145 Y39.873 Z0.437 I0.383 J1.373
X195.38 Y37.127 Z0.28 I-0.383 J-1.373
X196.145 Y39.873 Z0.124 I0.383 J1.373
X195.38 Y37.127 Z-0.032 I-0.383 J-1.373
X196.145 Y39.873 Z-0.189 I0.383 J1.373
X195.38 Y37.127 Z-0.345 I-0.383 J-1.373
X196.145 Y39.873 Z-0.501 I0.383 J1.373
X195.38 Y37.127 Z-0.658 I-0.383 J-1.373
X196.145 Y39.873 Z-0.814 I0.383 J1.373
X195.38 Y37.127 Z-0.97 I-0.383 J-1.373
X196.145 Y39.873 Z-1.127 I0.383 J1.373
X195.38 Y37.127 Z-1.283 I-0.383 J-1.373
X196.145 Y39.873 Z-1.439 I0.383 J1.373
X195.38 Y37.127 Z-1.596 I-0.383 J-1.373
X196.145 Y39.873 Z-1.752 I0.383 J1.373
X195.38 Y37.127 Z-1.908 I-0.383 J-1.373
X197.187 Y38.5 Z-2 I0.383 J1.373
X194.337 Y38.5 I-1.425 J0
X197.187 Y38.5 I1.425 J0
G1 X197.217 Y39.123 F750
G3 X196.942 Y40.154 I-0.938 J0.301
X195.081 Y40.617 I-1.299 J-1.246
X194.303 Y36.759 I0.622 J-2.133
X197.88 Y37.653 I1.469 J1.726
X198.238 Y39.028 I-2.86 J1.479
X195.997 Y41.576 I-2.523 J0.039
X192.734 Y39.571 I-0.419 J-2.976
X198.121 Y36.291 I3.026 J-1.095
X199.012 Y40.296 I-2.757 J2.715
X194.624 Y42.488 I-3.434 J-1.387
X191.792 Y37.005 I1.005 J-3.992
X193.188 Y35.113 I3.84 J1.372
X198.872 Y35.583 I2.581 J3.392
X199.509 Y41.574 I-3.367 J3.387
X192.945 Y42.915 I-3.982 J-2.757
X191.331 Y35.573 I2.707 J-4.444
X199.248 Y34.471 I4.44 J2.911
X200.189 Y42.469 I-3.716 J4.492
X197.146 Y44.516 I-4.644 J-3.617
X189.866 Y40.928 I-1.611 J-5.911
X198.519 Y32.714 I5.885 J-2.464
X202.444 Y39.49 I-2.961 J6.24
X195.877 Y45.828 I-6.843 J-0.519
X189.447 Y42.514 I-0.358 J-7.198
X195.331 Y30.986 I6.285 J-4.058
X201.412 Y33.458 I0.44 J7.634
X200.682 Y45.133 I-5.847 J5.494
X191.329 Y45.822 I-5.17 J-6.353
X187.984 Y42.217 I4.175 J-7.229
X197.037 Y29.938 I7.765 J-3.752
X203.49 Y34.383 I-1.326 J8.831
X196.626 Y48.032 I-7.901 J4.577
X191.184 Y47.038 I-1.124 J-9.242
X186.983 Y34.188 I4.453 J-8.568
X200.275 Y29.801 I8.786 J4.291
X202.4 Y46.647 I-4.706 J9.15
X189.662 Y47.46 I-6.897 J-7.863
X187.312 Y31.577 I5.988 J-9.001
X201.407 Y29.123 I8.463 J6.903
X203.842 Y31.056 I-5.347 J9.236
X194.163 Y50.297 I-8.275 J7.893
X183.822 Y40.142 I1.382 J-11.749
X184.798 Y33.445 I11.749 J-1.709
X202.76 Y28.631 I10.981 J5.056
X198.093 Y51.272 I-7.18 J10.321
X182.914 Y41.512 I-2.567 J-12.691
X196.896 Y25.318 I12.826 J-3.059
X202.23 Y26.936 I-1.072 J13.136
X194.331 Y52.631 I-6.662 J12.014
X183.559 Y46.029 I1.178 J-14.011
X198.285 Y24.338 I12.181 J-7.574
X208.581 Y31.721 I-2.54 J14.413
X210.121 Y35.791 I-12.722 J7.141
X194.692 Y53.816 I-14.548 J3.163
X180.375 Y40.5 I0.845 J-15.263
G1 X180.296 Y39.882
X180.252 Y39.259
X180.233 Y38.636
G3 X202.771 Y24.613 I15.536 J-0.153
X211.588 Y39.925 I-7.16 J14.318
X194.228 Y54.948 I-16.019 J-0.97
X179.15 Y39.991 I1.313 J-16.402
G1 X179.095 Y39.369
X179.072 Y38.746
X179.073 Y38.122
G3 X203.311 Y23.583 I16.697 J0.363
X212.643 Y36.796 I-7.67 J15.319
X195.445 Y56.162 I-17.06 J2.169
X179.069 Y44.771 I0.07 J-17.568
X199.316 Y20.986 I16.675 J-6.315
X209.788 Y27.307 I-3.538 J17.698
X194.623 Y57.306 I-14.217 J11.646
X186.857 Y55.203 I0.801 J-18.349
X181.112 Y26.359 I8.792 J-16.745
X195.877 Y19.46 I14.627 J12.055
X213.758 Y31.822 I-0.151 J19.33
X205.613 Y55.714 I-18.14 J7.15
X181.474 Y52.678 I-10.125 J-16.982
X177.359 Y30.183 I14.153 J-14.213
X205.278 Y20.66 I18.415 J8.303
X215.688 Y34.038 I-9.611 J18.218
X196.257 Y59.651 I-20.105 J4.924
X183.341 Y55.786 I-0.78 J-20.903
X183.879 Y20.742 I12.339 J-17.337
X192.527 Y17.37 I11.778 J17.432
X213.649 Y26.631 I3.242 J21.322
X213.644 Y51.295 I-18.047 J12.328
X185.963 Y58.669 I-18.136 J-12.437
X173.994 Y44.251 I9.551 J-20.105
X203.064 Y17.165 I21.761 J-5.787
G1 X203.655 Y17.365
X204.237 Y17.59
X204.813 Y17.831
G3 X207.369 Y58.759 I-9.233 J21.12
X177.868 Y53.962 I-11.88 J-20.053
X172.092 Y37.284 I17.687 J-15.465
X206.155 Y17.167 I23.676 J1.193
X209.388 Y19.045 I-9.395 J19.898
X206.088 Y60.779 I-13.815 J19.905
X174.483 Y51.309 I-10.594 J-22.12
X170.902 Y37.622 I21.001 J-12.805
X205.332 Y15.51 I24.864 J0.855
X207.59 Y16.57 I-7.733 J19.415
X211.136 Y59.03 I-12.016 J22.381
X178.382 Y57.816 I-15.647 J-20.281
X170.618 Y45.258 I17.051 J-19.22
X198.512 Y12.576 I25.128 J-6.798
X221.062 Y31.458 I-2.796 J26.245
X219.599 Y50.316 I-25.365 J7.518
X198.287 Y65.392 I-24.034 J-11.372
G1 X193.92 Y65.391
X193.297 Y65.36
G3 X188.382 Y64.567 I0.684 J-19.88
X168.848 Y34.404 I7.19 J-26.063
X170.244 Y28.976 I25.928 J3.777
X191.415 Y11.602 I25.503 J9.491
G1 X198.881 Y11.609
G3 X203.781 Y12.46 I-0.414 J16.915
X222.229 Y31.251 I-8.07 J26.374
X221.442 Y49.006 I-26.521 J7.719
X204.042 Y65.379 I-25.846 J-10.035
G1 X203.969 Y65.387
X203.896 Y65.391
X198.287
G3 X198.057 Y65.284 I0 J-0.3
G1 X198.011 Y65.239
X197.957 Y65.206
X197.896 Y65.185
X197.832 Y65.177
X197.566 Y65.172
X194.832 Y65.128
X194.776 Y65.132
X194.723 Y65.146
X194.673 Y65.17
X194.666 Y65.174
G3 X193.92 Y65.391 I-0.802 J-1.365
G1 X188.25
G3 X185.973 Y64.991 I0.143 J-7.509
X179.854 Y61.932 I7.861 J-23.373
X170.514 Y25.474 I15.776 J-23.467
X186.513 Y11.625 I25.188 J12.933
G1 X186.591 Y11.614
X186.67 Y11.61
X191.416 Y11.609
G3 X191.67 Y11.768 I-0.01 J0.3
X191.497 Y12.657 I-0.634 J0.338
X186.924 Y11.768 I-1.926 J-2.3
G2 X186.67 Y11.61 I-0.265 J0.141
G1 X184.706 F675
G2 X182.996 Y11.932 I0.095 J5.201
X179.682 Y13.657 I5.9 J15.378
X170.144 Y53.238 I16.021 J24.801
X183.573 Y65.338 I25.382 J-14.668
G1 X183.666 Y65.364
X183.76 Y65.384
X183.855 Y65.39
X188.25 Y65.391
G2 X188.504 Y65.232 I-0.01 J-0.3 F750
X188.099 Y63.96 I-0.822 J-0.438
X184.109 Y65.232 I-1.342 J2.683
G3 X183.855 Y65.39 I-0.265 J-0.141
G1 X182.297
G3 X180.969 Y65.138 I0.09 J-4.102
X178.761 Y64.015 I3.583 J-9.774
X169.031 Y53.655 I16.303 J-25.061
X169.038 Y23.243 I26.629 J-15.2
X179.802 Y12.188 I26.574 J15.106
G1 X180.346 Y11.882
X180.702 Y11.692
X180.807 Y11.647
X180.918 Y11.619
X181.032 Y11.61
X184.706
G3 X184.96 Y11.768 I-0.01 J0.3
X184.05 Y13.355 I-0.953 J0.508
X181.286 Y11.769 I-0.116 J-2.998
G2 X181.032 Y11.61 I-0.265 J0.141
G1 X179.745 F675
G2 X178.296 Y11.976 I0.177 J3.746
X176.175 Y13.274 I4.356 J9.501
X167.732 Y23.168 I18.953 J24.722
X168.308 Y54.766 I27.934 J15.296
X177.631 Y64.692 I26.997 J-16.018
G1 X178.16 Y65.024
X178.606 Y65.291
X178.719 Y65.345
X178.84 Y65.379
X178.965 Y65.39
X182.297
G2 X182.551 Y65.231 I-0.01 J-0.3 F750
X182.514 Y64.884 I-0.275 J-0.147
G1 X182.447 Y64.809
G2 X180.985 Y64.172 I-1.463 J1.364
G1 X180.984
G2 X179.219 Y65.231 I0 J2
G3 X178.965 Y65.39 I-0.265 J-0.141
G1 X177.902
G3 X176.545 Y65.068 I0.071 J-3.318
X174.528 Y63.795 I3.789 J-8.238
X168.263 Y56.891 I19.372 J-23.876
X167.36 Y21.439 I27.398 J-18.435
X175.136 Y12.577 I27.959 J16.69
X176.487 Y11.654 I8.517 J11.02
G1 X176.616 Y11.622
X176.746 Y11.61
X179.745
G3 X179.999 Y11.769 I-0.01 J0.3
X179.779 Y12.552 I-0.519 J0.277
X177 Y11.769 I-1.014 J-1.724
G2 X176.746 Y11.61 I-0.265 J0.141
G1 X175.776 F675
G2 X174.235 Y12.074 I0.138 J3.251
X172.271 Y13.519 I4.721 J8.471
X166.076 Y21.297 I22.026 J23.9
X166.189 Y55.821 I29.587 J17.166
X173.373 Y64.384 I28.685 J-16.773
X174.698 Y65.342 I8.332 J-10.127
G1 X174.832 Y65.376
X174.968 Y65.39
X177.902
G2 X178.157 Y65.231 I-0.01 J-0.3 F750
X177.89 Y64.387 I-0.546 J-0.291
X175.222 Y65.231 I-0.903 J1.784
G3 X174.968 Y65.39 I-0.265 J-0.141
G1 X174.075
G3 X172.643 Y64.966 I0.102 J-2.98
X170.749 Y63.542 I4.263 J-7.64
X165.349 Y56.71 I22.281 J-23.164
X164.881 Y20.999 I30.31 J-18.256
X170.957 Y13.121 I30.243 J17.045
X172.74 Y11.661 I9.677 J10
G1 X172.882 Y11.625
X173.024 Y11.61
X175.776
G3 X176.03 Y11.769 I-0.01 J0.3
X175.629 Y12.741 I-0.601 J0.32
X173.278 Y11.769 I-0.586 J-1.912
G2 X173.024 Y11.61 I-0.265 J0.141
G1 X172.091 Y11.611 F675
G2 X170.752 Y12.069 I0.215 J2.81
X168.919 Y13.558 I4.422 J7.32
X164.075 Y20.038 I23.782 J22.829
X164.107 Y56.943 I31.585 J18.425
X169.388 Y63.873 I30.209 J-17.545
X171.11 Y65.337 I9.056 J-8.91
G1 X171.254 Y65.374
X171.399 Y65.389
X174.075 Y65.39
G2 X174.33 Y65.231 I-0.01 J-0.3 F750
X173.873 Y64.224 I-0.615 J-0.328
X171.653 Y65.231 I-0.455 J1.948
G3 X171.399 Y65.389 I-0.265 J-0.141
G1 X170.532
G3 X169.3 Y64.993 I0.154 J-2.59
X167.561 Y63.592 I3.824 J-6.525
X163.44 Y58.122 I22.713 J-21.401
X162.711 Y20.033 I32.209 J-19.667
X167.827 Y12.98 I31.106 J17.18
G1 X168.277 Y12.547
X168.738 Y12.127
X169.177 Y11.769
X169.311 Y11.682
X169.462 Y11.629
X169.62 Y11.611
X172.091
G3 X172.345 Y11.769 I-0.01 J0.3
X171.751 Y12.825 I-0.634 J0.338
X169.874 Y11.769 I-0.112 J-1.997
G2 X169.62 Y11.611 I-0.265 J0.141
G1 X168.831 F675
G2 X167.683 Y11.962 I0.105 J2.396
X166.053 Y13.275 I3.365 J5.844
X162.688 Y17.76 I21.047 J19.296
X161.438 Y57.027 I32.969 J20.703
X166.034 Y63.69 I32.186 J-17.286
X167.783 Y65.326 I9.232 J-8.109
G1 X167.937 Y65.371
X168.094 Y65.389
X170.532
G2 X170.786 Y65.231 I-0.01 J-0.3 F750
X170.172 Y64.172 I-0.635 J-0.339
X168.348 Y65.231 I-0.059 J1.999
G3 X168.094 Y65.389 I-0.265 J-0.141
G1 X167.271
G3 X166.112 Y64.994 I0.157 J-2.359
X164.483 Y63.6 I3.644 J-5.905
X161.227 Y59.036 I22.091 J-19.207
X160.222 Y19.654 I34.421 J-20.582
X164.344 Y13.418 I32.84 J17.226
X166.103 Y11.679 I9.189 J7.537
G1 X166.262 Y11.63
X166.425 Y11.611
X168.831
G3 X169.085 Y11.769 I-0.01 J0.3
X168.452 Y12.829 I-0.636 J0.339
X166.679 Y11.77 I-0.008 J-2
G2 X166.425 Y11.611 I-0.265 J0.141
G1 X165.712 F675
G2 X164.625 Y11.936 I0.063 J2.188
X163.142 Y13.157 I3.025 J5.187
X160.571 Y16.68 I17.872 J15.739
X159.158 Y57.784 I35.079 J21.783
X162.88 Y63.539 I32.899 J-17.198
X164.632 Y65.318 I9.124 J-7.233
G1 X164.794 Y65.369
X164.96 Y65.389
X167.271
G2 X167.561 Y65.079 I-0.01 J-0.3 F750
X167.36 Y64.795 I-0.316 J0.011
X165.169 Y65.294 I-0.729 J1.863
G1 X165.125 Y65.333
X165.074 Y65.362
X165.018 Y65.381
X164.96 Y65.389
X164.217
G3 X163.136 Y65.036 I0.105 J-2.154
X161.661 Y63.766 I3.165 J-5.169
X159.159 Y60.193 I18.527 J-15.633
X157.902 Y18.981 I36.483 J-21.739
X161.563 Y13.188 I31.984 J16.164
X162.935 Y11.766 I9.677 J7.962
G1 X163.071 Y11.682
X163.221 Y11.629
X163.378 Y11.611
X165.712
G3 X165.967 Y11.77 I-0.01 J0.3
X165.295 Y12.826 I-0.635 J0.338
X163.633 Y11.77 I0.102 J-1.997
G2 X163.378 Y11.611 I-0.265 J0.141
G1 X162.658 F675
G2 X161.619 Y11.947 I0.094 J2.064
G1 X161.345 Y12.119
G2 X159.815 Y13.64 I4.329 J5.882
X156.867 Y18.41 I24.669 J18.547
X156.644 Y58.08 I38.786 J20.054
X159.865 Y63.415 I33.84 J-16.79
X161.61 Y65.31 I8.941 J-6.486
G1 X161.778 Y65.367
X161.952 Y65.389
X164.217
G2 X164.411 Y64.87 I-0.01 J-0.3 F750
X164.171 Y64.734 I-0.401 J0.43
X162.16 Y65.294 I-0.548 J1.924
G1 X162.116 Y65.332
X162.065 Y65.362
X162.01 Y65.381
X161.952 Y65.389
X161.24
G3 X160.211 Y65.05 I0.093 J-2.012
G1 X159.947 Y64.881
G3 X158.447 Y63.36 I4.28 J-5.722
X155.562 Y58.551 I24.873 J-18.193
X155.338 Y18.805 I40.066 J-20.099
X158.494 Y13.431 I32.971 J15.75
X159.962 Y11.787 I9.167 J6.706
G1 X160.104 Y11.693
X160.263 Y11.632
X160.432 Y11.611
X162.658
G3 X162.912 Y11.77 I-0.01 J0.3
X162.19 Y12.812 I-0.629 J0.335
X160.686 Y11.77 I0.261 J-1.983
G2 X160.432 Y11.611 I-0.265 J0.141
G1 X159.759 F675
G2 X158.517 Y12.082 I0.108 J2.157
G1 X158.223 Y12.299
G2 X156.694 Y14.045 I5.418 J6.286
X153.449 Y20.081 I30.158 J20.102
X154.064 Y58.201 I42.192 J18.385
X157.163 Y63.608 I33.657 J-15.699
X158.58 Y65.211 I8.445 J-6.038
G1 X158.721 Y65.307
X158.88 Y65.368
X159.048 Y65.389
X161.24
G2 X161.434 Y64.87 I-0.01 J-0.3 F750
X161.074 Y64.689 I-0.487 J0.522
X159.257 Y65.293 I-0.354 J1.968
G1 X159.213 Y65.332
X159.162 Y65.362
X159.107 Y65.381
X159.048 Y65.389
X158.341
G3 X157.323 Y65.034 I0.105 J-1.941
G1 X157.075 Y64.87
G3 X155.622 Y63.332 I4.266 J-5.487
X153.143 Y59.007 I23.955 J-16.604
X152.83 Y18.558 I42.475 J-20.554
X155.538 Y13.645 I33.241 J15.117
X157.113 Y11.773 I9.551 J6.44
G1 X157.25 Y11.686
X157.403 Y11.63
X157.564 Y11.611
X159.759
G3 X160.013 Y11.77 I-0.01 J0.3
X159.278 Y12.806 I-0.627 J0.334
X157.818 Y11.77 I0.305 J-1.977
G2 X157.564 Y11.611 I-0.265 J0.141
G1 X156.924 Y11.612 F675
G2 X155.711 Y12.072 I0.096 J2.079
X154.341 Y13.463 I3.504 J4.821
X152.152 Y17.235 I19.976 J14.113
X151.503 Y58.311 I43.464 J21.23
X154.142 Y63.262 I34.844 J-15.398
X155.75 Y65.219 I9.542 J-6.201
G1 X155.891 Y65.31
X156.047 Y65.369
X156.213 Y65.388
X158.341 Y65.389
G2 X158.596 Y65.23 I-0.01 J-0.3 F750
X157.836 Y64.21 I-0.62 J-0.331
X156.467 Y65.23 I0.395 J1.961
G3 X156.213 Y65.388 I-0.265 J-0.141
G1 X155.507
G3 X154.504 Y65.024 I0.116 J-1.879
G1 X154.254 Y64.852
G3 X152.856 Y63.312 I4.25 J-5.262
X150.486 Y58.926 I24.163 J-15.892
X150.318 Y18.352 I45.112 J-20.474
X152.949 Y13.397 I31.877 J13.748
X154.292 Y11.798 I7.819 J5.204
G1 X154.435 Y11.697
X154.597 Y11.633
X154.77 Y11.612
X156.924
G3 X157.178 Y11.77 I-0.01 J0.3
X156.428 Y12.797 I-0.623 J0.332
X155.024 Y11.77 I0.361 J-1.967
G2 X154.77 Y11.612 I-0.265 J0.141
G1 X154.089 F675
G2 X153.108 Y11.955 I0.092 J1.835
G1 X152.881 Y12.108
G2 X151.541 Y13.56 I3.895 J4.94
X149.456 Y17.391 I20.935 J13.877
X149.032 Y58.591 I46.142 J21.077
X151.614 Y63.571 I32.573 J-13.727
X152.953 Y65.2 I8.595 J-5.705
G1 X153.099 Y65.301
X153.262 Y65.366
X153.437 Y65.388
X155.507
G2 X155.701 Y64.869 I-0.01 J-0.3 F750
X155.203 Y64.659 I-0.535 J0.573
X153.646 Y65.293 I-0.094 J1.998
G1 X153.602 Y65.332
X153.551 Y65.361
X153.496 Y65.38
X153.437 Y65.388
X152.813
G3 X151.639 Y64.938 I0.083 J-1.972
G1 X151.386 Y64.746
G3 X150.007 Y63.091 I4.778 J-5.383
X147.767 Y58.637 I26.081 J-15.905
X147.901 Y17.953 I47.833 J-20.184
X150.165 Y13.51 I31.243 J13.119
X151.525 Y11.809 I8.179 J5.147
G1 X151.672 Y11.703
X151.839 Y11.635
X152.018 Y11.612
X154.089
G3 X154.283 Y12.131 I-0.01 J0.3
X153.787 Y12.341 I-0.535 J-0.573
X152.226 Y11.707 I-0.098 J-1.998
G1 X152.182 Y11.668
X152.131 Y11.639
X152.076 Y11.62
X152.018 Y11.612
X151.396 F675
G2 X150.229 Y12.066 I0.083 J1.942
G1 X149.985 Y12.251
G2 X148.626 Y13.907 I4.734 J5.271
X146.439 Y18.387 I25.915 J15.43
X146.675 Y59.119 I49.157 J20.082
X148.919 Y63.572 I30.877 J-12.762
X150.223 Y65.195 I8.173 J-5.236
G1 X150.369 Y65.298
X150.535 Y65.365
X150.712 Y65.388
X152.813
G2 X153.103 Y65.078 I-0.01 J-0.3 F750
X152.779 Y64.697 I-0.403 J0.014
X150.921 Y65.293 I-0.396 J1.96
G1 X150.876 Y65.332
X150.826 Y65.361
X150.77 Y65.38
X150.712 Y65.388
X150.042
G3 X149.075 Y65.039 I0.093 J-1.773
X147.953 Y63.974 I2.6 J-3.861
X146.37 Y61.292 I11.583 J-8.647
X142.572 Y50.091 I45.943 J-21.819
X145.211 Y18.236 I53.016 J-11.645
X147.357 Y13.733 I33.065 J12.995
X148.839 Y11.791 I8.656 J5.067
G1 X148.981 Y11.694
X149.141 Y11.633
X149.311 Y11.612
X151.396
G3 X151.65 Y11.771 I-0.01 J0.3
X150.877 Y12.778 I-0.615 J0.328
X149.565 Y11.771 I0.453 J-1.948
G2 X149.311 Y11.612 I-0.265 J0.141
G1 X148.703 F675
G2 X147.56 Y12.058 I0.082 J1.898
G1 X147.313 Y12.247
G2 X146 Y13.872 I4.563 J5.033
X144.113 Y17.805 I23.552 J13.718
X144.141 Y59.205 I51.452 J20.665
X146.33 Y63.686 I29.074 J-11.426
X147.536 Y65.199 I7.826 J-4.999
G1 X147.68 Y65.301
X147.844 Y65.366
X148.019 Y65.388
X150.042
G2 X150.296 Y65.229 I-0.01 J-0.3 F750
X150.377 Y64.906 I-0.607 J-0.324
X149.506 Y64.242 I-0.688 J0
X148.273 Y65.229 I0.532 J1.928
G3 X148.019 Y65.388 I-0.265 J-0.141
G1 X147.349
G3 X146.393 Y65.032 I0.1 J-1.73
X145.293 Y63.963 I2.617 J-3.792
X143.752 Y61.258 I11.348 J-8.259
X140.39 Y51.217 I47.097 J-21.353
X142.939 Y17.519 I55.182 J-12.77
X144.81 Y13.577 I29.299 J11.49
X146.142 Y11.822 I8.18 J4.825
G1 X146.291 Y11.71
X146.462 Y11.637
X146.647 Y11.612
X148.703
G3 X148.957 Y11.771 I-0.01 J0.3
X148.175 Y12.769 I-0.612 J0.326
X146.901 Y11.771 I0.491 J-1.939
G2 X146.647 Y11.612 I-0.265 J0.141
G1 X146.01 F675
G2 X144.845 Y12.106 I0.122 J1.909
G1 X144.607 Y12.298
G2 X143.307 Y13.988 I4.816 J5.05
X141.284 Y18.545 I26.276 J14.394
X141.679 Y59.442 I54.259 J19.926
X143.521 Y63.398 I30.147 J-11.627
X144.851 Y65.173 I8.03 J-4.629
G1 X145 Y65.288
X145.173 Y65.362
X145.36 Y65.388
X147.349
G2 X147.638 Y65.078 I-0.01 J-0.3 F750
X147.263 Y64.67 I-0.425 J0.015
X145.569 Y65.293 I-0.231 J1.987
G1 X145.525 Y65.331
X145.474 Y65.361
X145.418 Y65.38
X145.36 Y65.388
X144.734
G3 X143.583 Y64.907 I0.109 J-1.881
G1 X143.35 Y64.72
G3 X142.07 Y63.059 I4.661 J-4.915
X140.28 Y59.081 I23.973 J-13.182
X140.376 Y17.563 I55.213 J-20.63
X142.182 Y13.591 I28.823 J10.705
X143.495 Y11.828 I8.007 J4.59
G1 X143.644 Y11.712
X143.818 Y11.638
X144.005 Y11.612
X146.01
G3 X146.264 Y11.771 I-0.01 J0.3
X145.469 Y12.752 I-0.605 J0.322
X144.259 Y11.771 I0.555 J-1.922
G2 X144.005 Y11.612 I-0.265 J0.141
G1 X143.38 F675
G2 X142.232 Y12.095 I0.11 J1.87
G1 X142.002 Y12.281
G2 X140.737 Y13.935 I4.594 J4.82
X138.981 Y17.928 I23.713 J12.815
X139.153 Y59.481 I56.502 J20.543
X140.947 Y63.459 I28.937 J-10.662
X142.224 Y65.175 I7.823 J-4.489
G1 X142.374 Y65.289
X142.546 Y65.362
X142.732 Y65.388
X144.734
G2 X145.023 Y65.077 I-0.01 J-0.3 F750
X144.653 Y64.672 I-0.423 J0.015
X142.941 Y65.292 I-0.249 J1.984
G1 X142.897 Y65.331
X142.846 Y65.361
X142.79 Y65.38
X142.732 Y65.388
X142.104
G3 X140.959 Y64.9 I0.114 J-1.857
G1 X140.731 Y64.714
G3 X139.475 Y63.055 I4.622 J-4.801
X137.74 Y59.052 I23.742 J-12.669
X137.877 Y17.468 I57.696 J-20.602
X139.649 Y13.48 I27.74 J9.936
X140.885 Y11.821 I7.454 J4.263
G1 X141.033 Y11.709
X141.204 Y11.637
X141.388 Y11.613
X143.38 Y11.612
G3 X143.634 Y11.771 I-0.01 J0.3
X142.837 Y12.747 I-0.603 J0.321
X141.643 Y11.771 I0.571 J-1.917
G2 X141.388 Y11.613 I-0.265 J0.141
G1 X140.765 F675
G2 X139.633 Y12.091 I0.107 J1.833
G1 X139.408 Y12.274
G2 X138.178 Y13.899 I4.516 J4.693
X136.466 Y17.911 I22.966 J12.174
X136.639 Y59.526 I58.948 J20.562
X138.394 Y63.522 I28.011 J-9.92
X139.62 Y65.178 I7.407 J-4.202
G1 X139.769 Y65.29
X139.941 Y65.363
X140.125 Y65.387
X142.104 Y65.388
G2 X142.394 Y65.077 I-0.01 J-0.3 F750
X142.014 Y64.668 I-0.426 J0.015
X140.334 Y65.292 I-0.217 J1.988
G1 X140.29 Y65.331
X140.239 Y65.361
X140.183 Y65.38
X140.125 Y65.387
X139.489
G3 X138.559 Y65.047 I0.073 J-1.642
X137.568 Y64.081 I2.34 J-3.39
X136.345 Y61.928 I8.299 J-6.138
X134.104 Y55.448 I41.957 J-18.138
X135.383 Y17.377 I61.351 J-16.995
X137.13 Y13.379 I26.805 J9.328
X138.293 Y11.817 I7.122 J4.091
G1 X138.441 Y11.707
X138.61 Y11.637
X138.792 Y11.613
X140.765
G3 X141.054 Y11.923 I-0.01 J0.3
X140.672 Y12.333 I-0.427 J-0.015
X139.001 Y11.708 I-0.208 J-1.989
G1 X138.957 Y11.669
X138.906 Y11.64
X138.851 Y11.621
X138.792 Y11.613
X138.136 F675
G2 X137.206 Y11.971 I0.096 J1.637
X136.219 Y12.959 I2.415 J3.397
X135.012 Y15.138 I8.555 J6.16
X132.827 Y21.637 I42.608 J17.948
X134.186 Y59.726 I62.628 J16.833
X135.64 Y63.174 I29.747 J-10.515
X137.044 Y65.19 I7.944 J-4.033
G1 X137.191 Y65.295
X137.359 Y65.364
X137.538 Y65.387
X139.489
G2 X139.683 Y64.868 I-0.01 J-0.3 F750
X139.11 Y64.659 I-0.534 J0.573
X137.747 Y65.292 I0.099 J1.998
G1 X137.702 Y65.331
X137.652 Y65.36
X137.596 Y65.379
X137.538 Y65.387
X136.938
G3 X135.83 Y64.934 I0.105 J-1.835
X134.747 Y63.721 I3.072 J-3.834
X133.387 Y60.92 I12.326 J-7.715
X130.683 Y51.323 I53.969 J-20.383
X132.84 Y17.46 I64.71 J-12.879
X134.247 Y13.993 I31.194 J10.643
X135.547 Y11.995 I8.674 J4.218
G1 X135.713 Y11.827
X135.859 Y11.711
X136.031 Y11.638
X136.217 Y11.613
X138.136
G3 X138.39 Y11.771 I-0.01 J0.3
X137.578 Y12.72 I-0.591 J0.315
X136.471 Y11.772 I0.657 J-1.889
G2 X136.217 Y11.613 I-0.265 J0.141
G1 X135.584 F675
G2 X134.469 Y12.105 I0.125 J1.794
G1 X134.244 Y12.294
G2 X133.052 Y13.929 I4.561 J4.578
X131.431 Y17.978 I22.552 J11.376
X128.268 Y40.729 I63.265 J20.39
X131.669 Y59.701 I66.473 J-2.125
X133.085 Y63.164 I28.619 J-9.68
X134.475 Y65.187 I7.659 J-3.776
G1 X134.623 Y65.294
X134.791 Y65.363
X134.972 Y65.387
X136.938
G2 X137.132 Y64.868 I-0.01 J-0.3 F750
X136.566 Y64.657 I-0.536 J0.575
X135.181 Y65.292 I0.078 J1.998
G1 X135.136 Y65.331
X135.086 Y65.36
X135.03 Y65.379
X134.972 Y65.387
X134.386
G3 X133.292 Y64.947 I0.071 J-1.757
X132.249 Y63.797 I2.831 J-3.613
X130.896 Y60.994 I11.483 J-7.272
X128.514 Y52.599 I52.919 J-19.552
X130.329 Y17.481 I66.853 J-14.15
X131.702 Y14 I31.335 J10.349
X132.981 Y12.007 I8.497 J4.044
G1 X133.154 Y11.829
X133.301 Y11.712
X133.474 Y11.638
X133.66 Y11.613
X135.584
G3 X135.838 Y11.772 I-0.01 J0.3
X135.028 Y12.722 I-0.592 J0.316
X133.914 Y11.772 I0.651 J-1.891
G2 X133.66 Y11.613 I-0.265 J0.141
G1 X133.033 F675
G2 X131.924 Y12.101 I0.12 J1.777
G1 X131.704 Y12.286
G2 X130.541 Y13.886 I4.441 J4.453
X129.14 Y17.352 I19.796 J10.015
X126.002 Y33.859 I64.004 J20.718
X129.17 Y59.715 I69.021 J4.665
X130.559 Y63.189 I28.894 J-9.535
X131.922 Y65.187 I7.53 J-3.675
G1 X132.07 Y65.294
X132.238 Y65.363
X132.418 Y65.387
X134.386
G2 X134.641 Y65.228 I-0.01 J-0.3 F750
X133.838 Y64.261 I-0.599 J-0.319
X132.672 Y65.228 I0.599 J1.908
G3 X132.418 Y65.387 I-0.265 J-0.141
G1 X131.835
G3 X130.744 Y64.945 I0.071 J-1.742
X129.721 Y63.808 I2.791 J-3.54
X128.387 Y60.996 I11.217 J-7.043
X126.205 Y53.191 I52.597 J-18.911
X127.848 Y17.434 I69.108 J-14.741
X129.2 Y13.945 I30.738 J9.901
X130.467 Y11.974 I8.208 J3.882
G1 X130.612 Y11.828
X130.758 Y11.711
X130.93 Y11.638
X131.116 Y11.613
X133.033
G3 X133.287 Y11.772 I-0.01 J0.3
X132.475 Y12.719 I-0.591 J0.315
X131.37 Y11.772 I0.66 J-1.888
G2 X131.116 Y11.613 I-0.265 J0.141
G1 X130.481 F675
G2 X129.382 Y12.105 I0.129 J1.763
G1 X129.161 Y12.293
G2 X128.012 Y13.895 I4.463 J4.414
X126.642 Y17.374 I19.575 J9.719
X123.702 Y32.659 I65.69 J20.559
X126.511 Y59.183 I71.342 J5.856
G1 X126.706 Y59.776
G2 X128.363 Y63.81 I22.183 J-6.755
X129.386 Y65.188 I6.607 J-3.84
G1 X129.532 Y65.295
X129.699 Y65.363
X129.878 Y65.387
X131.835
G2 X132.124 Y65.077 I-0.01 J-0.3 F750
X131.735 Y64.664 I-0.429 J0.015
X130.087 Y65.291 I-0.186 J1.991
G1 X130.043 Y65.33
X129.992 Y65.36
X129.936 Y65.379
X129.878 Y65.387
X129.283
G3 X128.192 Y64.929 I0.087 J-1.735
X127.166 Y63.76 I2.851 J-3.538
X125.863 Y60.934 I11.384 J-6.964
X123.755 Y53.108 I53.76 J-18.676
X125.213 Y17.924 I71.545 J-14.659
G1 X125.404 Y17.33
G3 X127.024 Y13.281 I22.657 J6.714
X128.084 Y11.82 I6.749 J3.782
G1 X128.232 Y11.709
X128.402 Y11.638
X128.585 Y11.613
X130.481
G3 X130.771 Y11.924 I-0.01 J0.3
X130.359 Y12.342 I-0.434 J-0.015
X128.794 Y11.709 I-0.103 J-1.997
G1 X128.75 Y11.67
X128.699 Y11.64
X128.643 Y11.621
X128.585 Y11.613
X128.008 F675
G2 X126.923 Y12.056 I0.07 J1.72
X125.924 Y13.175 I2.753 J3.464
X124.83 Y15.413 I9.419 J5.99
X122.928 Y22.001 I45.914 J16.823
X123.981 Y59.027 I72.346 J16.471
G1 X124.171 Y59.622
G2 X125.769 Y63.68 I23.114 J-6.761
X126.849 Y65.177 I6.708 J-3.701
G1 X126.998 Y65.29
X127.169 Y65.362
X127.353 Y65.387
X129.283
G2 X129.538 Y65.228 I-0.01 J-0.3 F750
X128.728 Y64.275 I-0.593 J-0.316
X127.607 Y65.228 I0.644 J1.893
G3 X127.353 Y65.387 I-0.265 J-0.141
G1 X126.732 Y65.386
G3 X125.82 Y65.044 I0.072 J-1.577
X124.915 Y64.139 I2.21 J-3.117
X123.778 Y62.021 I7.407 J-5.341
X122.119 Y56.661 I37.433 J-14.519
X122.771 Y17.803 I73.092 J-18.209
G1 X122.961 Y17.208
G3 X124.29 Y13.712 I23.921 J7.09
X125.573 Y11.812 I7.145 J3.442
G1 X125.719 Y11.705
X125.886 Y11.637
X126.065 Y11.614
X128.008 Y11.613
G3 X128.262 Y11.772 I-0.01 J0.3
X127.454 Y12.73 I-0.595 J0.317
X126.319 Y11.772 I0.63 J-1.898
G2 X126.065 Y11.614 I-0.265 J0.141
G1 X125.456 F675
G2 X124.365 Y12.091 I0.106 J1.729
X123.348 Y13.281 I2.909 J3.516
X122.083 Y16.125 I11.477 J6.808
X120.08 Y23.978 I54.873 J18.181
X121.385 Y58.592 I75.175 J14.497
G1 X121.563 Y59.19
X121.742 Y59.787
G2 X123.062 Y63.287 I23.592 J-6.899
X124.339 Y65.186 I7.246 J-3.493
G1 X124.486 Y65.294
X124.654 Y65.363
X124.834 Y65.386
X126.732
G2 X126.986 Y65.228 I-0.01 J-0.3 F750
X126.172 Y64.288 I-0.588 J-0.313
X125.088 Y65.228 I0.681 J1.88
G3 X124.834 Y65.386 I-0.265 J-0.141
G1 X124.244
G3 X123.154 Y64.929 I0.112 J-1.797
X122.155 Y63.772 I3.053 J-3.646
X120.883 Y60.932 I10.964 J-6.617
X119.011 Y53.689 I53.3 J-17.636
X120.119 Y18.451 I76.247 J-15.24
G1 X120.295 Y17.852
X120.471 Y17.253
G3 X121.772 Y13.747 I23.689 J6.799
X123.058 Y11.816 I7.243 J3.431
G1 X123.206 Y11.708
X123.375 Y11.638
X123.556 Y11.614
X125.456
G3 X125.651 Y12.133 I-0.01 J0.3
X125.058 Y12.338 I-0.527 J-0.565
X123.765 Y11.709 I0.17 J-1.993
G1 X123.721 Y11.67
X123.67 Y11.641
X123.614 Y11.622
X123.556 Y11.614
X122.969 F675
G2 X121.885 Y12.073 I0.085 J1.708
X120.891 Y13.217 I2.787 J3.428
X119.829 Y15.47 I9.367 J5.79
X118.031 Y22.088 I46.515 J16.189
X118.91 Y58.557 I77.192 J16.386
G1 X119.258 Y59.755
X119.441 Y60.352
X119.635 Y60.945
X119.842 Y61.533
X120.061 Y62.117
X120.293 Y62.697
G2 X121.492 Y64.793 I9.164 J-3.852
G1 X121.786 Y65.133
G2 X122.329 Y65.387 I0.552 J-0.473
G1 X124.244 Y65.386
G2 X124.499 Y65.228 I-0.01 J-0.3 F750
X123.687 Y64.281 I-0.591 J-0.315
X122.584 Y65.228 I0.662 J1.887
G3 X122.329 Y65.386 I-0.265 J-0.141
G1 X121.693
G3 X120.783 Y65.027 I0.087 J-1.554
X119.869 Y64.082 I2.298 J-3.136
X118.761 Y61.929 I7.63 J-5.288
X117.191 Y56.543 I37.876 J-13.964
X117.714 Y18.238 I77.945 J-18.092
G1 X117.889 Y17.639
X118.063 Y17.04
G3 X119.38 Y13.54 I21.147 J5.958
G1 X119.687 Y12.996
X120.015 Y12.486
X120.316 Y12.092
X120.538 Y11.846
X120.687 Y11.72
X120.865 Y11.641
X121.058 Y11.614
X122.969
G3 X123.223 Y11.772 I-0.01 J0.3
X122.41 Y12.717 I-0.59 J0.315
X121.312 Y11.773 I0.667 J-1.886
G2 X121.058 Y11.614 I-0.265 J0.141
G1 X120.452 F675
G2 X119.359 Y12.097 I0.105 J1.718
X118.374 Y13.253 I2.84 J3.415
X117.133 Y16.106 I10.943 J6.459
X115.343 Y23.371 I53.928 J17.135
X116.469 Y58.634 I79.834 J15.102
G1 X116.642 Y59.234
X116.813 Y59.834
G2 X118.099 Y63.345 I22.397 J-6.212
X119.334 Y65.187 I7.083 J-3.411
G1 X119.479 Y65.295
X119.646 Y65.363
X119.825 Y65.386
X121.693
G2 X121.947 Y65.227 I-0.01 J-0.3 F750
X121.129 Y64.3 I-0.582 J-0.311
X120.079 Y65.227 I0.715 J1.868
G3 X119.825 Y65.386 I-0.265 J-0.141
G1 X119.22
G3 X118.319 Y65.048 I0.064 J-1.538
X117.431 Y64.154 I2.168 J-3.044
X116.324 Y62.041 I7.103 J-5.066
X114.772 Y56.65 I36.524 J-13.433
X115.233 Y18.323 I80.27 J-18.201
G1 X115.403 Y17.723
X115.573 Y17.123
G3 X116.857 Y13.611 I21.539 J5.886
G1 X117.157 Y13.063
X117.483 Y12.542
X117.781 Y12.142
X118.034 Y11.853
X118.185 Y11.724
X118.365 Y11.642
X118.561 Y11.614
X120.452
G3 X120.707 Y11.773 I-0.01 J0.3
X119.891 Y12.709 I-0.587 J0.313
X118.815 Y11.773 I0.689 J-1.878
G2 X118.561 Y11.614 I-0.265 J0.141
G1 X117.944 F675
G2 X116.849 Y12.112 I0.121 J1.718
X115.859 Y13.302 I2.918 J3.436
X114.643 Y16.166 I11.195 J6.442
X112.905 Y23.444 I54.835 J16.939
X113.883 Y58.117 I82.257 J15.031
G1 X114.045 Y58.72
X114.206 Y59.322
X114.375 Y59.923
G2 X115.659 Y63.435 I21.184 J-5.753
G1 X115.961 Y63.981
X116.28 Y64.485
X116.58 Y64.885
X116.814 Y65.15
X116.964 Y65.277
X117.144 Y65.358
X117.339 Y65.386
X119.22
G2 X119.474 Y65.227 I-0.01 J-0.3 F750
X118.657 Y64.295 I-0.585 J-0.312
X117.593 Y65.227 I0.701 J1.873
G3 X117.339 Y65.386 I-0.265 J-0.141
G1 X116.732
G3 X115.835 Y65.05 I0.06 J-1.528
X114.671 Y63.746 I2.501 J-3.404
X113.643 Y61.478 I9.322 J-5.59
X112.072 Y55.444 I45.094 J-14.967
X112.631 Y18.925 I83.024 J-16.994
G1 X112.789 Y18.321
X112.948 Y17.718
X113.114 Y17.116
G3 X114.381 Y13.599 I21.249 J5.667
G1 X114.68 Y13.051
X114.998 Y12.541
X115.297 Y12.138
X115.546 Y11.853
X115.696 Y11.724
X115.876 Y11.642
X116.073 Y11.614
X117.944
G3 X118.198 Y11.773 I-0.01 J0.3
X117.38 Y12.701 I-0.583 J0.311
X116.327 Y11.773 I0.712 J-1.869
G2 X116.073 Y11.614 I-0.265 J0.141
G1 X115.456 F675
G2 X114.364 Y12.113 I0.121 J1.712
X113.385 Y13.292 I2.892 J3.395
X112.18 Y16.161 I11.021 J6.316
X110.482 Y23.448 I54.974 J16.651
X111.438 Y58.135 I84.599 J15.027
G1 X111.598 Y58.738
X111.756 Y59.342
X111.921 Y59.944
G2 X113.192 Y63.46 I20.729 J-5.506
G1 X113.495 Y64.006
X113.806 Y64.498
X114.104 Y64.894
X114.33 Y65.15
X114.48 Y65.277
X114.66 Y65.358
X114.854 Y65.386
X116.732
G2 X116.986 Y65.227 I-0.01 J-0.3 F750
X116.169 Y64.296 I-0.584 J-0.311
X115.109 Y65.227 I0.705 J1.872
G3 X114.854 Y65.386 I-0.265 J-0.141
G1 X114.258
G3 X113.367 Y65.06 I0.051 J-1.519
X112.225 Y63.795 I2.421 J-3.336
X111.194 Y61.528 I8.912 J-5.419
X109.649 Y55.488 I44.373 J-14.569
X110.177 Y18.953 I85.356 J-17.038
G1 X110.333 Y18.349
X110.487 Y17.744
X110.65 Y17.142
G3 X111.897 Y13.617 I21.151 J5.501
G1 X112.193 Y13.067
X112.51 Y12.555
X112.805 Y12.152
X113.061 Y11.856
X113.212 Y11.726
X113.393 Y11.643
X113.591 Y11.614
X115.456
G3 X115.71 Y11.773 I-0.01 J0.3
X114.892 Y12.699 I-0.582 J0.31
X113.845 Y11.773 I0.718 J-1.867
G2 X113.591 Y11.614 I-0.265 J0.141
G1 X112.983 F675
G2 X111.898 Y12.103 I0.112 J1.696
X110.932 Y13.261 I2.834 J3.349
X109.92 Y15.537 I9.315 J5.502
X108.405 Y21.585 I45.028 J14.497
X108.989 Y58.126 I86.576 J16.89
G1 X109.146 Y58.73
X109.301 Y59.334
X109.463 Y59.937
G2 X110.72 Y63.458 I20.375 J-5.284
G1 X111.02 Y64.006
X111.333 Y64.502
X111.625 Y64.892
X111.852 Y65.149
X112.002 Y65.277
X112.181 Y65.358
X112.377 Y65.386
X114.258
G2 X114.513 Y65.227 I-0.01 J-0.3 F750
X113.696 Y64.294 I-0.585 J-0.312
X112.631 Y65.227 I0.7 J1.874
G3 X112.377 Y65.386 I-0.265 J-0.141
G1 X111.771
G3 X110.878 Y65.05 I0.06 J-1.514
X109.733 Y63.762 I2.47 J-3.348
X108.718 Y61.488 I9.054 J-5.404
X107.21 Y55.438 I44.728 J-14.367
X107.747 Y18.89 I87.709 J-16.988
G1 X107.902 Y18.285
X108.055 Y17.68
X108.215 Y17.077
G3 X109.459 Y13.551 I20.402 J5.216
G1 X109.758 Y13.003
X110.066 Y12.513
X110.361 Y12.115
X110.591 Y11.853
X110.742 Y11.724
X110.922 Y11.642
X111.118 Y11.615
X112.983 Y11.614
G3 X113.177 Y12.134 I-0.01 J0.3
X112.575 Y12.334 I-0.52 J-0.558
X111.327 Y11.71 I0.214 J-1.989
G1 X111.282 Y11.671
X111.232 Y11.641
X111.176 Y11.622
X111.118 Y11.615
X110.495 F675
G2 X109.598 Y11.965 I0.075 J1.514
X108.443 Y13.296 I2.558 J3.387
X107.448 Y15.579 I9.403 J5.457
X105.968 Y21.635 I45.335 J14.291
X106.425 Y57.58 I88.948 J16.843
X107.029 Y60.002 I75.595 J-17.553
X108.283 Y63.524 I20.021 J-5.142
G1 X108.586 Y64.07
X108.887 Y64.539
X109.184 Y64.931
X109.382 Y65.152
X109.532 Y65.278
X109.71 Y65.358
X109.904 Y65.385
X111.771 Y65.386
G2 X112.06 Y65.075 I-0.01 J-0.3 F750
X111.639 Y64.655 I-0.435 J0.015
X110.113 Y65.29 I-0.063 J1.999
G1 X110.069 Y65.329
X110.018 Y65.359
X109.962 Y65.378
X109.904 Y65.385
X109.297
G3 X108.408 Y65.051 I0.06 J-1.508
X107.279 Y63.782 I2.438 J-3.306
X106.268 Y61.507 I8.914 J-5.322
X104.785 Y55.451 I44.264 J-14.048
X105.174 Y19.499 I90.041 J-17.004
X105.766 Y17.075 I74.078 J16.796
X106.996 Y13.544 I20.548 J5.183
G1 X107.295 Y12.996
X107.595 Y12.515
X107.891 Y12.115
X108.119 Y11.854
X108.27 Y11.725
X108.45 Y11.643
X108.646 Y11.615
X110.495
G3 X110.784 Y11.925 I-0.01 J0.3
X110.358 Y12.345 I-0.436 J-0.015
X108.855 Y11.71 I-0.04 J-2
G1 X108.811 Y11.671
X108.76 Y11.642
X108.704 Y11.622
X108.646 Y11.615
X108.022 F675
G2 X107.126 Y11.967 I0.077 J1.508
X105.981 Y13.293 I2.549 J3.359
X104.994 Y15.579 I9.37 J5.404
X103.541 Y21.642 I45.143 J14.024
X103.992 Y57.599 I91.239 J16.836
X104.586 Y60.023 I78.322 J-17.911
X105.831 Y63.548 I19.735 J-4.986
G1 X106.135 Y64.093
X106.432 Y64.557
X106.729 Y64.946
X106.915 Y65.153
X107.064 Y65.278
X107.242 Y65.358
X107.436 Y65.385
X109.297
G2 X109.552 Y65.227 I-0.01 J-0.3 F750
X108.732 Y64.302 I-0.581 J-0.31
X107.69 Y65.227 I0.722 J1.865
G3 X107.436 Y65.385 I-0.265 J-0.141
G1 X106.81
G3 X105.917 Y65.034 I0.078 J-1.507
X104.782 Y63.724 I2.532 J-3.342
X103.793 Y61.439 I9.242 J-5.358
X102.346 Y55.375 I44.895 J-13.917
X102.757 Y19.412 I92.346 J-16.928
X103.344 Y16.986 I78.112 J17.608
X104.578 Y13.458 I19.927 J4.992
G1 X104.88 Y12.911
X105.184 Y12.437
X105.482 Y12.046
X105.66 Y11.847
X105.809 Y11.722
X105.988 Y11.642
X106.181 Y11.615
X108.022
G3 X108.276 Y11.773 I-0.01 J0.3
X107.699 Y12.736 I-0.577 J0.308
G1 X107.698
X107.615 Y12.73
X107.534 Y12.714
X107.454 Y12.688
G3 X106.435 Y11.774 I0.746 J-1.856
G2 X106.181 Y11.615 I-0.265 J0.141
G1 X105.612 F675
G2 X104.554 Y12.056 I0.065 J1.645
X103.654 Y13.083 I2.52 J3.115
X102.633 Y15.307 I8.15 J5.086
X101.284 Y20.753 I39.208 J12.608
X100.311 Y49.945 I93.08 J17.712
X102.067 Y59.766 I79.709 J-9.178
G1 X102.235 Y60.368
G2 X103.542 Y63.868 I16.755 J-4.265
X104.469 Y65.177 I5.979 J-3.251
G1 X104.616 Y65.289
X104.786 Y65.361
X104.969 Y65.385
X106.81
G2 X107.064 Y65.227 I-0.01 J-0.3 F750
X106.487 Y64.264 I-0.577 J-0.308
G1 X106.403 Y64.27
X106.322 Y64.286
X106.243 Y64.312
G2 X105.224 Y65.226 I0.746 J1.856
G3 X104.969 Y65.385 I-0.265 J-0.141
G1 X104.4
G3 X103.332 Y64.938 I0.095 J-1.727
X102.41 Y63.861 I2.847 J-3.368
X101.402 Y61.619 I8.413 J-5.132
X100.069 Y56.168 I40.119 J-12.695
X99.186 Y26.353 I94.311 J-17.714
X100.851 Y17.149 I77.999 J9.355
G1 X101.019 Y16.548
G3 X102.338 Y13.053 I16.285 J4.151
X103.226 Y11.818 I5.946 J3.34
G1 X103.371 Y11.708
X103.539 Y11.639
X103.72 Y11.615
X105.612
G3 X105.866 Y11.774 I-0.01 J0.3
X105.051 Y12.711 I-0.587 J0.313
X103.974 Y11.774 I0.689 J-1.878
G2 X103.72 Y11.615 I-0.265 J0.141
G1 X103.124 F675
G2 X102.055 Y12.093 I0.103 J1.665
X101.122 Y13.21 I2.728 J3.227
X100.125 Y15.489 I8.761 J5.191
X98.82 Y20.947 I40.978 J12.677
X98.261 Y52.621 I95.669 J17.533
X99.68 Y59.969 I72.148 J-10.123
X100.9 Y63.503 I19.861 J-4.877
X101.991 Y65.15 I6.551 J-3.159
G1 X102.144 Y65.276
X102.323 Y65.357
X102.519 Y65.385
X104.4
G2 X104.654 Y65.226 I-0.01 J-0.3 F750
X103.837 Y64.294 I-0.585 J-0.312
X102.773 Y65.226 I0.7 J1.873
G3 X102.519 Y65.385 I-0.265 J-0.141
G1 X101.926
G3 X101.044 Y65.06 I0.049 J-1.493
X99.938 Y63.827 I2.359 J-3.229
X98.937 Y61.566 I8.424 J-5.082
X97.633 Y56.108 I40.458 J-12.552
X96.578 Y28.147 I96.476 J-17.639
X98.279 Y17.684 I84.716 J8.398
G1 X98.435 Y17.08
G3 X99.635 Y13.539 I19.414 J4.604
X100.74 Y11.854 I6.641 J3.15
G1 X100.892 Y11.726
X101.073 Y11.643
X101.27 Y11.615
X103.124
G3 X103.318 Y12.134 I-0.01 J0.3
X102.714 Y12.333 I-0.518 J-0.555
X101.479 Y11.71 I0.228 J-1.987
G1 X101.435 Y11.672
X101.384 Y11.642
X101.329 Y11.623
X101.27 Y11.615
X100.651 F675
G2 X99.76 Y11.966 I0.074 J1.495
X98.631 Y13.276 I2.518 J3.312
X97.655 Y15.566 I9.003 J5.188
X96.274 Y21.646 I44.288 J13.259
X96.581 Y57.02 I98.156 J16.837
X97.268 Y60.063 I66.457 J-13.413
X98.492 Y63.595 I18.675 J-4.492
X99.543 Y65.156 I6.342 J-3.136
G1 X99.694 Y65.279
X99.872 Y65.358
X100.064 Y65.385
X101.926
G2 X102.216 Y65.075 I-0.01 J-0.3 F750
X101.793 Y64.654 I-0.435 J0.015
X100.273 Y65.29 I-0.057 J1.999
G1 X100.229 Y65.328
X100.178 Y65.358
X100.123 Y65.377
X100.064 Y65.385
X99.439
G3 X98.547 Y65.031 I0.08 J-1.502
X97.43 Y63.735 I2.516 J-3.298
X96.455 Y61.444 I8.961 J-5.168
X95.079 Y55.364 I44.178 J-13.193
X94.478 Y25.531 I99.213 J-16.921
X96.026 Y16.939 I76.271 J9.307
X96.99 Y13.974 I23.226 J5.91
X98.143 Y12.013 I7.444 J3.059
G1 X98.299 Y11.845
X98.448 Y11.721
X98.625 Y11.642
X98.817 Y11.615
X100.651
G3 X100.905 Y11.774 I-0.01 J0.3
X100.083 Y12.686 I-0.576 J0.307
X99.072 Y11.774 I0.754 J-1.853
G2 X98.817 Y11.615 I-0.265 J0.141
G1 X98.241 F675
G2 X97.184 Y12.066 I0.074 J1.641
X96.29 Y13.102 I2.54 J3.096
X95.289 Y15.334 I8.137 J4.987
X94.003 Y20.795 I38.726 J12.003
X92.6 Y43.787 I98.844 J17.57
X94.483 Y58.628 I95.514 J-4.58
G1 X94.631 Y59.234
X94.777 Y59.841
X94.932 Y60.445
G2 X95.949 Y63.39 I17.54 J-4.407
X97.109 Y65.18 I6.555 J-2.978
G1 X97.255 Y65.29
X97.424 Y65.361
X97.606 Y65.385
X99.439
G2 X99.693 Y65.226 I-0.01 J-0.3 F750
X98.871 Y64.314 I-0.576 J-0.307
X97.86 Y65.226 I0.754 J1.853
G3 X97.606 Y65.385 I-0.265 J-0.141
G1 X97.029
G3 X95.963 Y64.928 I0.11 J-1.731
X95.051 Y63.847 I2.875 J-3.35
X94.065 Y61.607 I8.28 J-4.982
X92.795 Y56.141 I39.705 J-12.11
X91.437 Y32.524 I100.213 J-17.608
X93.267 Y18.304 I95.477 J5.056
G1 X93.414 Y17.698
X93.56 Y17.091
X93.715 Y16.487
G3 X94.743 Y13.545 I17.171 J4.346
X95.838 Y11.856 I6.395 J2.947
G1 X95.99 Y11.727
X96.172 Y11.644
X96.37 Y11.615
X98.241
G3 X98.495 Y11.774 I-0.01 J0.3
X97.677 Y12.702 I-0.583 J0.311
X96.624 Y11.774 I0.711 J-1.869
G2 X96.37 Y11.615 I-0.265 J0.141
G1 X95.753 Y11.616 F675
G2 X94.866 Y11.965 I0.072 J1.486
X93.75 Y13.26 I2.489 J3.271
X92.78 Y15.553 I8.854 J5.101
X91.541 Y21.026 I40.943 J12.147
X90.383 Y46.515 I101.757 J17.392
X92.107 Y58.865 I93.049 J-6.692
G1 X92.254 Y59.472
X92.402 Y60.078
G2 X93.609 Y63.615 I18.025 J-4.177
X94.645 Y65.156 I6.258 J-3.088
G1 X94.796 Y65.279
X94.973 Y65.357
X95.166 Y65.384
X97.029 Y65.385
G2 X97.283 Y65.226 I-0.01 J-0.3 F750
X96.464 Y64.301 I-0.582 J-0.31
X95.42 Y65.226 I0.72 J1.866
G3 X95.166 Y65.384 I-0.265 J-0.141
G1 X94.556
G3 X93.666 Y65.04 I0.067 J-1.496
X92.571 Y63.787 I2.433 J-3.23
X91.597 Y61.511 I8.558 J-5.009
X90.357 Y56.038 I40.49 J-12.058
X89.052 Y32.416 I102.46 J-17.507
X90.735 Y18.804 I97.611 J5.162
G1 X90.872 Y18.195
X91.009 Y17.587
X91.155 Y16.98
G3 X92.346 Y13.437 I18.668 J4.306
X93.401 Y11.848 I6.293 J3.03
G1 X93.552 Y11.723
X93.731 Y11.643
X93.925 Y11.616
X95.753
G3 X96.008 Y11.774 I-0.01 J0.3
X95.185 Y12.684 I-0.575 J0.307
X94.179 Y11.774 I0.759 J-1.851
G2 X93.925 Y11.616 I-0.265 J0.141
G1 X93.344 F675
G2 X92.288 Y12.072 I0.08 J1.636
X91.398 Y13.112 I2.547 J3.08
X90.409 Y15.346 I8.116 J4.928
X89.159 Y20.816 I38.301 J11.632
X87.725 Y41.322 I102.334 J17.456
X89.507 Y58.055 I101.841 J-2.38
X90.072 Y60.486 I68.782 J-14.71
X91.084 Y63.433 I17.155 J-4.243
X92.183 Y65.14 I6.456 J-2.95
G1 X92.336 Y65.271
X92.519 Y65.355
X92.718 Y65.384
X94.556
G2 X94.81 Y65.226 I-0.01 J-0.3 F750
X93.988 Y64.312 I-0.577 J-0.308
X92.972 Y65.226 I0.748 J1.855
G3 X92.718 Y65.384 I-0.265 J-0.141
G1 X92.146
G3 X91.085 Y64.936 I0.101 J-1.716
X90.188 Y63.879 I2.809 J-3.295
X89.207 Y61.656 I8.032 J-4.872
X87.964 Y56.185 I38.69 J-11.667
X86.515 Y36.301 I103.216 J-17.518
X88.162 Y19.554 I103.737 J1.748
X88.84 Y16.509 I57.654 J11.248
X89.853 Y13.563 I17.336 J4.309
X90.948 Y11.859 I6.41 J2.919
G1 X91.101 Y11.729
X91.284 Y11.645
X91.482 Y11.616
X93.344
G3 X93.633 Y11.926 I-0.01 J0.3
X93.21 Y12.346 I-0.435 J-0.015
G1 X93.154 Y12.347
G3 X91.691 Y11.711 I0 J-2
G1 X91.647 Y11.672
X91.596 Y11.643
X91.541 Y11.624
X91.482 Y11.616
X90.87 F675
G2 X89.985 Y11.963 I0.07 J1.481
X88.879 Y13.246 I2.463 J3.24
X87.913 Y15.539 I8.669 J5.003
X86.705 Y21.018 I40.237 J11.745
X85.384 Y42.778 I105.14 J17.303
X87.124 Y58.264 I102.061 J-3.626
G1 X87.261 Y58.873
X87.397 Y59.482
X87.541 Y60.089
G2 X88.736 Y63.63 I17.564 J-3.957
X89.76 Y65.156 I6.184 J-3.042
G1 X89.911 Y65.279
X90.089 Y65.357
X90.281 Y65.384
X92.146
G2 X92.4 Y65.226 I-0.01 J-0.3 F750
X91.581 Y64.3 I-0.582 J-0.31
X90.535 Y65.225 I0.719 J1.866
G3 X90.281 Y65.384 I-0.265 J-0.141
G1 X89.658
G3 X88.765 Y65.027 I0.08 J-1.495
X87.668 Y63.745 I2.501 J-3.252
X86.71 Y61.452 I8.691 J-4.976
X85.51 Y55.971 I40.816 J-11.813
X84.186 Y34.21 I106.277 J-17.387
X85.782 Y19.334 I103.551 J3.587
X86.313 Y16.896 I66.361 J13.19
X87.51 Y13.355 I17.92 J4.085
X88.525 Y11.843 I6.133 J3.017
G1 X88.676 Y11.721
X88.853 Y11.643
X89.044 Y11.616
X90.87
G3 X91.125 Y11.775 I-0.01 J0.3
X90.302 Y12.683 I-0.575 J0.306
X89.298 Y11.775 I0.761 J-1.849
G2 X89.044 Y11.616 I-0.265 J0.141
G1 X88.461 F675
G2 X87.404 Y12.077 I0.085 J1.637
X86.512 Y13.131 I2.581 J3.089
X85.534 Y15.374 I8.166 J4.895
X84.317 Y20.851 I38.106 J11.338
X82.916 Y39.493 I105.451 J17.3
X84.552 Y57.491 I107.338 J-0.686
X85.224 Y60.538 I60.937 J-11.833
X86.231 Y63.486 I16.94 J-4.142
X87.306 Y65.144 I6.323 J-2.923
G1 X87.459 Y65.273
X87.64 Y65.356
X87.837 Y65.384
X89.658
G2 X89.913 Y65.225 I-0.01 J-0.3 F750
X89.09 Y64.319 I-0.574 J-0.306
X88.092 Y65.225 I0.767 J1.847
G3 X87.837 Y65.384 I-0.265 J-0.141
G1 X87.249
G3 X86.372 Y65.059 I0.049 J-1.475
X85.298 Y63.853 I2.306 J-3.136
X84.328 Y61.611 I8.077 J-4.827
X83.121 Y56.132 I38.693 J-11.396
X81.721 Y37.489 I106.658 J-17.383
X83.33 Y19.488 I108.071 J0.588
X83.998 Y16.441 I60.687 J11.709
X85.013 Y13.495 I16.527 J4.048
X86.077 Y11.856 I6.248 J2.89
G1 X86.23 Y11.727
X86.411 Y11.644
X86.608 Y11.616
X88.461
G3 X88.75 Y11.926 I-0.01 J0.3
X88.324 Y12.347 I-0.435 J-0.015
X86.817 Y11.711 I-0.044 J-2
G1 X86.773 Y11.672
X86.722 Y11.643
X86.666 Y11.624
X86.608 Y11.616
X86.051 F675
G2 X85.001 Y12.053 I0.057 J1.617
X84.12 Y13.066 I2.481 J3.048
X83.137 Y15.264 I7.646 J4.739
X81.92 Y20.74 I36.82 J11.055
X80.533 Y36.888 I105.384 J17.186
X82.005 Y56.773 I111.221 J1.765
X82.768 Y60.437 I60.432 J-10.678
X83.757 Y63.392 I17.544 J-4.228
X84.9 Y65.177 I6.426 J-2.858
G1 X85.047 Y65.289
X85.217 Y65.36
X85.399 Y65.384
X87.249
G2 X87.503 Y65.225 I-0.01 J-0.3 F750
X86.682 Y64.306 I-0.579 J-0.309
X85.654 Y65.225 I0.736 J1.86
G3 X85.399 Y65.384 I-0.265 J-0.141
G1 X84.839
G3 X83.782 Y64.942 I0.09 J-1.7
X82.623 Y63.425 I3.147 J-3.607
X81.584 Y60.491 I12.023 J-5.91
X80.348 Y53.744 I56.543 J-13.843
X80.687 Y20.792 I113.373 J-15.313
X81.552 Y16.512 I61.572 J10.216
X82.55 Y13.56 I17.329 J4.213
X83.641 Y11.86 I6.376 J2.893
G1 X83.794 Y11.729
X83.976 Y11.645
X84.175 Y11.616
X86.051
G3 X86.305 Y11.775 I-0.01 J0.3
X85.488 Y12.705 I-0.584 J0.311
X84.429 Y11.775 I0.706 J-1.871
G2 X84.175 Y11.616 I-0.265 J0.141
G1 X83.563 F675
G2 X82.679 Y11.963 I0.069 J1.477
X81.586 Y13.232 I2.434 J3.202
X80.63 Y15.516 I8.484 J4.892
X79.461 Y21.004 I39.405 J11.263
X78.14 Y39.653 I109.614 J17.135
X79.635 Y57.041 I111.422 J-0.819
X80.261 Y60.098 I65.579 J-11.833
X81.185 Y63.074 I19.667 J-4.473
X82.311 Y64.998 I7.307 J-2.986
G1 X82.455 Y65.153
X82.604 Y65.278
X82.781 Y65.357
X82.974 Y65.384
X84.839
G2 X85.093 Y65.225 I-0.01 J-0.3 F750
X84.274 Y64.299 I-0.582 J-0.31
X83.228 Y65.225 I0.718 J1.867
G3 X82.974 Y65.384 I-0.265 J-0.141
G1 X82.366
G3 X81.476 Y65.036 I0.068 J-1.487
X80.397 Y63.79 I2.429 J-3.192
X79.443 Y61.519 I8.358 J-4.846
X78.275 Y56.031 I39.234 J-11.223
X76.94 Y38.006 I110.273 J-17.227
X78.405 Y19.99 I112.65 J0.095
X79.026 Y16.933 I66.958 J11.999
X80.197 Y13.384 I17.92 J3.944
X81.217 Y11.848 I6.156 J2.982
G1 X81.366 Y11.725
X81.541 Y11.646
X81.731 Y11.617
X81.799 Y11.616
X83.563
G3 X83.757 Y12.136 I-0.01 J0.3
X83.223 Y12.321 I-0.477 J-0.512
X81.941 Y11.71 I0.164 J-1.993
G1 X81.897 Y11.672
X81.846 Y11.643
X81.79 Y11.624
X81.731 Y11.617
X81.373 Y11.624 F675
X81.232 Y11.629
X81.012 Y11.65
G2 X79.929 Y12.246 I0.316 J1.856
X78.969 Y13.568 I3.32 J3.422
X77.932 Y16.503 I11.879 J5.845
X76.723 Y23.255 I55.753 J13.47
X77.081 Y56.213 I116.637 J15.216
X77.932 Y60.496 I61.687 J-10.038
X78.922 Y63.45 I16.877 J-4.015
X79.925 Y65.047 I6.427 J-2.921
G1 X80.059 Y65.166
X80.218 Y65.248
X80.392 Y65.289
G2 X82.365 Y65.382 I1.564 J-12.192
G1 X82.427 Y65.373 F750
X82.486 Y65.352
X82.539 Y65.32
X82.584 Y65.277
X82.62 Y65.225
G2 X81.936 Y64.303 I-0.56 J-0.299
X80.66 Y65.156 I0.388 J1.962
G3 X80.392 Y65.289 I-0.25 J-0.166
G1 X80.098 Y65.26
X80.027 Y65.251
X79.956 Y65.234
X79.451 Y65.08
G3 X78.5 Y64.418 I0.761 J-2.106
G1 X78.293 Y64.182
G3 X77.29 Y62.313 I5.409 J-4.108
X76.215 Y58.085 I24.472 J-8.472
X74.896 Y47.566 I92.811 J-16.983
X75.853 Y20.811 I118.294 J-9.16
X76.854 Y15.922 I54.875 J8.686
X77.968 Y13.015 I13.932 J3.671
G1 X78.266 Y12.531
G3 X78.561 Y12.244 I0.679 J0.402
G1 X78.68 Y12.18
X78.822 Y12.111
X79.956 Y11.766
X80.027 Y11.749
X80.098 Y11.74
X81.012 Y11.65
G3 X81.28 Y11.783 I0.019 J0.299
X81.222 Y12.163 I-0.237 J0.158
G1 X81.183 Y12.194
G3 X78.86 Y12.264 I-1.211 J-1.592
G2 X78.561 Y12.244 I-0.167 J0.249
G1 X77.688 Y12.712 F675
X77.61 Y12.77
X77.265 Y13.054
G2 X76.291 Y14.362 I2.675 J3.009
X75.466 Y16.711 I9.769 J4.748
X74.368 Y22.85 I52.402 J12.544
X74.7 Y56.43 I118.717 J15.617
X75.725 Y61.313 I51.569 J-8.274
G1 X75.913 Y61.909
X76.117 Y62.498
X76.299 Y62.947
X76.329 Y63.01
X76.364 Y63.07
X76.405 Y63.126
X76.612 Y63.379
X76.696 Y63.477
X76.748 Y63.521
X77.61 Y64.23
X77.688 Y64.288
X78.68 Y64.82
X78.822 Y64.889
X79.451 Y65.08
G2 X79.74 Y65.002 I0.077 J-0.29 F750
X79.8 Y64.567 I-0.258 J-0.257
G1 X79.789 Y64.549
G2 X76.689 Y63.223 I-2.526 J1.619
G3 X76.405 Y63.126 I-0.057 J-0.294
G1 X75.845 Y62.435
X75.812 Y62.387
X75.339 Y61.678
X74.869 Y60.969
G3 X74.049 Y59.034 I5.555 J-3.493
X73.259 Y54.741 I35.529 J-8.76
X72.718 Y26.733 I119.495 J-16.315
X73.93 Y18.085 I88.15 J7.94
G1 X74.067 Y17.476
X74.158 Y17.087
X74.191 Y16.983
X74.24 Y16.885
X74.303 Y16.796
X74.428 Y16.647
X74.576 Y16.456
X74.68 Y16.314
X75.562 Y14.987
X75.812 Y14.613
G3 X76.696 Y13.523 I23.419 J18.081
G1 X76.748 Y13.479
X77.265 Y13.054
G3 X77.562 Y13.015 I0.182 J0.238
X78.194 Y14.075 I-0.396 J0.955
X74.588 Y16.703 I-2.984 J-0.307
G2 X74.303 Y16.796 I-0.062 J0.293
G1 X73.637 Y17.59 F675
X73.519 Y17.732
X73.494 Y17.757
G2 X72.784 Y18.965 I2.65 J2.368
X72.186 Y21.383 I11.069 J4.025
X71.208 Y30.687 I93.035 J14.477
X72.162 Y55.583 I121.596 J7.808
X72.671 Y58.352 I54.574 J-8.601
G1 X72.724 Y58.497
X72.805 Y58.629
X72.912 Y58.739
G3 X73.757 Y59.55 I-2.554 J3.503
G1 X74.428 Y60.353
X74.576 Y60.544
X74.68 Y60.686
X74.869 Y60.969
G2 X75.141 Y61.093 I0.244 J-0.175 F750
X75.863 Y59.964 I-0.082 J-0.848
X73.21 Y58.778 I-1.888 J0.661
G3 X72.912 Y58.739 I-0.115 J-0.277
G1 X72.302 Y58.237
G3 X71.466 Y56.996 I1.969 J-2.227
X70.867 Y54.653 I9.416 J-3.654
X70.036 Y46.587 I86.201 J-12.963
X70.739 Y22.925 I122.853 J-8.189
X71.366 Y19.586 I29.376 J3.785
G1 X71.447 Y19.416
X71.564 Y19.271
X71.716 Y19.162
G2 X72.16 Y18.88 I-1.03 J-2.117
G1 X73.211 Y18.015
X73.294 Y17.947
X73.436 Y17.814
X73.494 Y17.757
G3 X73.997 Y17.99 I0.203 J0.221
G1 X73.991 Y18.068
G3 X72.869 Y19.235 I-1.305 J-0.132
X71.945 Y19.147 I-0.278 J-1.981
G1 X71.888 Y19.134
X71.829 Y19.132
X71.771 Y19.141
X71.716 Y19.162
X71.168 Y19.455 F675
G2 X70.429 Y20.231 I0.983 J1.675
X69.76 Y22.034 I5.219 J2.962
X69.158 Y26.357 I36.239 J7.246
X69.435 Y53.133 I123.747 J12.11
X69.988 Y56.202 I27.975 J-3.459
G1 X70.174 Y56.798
G2 X70.531 Y57.213 I0.676 J-0.221
G3 X71.988 Y57.992 I-10.64 J21.649
G1 X72.018 Y58.014
X72.16 Y58.12
X72.302 Y58.237
G2 X72.781 Y57.959 I0.182 J-0.238 F750
G1 X72.767 Y57.882
G2 X72.236 Y57.247 I-0.879 J0.196
X70.76 Y57.22 I-0.771 J1.845
G1 X70.704 Y57.236
X70.645 Y57.239
X70.587 Y57.232
X70.531 Y57.213
X70.317 Y57.107
X70.175 Y57.059
X70.097 Y57.035
G3 X69.348 Y56.428 I0.504 J-1.388
X68.7 Y55.087 I3.607 J-2.573
X68.125 Y52.026 I16.157 J-4.615
X67.381 Y38.327 I114.985 J-13.119
X68.212 Y24.009 I118.9 J-0.278
X68.682 Y21.559 I22.863 J3.109
G1 X68.868 Y20.963
X69.021 Y20.572
X69.126 Y20.39
X69.28 Y20.248
X69.469 Y20.158
G2 X71.167 Y19.454 I-1.407 J-5.793
G1 X71.23 Y19.431
X71.297 Y19.423
X71.364 Y19.43
X71.428 Y19.452
X71.485 Y19.488
X71.533 Y19.535
X71.569 Y19.592
G3 X71.201 Y20.394 I-0.511 J0.251
X70.701 Y20.458 I-0.501 J-1.936
G1 X70.7
G3 X69.697 Y20.188 I0 J-2
G1 X69.643 Y20.164
X69.586 Y20.15
X69.527 Y20.148
X69.469 Y20.158
X69.041 Y20.287 F675
X68.9 Y20.33
G2 X68.265 Y20.775 I0.368 J1.2
X67.651 Y21.784 I2.647 J2.3
X67.049 Y24.094 I8.796 J3.527
X66.406 Y30.925 I71.698 J10.192
X66.851 Y51.487 I125.561 J7.568
X67.349 Y54.566 I29.532 J-3.197
X67.935 Y56.202 I7.754 J-1.85
G1 X68.07 Y56.376
X68.251 Y56.499
X68.462 Y56.561
G3 X70.097 Y57.036 I-5.411 J21.666
G1 X70.159 Y57.046 F750
X70.222 Y57.043
X70.283 Y57.027
X70.339 Y56.999
X70.387 Y56.959
G2 X70.453 Y56.587 I-0.229 J-0.232
G1 X70.422 Y56.526
G2 X68.734 Y56.436 I-0.872 J0.489
G3 X68.462 Y56.561 I-0.245 J-0.174
G1 X68.191 Y56.527
X67.936 Y56.496
G3 X67.147 Y56.03 I0.213 J-1.262
X66.331 Y54.623 I2.881 J-2.612
X65.773 Y52.196 I10.775 J-3.756
X65.144 Y44.738 I80.84 J-10.568
X65.587 Y26.042 I125.954 J-6.368
X66.071 Y22.961 I29.39 J3.038
X66.826 Y20.944 I7.574 J1.685
X67.367 Y20.574 I0.643 J0.359
G1 X68.333 Y20.455
X68.474 Y20.437
X68.9 Y20.33
G3 X69.185 Y20.421 I0.063 J0.293
X69.18 Y20.816 I-0.214 J0.194
G1 X69.153 Y20.842
G3 X67.638 Y20.701 I-0.697 J-0.717
G2 X67.367 Y20.574 I-0.245 J0.173
G1 X67.199 Y20.595 F675
X67.057 Y20.612
X66.837 Y20.627
G2 X66.021 Y21.075 I0.166 J1.271
X65.186 Y22.407 I2.711 J2.627
X64.58 Y24.797 I9.457 J3.67
X64.008 Y31.008 I64.713 J9.098
X64.339 Y50.329 I127.313 J7.477
X64.93 Y54.022 I27.529 J-2.507
X65.724 Y55.933 I7.162 J-1.855
G1 X65.81 Y56.054
X65.966 Y56.216
X66.165 Y56.321
X66.387 Y56.357
G3 X67.936 Y56.498 I-0.199 J10.776
G1 X67.999 Y56.496 F750
X68.06 Y56.482
X68.117 Y56.455
X68.167 Y56.417
X68.208 Y56.37
G2 X68.132 Y55.875 I-0.296 J-0.208
X66.641 Y56.198 I-0.609 J0.793
G3 X66.387 Y56.357 I-0.265 J-0.141
G1 X65.845
G3 X65.016 Y55.986 I0.066 J-1.26
X64.172 Y54.831 I2.316 J-2.579
X63.475 Y52.572 I7.538 J-3.561
X62.968 Y48.237 I40.26 J-6.904
X63.097 Y27.047 I128.022 J-9.817
X63.668 Y23.349 I29.818 J2.708
X64.476 Y21.319 I7.619 J1.858
G1 X64.692 Y20.999
G3 X65.312 Y20.642 I0.638 J0.392
G1 X66.49 Y20.643
X66.632 Y20.642
X66.837 Y20.627
G3 X67.102 Y20.768 I0.011 J0.3
X67.026 Y21.148 I-0.239 J0.15
G1 X66.99 Y21.172
G3 X65.566 Y20.802 I-0.541 J-0.841
G2 X65.312 Y20.643 I-0.265 J0.141
G1 X64.789 F675
G2 X63.803 Y21.103 I0.059 J1.415
X62.89 Y22.441 I2.626 J2.772
X62.222 Y24.785 I8.63 J3.728
X61.654 Y30.368 I49.864 J7.893
X61.887 Y49.691 I128.32 J8.111
X62.449 Y53.39 I31.146 J-2.837
X63.272 Y55.522 I8.201 J-1.94
G1 X63.492 Y55.861
X63.659 Y56.081
X63.813 Y56.229
X64.005 Y56.324
X64.216 Y56.357
X65.845
G2 X66.099 Y56.198 I-0.01 J-0.3 F750
G1 X66.117 Y56.152
X66.122 Y56.102
X66.115 Y56.053
X66.096 Y56.007
X66.066 Y55.967
G2 X64.471 Y56.198 I-0.713 J0.701
G3 X64.216 Y56.357 I-0.265 J-0.141
G1 X63.655
G3 X62.812 Y56.011 I0.049 J-1.322
X61.919 Y54.905 I2.136 J-2.636
X61.159 Y52.743 I6.855 J-3.627
X60.593 Y48.416 I31.943 J-6.375
X60.691 Y27.226 I127.584 J-10.007
X61.146 Y24.141 I34.418 J3.508
X61.911 Y21.865 I9.928 J2.07
G1 X62.144 Y21.453
X62.375 Y21.107
X62.532 Y20.909
X62.686 Y20.766
X62.874 Y20.674
X63.081 Y20.643
X64.789
G3 X65.078 Y20.953 I-0.01 J0.3
X64.617 Y21.37 I-0.432 J-0.015
X63.29 Y20.738 I0.136 J-1.995
G1 X63.246 Y20.699
X63.195 Y20.67
X63.14 Y20.651
X63.081 Y20.643
X62.521 F675
G2 X61.516 Y21.113 I0.081 J1.482
X60.548 Y22.499 I2.733 J2.94
X59.848 Y24.848 I8.616 J3.849
X59.259 Y30.429 I45.085 J7.581
X59.447 Y49.13 I128.847 J8.055
X59.974 Y52.835 I35.497 J-3.165
X60.755 Y55.113 I10.034 J-2.167
G1 X60.997 Y55.536
X61.233 Y55.885
X61.4 Y56.094
X61.553 Y56.236
X61.741 Y56.326
X61.947 Y56.357
X63.655
G2 X63.849 Y55.838 I-0.01 J-0.3 F750
X63.238 Y55.662 I-0.478 J0.513
X62.156 Y56.262 I0.381 J1.963
G1 X62.112 Y56.301
X62.061 Y56.33
X62.005 Y56.349
X61.947 Y56.357
X61.387
G3 X60.535 Y56.025 I0.04 J-1.362
X59.616 Y54.932 I2.112 J-2.709
X58.813 Y52.789 I6.673 J-3.723
X58.209 Y48.468 I28.813 J-6.235
X57.961 Y32.258 I126.158 J-10.035
X58.541 Y25.423 I69.04 J2.415
X59.339 Y22.413 I14.082 J2.124
X60.24 Y20.903 I5.62 J2.329
G1 X60.394 Y20.764
X60.581 Y20.674
X60.787 Y20.643
X62.521
G3 X62.81 Y20.953 I-0.01 J0.3
X62.354 Y21.372 I-0.434 J-0.015
X60.996 Y20.738 I0.104 J-1.997
G1 X60.952 Y20.699
X60.901 Y20.67
X60.845 Y20.651
X60.787 Y20.643
X60.21 F675
G2 X59.194 Y21.121 I0.093 J1.519
X58.192 Y22.542 I2.805 J3.039
X57.471 Y24.905 I8.74 J3.959
X56.864 Y30.483 I42.404 J7.435
X57.009 Y48.563 I129.228 J8.006
X57.627 Y52.883 I35.012 J-2.801
X58.45 Y55.15 I10.108 J-2.391
G1 X58.7 Y55.57
X58.946 Y55.92
X59.099 Y56.104
X59.25 Y56.24
X59.435 Y56.327
X59.637 Y56.357
X61.387
G2 X61.581 Y55.838 I-0.01 J-0.3 F750
X60.968 Y55.655 I-0.491 J0.526
X59.846 Y56.262 I0.341 J1.971
G1 X59.802 Y56.301
X59.751 Y56.33
X59.696 Y56.349
X59.637 Y56.357
X59.041
G3 X58.173 Y55.997 I0.07 J-1.395
X57.225 Y54.837 I2.268 J-2.823
X56.407 Y52.605 I7.133 J-3.878
X55.756 Y47.662 I31.955 J-6.727
X55.549 Y32.697 I126.715 J-9.229
X56.102 Y25.859 I70.731 J2.276
X56.828 Y22.829 I16.891 J2.444
X57.817 Y21.017 I6.417 J2.327
G1 X57.933 Y20.885
X58.084 Y20.754
X58.265 Y20.671
X58.463 Y20.643
X60.21
G3 X60.5 Y20.953 I-0.01 J0.3
X60.046 Y21.372 I-0.434 J-0.015
X58.672 Y20.738 I0.088 J-1.998
G1 X58.628 Y20.699
X58.577 Y20.67
X58.521 Y20.651
X58.463 Y20.643
X57.907 F675
G2 X56.885 Y21.096 I0.068 J1.534
X55.876 Y22.475 I2.702 J3.037
X55.122 Y24.814 I8.467 J4.021
X54.521 Y29.766 I36.094 J6.893
X54.612 Y48.467 I128.587 J8.723
X55.241 Y52.786 I34.863 J-2.875
X56.068 Y55.076 I10.305 J-2.429
G1 X56.324 Y55.512
X56.577 Y55.877
X56.759 Y56.1
X56.912 Y56.239
X57.097 Y56.327
X57.301 Y56.357
X59.041
G2 X59.331 Y56.047 I-0.01 J-0.3 F750
X58.876 Y55.628 I-0.434 J0.015
X57.51 Y56.262 I0.097 J1.998
G1 X57.466 Y56.301
X57.415 Y56.33
X57.359 Y56.349
X57.301 Y56.357
X56.709
G3 X55.85 Y56.011 I0.061 J-1.393
X54.883 Y54.855 I2.231 J-2.849
X54.049 Y52.64 I7.024 J-3.909
X53.37 Y47.701 I30.563 J-6.716
X53.077 Y35.231 I121.447 J-9.097
X53.554 Y27.136 I92.962 J1.425
X54.255 Y23.462 I23.442 J2.565
X55.2 Y21.392 I8.162 J2.474
G1 X55.454 Y21.047
X55.59 Y20.888
X55.741 Y20.756
X55.923 Y20.672
X56.121 Y20.643
X57.907
G3 X58.101 Y21.162 I-0.01 J0.3
X57.489 Y21.351 I-0.501 J-0.537
X56.33 Y20.738 I0.304 J-1.977
G1 X56.286 Y20.699
X56.235 Y20.67
X56.18 Y20.651
X56.121 Y20.643
X55.576 F675
G2 X54.554 Y21.083 I0.054 J1.533
X53.533 Y22.448 I2.681 J3.069
X52.762 Y24.764 I8.314 J4.051
X52.136 Y29.712 I34.403 J6.868
X52.219 Y48.413 I127.539 J8.783
X52.859 Y52.731 I35.068 J-2.994
X53.7 Y55.046 I10.671 J-2.562
G1 X53.953 Y55.481
X54.21 Y55.854
X54.41 Y56.099
X54.562 Y56.238
X54.749 Y56.327
X54.952 Y56.357
X56.709
G2 X56.999 Y56.047 I-0.01 J-0.3 F750
X56.547 Y55.627 I-0.435 J0.015
X55.161 Y56.262 I0.077 J1.999
G1 X55.117 Y56.301
X55.066 Y56.33
X55.011 Y56.349
X54.952 Y56.357
X54.364
G3 X53.507 Y56.018 I0.057 J-1.397
X52.527 Y54.859 I2.221 J-2.872
X51.682 Y52.654 I7.013 J-3.95
X50.983 Y47.718 I29.806 J-6.737
X50.663 Y36.495 I116.487 J-8.943
X51.167 Y27.154 I97.147 J0.558
X51.716 Y24.084 I28.185 J3.458
X52.586 Y21.817 I9.819 J2.469
G1 X52.842 Y21.402
X53.099 Y21.05
X53.239 Y20.887
X53.39 Y20.755
X53.572 Y20.672
X53.77 Y20.643
X55.576
G3 X55.77 Y21.162 I-0.01 J0.3
X55.159 Y21.354 I-0.506 J-0.543
X53.979 Y20.738 I0.283 J-1.98
G1 X53.935 Y20.699
X53.884 Y20.67
X53.829 Y20.651
X53.77 Y20.643
X53.166 F675
G2 X52.29 Y21.004 I0.073 J1.424
X51.31 Y22.187 I2.317 J2.914
X50.468 Y24.426 I7.321 J4.032
X49.775 Y29.364 I30.157 J6.748
X49.47 Y40.586 I116.144 J8.769
X49.925 Y49.307 I98.728 J-0.769
X50.561 Y52.993 I28.29 J-2.984
X51.451 Y55.252 I9.462 J-2.424
G1 X51.717 Y55.668
X51.966 Y56
X52.073 Y56.121
X52.223 Y56.248
X52.403 Y56.329
X52.597 Y56.357
X54.364
G2 X54.618 Y56.198 I-0.01 J-0.3 F750
X53.792 Y55.317 I-0.563 J-0.3
X52.852 Y56.198 I0.825 J1.822
G3 X52.597 Y56.357 I-0.265 J-0.141
G1 X52.032
G3 X50.997 Y55.904 I0.103 J-1.641
X49.962 Y54.486 I2.942 J-3.236
X49.186 Y52.125 I8.838 J-4.211
X48.509 Y46.556 I37.053 J-7.331
X48.587 Y29.099 I127.229 J-8.16
X49.18 Y24.774 I39.363 J3.192
X49.929 Y22.397 I12.484 J2.629
X50.871 Y20.89 I5.625 J2.466
G1 X51.024 Y20.757
X51.207 Y20.672
X51.407 Y20.643
X53.166
G3 X53.36 Y21.162 I-0.01 J0.3
X52.747 Y21.346 I-0.493 J-0.529
X51.616 Y20.738 I0.332 J-1.972
G1 X51.572 Y20.699
X51.521 Y20.67
X51.465 Y20.651
X51.407 Y20.643
X50.82 F675
G2 X49.787 Y21.12 I0.097 J1.566
X48.735 Y22.584 I2.877 J3.179
X47.973 Y24.953 I9.057 J4.221
X47.303 Y30.524 I37.655 J7.351
X47.407 Y47.98 I126.793 J7.974
X48.017 Y52.302 I38.777 J-3.271
X49.039 Y55.172 I10.982 J-2.294
G1 X49.302 Y55.592
X49.561 Y55.946
X49.705 Y56.114
X49.856 Y56.245
X50.037 Y56.328
X50.235 Y56.357
X52.032
G2 X52.286 Y56.198 I-0.01 J-0.3 F750
X51.461 Y55.303 I-0.569 J-0.303
X50.49 Y56.198 I0.793 J1.836
G3 X50.235 Y56.357 I-0.265 J-0.141
G1 X49.686
G3 X48.655 Y55.921 I0.078 J-1.622
X47.619 Y54.539 I2.876 J-3.235
X46.83 Y52.212 I8.532 J-4.191
X46.127 Y46.647 I35.7 J-7.335
X45.932 Y34.175 I123.473 J-8.167
X46.463 Y26.709 I75.32 J1.602
X47.093 Y23.656 I22.806 J3.112
X48.042 Y21.505 I8.74 J2.574
G1 X48.305 Y21.135
X48.502 Y20.897
X48.654 Y20.76
X48.839 Y20.673
X49.041 Y20.643
X50.82
G3 X51.109 Y20.953 I-0.01 J0.3
X50.663 Y21.374 I-0.435 J-0.015
X49.25 Y20.738 I0.049 J-1.999
G1 X49.206 Y20.699
X49.155 Y20.67
X49.099 Y20.651
X49.041 Y20.643
X48.488 F675
G2 X47.461 Y21.088 I0.062 J1.553
X46.427 Y22.459 I2.717 J3.125
X45.631 Y24.797 I8.514 J4.204
X44.926 Y30.362 I35.538 J7.327
X44.741 Y42.834 I122.77 J8.06
X45.28 Y50.299 I74.565 J-1.639
X45.919 Y53.351 I22.798 J-3.179
X46.876 Y55.507 I8.6 J-2.526
G1 X47.134 Y55.868
X47.331 Y56.105
X47.483 Y56.241
X47.667 Y56.327
X47.869 Y56.357
X49.686
G2 X49.94 Y56.198 I-0.01 J-0.3 F750
X49.117 Y55.294 I-0.573 J-0.305
X48.123 Y56.198 I0.771 J1.845
G3 X47.869 Y56.357 I-0.265 J-0.141
G1 X47.276
G3 X46.414 Y56.018 I0.057 J-1.411
X45.422 Y54.854 I2.234 J-2.91
X44.555 Y52.635 I7.167 J-4.079
X43.82 Y47.705 I28.872 J-6.825
X43.48 Y37.731 I107.108 J-8.642
X43.945 Y27.763 I100.415 J-0.306
X44.596 Y24.078 I29.912 J3.382
X45.489 Y21.811 I10.072 J2.658
G1 X45.75 Y21.394
X46.011 Y21.041
X46.148 Y20.883
X46.299 Y20.754
X46.479 Y20.671
X46.676 Y20.643
X48.488
G3 X48.778 Y20.953 I-0.01 J0.3
X48.34 Y21.374 I-0.436 J-0.015
X46.885 Y20.738 I0.008 J-2
G1 X46.841 Y20.699
X46.79 Y20.67
X46.734 Y20.651
X46.676 Y20.643
X46.079 F675
G2 X45.041 Y21.129 I0.107 J1.581
X44.21 Y22.17 I2.539 J2.878
X43.347 Y24.403 I7.364 J4.127
X42.616 Y29.334 I29.248 J6.858
X42.285 Y39.308 I106.437 J8.521
X42.764 Y49.276 I99.495 J0.216
X43.428 Y52.958 I29.325 J-3.389
X44.326 Y55.218 I9.762 J-2.57
G1 X44.599 Y55.646
X44.853 Y55.984
X44.973 Y56.12
X45.123 Y56.248
X45.303 Y56.329
X45.498 Y56.357
X47.276
G2 X47.531 Y56.198 I-0.01 J-0.3 F750
X46.705 Y55.311 I-0.565 J-0.301
X45.752 Y56.198 I0.812 J1.828
G3 X45.498 Y56.357 I-0.265 J-0.141
G1 X44.945
G3 X43.909 Y55.918 I0.083 J-1.637
X42.864 Y54.521 I2.894 J-3.254
X42.064 Y52.174 I8.695 J-4.273
X41.347 Y46.61 I35.435 J-7.395
X41.135 Y34.762 I120.124 J-8.082
X41.702 Y26.675 I75.435 J1.224
X42.351 Y23.625 I23.607 J3.431
X43.311 Y21.487 I8.658 J2.605
G1 X43.578 Y21.115
X43.764 Y20.893
X43.916 Y20.758
X44.1 Y20.672
X44.301 Y20.643
X46.079
G3 X46.368 Y20.953 I-0.01 J0.3
X45.921 Y21.374 I-0.435 J-0.015
X44.509 Y20.738 I0.051 J-1.999
G1 X44.465 Y20.699
X44.414 Y20.67
X44.359 Y20.651
X44.301 Y20.643
X43.733 F675
G2 X42.701 Y21.1 I0.076 J1.565
X41.652 Y22.509 I2.79 J3.173
X40.858 Y24.864 I8.781 J4.27
X40.145 Y30.428 I35.725 J7.409
X39.943 Y42.277 I119.579 J7.956
X40.522 Y50.363 I74.877 J-1.294
X41.183 Y53.41 I22.612 J-3.312
X42.153 Y55.542 I8.623 J-2.635
G1 X42.415 Y55.903
X42.591 Y56.11
X42.742 Y56.243
X42.925 Y56.328
X43.125 Y56.357
X44.945
G2 X45.199 Y56.198 I-0.01 J-0.3 F750
X44.376 Y55.293 I-0.573 J-0.306
X43.379 Y56.198 I0.768 J1.846
G3 X43.125 Y56.357 I-0.265 J-0.141
G1 X42.535
G3 X41.666 Y56.017 I0.055 J-1.421
X40.669 Y54.85 I2.256 J-2.937
X39.792 Y52.623 I7.229 J-4.132
X39.044 Y47.694 I28.864 J-6.903
X38.699 Y37.721 I104.337 J-8.606
X39.112 Y28.374 I100.121 J-0.262
X39.841 Y24.072 I31.14 J3.062
X40.737 Y21.813 I10.098 J2.701
G1 X41.004 Y21.389
X41.266 Y21.036
X41.401 Y20.882
X41.551 Y20.753
X41.732 Y20.671
X41.928 Y20.643
X43.733
G3 X44.022 Y20.953 I-0.01 J0.3
X43.582 Y21.374 I-0.436 J-0.015
X42.137 Y20.738 I0.017 J-2
G1 X42.093 Y20.699
X42.042 Y20.67
X41.986 Y20.651
X41.928 Y20.643
X41.323 F675
G2 X40.443 Y21 I0.072 J1.441
X39.446 Y22.189 I2.326 J2.963
X38.584 Y24.425 I7.423 J4.146
X37.84 Y29.355 I29.3 J6.943
X37.504 Y39.328 I103.777 J8.488
X37.929 Y48.675 I99.496 J0.158
X38.672 Y52.975 I30.168 J-2.998
X39.584 Y55.233 I9.933 J-2.695
G1 X39.859 Y55.66
X40.113 Y55.996
X40.226 Y56.123
X40.376 Y56.249
X40.555 Y56.33
X40.749 Y56.357
X42.535
G2 X42.789 Y56.198 I-0.01 J-0.3 F750
X41.964 Y55.308 I-0.567 J-0.302
X41.003 Y56.198 I0.804 J1.831
G3 X40.749 Y56.357 I-0.265 J-0.141
G1 X40.189
G3 X39.151 Y55.912 I0.092 J-1.649
X38.095 Y54.494 I2.939 J-3.288
X37.294 Y52.138 I8.883 J-4.337
X36.568 Y46.575 I35.449 J-7.454
X36.355 Y34.727 I118.123 J-8.047
X36.941 Y26.641 I72.817 J1.209
X37.604 Y23.595 I23.711 J3.564
X38.571 Y21.467 I8.49 J2.574
G1 X38.838 Y21.098
X39.014 Y20.891
X39.165 Y20.757
X39.348 Y20.672
X39.548 Y20.643
X41.323
G3 X41.612 Y20.953 I-0.01 J0.3
X41.165 Y21.374 I-0.435 J-0.015
X39.757 Y20.738 I0.054 J-1.999
G1 X39.713 Y20.699
X39.662 Y20.67
X39.606 Y20.651
X39.548 Y20.643
X38.991 F675
G2 X37.96 Y21.088 I0.063 J1.563
X36.917 Y22.466 I2.725 J3.146
X36.11 Y24.809 I8.682 J4.301
X35.373 Y30.37 I34.928 J7.459
X35.146 Y41.594 I115.007 J7.944
X35.662 Y49.686 I80.84 J-1.093
X36.404 Y53.352 I24.36 J-3.026
X37.376 Y55.508 I8.939 J-2.73
G1 X37.638 Y55.873
X37.834 Y56.107
X37.986 Y56.242
X38.17 Y56.328
X38.371 Y56.357
X40.189
G2 X40.443 Y56.198 I-0.01 J-0.3 F750
X39.62 Y55.293 I-0.573 J-0.306
X38.625 Y56.198 I0.77 J1.846
G3 X38.371 Y56.357 I-0.265 J-0.141
G1 X37.779
G3 X36.916 Y56.021 I0.055 J-1.418
X35.912 Y54.85 I2.247 J-2.944
X35.032 Y52.628 I7.223 J-4.146
X34.27 Y47.701 I28.662 J-6.951
X33.918 Y37.728 I101.986 J-8.595
X34.339 Y28.382 I97.524 J-0.287
X35.078 Y24.081 I31.21 J3.147
X35.981 Y21.814 I10.304 J2.791
G1 X36.245 Y21.394
X36.508 Y21.04
X36.646 Y20.882
X36.796 Y20.753
X36.977 Y20.671
X37.173 Y20.643
X38.991
G3 X39.185 Y21.162 I-0.01 J0.3
X38.576 Y21.356 I-0.509 J-0.546
X37.382 Y20.738 I0.269 J-1.982
G1 X37.338 Y20.699
X37.287 Y20.67
X37.231 Y20.651
X37.173 Y20.643
X36.582 F675
G2 X35.543 Y21.122 I0.1 J1.584
X34.708 Y22.156 I2.523 J2.889
X33.833 Y24.383 I7.361 J4.179
X33.07 Y29.31 I28.913 J6.996
X32.723 Y39.283 I101.114 J8.511
X33.152 Y48.629 I97.585 J0.206
X33.897 Y52.929 I30.643 J-3.094
X34.801 Y55.191 I10.069 J-2.711
G1 X35.076 Y55.625
X35.335 Y55.971
X35.466 Y56.12
X35.616 Y56.248
X35.796 Y56.329
X35.992 Y56.357
X37.779
G2 X38.034 Y56.198 I-0.01 J-0.3 F750
X37.208 Y55.307 I-0.567 J-0.302
X36.246 Y56.198 I0.802 J1.832
G3 X35.992 Y56.357 I-0.265 J-0.141
G1 X35.405
G3 X34.525 Y56.014 I0.057 J-1.447
X33.537 Y54.863 I2.244 J-2.927
X32.655 Y52.645 I7.259 J-4.17
X31.884 Y47.72 I28.458 J-6.975
X31.527 Y37.747 I100.888 J-8.604
X31.951 Y28.401 I96.735 J-0.3
X32.693 Y24.1 I31.163 J3.163
X33.589 Y21.833 I10.167 J2.709
G1 X33.863 Y21.398
X34.123 Y21.046
X34.266 Y20.883
X34.416 Y20.753
X34.597 Y20.671
X34.793 Y20.643
X36.582
G3 X36.871 Y20.953 I-0.01 J0.3
X36.427 Y21.374 I-0.436 J-0.015
X35.002 Y20.738 I0.038 J-2
G1 X34.958 Y20.699
X34.907 Y20.67
X34.851 Y20.651
X34.793 Y20.643
X34.236 F675
G2 X33.202 Y21.089 I0.063 J1.567
X32.145 Y22.492 I2.753 J3.175
X31.5 Y24.229 I6.821 J3.521
G1 Y24.298
Y51.613
G2 X32.84 Y55.82 I7.367 J-0.029
G1 X33.096 Y56.129
G2 X33.613 Y56.357 I0.517 J-0.473
G1 X35.405
G2 X35.659 Y56.198 I-0.01 J-0.3 F750
X34.834 Y55.305 I-0.568 J-0.303
X33.867 Y56.198 I0.798 J1.834
G3 X33.613 Y56.357 I-0.265 J-0.141
G1 X33.038
G3 X32.182 Y56.03 I0.046 J-1.404
X31.563 Y55.394 I1.215 J-1.804
G1 X31.517 Y55.248
X31.5 Y55.096
G3 X31.984 Y54.869 I0.3 J0.01
G1 X32.084 Y54.947
X33.171 Y55.789
X33.211 Y55.82
G3 X33.038 Y56.357 I-0.184 J0.237
G1 X32.187
G3 X31.761 Y56.256 I0.033 J-1.092
X31.532 Y55.866 I0.271 J-0.422
G1 X31.504 Y55.724
X31.5 Y55.582
Y51.613
G0 Z2.502
X35.247 Y21.018
Z-1.4
G1 Z-1.7 F750
X35.241 Y21.014 Z-1.767
X35.222 Y21.003 Z-1.83
X35.191 Y20.984 Z-1.887
X35.15 Y20.96 Z-1.935
X35.101 Y20.931 Z-1.97
X35.047 Y20.898 Z-1.992
X34.989 Y20.864 Z-2
G2 X34.236 Y20.643 I-0.809 J1.36
G1 X33.243 F675
G2 X31.986 Y21.212 I0.102 J1.899
G1 X31.777 Y21.403
G2 X31.5 Y21.981 I0.508 J0.598
G1 Y24.298
G2 X31.659 Y24.552 I0.3 J-0.01 F750
X32.714 Y23.872 I0.338 J-0.634
X31.659 Y22.235 I-1.996 J0.128
G3 X31.5 Y21.981 I0.141 J-0.265
G1 Y21.418
X31.502 Y21.34
G3 X31.665 Y20.817 I0.854 J-0.021
G1 X31.702 Y20.789
X31.762 Y20.747
G3 X32.187 Y20.644 I0.432 J0.859
G1 X33.243 Y20.643
G0 Z2.502
X197.869 Y11.984
Z-1.4
G1 Z-1.7 F750
X197.876 Y11.98 Z-1.767
X197.895 Y11.968 Z-1.83
X197.926 Y11.95 Z-1.887
X197.966 Y11.926 Z-1.935
X198.015 Y11.897 Z-1.97
X198.07 Y11.864 Z-1.992
X198.127 Y11.83 Z-2
G3 X198.881 Y11.609 I0.809 J1.36
G1 X203.7
G3 X205.942 Y12.007 I-0.114 J7.142
X211.501 Y14.801 I-7.926 J22.707
X221.536 Y51.721 I-15.92 J24.151
X207.363 Y65.371 I-25.95 J-12.762
G1 X207.266 Y65.384
X207.17 Y65.391
X203.896
G3 X203.642 Y65.232 I0.01 J-0.3
X203.701 Y64.796 I0.332 J-0.177
X206.916 Y65.232 I1.45 J1.377
G2 X207.17 Y65.391 I0.265 J-0.141
G1 X208.661 F675
G2 X210.016 Y65.14 I-0.063 J-4.114
X212.21 Y64.019 I-3.524 J-9.609
X221.569 Y54.146 I-16.214 J-24.742
X221.266 Y23.25 I-25.991 J-15.195
X208.284 Y11.661 I-25.582 J15.59
G1 X208.189 Y11.636
X208.094 Y11.616
X207.997 Y11.609
X203.7
G2 X203.446 Y11.768 I0.01 J0.3 F750
X203.923 Y13.118 I0.857 J0.457
X207.743 Y11.768 I1.172 J-2.762
G3 X207.997 Y11.609 I0.265 J0.141
G1 X209.512
G3 X210.788 Y11.852 I-0.091 J3.96
X212.969 Y12.969 I-3.47 J9.453
X221.71 Y21.752 I-16.737 J25.4
X222.813 Y54.356 I-26.136 J17.205
X213.168 Y64.811 I-27.078 J-15.304
G1 X212.635 Y65.136
X212.36 Y65.296
X212.249 Y65.348
X212.13 Y65.38
X212.008 Y65.391
X208.661
G3 X208.407 Y65.232 I0.01 J-0.3
X208.438 Y64.91 I0.258 J-0.138
G1 X208.522 Y64.813
G3 X211.754 Y65.232 I1.466 J1.36
G2 X212.008 Y65.391 I0.265 J-0.141
G1 X213.197 F675
G2 X214.478 Y65.046 I-0.203 J-3.306
X216.497 Y63.738 I-4.046 J-8.455
X223.044 Y56.259 I-19.682 J-23.838
X222.883 Y21.388 I-27.459 J-17.309
X213.786 Y12.086 I-26.939 J17.244
G1 X213.251 Y11.764
G2 X212.794 Y11.609 I-0.477 J0.656
G1 X209.512
G2 X209.258 Y11.768 I0.01 J0.3 F750
X209.313 Y12.193 I0.325 J0.173
G1 X209.323 Y12.203
G2 X212.54 Y11.768 I1.451 J-1.376
G3 X212.794 Y11.609 I0.265 J0.141
G1 X213.906
G3 X215.17 Y11.922 I-0.127 J3.226
X217.171 Y13.19 I-3.732 J8.103
X223.44 Y20.092 I-19.901 J24.371
X224.82 Y55.601 I-27.862 J18.864
X217.738 Y64.247 I-28.721 J-16.302
X216.273 Y65.339 I-9.179 J-10.786
G1 X216.135 Y65.377
X215.995 Y65.391
X213.197
G3 X212.943 Y65.232 I0.01 J-0.3
X213.311 Y64.287 I0.59 J-0.315
X215.74 Y65.232 I0.664 J1.886
G2 X215.995 Y65.391 I0.265 J-0.141
G1 X216.883 F675
G2 X218.294 Y64.972 I-0.109 J-2.95
X220.175 Y63.552 I-4.198 J-7.516
X225.544 Y56.697 I-22.247 J-22.958
X225.445 Y21.038 I-29.952 J-17.746
X218.216 Y12.51 I-28.974 J17.233
X217.021 Y11.654 I-7.237 J8.84
G1 X216.889 Y11.622
X216.757 Y11.609
X213.906
G2 X213.652 Y11.768 I0.01 J0.3 F750
X213.98 Y12.678 I0.575 J0.307
X216.503 Y11.768 I0.758 J-1.851
G3 X216.757 Y11.609 I0.265 J0.141
G1 X217.733
G3 X219.158 Y12.079 I-0.219 J3.059
X221.059 Y13.552 I-4.679 J8.001
X226.755 Y20.939 I-23.394 J23.932
X227.21 Y56.166 I-31.171 J18.019
X221.269 Y64.145 I-30.309 J-16.365
X219.836 Y65.331 I-8.642 J-8.985
G1 X219.689 Y65.374
X219.538 Y65.391
X216.883
G3 X216.628 Y65.232 I0.01 J-0.3
X217.1 Y64.217 I0.618 J-0.33
X219.283 Y65.232 I0.418 J1.956
G2 X219.538 Y65.391 I0.265 J-0.141
G1 X220.426 F675
G2 X221.697 Y64.955 I-0.193 J-2.634
X223.467 Y63.482 I-4.118 J-6.745
X227.851 Y57.433 I-23.59 J-21.712
X227.539 Y19.932 I-32.255 J-18.483
X222.221 Y13.03 I-30.294 J17.843
X220.719 Y11.736 I-11.146 J11.408
G1 X220.593 Y11.667
X220.456 Y11.624
X220.314 Y11.609
X217.733
G2 X217.479 Y11.768 I0.01 J0.3 F750
X218.002 Y12.805 I0.627 J0.334
X220.059 Y11.768 I0.292 J-1.979
G3 X220.314 Y11.609 I0.265 J0.141
G1 X221.135
G3 X222.341 Y11.972 I-0.108 J2.547
X224.05 Y13.312 I-3.558 J6.294
X227.873 Y18.229 I-21.928 J20.997
X229.506 Y56.889 I-32.285 J20.728
X224.969 Y63.592 I-31.913 J-16.715
X223.15 Y65.324 I-9.597 J-8.251
G1 X222.993 Y65.372
X222.833 Y65.391
X220.426
G3 X220.172 Y65.232 I0.01 J-0.3
X220.804 Y64.173 I0.636 J-0.339
X222.579 Y65.232 I0.009 J2
G2 X222.833 Y65.391 I0.265 J-0.141
G1 X223.623 F675
G2 X224.757 Y65.023 I-0.125 J-2.315
X226.351 Y63.683 I-3.412 J-5.679
X229.284 Y59.653 I-20.327 J-17.876
X230.179 Y19.78 I-33.677 J-20.702
X225.53 Y13.153 I-31.874 J17.415
X224.038 Y11.751 I-10.281 J9.445
G1 X223.906 Y11.674
X223.762 Y11.626
X223.611 Y11.609
X221.135
G2 X220.881 Y11.768 I0.01 J0.3 F750
X221.472 Y12.823 I0.634 J0.338
X223.356 Y11.768 I0.119 J-1.996
G3 X223.611 Y11.609 I0.265 J0.141
G1 X224.395
G3 X225.514 Y11.96 I-0.11 J2.309
X227.115 Y13.28 I-3.327 J5.666
X230.079 Y17.287 I-20.444 J18.227
X231.991 Y57.235 I-34.49 J21.67
X228.009 Y63.56 I-33.114 J-16.431
X226.414 Y65.222 I-10.286 J-8.273
G1 X226.274 Y65.313
X226.118 Y65.371
X225.953 Y65.391
X223.623
G3 X223.368 Y65.232 I0.01 J-0.3
X224.042 Y64.176 I0.635 J-0.338
X225.699 Y65.232 I-0.108 J1.997
G2 X225.953 Y65.391 I0.265 J-0.141
G1 X226.663 F675
G2 X227.976 Y64.905 I-0.123 J-2.346
X229.544 Y63.407 I-3.981 J-5.739
X232.568 Y58.685 I-23.735 J-18.526
X232.529 Y19.142 I-36.956 J-19.735
X228.782 Y13.404 I-32.641 J17.219
X227.07 Y11.678 I-8.761 J6.977
G1 X226.91 Y11.628
X226.746 Y11.609
X224.395
G2 X224.141 Y11.768 I0.01 J0.3 F750
X224.804 Y12.825 I0.635 J0.339
X226.492 Y11.768 I-0.077 J-1.999
G3 X226.746 Y11.609 I0.265 J0.141
G1 X227.514
G3 X228.612 Y11.985 I-0.131 J2.175
X230.127 Y13.321 I-3.348 J5.326
X232.934 Y17.44 I-20.907 J17.26
X234.179 Y58.155 I-37.325 J21.518
X230.97 Y63.498 I-32.89 J-16.117
X229.283 Y65.315 I-8.505 J-6.206
G1 X229.116 Y65.37
X228.945 Y65.391
X226.663
G3 X226.469 Y64.872 I0.01 J-0.3
G1 X226.532 Y64.821
X226.602 Y64.78
X226.677 Y64.751
G3 X228.736 Y65.296 I0.596 J1.909
G1 X228.78 Y65.335
X228.831 Y65.364
X228.887 Y65.383
X228.945 Y65.391
X229.64 F675
G2 X230.91 Y64.903 I-0.126 J-2.226
X232.396 Y63.423 I-3.827 J-5.327
X234.989 Y59.166 I-22.769 J-16.791
X235.075 Y18.899 I-39.362 J-20.217
X231.458 Y13.078 I-32.252 J16.005
X230.098 Y11.689 I-7.63 J6.11
G1 X229.932 Y11.631
X229.759 Y11.609
X227.514
G2 X227.319 Y12.128 I0.01 J0.3 F750
X227.595 Y12.279 I0.431 J-0.463
X229.55 Y11.704 I0.492 J-1.939
G1 X229.594 Y11.665
X229.645 Y11.636
X229.701 Y11.617
X229.759 Y11.609
X230.49
G3 X231.539 Y11.972 I-0.115 J2.028
X232.947 Y13.24 I-3.14 J4.903
X235.034 Y16.342 I-17.031 J13.706
X236.731 Y58.321 I-39.399 J22.616
X233.637 Y63.73 I-31.999 J-14.715
X232.305 Y65.223 I-9.023 J-6.706
G1 X232.165 Y65.313
X232.01 Y65.371
X231.845 Y65.391
X229.64
G3 X229.446 Y64.872 I0.01 J-0.3
X229.786 Y64.698 I0.476 J0.51
X231.636 Y65.296 I0.387 J1.962
G1 X231.68 Y65.335
X231.731 Y65.364
X231.787 Y65.383
X231.845 Y65.391
X232.553 F675
G2 X233.563 Y65.038 I-0.107 J-1.927
G1 X233.816 Y64.869
G2 X235.256 Y63.337 I-4.25 J-5.438
X237.716 Y59.001 I-23.648 J-16.283
X237.566 Y18.584 I-42.081 J-20.052
X234.42 Y13.205 I-32.338 J15.302
X233.122 Y11.773 I-9.244 J7.073
G1 X232.984 Y11.684
X232.83 Y11.628
X232.668 Y11.609
X230.49
G2 X230.236 Y11.768 I0.01 J0.3 F750
X230.978 Y12.8 I0.625 J0.333
X232.413 Y11.768 I-0.329 J-1.973
G3 X232.668 Y11.609 I0.265 J0.141
G1 X233.325
G3 X234.552 Y12.072 I-0.103 J2.128
X235.97 Y13.495 I-3.593 J5.002
X238.214 Y17.236 I-20.839 J15.043
X239.362 Y58.268 I-42.576 J21.723
X236.752 Y63.235 I-34.017 J-14.706
X235.136 Y65.219 I-9.525 J-6.107
G1 X234.995 Y65.311
X234.837 Y65.371
X234.67 Y65.391
X232.553
G3 X232.298 Y65.232 I0.01 J-0.3
X233.061 Y64.216 I0.619 J-0.33
X234.416 Y65.232 I-0.41 J1.957
G2 X234.67 Y65.391 I0.265 J-0.141
G1 X235.31 F675
G2 X236.499 Y64.936 I-0.096 J-2.034
G1 X236.767 Y64.735
G2 X238.184 Y63.063 I-4.917 J-5.599
X240.735 Y58.069 I-27.416 J-17.157
X240.224 Y18.665 I-45.081 J-19.121
X237.569 Y13.723 I-34.311 J15.253
X235.965 Y11.777 I-9.448 J6.152
G1 X235.825 Y11.687
X235.67 Y11.629
X235.505 Y11.609
X233.325
G2 X233.071 Y11.768 I0.01 J0.3 F750
X233.812 Y12.8 I0.625 J0.333
X235.251 Y11.768 I-0.326 J-1.973
G3 X235.505 Y11.609 I0.265 J0.141
G1 X236.16
G3 X237.369 Y12.085 I-0.114 J2.065
X238.733 Y13.5 I-3.56 J4.797
X240.887 Y17.293 I-20.523 J14.165
X241.865 Y58.455 I-45.221 J21.667
X239.331 Y63.459 I-32.628 J-13.378
X237.929 Y65.193 I-8.836 J-5.708
G1 X237.782 Y65.299
X237.615 Y65.368
X237.436 Y65.391
X235.31
G3 X235.115 Y64.872 I0.01 J-0.3
X235.558 Y64.671 I0.521 J0.559
X237.227 Y65.296 I0.207 J1.989
G1 X237.271 Y65.335
X237.322 Y65.364
X237.378 Y65.383
X237.436 Y65.391
X238.081 F675
G2 X239.273 Y64.91 I-0.112 J-1.997
G1 X239.528 Y64.713
G2 X240.909 Y63.014 I-4.98 J-5.458
X243.111 Y58.541 I-26.456 J-15.805
X242.73 Y18.458 I-47.445 J-19.592
X240.147 Y13.478 I-33.056 J13.988
X238.768 Y11.802 I-8.104 J5.26
G1 X238.624 Y11.698
X238.459 Y11.632
X238.282 Y11.609
X236.16
G2 X235.966 Y12.128 I0.01 J0.3 F750
X236.413 Y12.33 I0.523 J-0.561
X238.073 Y11.704 I0.198 J-1.99
G1 X238.118 Y11.665
X238.168 Y11.636
X238.224 Y11.617
X238.282 Y11.609
X238.931
G3 X240.122 Y12.084 I-0.11 J2.003
G1 X240.38 Y12.284
G3 X241.77 Y13.982 I-5.017 J5.525
X244.248 Y19.013 I-28.574 J17.201
X244.387 Y58.568 I-48.572 J19.948
X241.924 Y63.608 I-31.588 J-12.311
G1 X241.567 Y64.12
X241.187 Y64.615
X240.809 Y65.038
X240.642 Y65.198
X240.499 Y65.303
X240.334 Y65.369
X240.159 Y65.391
X238.081
G3 X237.826 Y65.232 I0.01 J-0.3
X238.602 Y64.227 I0.614 J-0.328
X239.904 Y65.232 I-0.463 J1.946
G2 X240.159 Y65.391 I0.265 J-0.141
G1 X240.838 F675
G2 X241.802 Y65.036 I-0.1 J-1.759
X242.925 Y63.955 I-2.648 J-3.876
X244.492 Y61.264 I-11.683 J-8.607
X248.211 Y50.036 I-45.793 J-21.396
X245.213 Y18.225 I-52.496 J-11.1
X243.01 Y13.75 I-33.135 J13.534
X241.491 Y11.787 I-8.878 J5.3
G1 X241.348 Y11.691
X241.188 Y11.63
X241.019 Y11.609
X238.931
G2 X238.677 Y11.768 I0.01 J0.3 F750
X239.449 Y12.776 I0.616 J0.328
X240.765 Y11.768 I-0.45 J-1.949
G3 X241.019 Y11.609 I0.265 J0.141
G1 X241.688
G3 X242.656 Y11.961 I-0.095 J1.77
X243.808 Y13.063 I-2.694 J3.968
X245.389 Y15.746 I-11.941 J8.843
X249.354 Y27.546 I-46.851 J22.309
X246.839 Y58.82 I-53.554 J11.432
X244.739 Y63.343 I-31.864 J-12.049
X243.32 Y65.214 I-8.54 J-5.002
G1 X243.179 Y65.309
X243.02 Y65.37
X242.851 Y65.391
X240.838
G3 X240.583 Y65.232 I0.01 J-0.3
X241.376 Y64.249 I0.606 J-0.323
X242.596 Y65.232 I-0.545 J1.924
G2 X242.851 Y65.391 I0.265 J-0.141
G1 X243.467 F675
G2 X244.621 Y64.923 I-0.118 J-1.949
G1 X244.86 Y64.731
G2 X246.157 Y63.079 I-4.642 J-4.98
X247.99 Y59.12 I-23.831 J-13.435
X247.565 Y17.702 I-52.242 J-20.175
X245.354 Y13.233 I-27.666 J10.909
X244.188 Y11.793 I-7.872 J5.176
G1 X244.045 Y11.694
X243.883 Y11.63
X243.711 Y11.609
X241.688
G2 X241.434 Y11.768 I0.01 J0.3 F750
X241.353 Y12.091 I0.607 J0.324
X242.224 Y12.755 I0.688 J0
X243.457 Y11.768 I-0.532 J-1.928
G3 X243.711 Y11.609 I0.265 J0.141
G1 X244.381
G3 X245.343 Y11.968 I-0.101 J1.74
X246.459 Y13.055 I-2.657 J3.843
X248.001 Y15.76 I-11.54 J8.37
X251.536 Y26.398 I-48.218 J21.928
X249.338 Y58.932 I-55.703 J12.578
X247.286 Y63.477 I-30.45 J-11.013
G1 X246.946 Y64.001
X246.583 Y64.509
X246.232 Y64.934
X245.994 Y65.179
X245.848 Y65.294
X245.676 Y65.366
X245.492 Y65.391
X243.467
G3 X243.213 Y65.232 I0.01 J-0.3
X243.132 Y64.909 I0.608 J-0.324
G1 Y64.908
G3 X244.003 Y64.245 I0.688 J0
X245.238 Y65.232 I-0.53 J1.928
G2 X245.492 Y65.391 I0.265 J-0.141
G1 X246.16 F675
G2 X247.114 Y65.027 I-0.1 J-1.695
X248.18 Y63.968 I-2.572 J-3.655
X249.674 Y61.237 I-10.917 J-7.747
X252.565 Y52.35 I-47.49 J-20.362
X250.016 Y17.426 I-56.793 J-13.41
X248.146 Y13.483 I-28.176 J10.948
G1 X247.806 Y12.959
X247.44 Y12.454
X247.07 Y12.018
X246.869 Y11.815
X246.723 Y11.703
X246.554 Y11.633
X246.372 Y11.609
X244.381
G2 X244.127 Y11.768 I0.01 J0.3 F750
X244.925 Y12.743 I0.603 J0.321
X246.118 Y11.768 I-0.572 J-1.917
G3 X246.372 Y11.609 I0.265 J0.141
G1 X247.011
G3 X248.161 Y12.095 I-0.117 J1.882
G1 X248.4 Y12.289
G3 X249.691 Y13.973 I-4.796 J5.014
X251.487 Y17.949 I-24.425 J13.421
X251.668 Y59.485 I-55.715 J21.012
X249.889 Y63.47 I-28.511 J-10.343
G1 X249.558 Y63.999
X249.201 Y64.511
X248.846 Y64.944
X248.623 Y65.177
X248.476 Y65.293
X248.304 Y65.366
X248.118 Y65.391
X246.16
G3 X245.906 Y65.232 I0.01 J-0.3
X246.711 Y64.269 I0.598 J-0.319
X247.864 Y65.232 I-0.612 J1.904
G2 X248.118 Y65.391 I0.265 J-0.141
G1 X248.775 F675
G2 X249.715 Y65.035 I-0.09 J-1.654
X250.747 Y64.006 I-2.497 J-3.538
X251.971 Y61.837 I-9 J-6.509
X254.408 Y54.765 I-43.095 J-18.802
X256.499 Y39.694 I-58.02 J-15.731
G1 X256.5 Y38.996
X256.469 Y38.373
G2 X255.582 Y28.443 I-54.879 J-0.103
X251.946 Y15.883 I-57.876 J9.948
X250.526 Y13.108 I-19.798 J8.38
G1 X250.169 Y12.596
X249.808 Y12.14
X249.52 Y11.831
X249.372 Y11.711
X249.197 Y11.635
X249.008 Y11.609
X247.011
G2 X246.721 Y11.919 I0.01 J0.3 F750
X247.094 Y12.325 I0.424 J-0.015
X248.799 Y11.704 I0.242 J-1.985
G1 X248.843 Y11.665
X248.894 Y11.636
X248.95 Y11.617
X249.008 Y11.609
X249.626
G3 X250.767 Y12.086 I-0.107 J1.857
G1 X251 Y12.275
G3 X252.256 Y13.919 I-4.566 J4.789
X254.006 Y17.916 I-23.566 J12.699
X256.508 Y26.918 I-54.953 J20.124
G1 X256.5 Y38.996
G3 X256.163 Y39.294 I-0.3 J0
X255.909 Y38.923 I0.037 J-0.298
G1 X255.926 Y38.882
X255.953 Y38.847
X255.988 Y38.821
X256.03 Y38.805
X256.074 Y38.801
X256.117 Y38.81
X256.166 Y38.831
X256.21 Y38.86
X256.248 Y38.897
X256.279 Y38.94
X256.283 Y38.947
G3 X256.5 Y39.694 I-1.365 J0.802
G1 Y49.77
G3 X255.957 Y53.466 I-16.825 J-0.582
X253.298 Y61.776 I-50.751 J-11.663
X251.803 Y64.508 I-13.997 J-5.883
G1 X251.453 Y64.934
X251.227 Y65.173
X251.079 Y65.291
X250.906 Y65.366
X250.719 Y65.391
X248.775
G3 X248.521 Y65.232 I0.01 J-0.3
X249.329 Y64.275 I0.595 J-0.317
X250.465 Y65.232 I-0.629 J1.898
G2 X250.719 Y65.391 I0.265 J-0.141
G1 X251.327 F675
G2 X252.45 Y64.923 I-0.093 J-1.803
G1 X252.668 Y64.746
G2 X253.869 Y63.161 I-4.364 J-4.557
X255.558 Y59.14 I-21.911 J-11.566
X256.503 Y56.112 I-38.867 J-13.79
G1 X256.5 Y56.045
Y49.77
G2 X256.341 Y49.516 I-0.3 J0.01 F750
X255.088 Y49.777 I-0.47 J0.882
X256.341 Y55.791 I3.135 J2.484
G3 X256.5 Y56.045 I-0.141 J0.265
G1 Y58.701
G3 X256.103 Y60.939 I-7.097 J-0.105
X254.507 Y64.314 I-13.411 J-4.277
G1 X254.155 Y64.78
X253.841 Y65.137
G3 X253.296 Y65.392 I-0.556 J-0.482
G1 X253.231 Y65.382
X253.17 Y65.359
X253.115 Y65.323
X253.07 Y65.276
X253.035 Y65.221
X253.014 Y65.159
X253.006 Y65.094
X253.013 Y65.029
X253.033 Y64.967
X253.114 Y64.788
X255.927 Y58.588
X255.931 Y58.579
X255.935 Y58.571
G3 X256.5 Y58.701 I0.265 J0.141
G1 Y61.82
G3 X256.036 Y63.807 I-4.898 J-0.095
G1 X255.783 Y64.335
X255.488 Y64.836
X255.307 Y65.093
X255.152 Y65.253
X254.954 Y65.356
X254.734 Y65.391
G3 X254.471 Y64.969 I0.01 J-0.3
G1 X254.552 Y64.787
X255.926 Y61.708
X255.931 Y61.699
X255.935 Y61.689
G3 X256.5 Y61.82 I0.265 J0.141
G1 Y64.23
G3 X256.265 Y65.132 I-1.743 J0.027
G1 X256.107 Y65.27
X255.919 Y65.36
X255.714 Y65.391
G3 X255.462 Y64.945 I0.01 J-0.3
G1 X255.546 Y64.795
X255.935 Y64.099
X255.938 Y64.094
G3 X256.5 Y64.23 I0.262 J0.146
G1 Y65.08
X256.498 Y65.116
X256.491 Y65.151
X256.48 Y65.187
X256.464 Y65.222
X256.449 Y65.247
X256.43 Y65.272
X256.4 Y65.303
X256.371 Y65.328
X256.341 Y65.348
X256.312 Y65.364
X256.288 Y65.374
X256.253 Y65.384
X256.217 Y65.39
X256.146 Y65.391
X251.327
G0 Z2.502
X256.125 Y27.931
Z-1.4
G1 Z-1.7 F750
X256.129 Y27.925 Z-1.767
X256.141 Y27.906 Z-1.83
X256.159 Y27.875 Z-1.887
X256.183 Y27.834 Z-1.935
X256.212 Y27.785 Z-1.97
X256.245 Y27.731 Z-1.992
X256.279 Y27.673 Z-2
G2 X256.5 Y26.92 I-1.36 J-0.809
G1 Y23.119 F675
G2 X256.134 Y20.657 I-9.312 J0.124
X253.753 Y14.229 I-37.431 J10.216
X252.435 Y12.161 I-10.318 J5.12
G1 X252.113 Y11.812
G2 X251.619 Y11.609 I-0.495 J0.5
G1 X249.626
G2 X249.372 Y11.768 I0.01 J0.3 F750
X250.169 Y12.744 I0.603 J0.321
X251.365 Y11.768 I-0.57 J-1.917
G3 X251.619 Y11.609 I0.265 J0.141
G1 X252.255
G3 X253.398 Y12.113 I-0.134 J1.851
G1 X253.633 Y12.309
G3 X254.873 Y13.993 I-4.72 J4.775
X256.503 Y17.881 I-21.914 J11.473
G1 X256.5 Y17.962
G3 X255.949 Y18.115 I-0.3 J-0.01
G1 X255.934 Y18.093
X252.097 Y12.199
X252.014 Y12.073
G3 X252.255 Y11.609 I0.251 J-0.164
G1 X253.311
G3 X254.481 Y12.035 I-0.074 J2.024
X255.536 Y13.084 I-2.572 J3.64
X256.467 Y14.661 I-6.708 J5.025
G1 X256.491 Y14.769
X256.5 Y14.879
G3 X255.985 Y15.077 I-0.3 J-0.01
G1 X255.926 Y15.016
X253.172 Y12.185
X253.107 Y12.118
G3 X253.311 Y11.609 I0.215 J-0.209
G1 X254.587
G3 X255.807 Y12.1 I-0.148 J2.128
G1 X256.039 Y12.278
X256.313 Y12.534
G3 X256.5 Y13.011 I-0.513 J0.477
X256.031 Y13.248 I-0.3 J-0.01
G1 X255.911 Y13.167
X254.456 Y12.175
X254.429 Y12.157
G3 X254.587 Y11.609 I0.169 J-0.248
G1 X255.799
G3 X256.5 Y12.263 I0.044 J0.655
X256.002 Y12.478 I-0.3 J-0.01
G1 X255.921 Y12.406
X255.664 Y12.18
X255.611 Y12.134
G3 X255.799 Y11.609 I0.198 J-0.225
G1 X256.146
X256.217 Y11.61
X256.253 Y11.616
X256.288 Y11.626
X256.312 Y11.636
X256.341 Y11.652
X256.371 Y11.672
X256.4 Y11.697
X256.43 Y11.728
X256.449 Y11.753
X256.464 Y11.778
X256.48 Y11.813
X256.491 Y11.849
X256.498 Y11.884
X256.5 Y11.92
Y23.119
G3 X256.201 Y23.408 I-0.3 J-0.01
G1 X256.2
X256.188
X256.176 Y23.407
X256.126 Y23.39 Z-1.995
X256.077 Y23.373 Z-1.981
X256.032 Y23.357 Z-1.958
X255.999 Y23.32 Z-1.921
X255.972 Y23.29 Z-1.874
X255.952 Y23.268 Z-1.82
X255.94 Y23.254 Z-1.762
X255.935 Y23.249 Z-1.7
G0 Z2.502
X255.882 Y63.14
Z-1.2
G1 Z-1.5 F750
X255.886 Y63.147 Z-1.567
X255.897 Y63.166 Z-1.63
X255.915 Y63.197 Z-1.687
X255.939 Y63.238 Z-1.735
X255.969 Y63.286 Z-1.77
X256.001 Y63.341 Z-1.792
X256.035 Y63.398 Z-1.8
G3 X256.5 Y64.981 I-2.858 J1.699
G1 Y65.08
X256.499 Y65.116
X256.494 Y65.151
X256.484 Y65.187
X256.469 Y65.222
X256.452 Y65.252
X256.43 Y65.283
X256.382 Y65.331
X256.358 Y65.349
X256.334 Y65.364
X256.288 Y65.385
X256.253 Y65.395
X256.217 Y65.4
X256.146 Y65.402
X175.493 Y65.401
X81.799 Y65.395
X81.515 Y65.391
X81.373 Y65.388
X81.232 Y65.383
X80.098 Y65.271
X80.027 Y65.263
X79.956 Y65.245
X78.822 Y64.901
X78.68 Y64.832
X77.688 Y64.3
X77.596 Y64.23
X76.734 Y63.521
G3 X75.804 Y62.387 I19.551 J-16.98
G1 X75.278 Y61.599
X74.672 Y60.686
G2 X73.436 Y59.196 I-28.657 J22.518
G1 X73.294 Y59.064
G2 X71.973 Y57.991 I-16.476 J18.932
X70.318 Y57.116 I-20.003 J35.816
X68.475 Y56.571 I-8.741 J26.192
X66.632 Y56.367 I-6.433 J49.779
G1 X66.348 Y56.371
X32.187
G3 X31.761 Y56.27 I0.033 J-1.085
X31.529 Y55.866 I0.275 J-0.426
G1 X31.502 Y55.724
X31.5 Y55.582
G0 Z2.502
X32.087 Y23.226
Z-1.2
G1 Z-1.5 F750
X32.083 Y23.22 Z-1.567
X32.072 Y23.2 Z-1.63
X32.055 Y23.169 Z-1.687
X32.031 Y23.128 Z-1.735
X32.003 Y23.079 Z-1.77
X31.971 Y23.024 Z-1.792
X31.938 Y22.966 Z-1.8
G3 X31.501 Y21.375 I2.887 J-1.649
X31.628 Y20.849 I1.025 J-0.03
G1 X31.661 Y20.815
X31.697 Y20.779
X31.762 Y20.733
G3 X32.187 Y20.629 I0.44 J0.881
G1 X66.49
G2 X68.474 Y20.423 I-1.047 J-19.775
X70.317 Y19.882 I-5.507 J-22.149
X72.019 Y18.977 I-9.022 J-19.033
G1 X72.164 Y18.866
X73.199 Y18.015
X73.294 Y17.936
X73.436 Y17.804
G2 X74.674 Y16.316 I-20.664 J-18.455
G1 X75.519 Y15.038
X75.804 Y14.613
G3 X76.731 Y13.477 I15.084 J11.364
G1 X77.596 Y12.77
X77.688 Y12.7
X78.68 Y12.168
X78.822 Y12.099
X79.956 Y11.755
X80.027 Y11.737
X80.098 Y11.729
X81.232 Y11.617
X81.373 Y11.612
X81.657 Y11.607
X81.799 Y11.605
X192.219 Y11.598
X256.146
X256.217 Y11.6
X256.253 Y11.605
X256.288 Y11.615
X256.334 Y11.636
X256.358 Y11.651
X256.382 Y11.669
X256.43 Y11.717
X256.452 Y11.748
X256.469 Y11.778
X256.484 Y11.813
X256.494 Y11.849
X256.499 Y11.884
X256.5 Y11.92
G3 X256.201 Y12.209 I-0.3 J-0.01
G1 X256.2
X256.188
X256.176 Y12.208
X256.126 Y12.191 Z-1.795
X256.077 Y12.174 Z-1.781
X256.032 Y12.158 Z-1.758
X255.999 Y12.121 Z-1.721
X255.972 Y12.091 Z-1.674
X255.952 Y12.069 Z-1.62
X255.94 Y12.055 Z-1.562
X255.935 Y12.05 Z-1.5
G0 Z2.502
X255.993 Y63.244
Z-1
G1 Z-1.3 F750
X255.997 Y63.251 Z-1.367
X256.007 Y63.27 Z-1.43
X256.023 Y63.302 Z-1.487
X256.045 Y63.344 Z-1.535
X256.071 Y63.395 Z-1.57
X256.1 Y63.451 Z-1.592
X256.131 Y63.511 Z-1.6
G3 X256.498 Y65.119 I-2.957 J1.521
G1 X256.496 Y65.151
X256.487 Y65.187
X256.474 Y65.222
X256.455 Y65.258
X256.43 Y65.293
X256.391 Y65.333
X256.352 Y65.364
X256.32 Y65.382
X256.288 Y65.395
X256.253 Y65.406
X256.217 Y65.411
X256.146 Y65.413
X164.153 Y65.412
X81.799 Y65.407
X81.515 Y65.402
X81.373 Y65.4
X81.232 Y65.395
X80.098 Y65.283
X80.027 Y65.275
X79.956 Y65.257
X78.822 Y64.913
X78.68 Y64.843
X77.688 Y64.312
X77.582 Y64.23
X76.719 Y63.521
G3 X75.795 Y62.387 I21.237 J-18.25
G1 X75.228 Y61.536
X74.663 Y60.686
G2 X73.439 Y59.205 I-29.7 J23.308
X71.881 Y57.94 I-13.9 J15.525
G1 X71.699 Y57.851
X70.742 Y57.339
X70.317 Y57.128
G2 X68.335 Y56.559 I-5.899 J16.831
G1 X68.049 Y56.538
G2 X66.348 Y56.386 I-1.909 J11.719
G1 X32.187
G3 X31.776 Y56.293 I0.053 J-1.2
X31.527 Y55.866 I0.268 J-0.442
G1 X31.501 Y55.724
X31.5 Y55.582
G0 Z2.502
X32.102 Y23.221
Z-1
G1 Z-1.3 F750
X32.098 Y23.215 Z-1.367
X32.087 Y23.196 Z-1.43
X32.069 Y23.165 Z-1.487
X32.045 Y23.124 Z-1.535
X32.017 Y23.075 Z-1.57
X31.985 Y23.02 Z-1.592
X31.951 Y22.962 Z-1.6
G3 X31.5 Y21.375 I2.873 J-1.673
X31.646 Y20.808 I0.956 J-0.057
G1 X31.692 Y20.77
X31.762 Y20.718
G3 X32.187 Y20.614 I0.435 J0.859
G1 X66.49
G2 X68.474 Y20.413 I-1.191 J-21.576
X70.317 Y19.871 I-5.17 J-20.986
X71.956 Y19.007 I-11.694 J-24.176
X73.5 Y17.731 I-12.967 J-17.272
X74.665 Y16.316 I-29.905 J-25.798
G1 X75.42 Y15.175
X75.795 Y14.613
G3 X76.718 Y13.478 I18.536 J14.116
G1 X77.582 Y12.77
X77.688 Y12.688
X78.68 Y12.157
X78.822 Y12.087
X79.956 Y11.743
X80.027 Y11.725
X80.098 Y11.717
X81.232 Y11.605
X81.373 Y11.6
X81.657 Y11.595
X81.799 Y11.593
X180.879 Y11.587
X256.146
X256.217 Y11.589
X256.253 Y11.594
X256.288 Y11.605
X256.32 Y11.618
X256.352 Y11.636
X256.391 Y11.667
X256.43 Y11.707
X256.455 Y11.742
X256.474 Y11.778
X256.487 Y11.813
X256.496 Y11.849
X256.498 Y11.888
G3 X256.192 Y12.196 I-0.3 J0.008
G1 X256.141 Y12.181 Z-1.595
X256.092 Y12.167 Z-1.581
X256.046 Y12.154 Z-1.558
X256.011 Y12.12 Z-1.521
X255.982 Y12.091 Z-1.474
X255.96 Y12.07 Z-1.42
X255.947 Y12.057 Z-1.362
X255.942 Y12.052 Z-1.3
G0 Z2.502
X255.951 Y63.256
Z-0.8
G1 Z-1.1 F750
X255.955 Y63.263 Z-1.167
X255.966 Y63.282 Z-1.23
X255.983 Y63.313 Z-1.287
X256.005 Y63.355 Z-1.335
X256.033 Y63.405 Z-1.37
X256.063 Y63.461 Z-1.392
X256.095 Y63.52 Z-1.4
G3 X256.499 Y65.119 I-2.921 J1.588
G1 X256.497 Y65.151
X256.49 Y65.187
X256.479 Y65.222
X256.459 Y65.263
X256.43 Y65.304
X256.398 Y65.337
X256.367 Y65.364
X256.328 Y65.389
X256.288 Y65.406
X256.253 Y65.417
X256.217 Y65.422
X256.146 Y65.424
X152.955 Y65.423
X81.799 Y65.418
X81.515 Y65.414
X81.373 Y65.411
X81.232 Y65.406
X80.098 Y65.294
X80.027 Y65.286
X79.956 Y65.269
X78.822 Y64.924
X78.68 Y64.855
X77.688 Y64.324
X77.568 Y64.23
X76.706 Y63.521
G3 X75.845 Y62.473 I17.232 J-15.019
G2 X74.57 Y60.571 I-215.908 J143.458
X73.439 Y59.214 I-54.547 J44.31
X71.941 Y57.99 I-15.956 J17.998
G1 X70.742 Y57.349
X70.317 Y57.138
G2 X68.475 Y56.592 I-7.929 J23.371
G1 X68.049 Y56.551
X67.766 Y56.518
X67.078 Y56.433
X66.632 Y56.401
X66.348 Y56.4
X32.187
G3 X31.753 Y56.294 I0.027 J-1.053
X31.525 Y55.866 I0.302 J-0.437
G1 X31.5 Y55.724
Y55.582
G0 Z2.502
X32.114 Y23.217
Z-0.8
G1 Z-1.1 F750
X32.11 Y23.211 Z-1.167
X32.099 Y23.192 Z-1.23
X32.081 Y23.161 Z-1.287
X32.057 Y23.12 Z-1.335
X32.028 Y23.071 Z-1.37
X31.995 Y23.016 Z-1.392
X31.961 Y22.959 Z-1.4
G3 X31.5 Y21.375 I2.862 J-1.693
X31.644 Y20.795 I0.973 J-0.066
X31.904 Y20.647 I0.391 J0.384
G1 X32.117 Y20.606
X32.152 Y20.602
X32.187 Y20.6
X66.49
G2 X68.049 Y20.446 I-0.449 J-12.478
G1 X68.474 Y20.406
G2 X70.317 Y19.86 I-5.5 J-21.97
X72.02 Y18.956 I-9.686 J-20.289
X73.492 Y17.732 I-18.783 J-24.095
X74.656 Y16.316 I-35.722 J-30.543
G1 X75.42 Y15.162
X75.787 Y14.613
G3 X76.705 Y13.479 I20.724 J15.834
G1 X77.568 Y12.77
X77.688 Y12.676
X78.68 Y12.145
X78.822 Y12.076
X79.956 Y11.731
X80.027 Y11.714
X80.098 Y11.706
X81.232 Y11.594
X81.373 Y11.589
X81.657 Y11.583
X81.799 Y11.582
X169.539 Y11.576
X256.146
X256.217 Y11.578
X256.253 Y11.583
X256.288 Y11.594
X256.328 Y11.611
X256.367 Y11.636
X256.398 Y11.663
X256.43 Y11.696
X256.459 Y11.737
X256.479 Y11.778
X256.49 Y11.813
X256.497 Y11.849
X256.499 Y11.888
G3 X256.186 Y12.189 I-0.3 J0.001
G1 X256.135 Y12.173 Z-1.395
X256.086 Y12.158 Z-1.381
X256.04 Y12.144 Z-1.358
X256.006 Y12.108 Z-1.321
X255.978 Y12.079 Z-1.274
X255.957 Y12.058 Z-1.22
X255.944 Y12.044 Z-1.162
X255.939 Y12.04 Z-1.1
G0 Z2.502
X255.882 Y63.239
Z-0.6
G1 Z-0.9 F750
X255.886 Y63.246 Z-0.967
X255.897 Y63.265 Z-1.03
X255.915 Y63.296 Z-1.087
X255.939 Y63.336 Z-1.135
X255.969 Y63.385 Z-1.17
X256.001 Y63.44 Z-1.192
X256.035 Y63.497 Z-1.2
G3 X256.5 Y65.08 I-2.858 J1.699
G1 X256.499 Y65.151
X256.493 Y65.187
X256.483 Y65.222
X256.462 Y65.268
X256.447 Y65.291
X256.43 Y65.314
X256.381 Y65.364
X256.358 Y65.382
X256.334 Y65.396
X256.288 Y65.417
X256.253 Y65.427
X256.217 Y65.433
X256.146 Y65.435
X141.615 Y65.434
X81.799 Y65.43
X81.515 Y65.426
X81.373 Y65.423
X81.232 Y65.418
X80.098 Y65.306
X80.027 Y65.298
X79.956 Y65.28
X78.822 Y64.936
X78.68 Y64.866
X77.688 Y64.335
X77.546 Y64.224
X76.837 Y63.641
X76.694 Y63.521
X76.554 Y63.355
X76.226 Y62.954
X75.845 Y62.485
G2 X74.572 Y60.581 I-285.039 J189.322
G3 X73.483 Y59.268 I168.425 J-140.751
G2 X72.02 Y58.056 I-21.4 J24.334
X70.303 Y57.142 I-11.189 J18.962
G1 X69.85 Y57
X68.916 Y56.716
X68.474 Y56.605
G2 X66.632 Y56.411 I-8.045 J67.796
G1 X66.348 Y56.414
X32.187
G3 X31.761 Y56.313 I0.034 J-1.091
G1 X31.733 Y56.291
X31.7 Y56.266
X31.666 Y56.234
X31.641 Y56.205
G3 X31.5 Y55.646 I0.814 J-0.502
G0 Z2.502
X32.118 Y23.216
Z-0.6
G1 Z-0.9 F750
X32.114 Y23.209 Z-0.967
X32.103 Y23.19 Z-1.03
X32.085 Y23.16 Z-1.087
X32.061 Y23.119 Z-1.135
X32.031 Y23.07 Z-1.17
X31.999 Y23.015 Z-1.192
X31.965 Y22.958 Z-1.2
G3 X31.5 Y21.375 I2.858 J-1.699
X31.635 Y20.791 I1.02 J-0.071
X31.904 Y20.634 I0.385 J0.349
G1 X32.117 Y20.592
X32.152 Y20.588
X32.187 Y20.586
X66.49
G2 X68.474 Y20.39 I-1.668 J-27.107
G1 X68.916 Y20.284
X69.892 Y19.987
X70.303 Y19.858
G2 X72.02 Y18.945 I-10.146 J-21.143
X73.482 Y17.732 I-19.945 J-25.532
X74.647 Y16.316 I-41.437 J-35.266
G1 X75.494 Y15.038
X75.778 Y14.613
G3 X76.696 Y13.478 I19.965 J15.195
G1 X76.864 Y13.337
X77.553 Y12.77
X77.688 Y12.665
X78.68 Y12.134
X78.822 Y12.064
X79.956 Y11.72
X80.027 Y11.702
X80.098 Y11.694
X81.232 Y11.582
X81.373 Y11.577
X81.657 Y11.572
X81.799 Y11.57
X158.341 Y11.565
X256.146
X256.217 Y11.567
X256.253 Y11.573
X256.288 Y11.583
X256.334 Y11.604
X256.358 Y11.618
X256.381 Y11.636
X256.43 Y11.686
X256.447 Y11.709
X256.462 Y11.732
X256.483 Y11.778
X256.493 Y11.813
X256.499 Y11.849
X256.5 Y11.92
G3 X256.201 Y12.209 I-0.3 J-0.01
G1 X256.2
X256.188
X256.176 Y12.208
X256.126 Y12.191 Z-1.195
X256.077 Y12.174 Z-1.181
X256.032 Y12.158 Z-1.158
X255.999 Y12.121 Z-1.121
X255.972 Y12.091 Z-1.074
X255.952 Y12.069 Z-1.02
X255.94 Y12.055 Z-0.962
X255.935 Y12.05 Z-0.9
G0 Z2.502
X255.897 Y63.273
Z-0.4
G1 Z-0.7 F750
X255.901 Y63.28 Z-0.767
X255.912 Y63.299 Z-0.83
X255.93 Y63.33 Z-0.887
X255.954 Y63.371 Z-0.935
X255.983 Y63.42 Z-0.97
X256.015 Y63.475 Z-0.992
X256.049 Y63.532 Z-1
G3 X256.5 Y65.119 I-2.872 J1.674
G1 X256.499 Y65.151
X256.495 Y65.187
X256.486 Y65.222
X256.477 Y65.248
X256.465 Y65.274
X256.449 Y65.299
X256.43 Y65.325
X256.393 Y65.364
X256.367 Y65.386
X256.341 Y65.403
X256.314 Y65.417
X256.288 Y65.428
X256.253 Y65.438
X256.217 Y65.444
X256.146 Y65.445
X130.276
X81.799 Y65.442
X81.515 Y65.437
X81.373 Y65.435
X81.232 Y65.43
X80.098 Y65.318
X80.027 Y65.31
X79.956 Y65.292
X78.822 Y64.947
X78.798 Y64.939
X78.68 Y64.878
X77.688 Y64.347
G3 X76.681 Y63.521 I21.481 J-27.232
G1 X76.554 Y63.367
X76.216 Y62.954
X75.845 Y62.498
G2 X74.571 Y60.594 I-172.332 J113.924
X73.439 Y59.232 I-136.678 J112.509
X71.907 Y57.987 I-16.189 J18.354
X70.273 Y57.139 I-24.843 J45.859
X68.475 Y56.613 I-10.137 J31.306
X66.632 Y56.432 I-4.842 J39.815
G1 X66.348 Y56.428
X32.187
G3 X31.761 Y56.327 I0.033 J-1.09
G1 X31.713 Y56.291
X31.685 Y56.268
X31.657 Y56.241
X31.62 Y56.191
X31.593 Y56.149
G3 X31.502 Y55.756 I1.213 J-0.49
X32.059 Y55.598 I0.3 J-0.004
G1 X32.093 Y55.655 Z-0.992
X32.126 Y55.71 Z-0.97
X32.155 Y55.759 Z-0.935
X32.179 Y55.799 Z-0.887
X32.198 Y55.83 Z-0.83
X32.209 Y55.849 Z-0.767
X32.213 Y55.856 Z-0.7
G0 Z2.502
X32.118 Y23.117
Z-0.4
G1 Z-0.7 F750
X32.114 Y23.11 Z-0.767
X32.103 Y23.091 Z-0.83
X32.085 Y23.061 Z-0.887
X32.061 Y23.02 Z-0.935
X32.031 Y22.971 Z-0.97
X31.999 Y22.916 Z-0.992
X31.965 Y22.859 Z-1
G3 X31.5 Y21.276 I2.858 J-1.699
X31.574 Y20.886 I1.489 J0.08
G1 X31.593 Y20.851
X31.62 Y20.809
X31.657 Y20.759
X31.685 Y20.732
X31.713 Y20.709
X31.762 Y20.675
G3 X32.187 Y20.572 I0.438 J0.873
G1 X66.49
G2 X68.474 Y20.382 I-2.02 J-31.704
X70.317 Y19.841 I-6.195 J-24.486
G1 X70.742 Y19.63
X71.735 Y19.099
G2 X72.16 Y18.827 I-1.065 J-2.135
X73.473 Y17.732 I-26.325 J-32.897
X74.639 Y16.316 I-71.357 J-59.955
G1 X75.58 Y14.897
G3 X76.684 Y13.482 I10.741 J7.242
X77.688 Y12.653 I22.261 J25.919
G1 X78.68 Y12.122
X78.798 Y12.061
X78.822 Y12.053
X79.956 Y11.708
X80.027 Y11.69
X80.098 Y11.682
X81.232 Y11.57
X81.373 Y11.565
X81.657 Y11.56
X81.799 Y11.558
X147.143 Y11.555
X256.146
X256.217 Y11.556
X256.253 Y11.562
X256.288 Y11.572
X256.314 Y11.583
X256.341 Y11.597
X256.367 Y11.614
X256.393 Y11.636
X256.43 Y11.675
X256.449 Y11.701
X256.465 Y11.726
X256.477 Y11.752
X256.486 Y11.778
X256.495 Y11.813
X256.499 Y11.849
X256.5 Y11.92
G3 X256.201 Y12.209 I-0.3 J-0.01
G1 X256.2
X256.188
X256.176 Y12.208
X256.126 Y12.191 Z-0.995
X256.077 Y12.174 Z-0.981
X256.032 Y12.158 Z-0.958
X255.999 Y12.121 Z-0.921
X255.972 Y12.091 Z-0.874
X255.952 Y12.069 Z-0.82
X255.94 Y12.055 Z-0.762
X255.935 Y12.05 Z-0.7
G0 Z2.502
X255.885 Y63.277
Z-0.2
G1 Z-0.5 F750
X255.889 Y63.284 Z-0.567
X255.9 Y63.303 Z-0.63
X255.918 Y63.334 Z-0.687
X255.942 Y63.374 Z-0.735
X255.971 Y63.423 Z-0.77
X256.004 Y63.478 Z-0.792
X256.038 Y63.535 Z-0.8
G3 X256.5 Y65.119 I-2.861 J1.694
G1 Y65.151
X256.497 Y65.187
X256.489 Y65.222
X256.48 Y65.25
X256.467 Y65.279
X256.451 Y65.307
X256.43 Y65.335
X256.404 Y65.364
X256.375 Y65.39
X256.346 Y65.411
X256.317 Y65.427
X256.288 Y65.439
X256.253 Y65.449
X256.217 Y65.455
X256.146 Y65.456
X118.936
X81.799 Y65.453
X81.515 Y65.449
X81.373 Y65.446
X81.232 Y65.441
X80.098 Y65.329
X80.027 Y65.321
X79.956 Y65.304
X78.822 Y64.959
X78.772 Y64.939
X77.688 Y64.359
G3 X76.67 Y63.522 I17.089 J-21.838
G1 X76.206 Y62.954
X75.845 Y62.51
X75.667 Y62.245
X74.627 Y60.686
G2 X73.438 Y59.242 I-38.399 J30.422
X71.888 Y57.986 I-15.011 J16.932
X70.24 Y57.137 I-19.501 J35.835
X68.475 Y56.623 I-10.871 J34.04
X66.632 Y56.444 I-30.981 J308.762
G1 X66.348 Y56.443
X32.187
G3 X31.761 Y56.342 I0.045 J-1.148
X31.557 Y56.078 I0.276 J-0.423
G1 X31.514 Y55.866
X31.502 Y55.795
X31.5 Y55.724
G0 Z2.502
X32.118 Y23.117
Z-0.2
G1 Z-0.5 F750
X32.114 Y23.11 Z-0.567
X32.103 Y23.091 Z-0.63
X32.085 Y23.061 Z-0.687
X32.061 Y23.02 Z-0.735
X32.031 Y22.971 Z-0.77
X31.999 Y22.916 Z-0.792
X31.965 Y22.859 Z-0.8
G3 X31.5 Y21.276 I2.858 J-1.699
X31.616 Y20.792 I1.002 J-0.015
G1 X31.652 Y20.752
X31.695 Y20.709
X31.762 Y20.661
G3 X32.187 Y20.557 I0.446 J0.902
G1 X66.49
G2 X68.474 Y20.372 I-2.161 J-33.893
X70.317 Y19.83 I-6.076 J-24.06
G1 X70.742 Y19.619
X71.735 Y19.088
G2 X72.16 Y18.817 I-1.117 J-2.216
X73.463 Y17.732 I-29.311 J-36.544
X74.629 Y16.316 I-90.862 J-76.054
G1 X75.762 Y14.613
G3 X76.696 Y13.453 I18.614 J14.029
G1 X77.121 Y13.102
X77.546 Y12.753
X77.688 Y12.641
X78.772 Y12.061
X78.822 Y12.041
X79.956 Y11.696
X80.027 Y11.679
X80.098 Y11.671
X81.232 Y11.559
X81.373 Y11.554
X81.657 Y11.548
X81.799 Y11.547
X136.087 Y11.544
X256.146
X256.217 Y11.545
X256.253 Y11.551
X256.288 Y11.561
X256.317 Y11.573
X256.346 Y11.589
X256.375 Y11.61
X256.404 Y11.636
X256.43 Y11.665
X256.451 Y11.693
X256.467 Y11.721
X256.48 Y11.75
X256.489 Y11.778
X256.497 Y11.813
X256.5 Y11.849
Y11.92
G3 X256.201 Y12.209 I-0.3 J-0.01
G1 X256.2
X256.188
X256.176 Y12.208
X256.126 Y12.191 Z-0.795
X256.077 Y12.174 Z-0.781
X256.032 Y12.158 Z-0.758
X255.999 Y12.121 Z-0.721
X255.972 Y12.091 Z-0.674
X255.952 Y12.069 Z-0.62
X255.94 Y12.055 Z-0.562
X255.935 Y12.05 Z-0.5
G0 Z2.502
X255.882 Y63.278
Z0
G1 Z-0.3 F750
X255.886 Y63.285 Z-0.367
X255.897 Y63.304 Z-0.43
X255.915 Y63.335 Z-0.487
X255.939 Y63.375 Z-0.535
X255.969 Y63.424 Z-0.57
X256.001 Y63.479 Z-0.592
X256.035 Y63.536 Z-0.6
G3 X256.5 Y65.119 I-2.858 J1.699
G1 Y65.151
X256.498 Y65.187
X256.492 Y65.222
X256.483 Y65.253
X256.47 Y65.284
X256.453 Y65.315
X256.43 Y65.346
X256.414 Y65.364
X256.383 Y65.395
X256.351 Y65.419
X256.319 Y65.437
X256.288 Y65.45
X256.253 Y65.46
X256.217 Y65.466
X256.146 Y65.467
X107.455
X81.799 Y65.465
X81.515 Y65.461
X81.373 Y65.458
X81.232 Y65.453
X80.098 Y65.341
X80.027 Y65.333
X79.956 Y65.315
X78.822 Y64.971
X78.75 Y64.939
X77.688 Y64.37
G3 X76.659 Y63.523 I13.408 J-17.323
G1 X75.965 Y62.67
X75.845 Y62.523
X75.658 Y62.245
X74.618 Y60.686
G2 X73.436 Y59.252 I-31.068 J24.398
X71.881 Y57.992 I-14.512 J16.321
X70.207 Y57.136 I-12.021 J21.458
X68.475 Y56.634 I-10.259 J32.106
X66.632 Y56.455 I-10.909 J102.995
G1 X66.348 Y56.457
X32.187
G3 X31.761 Y56.356 I0.033 J-1.09
G1 X31.72 Y56.325
X31.699 Y56.31
X31.679 Y56.291
X31.646 Y56.255
X31.62 Y56.22
X31.577 Y56.149
G3 X31.499 Y55.724 I1.228 J-0.444
G0 X31.5 Z2.502
X32.118 Y23.117
Z0
G1 Z-0.3 F750
X32.114 Y23.11 Z-0.367
X32.103 Y23.091 Z-0.43
X32.085 Y23.061 Z-0.487
X32.061 Y23.02 Z-0.535
X32.031 Y22.971 Z-0.57
X31.999 Y22.916 Z-0.592
X31.965 Y22.859 Z-0.6
G3 X31.5 Y21.276 I2.858 J-1.699
X31.577 Y20.85 I1.315 J0.017
G1 X31.62 Y20.78
X31.646 Y20.745
X31.679 Y20.709
X31.699 Y20.69
X31.72 Y20.675
G3 X32.187 Y20.543 I0.463 J0.749
G1 X66.49
G2 X68.474 Y20.362 I-1.795 J-30.636
X70.317 Y19.819 I-6.056 J-23.966
X72.02 Y18.912 I-9.088 J-19.11
X73.452 Y17.732 I-23.109 J-29.505
X74.618 Y16.314 I-70.602 J-59.239
G1 X75.753 Y14.613
G3 X76.696 Y13.442 I16.844 J12.588
G1 X76.837 Y13.324
X77.546 Y12.741
X77.69 Y12.628
X78.75 Y12.061
X78.822 Y12.029
X79.956 Y11.685
X80.027 Y11.667
X80.098 Y11.659
X81.232 Y11.547
X81.373 Y11.542
X81.657 Y11.537
X81.799 Y11.535
X125.456 Y11.533
X256.146
X256.217 Y11.534
X256.253 Y11.54
X256.288 Y11.55
X256.319 Y11.563
X256.351 Y11.581
X256.383 Y11.605
X256.414 Y11.636
X256.43 Y11.654
X256.453 Y11.685
X256.47 Y11.716
X256.483 Y11.747
X256.492 Y11.778
X256.498 Y11.813
X256.5 Y11.849
Y11.888
G3 X256.201 Y12.177 I-0.3 J-0.01
G1 X256.2
X256.188
X256.176 Y12.176
X256.126 Y12.159 Z-0.595
X256.077 Y12.142 Z-0.581
X256.032 Y12.126 Z-0.558
X255.999 Y12.089 Z-0.521
X255.972 Y12.059 Z-0.474
X255.952 Y12.037 Z-0.42
X255.94 Y12.023 Z-0.362
X255.935 Y12.018 Z-0.3
G0 Z2.502
X255.882 Y63.31
Z0.2
G1 Z-0.1 F750
X255.886 Y63.317 Z-0.167
X255.897 Y63.336 Z-0.23
X255.915 Y63.367 Z-0.287
X255.939 Y63.407 Z-0.335
X255.969 Y63.456 Z-0.37
X256.001 Y63.511 Z-0.392
X256.035 Y63.568 Z-0.4
G3 X256.5 Y65.151 I-2.858 J1.699
G1 X256.499 Y65.187
X256.494 Y65.222
X256.486 Y65.256
X256.472 Y65.289
X256.454 Y65.323
X256.43 Y65.357
X256.39 Y65.4
X256.356 Y65.427
X256.322 Y65.446
X256.288 Y65.461
X256.253 Y65.471
X256.217 Y65.477
X256.146 Y65.478
X96.115
X81.799 Y65.477
X81.515 Y65.472
X81.373 Y65.47
X81.232 Y65.465
X80.098 Y65.353
X80.027 Y65.345
X79.956 Y65.327
X78.822 Y64.982
X78.728 Y64.939
X77.688 Y64.382
G3 X76.649 Y63.524 I11.871 J-15.431
G1 X75.845 Y62.536
G2 X74.57 Y60.63 I-325.187 J216.245
X73.415 Y59.239 I-44.13 J35.468
X72.019 Y58.101 I-19.039 J21.923
X70.317 Y57.192 I-11.537 J19.553
X68.475 Y56.645 I-8.297 J24.567
X66.632 Y56.47 I-7.657 J71.13
G1 X66.348 Y56.471
X32.187
G3 X31.761 Y56.371 I0.033 J-1.094
G1 X31.713 Y56.335
X31.689 Y56.315
X31.664 Y56.291
X31.62 Y56.234
G3 X31.5 Y55.724 I0.829 J-0.465
G0 Z2.502
X32.118 Y23.078
Z0.2
G1 Z-0.1 F750
X32.114 Y23.072 Z-0.167
X32.103 Y23.052 Z-0.23
X32.085 Y23.022 Z-0.287
X32.06 Y22.981 Z-0.335
X32.031 Y22.932 Z-0.37
X31.999 Y22.878 Z-0.392
X31.965 Y22.82 Z-0.4
G3 X31.5 Y21.237 I2.858 J-1.699
X31.617 Y20.764 I0.964 J-0.012
G1 X31.664 Y20.709
X31.689 Y20.685
X31.713 Y20.665
X31.762 Y20.632
G3 X32.187 Y20.529 I0.452 J0.93
G1 X66.49
G2 X68.474 Y20.352 I-1.549 J-28.577
X70.317 Y19.809 I-6.066 J-23.979
G1 X70.742 Y19.598
X71.845 Y19.008
G2 X72.16 Y18.796 I-1.41 J-2.431
X73.442 Y17.732 I-38.623 J-47.876
X74.61 Y16.316 I-52.557 J-44.522
G1 X74.995 Y15.737
X75.745 Y14.613
X75.845 Y14.464
X76.651 Y13.479
G3 X77.688 Y12.618 I9.883 J10.844
G1 X78.728 Y12.061
X78.822 Y12.018
X79.956 Y11.673
X80.027 Y11.655
X80.098 Y11.647
X81.232 Y11.535
X81.373 Y11.53
X81.657 Y11.525
X81.799 Y11.523
X115.818 Y11.522
X256.146
X256.217 Y11.523
X256.253 Y11.529
X256.288 Y11.539
X256.322 Y11.554
X256.356 Y11.573
X256.39 Y11.6
X256.43 Y11.643
X256.454 Y11.677
X256.472 Y11.711
X256.486 Y11.744
X256.494 Y11.778
X256.499 Y11.813
X256.5 Y11.849
G3 X256.201 Y12.138 I-0.3 J-0.01
G1 X256.2
X256.188
X256.176 Y12.137
X256.126 Y12.12 Z-0.395
X256.077 Y12.103 Z-0.381
X256.032 Y12.087 Z-0.358
X255.999 Y12.05 Z-0.321
X255.972 Y12.02 Z-0.274
X255.952 Y11.998 Z-0.22
X255.94 Y11.984 Z-0.162
X255.935 Y11.979 Z-0.1
G0 Z2.502
X255.909 Y63.308
Z0.4
G1 Z0.1 F750
X255.913 Y63.314 Z0.033
X255.924 Y63.334 Z-0.03
X255.942 Y63.365 Z-0.087
X255.965 Y63.406 Z-0.135
X255.994 Y63.455 Z-0.17
X256.025 Y63.51 Z-0.192
X256.058 Y63.568 Z-0.2
G3 X256.499 Y65.158 I-2.884 J1.655
G1 X256.498 Y65.222
X256.491 Y65.258
X256.48 Y65.293
X256.464 Y65.328
X256.441 Y65.364
X256.43 Y65.379
X256.394 Y65.414
X256.359 Y65.44
X256.323 Y65.459
X256.288 Y65.473
X256.253 Y65.482
X256.217 Y65.488
X256.146 Y65.489
X84.775
X81.799 Y65.488
X81.373 Y65.486
X81.232 Y65.476
X80.093 Y65.364
X80.024 Y65.356
X79.956 Y65.339
X78.822 Y64.994
X78.706 Y64.939
X77.688 Y64.393
X77.655 Y64.372
X76.793 Y63.663
X76.696 Y63.581
X76.642 Y63.521
X75.845 Y62.548
X75.831 Y62.529
X74.853 Y61.063
X74.57 Y60.643
X73.719 Y59.606
X73.557 Y59.41
X73.431 Y59.268
G2 X71.881 Y58.014 I-14.963 J16.911
X70.178 Y57.147 I-10.543 J18.615
X68.475 Y56.654 I-11.354 J36.035
X66.632 Y56.484 I-5.765 J52.364
G1 X65.923 Y56.486
X32.187
G3 X31.761 Y56.385 I0.022 J-1.041
G1 X31.707 Y56.343
X31.679 Y56.321
X31.651 Y56.291
X31.62 Y56.248
G3 X31.501 Y55.795 I0.832 J-0.461
G0 X31.5 Z2.502
X32.118 Y23.078
Z0.4
G1 Z0.1 F750
X32.114 Y23.071 Z0.033
X32.103 Y23.052 Z-0.03
X32.085 Y23.022 Z-0.087
X32.061 Y22.981 Z-0.135
X32.031 Y22.932 Z-0.17
X31.999 Y22.877 Z-0.192
X31.965 Y22.82 Z-0.2
G3 X31.5 Y21.237 I2.858 J-1.699
X31.674 Y20.676 I0.879 J-0.035
G1 X31.707 Y20.657
X31.762 Y20.618
G3 X32.187 Y20.514 I0.437 J0.868
G1 X66.49
X66.632
G2 X68.474 Y20.342 I-1.772 J-28.936
X70.317 Y19.798 I-6.225 J-24.496
G1 X70.742 Y19.588
