(1001)
(Machine)
(  vendor: Autodesk)
(  description: Generic 3-axis)
(T1  D=3 CR=0 - ZMIN=-28 - flat end mill)
G90 G94
G17
G21
G28 G91 Z0
G90

(Adaptive6)
T1
S18000 M3
G54
G0 X-260.37 Y29.911
Z2.505
Z-0.4
G1 Z-0.7 F700
X-260.366 Y29.905 Z-0.767
X-260.351 Y29.888 Z-0.83
X-260.329 Y29.861 Z-0.887
X-260.298 Y29.824 Z-0.935
X-260.262 Y29.78 Z-0.97
X-260.221 Y29.732 Z-0.992
X-260.179 Y29.68 Z-1
G2 X-259.473 Y28.189 I-2.559 J-2.123
G3 X-259.092 Y27.419 I1.451 J0.239
G2 X-258.375 Y21.558 I-9.145 J-4.093
G1 X-258.275 Y20.293
X-258.274 Y17.173
X-258.285 Y-22.76
X-258.286 Y-26.486
G2 X-258.672 Y-27.111 I-0.7 J0
G0 Z2.505
X-260.085 Y27.839
Z-0.4
G1 Z-0.7 F700
X-260.078 Y27.838 Z-0.767
X-260.056 Y27.833 Z-0.83
X-260.021 Y27.825 Z-0.887
X-259.975 Y27.815 Z-0.935
X-259.919 Y27.803 Z-0.97
X-259.857 Y27.789 Z-0.992
X-259.792 Y27.774 Z-1
G2 X-259.092 Y27.419 I-0.344 J-1.545
G3 X-258.588 Y27.073 I1.084 J1.039
G1 X-258.404 Y26.913
X-258.23 Y26.741
X-258.067 Y26.559
X-257.916 Y26.368
X-257.778 Y26.167
X-257.652 Y25.958
X-257.54 Y25.741
X-257.441 Y25.517
X-257.357 Y25.288
X-257.287 Y25.054
X-257.233 Y24.817
X-257.193 Y24.576
X-257.169 Y24.333
X-257.16 Y24.089
X-257.166 Y23.845
X-257.188 Y23.602
X-257.225 Y23.361
G2 X-257.075 Y16.484 I-63.142 J-4.817
G1 X-257.085 Y-22.825
G2 X-257.169 Y-26.34 I-13.398 J-1.441
X-257.852 Y-26.949 I-0.71 J0.108
G1 X-257.957 Y-26.951
G2 X-258.101 Y-26.39 I0.003 J0.3
G1 X-258.043 Y-26.357 Z-0.992
X-257.988 Y-26.326 Z-0.97
X-257.938 Y-26.298 Z-0.935
X-257.897 Y-26.275 Z-0.887
X-257.866 Y-26.257 Z-0.83
X-257.846 Y-26.246 Z-0.767
X-257.84 Y-26.242 Z-0.7
G0 Z2.505
X-259.664 Y27.154
Z-0.4
G1 Z-0.7 F700
X-259.656 Y27.155 Z-0.767
X-259.634 Y27.158 Z-0.83
X-259.599 Y27.161 Z-0.887
X-259.552 Y27.166 Z-0.935
X-259.495 Y27.172 Z-0.97
X-259.432 Y27.179 Z-0.992
X-259.366 Y27.186 Z-1
G2 X-258.588 Y27.073 I0.167 J-1.574
G3 X-258.056 Y26.953 I0.55 J1.208
G1 X-257.869 Y26.882
X-257.688 Y26.797
X-257.513 Y26.699
X-257.346 Y26.588
X-257.187 Y26.466
X-257.038 Y26.332
X-256.899 Y26.188
X-256.771 Y26.033
X-256.655 Y25.87
X-256.551 Y25.699
X-256.46 Y25.521
X-256.382 Y25.336
X-256.318 Y25.147
X-256.268 Y24.953
X-256.232 Y24.755
X-256.211 Y24.556
X-256.204 Y24.356
X-256.212 Y24.156
G2 X-255.875 Y15.426 I-45.509 J-6.129
G1 X-255.885 Y-22.635
G2 X-256.102 Y-26.392 I-9.218 J-1.353
X-256.798 Y-26.945 I-0.704 J0.171
G1 X-257.674
X-257.852 Y-26.949
G2 X-257.996 Y-26.387 I0.003 J0.3
G1 X-257.938 Y-26.354 Z-0.992
X-257.883 Y-26.323 Z-0.97
X-257.833 Y-26.295 Z-0.935
X-257.792 Y-26.272 Z-0.887
X-257.76 Y-26.255 Z-0.83
X-257.741 Y-26.244 Z-0.767
X-257.735 Y-26.24 Z-0.7
G0 Z2.505
X-259.076 Y26.603
Z-0.4
G1 Z-0.7 F700
X-259.07 Y26.607 Z-0.767
X-259.051 Y26.618 Z-0.83
X-259.019 Y26.635 Z-0.887
X-258.978 Y26.658 Z-0.935
X-258.928 Y26.686 Z-0.97
X-258.873 Y26.717 Z-0.992
X-258.815 Y26.75 Z-1
G2 X-258.056 Y26.953 I0.776 J-1.379
G1 X-257.816 Y26.948
X-257.674 Y26.945
X-257.249
G2 X-255.084 Y23.936 I-0.814 J-2.869
X-254.677 Y17.085 I-31.44 J-5.304
G1 X-254.676 Y15.213
X-254.678 Y3.982
X-254.685 Y-22.224
G2 X-255.045 Y-26.527 I-9.534 J-1.37
X-255.687 Y-26.946 I-0.644 J0.286
G1 X-256.798 Y-26.945
G0 Z2.505
X-258.26 Y26.571
Z-0.4
G1 Z-0.7 F700
X-258.254 Y26.575 Z-0.767
X-258.234 Y26.586 Z-0.83
X-258.204 Y26.604 Z-0.887
X-258.163 Y26.629 Z-0.935
X-258.114 Y26.658 Z-0.97
X-258.059 Y26.69 Z-0.992
X-258.002 Y26.724 Z-1
G2 X-257.249 Y26.945 I0.809 J-1.36
G1 X-256.32
G2 X-253.992 Y24.024 I-0.731 J-2.97
X-253.483 Y17.813 I-24.324 J-5.12
G1 X-253.48 Y17.189
X-253.477 Y15.941
X-253.476 Y13.445
X-253.485 Y-22.12
G2 X-253.91 Y-26.521 I-9.713 J-1.284
X-254.553 Y-26.945 I-0.643 J0.276
G1 X-255.687
G0 Z2.505
X-257.331 Y26.571
Z-0.4
G1 Z-0.7 F700
X-257.325 Y26.575 Z-0.767
X-257.306 Y26.586 Z-0.83
X-257.275 Y26.604 Z-0.887
X-257.234 Y26.629 Z-0.935
X-257.185 Y26.658 Z-0.97
X-257.131 Y26.69 Z-0.992
X-257.073 Y26.724 Z-1
G2 X-256.32 Y26.945 I0.809 J-1.36
G1 X-255.327
G2 X-252.885 Y24.052 I-0.686 J-3.056
X-252.289 Y17.854 I-21.844 J-5.228
X-252.276 Y12.863 I-504.787 J-3.834
G1 X-252.285 Y-21.454
Y-22.078
G2 X-252.793 Y-26.58 I-9.676 J-1.188
X-253.408 Y-26.945 I-0.615 J0.334
G1 X-254.553
G0 Z2.505
X-256.339 Y26.571
Z-0.4
G1 Z-0.7 F700
X-256.332 Y26.575 Z-0.767
X-256.313 Y26.586 Z-0.83
X-256.282 Y26.604 Z-0.887
X-256.242 Y26.629 Z-0.935
X-256.193 Y26.658 Z-0.97
X-256.138 Y26.69 Z-0.992
X-256.081 Y26.724 Z-1
G2 X-255.327 Y26.945 I0.809 J-1.36
G1 X-254.271
G2 X-251.738 Y23.968 I-0.726 J-3.184
X-251.095 Y17.776 I-21.141 J-5.326
X-251.077 Y8.417 I-789.939 J-6.242
G1 X-251.085 Y-20.909
Y-21.532
X-251.087 Y-22.156
G2 X-251.757 Y-26.738 I-8.395 J-1.113
G1 X-251.902 Y-26.851
X-252.072 Y-26.921
X-252.254 Y-26.945
X-253.408
G0 Z2.505
X-255.282 Y26.571
Z-0.4
G1 Z-0.7 F700
X-255.276 Y26.575 Z-0.767
X-255.257 Y26.586 Z-0.83
X-255.226 Y26.604 Z-0.887
X-255.185 Y26.629 Z-0.935
X-255.136 Y26.658 Z-0.97
X-255.082 Y26.69 Z-0.992
X-255.025 Y26.724 Z-1
G2 X-254.271 Y26.945 I0.809 J-1.36
G1 X-253.137
G2 X-250.531 Y23.697 I-0.929 J-3.415
X-249.892 Y16.876 I-26.48 J-5.921
X-249.877 Y12.508 I-450.979 J-3.723
G1 Y6.893
X-249.885 Y-20.561
X-249.886 Y-21.185
X-249.888 Y-21.809
G2 X-250.478 Y-26.57 I-11.301 J-1.017
X-251.098 Y-26.945 I-0.62 J0.324
G1 X-252.254
G0 Z2.505
X-254.148 Y26.571
Z-0.4
G1 Z-0.7 F700
X-254.142 Y26.575 Z-0.767
X-254.123 Y26.586 Z-0.83
X-254.092 Y26.604 Z-0.887
X-254.051 Y26.629 Z-0.935
X-254.002 Y26.658 Z-0.97
X-253.948 Y26.69 Z-0.992
X-253.89 Y26.724 Z-1
G2 X-253.137 Y26.945 I0.809 J-1.36
G1 X-252.066
G2 X-249.411 Y23.771 I-0.853 J-3.412
X-248.692 Y16.336 I-26.282 J-6.293
G1 X-248.677 Y13.217
X-248.672 Y10.097
X-248.677 Y6.977
X-248.685 Y-19.853
G2 X-248.7 Y-22.348 I-156.118 J-0.313
X-249.425 Y-26.723 I-8.105 J-0.904
G1 X-249.573 Y-26.843
X-249.748 Y-26.919
X-249.937 Y-26.945
X-251.098
G0 Z2.505
X-253.078 Y26.571
Z-0.4
G1 Z-0.7 F700
X-253.071 Y26.575 Z-0.767
X-253.052 Y26.586 Z-0.83
X-253.021 Y26.604 Z-0.887
X-252.98 Y26.629 Z-0.935
X-252.932 Y26.658 Z-0.97
X-252.877 Y26.69 Z-0.992
X-252.82 Y26.724 Z-1
G2 X-252.066 Y26.945 I0.809 J-1.36
G1 X-251.01
G2 X-248.326 Y23.969 I-0.691 J-3.322
X-247.499 Y16.552 I-23.676 J-6.392
X-247.477 Y7.193 I-816.708 J-6.626
G1 X-247.485 Y-19.637
G2 X-247.502 Y-22.132 I-143.173 J-0.239
X-248.249 Y-26.712 I-9.218 J-0.848
G1 X-248.398 Y-26.838
X-248.577 Y-26.918
X-248.77 Y-26.945
X-249.937
G0 Z2.505
X-252.021 Y26.571
Z-0.4
G1 Z-0.7 F700
X-252.015 Y26.575 Z-0.767
X-251.996 Y26.586 Z-0.83
X-251.965 Y26.604 Z-0.887
X-251.924 Y26.629 Z-0.935
X-251.875 Y26.658 Z-0.97
X-251.821 Y26.69 Z-0.992
X-251.763 Y26.724 Z-1
G2 X-251.01 Y26.945 I0.809 J-1.36
G1 X-249.875
G2 X-247.152 Y23.887 I-0.745 J-3.406
X-246.305 Y16.472 I-23.804 J-6.476
X-246.277 Y7.737 I-650.459 J-6.418
G1 X-246.285 Y-19.093
G2 X-246.312 Y-22.212 I-134.093 J-0.369
X-247.087 Y-26.719 I-8.926 J-0.786
G1 X-247.235 Y-26.842
X-247.412 Y-26.919
X-247.602 Y-26.945
X-248.77
G0 Z2.505
X-250.887 Y26.571
Z-0.4
G1 Z-0.7 F700
X-250.88 Y26.575 Z-0.767
X-250.861 Y26.586 Z-0.83
X-250.831 Y26.604 Z-0.887
X-250.79 Y26.629 Z-0.935
X-250.741 Y26.658 Z-0.97
X-250.686 Y26.69 Z-0.992
X-250.629 Y26.724 Z-1
G2 X-249.875 Y26.945 I0.809 J-1.36
G1 X-248.741
G2 X-245.99 Y23.857 I-0.766 J-3.452
X-245.111 Y16.446 I-23.628 J-6.561
X-245.077 Y7.087 I-530.612 J-6.588
G1 X-245.084 Y-18.495
G2 X-245.122 Y-22.239 I-130.54 J-0.55
X-245.917 Y-26.722 I-8.894 J-0.735
G1 X-246.065 Y-26.843
X-246.241 Y-26.919
X-246.43 Y-26.945
X-247.602
G0 Z2.505
X-249.753 Y26.571
Z-0.4
G1 Z-0.7 F700
X-249.746 Y26.575 Z-0.767
X-249.727 Y26.586 Z-0.83
X-249.696 Y26.604 Z-0.887
X-249.656 Y26.629 Z-0.935
X-249.607 Y26.658 Z-0.97
X-249.552 Y26.69 Z-0.992
X-249.495 Y26.724 Z-1
G2 X-248.741 Y26.945 I0.809 J-1.36
G1 X-247.607
G2 X-244.834 Y23.854 I-0.762 J-3.473
X-243.918 Y16.447 I-23.32 J-6.643
X-243.877 Y7.712 I-434.638 J-6.396
G1 X-243.884 Y-17.87
G2 X-243.934 Y-22.237 I-123.251 J-0.783
X-244.744 Y-26.723 I-8.971 J-0.696
G1 X-244.892 Y-26.843
X-245.067 Y-26.919
X-245.256 Y-26.945
X-246.43
G0 Z2.505
X-248.618 Y26.571
Z-0.4
G1 Z-0.7 F700
X-248.612 Y26.575 Z-0.767
X-248.593 Y26.586 Z-0.83
X-248.562 Y26.604 Z-0.887
X-248.521 Y26.629 Z-0.935
X-248.472 Y26.658 Z-0.97
X-248.418 Y26.69 Z-0.992
X-248.36 Y26.724 Z-1
G2 X-247.607 Y26.945 I0.809 J-1.36
G1 X-246.473
G2 X-243.683 Y23.874 I-0.74 J-3.475
X-242.726 Y16.473 I-22.919 J-6.725
X-242.677 Y7.114 I-457.404 J-7.061
G1 X-242.684 Y-17.22
G2 X-242.74 Y-22.211 I-149.373 J-0.833
X-243.567 Y-26.722 I-9.232 J-0.637
G1 X-243.715 Y-26.843
X-243.891 Y-26.919
X-244.08 Y-26.945
X-245.256
G0 Z2.505
X-247.484 Y26.571
Z-0.4
G1 Z-0.7 F700
X-247.478 Y26.575 Z-0.767
X-247.458 Y26.586 Z-0.83
X-247.428 Y26.604 Z-0.887
X-247.387 Y26.629 Z-0.935
X-247.338 Y26.658 Z-0.97
X-247.283 Y26.69 Z-0.992
X-247.226 Y26.724 Z-1
G2 X-246.473 Y26.945 I0.809 J-1.36
G1 X-245.338
G2 X-242.515 Y23.848 I-0.725 J-3.496
X-241.534 Y16.45 I-22.849 J-6.796
X-241.478 Y7.091 I-411.237 J-7.14
G1 X-241.483 Y-15.995
G2 X-241.527 Y-21.61 I-217.66 J-1.114
X-242.282 Y-26.569 I-13.09 J-0.544
X-242.903 Y-26.945 I-0.621 J0.323
G1 X-244.08
G0 Z2.505
X-246.35 Y26.571
Z-0.4
G1 Z-0.7 F700
X-246.343 Y26.575 Z-0.767
X-246.324 Y26.586 Z-0.83
X-246.293 Y26.604 Z-0.887
X-246.253 Y26.629 Z-0.935
X-246.204 Y26.658 Z-0.97
X-246.149 Y26.69 Z-0.992
X-246.092 Y26.724 Z-1
G2 X-245.338 Y26.945 I0.809 J-1.36
G1 X-244.126
X-243.89 Y26.878
X-243.659 Y26.796
X-243.434 Y26.698
X-243.215 Y26.586
X-243.004 Y26.461
X-242.802 Y26.322
X-242.609 Y26.17
X-242.427 Y26.006
X-242.255 Y25.83
X-242.096 Y25.644
X-241.948 Y25.448
X-241.814 Y25.242
X-241.693 Y25.029
X-241.587 Y24.808
X-241.495 Y24.58
X-241.418 Y24.347
X-241.356 Y24.11
X-241.309 Y23.869
X-241.279 Y23.625
G2 X-240.336 Y16.217 I-24.245 J-6.85
X-240.278 Y4.363 I-544.298 J-8.581
G1 X-240.284 Y-16.227
G2 X-240.346 Y-21.842 I-155.176 J-1.087
X-241.114 Y-26.587 I-12.171 J-0.464
X-241.725 Y-26.945 I-0.611 J0.341
G1 X-242.903
G0 Z2.505
X-245.137 Y26.571
Z-0.4
G1 Z-0.7 F700
X-245.131 Y26.575 Z-0.767
X-245.112 Y26.586 Z-0.83
X-245.081 Y26.604 Z-0.887
X-245.04 Y26.629 Z-0.935
X-244.991 Y26.658 Z-0.97
X-244.937 Y26.69 Z-0.992
X-244.879 Y26.724 Z-1
G2 X-244.126 Y26.945 I0.809 J-1.36
G1 X-242.992
X-242.757 Y26.882
X-242.527 Y26.803
X-242.302 Y26.71
X-242.085 Y26.602
X-241.874 Y26.48
X-241.672 Y26.345
X-241.479 Y26.197
X-241.297 Y26.036
X-241.125 Y25.864
X-240.964 Y25.682
X-240.816 Y25.489
X-240.681 Y25.287
X-240.559 Y25.077
X-240.451 Y24.859
X-240.357 Y24.635
X-240.279 Y24.405
X-240.215 Y24.17
X-240.167 Y23.932
X-240.134 Y23.691
G2 X-239.146 Y16.29 I-23.66 J-6.927
X-239.078 Y6.308 I-360.761 J-7.435
G1 X-239.082 Y-11.787
G2 X-239.144 Y-21.769 I-353.057 J-2.82
X-239.933 Y-26.583 I-12.8 J-0.373
X-240.546 Y-26.945 I-0.613 J0.337
G1 X-241.725
G0 Z2.505
X-244.003 Y26.571
Z-0.4
G1 Z-0.7 F700
X-243.997 Y26.575 Z-0.767
X-243.978 Y26.586 Z-0.83
X-243.947 Y26.604 Z-0.887
X-243.906 Y26.629 Z-0.935
X-243.857 Y26.658 Z-0.97
X-243.803 Y26.69 Z-0.992
X-243.745 Y26.724 Z-1
G2 X-242.992 Y26.945 I0.809 J-1.36
G1 X-241.793
X-241.565 Y26.877
X-241.341 Y26.795
X-241.122 Y26.699
X-240.909 Y26.59
X-240.704 Y26.468
X-240.507 Y26.334
X-240.318 Y26.188
X-240.138 Y26.031
X-239.968 Y25.863
X-239.809 Y25.685
X-239.661 Y25.497
X-239.525 Y25.301
X-239.401 Y25.097
X-239.29 Y24.886
X-239.192 Y24.668
X-239.108 Y24.445
X-239.037 Y24.217
X-238.98 Y23.985
X-238.938 Y23.75
X-238.91 Y23.512
G2 X-237.948 Y16.105 I-24.744 J-6.979
X-237.878 Y6.746 I-338.696 J-7.218
G1 X-237.879 Y-1.365
X-237.884 Y-15.716
G2 X-237.966 Y-21.955 I-162.349 J-0.986
X-238.76 Y-26.598 I-11.981 J-0.341
X-239.364 Y-26.945 I-0.605 J0.353
G1 X-240.546
G0 Z2.505
X-242.805 Y26.571
Z-0.4
G1 Z-0.7 F700
X-242.798 Y26.575 Z-0.767
X-242.779 Y26.586 Z-0.83
X-242.749 Y26.604 Z-0.887
X-242.708 Y26.629 Z-0.935
X-242.659 Y26.658 Z-0.97
X-242.604 Y26.69 Z-0.992
X-242.547 Y26.724 Z-1
G2 X-241.793 Y26.945 I0.809 J-1.36
G1 X-240.659
X-240.422 Y26.879
X-240.189 Y26.797
X-239.962 Y26.701
X-239.742 Y26.59
X-239.529 Y26.465
X-239.325 Y26.326
X-239.131 Y26.175
X-238.946 Y26.011
X-238.773 Y25.836
X-238.611 Y25.649
X-238.462 Y25.453
X-238.326 Y25.248
X-238.203 Y25.034
X-238.094 Y24.812
X-238 Y24.585
X-237.921 Y24.351
X-237.857 Y24.113
X-237.809 Y23.871
X-237.777 Y23.627
G2 X-236.76 Y16.228 I-23.906 J-7.053
X-236.678 Y4.374 I-420.007 J-8.831
G1 X-236.683 Y-14.968
G2 X-236.768 Y-21.831 I-179.969 J-1.213
X-237.574 Y-26.588 I-12.734 J-0.29
X-238.184 Y-26.945 I-0.61 J0.343
G1 X-239.364
G0 Z2.505
X-241.671 Y26.571
Z-0.4
G1 Z-0.7 F700
X-241.664 Y26.575 Z-0.767
X-241.645 Y26.586 Z-0.83
X-241.614 Y26.604 Z-0.887
X-241.574 Y26.629 Z-0.935
X-241.525 Y26.658 Z-0.97
X-241.47 Y26.69 Z-0.992
X-241.413 Y26.724 Z-1
G2 X-240.659 Y26.945 I0.809 J-1.36
G1 X-239.525
X-239.29 Y26.885
X-239.06 Y26.809
X-238.835 Y26.718
X-238.617 Y26.613
X-238.405 Y26.494
X-238.203 Y26.361
X-238.009 Y26.215
X-237.825 Y26.057
X-237.651 Y25.888
X-237.489 Y25.707
X-237.34 Y25.517
X-237.203 Y25.317
X-237.079 Y25.108
X-236.969 Y24.892
X-236.873 Y24.669
X-236.792 Y24.441
X-236.726 Y24.208
X-236.675 Y23.971
X-236.64 Y23.731
G2 X-235.572 Y16.342 I-23.187 J-7.123
X-235.478 Y3.864 I-361.092 J-8.96
G1 X-235.484 Y-14.855
G2 X-235.572 Y-21.717 I-178.082 J-1.148
X-236.388 Y-26.579 I-13.364 J-0.255
X-237.004 Y-26.945 I-0.616 J0.333
G1 X-238.184
G0 Z2.505
X-240.536 Y26.571
Z-0.4
G1 Z-0.7 F700
X-240.53 Y26.575 Z-0.767
X-240.511 Y26.586 Z-0.83
X-240.48 Y26.604 Z-0.887
X-240.439 Y26.629 Z-0.935
X-240.39 Y26.658 Z-0.97
X-240.336 Y26.69 Z-0.992
X-240.278 Y26.724 Z-1
G2 X-239.525 Y26.945 I0.809 J-1.36
G1 X-238.313
X-238.084 Y26.879
X-237.859 Y26.798
X-237.64 Y26.704
X-237.427 Y26.596
X-237.221 Y26.476
X-237.023 Y26.343
X-236.833 Y26.199
X-236.653 Y26.043
X-236.482 Y25.876
X-236.322 Y25.7
X-236.173 Y25.514
X-236.035 Y25.319
X-235.91 Y25.116
X-235.797 Y24.906
X-235.697 Y24.689
X-235.611 Y24.467
X-235.539 Y24.239
X-235.48 Y24.008
X-235.436 Y23.774
X-235.406 Y23.537
G2 X-234.374 Y16.139 I-24.33 J-7.166
X-234.278 Y3.661 I-361.787 J-9.005
G1 X-234.283 Y-14.433
G2 X-234.395 Y-21.919 I-148.881 J-1.521
X-235.215 Y-26.596 I-12.4 J-0.238
X-235.82 Y-26.945 I-0.606 J0.351
G1 X-237.004
G0 Z2.505
X-239.324 Y26.571
Z-0.4
G1 Z-0.7 F700
X-239.318 Y26.575 Z-0.767
X-239.298 Y26.586 Z-0.83
X-239.268 Y26.604 Z-0.887
X-239.227 Y26.629 Z-0.935
X-239.178 Y26.658 Z-0.97
X-239.124 Y26.69 Z-0.992
X-239.066 Y26.724 Z-1
G2 X-238.313 Y26.945 I0.809 J-1.36
G1 X-237.178
X-236.941 Y26.881
X-236.708 Y26.802
X-236.481 Y26.708
X-236.261 Y26.599
X-236.048 Y26.477
X-235.843 Y26.341
X-235.648 Y26.191
X-235.462 Y26.03
X-235.288 Y25.857
X-235.125 Y25.673
X-234.974 Y25.479
X-234.836 Y25.275
X-234.712 Y25.063
X-234.602 Y24.843
X-234.506 Y24.617
X-234.425 Y24.385
X-234.359 Y24.148
X-234.309 Y23.908
X-234.274 Y23.664
G2 X-233.187 Y16.277 I-23.523 J-7.233
X-233.079 Y5.671 I-288.33 J-8.247
G1 Y-0.569
X-233.083 Y-14.296
G2 X-233.197 Y-21.781 I-150.832 J-1.465
X-234.026 Y-26.585 I-13.174 J-0.199
X-234.638 Y-26.945 I-0.612 J0.34
G1 X-235.82
G0 Z2.505
X-238.19 Y26.571
Z-0.4
G1 Z-0.7 F700
X-238.183 Y26.575 Z-0.767
X-238.164 Y26.586 Z-0.83
X-238.133 Y26.604 Z-0.887
X-238.093 Y26.629 Z-0.935
X-238.044 Y26.658 Z-0.97
X-237.989 Y26.69 Z-0.992
X-237.932 Y26.724 Z-1
G2 X-237.178 Y26.945 I0.809 J-1.36
G1 X-235.98
X-235.75 Y26.879
X-235.525 Y26.798
X-235.304 Y26.704
X-235.09 Y26.596
X-234.883 Y26.475
X-234.684 Y26.342
X-234.493 Y26.198
X-234.311 Y26.041
X-234.14 Y25.874
X-233.979 Y25.697
X-233.828 Y25.511
X-233.69 Y25.315
X-233.564 Y25.112
X-233.45 Y24.901
X-233.35 Y24.683
X-233.263 Y24.46
X-233.189 Y24.232
X-233.13 Y24
X-233.085 Y23.765
X-233.055 Y23.527
G2 X-231.99 Y16.133 I-24.362 J-7.28
X-231.879 Y3.031 I-381.811 J-9.808
G1 X-231.883 Y-13.191
G2 X-232.005 Y-21.925 I-191.236 J-1.686
X-232.849 Y-26.598 I-12.692 J-0.123
X-233.453 Y-26.945 I-0.605 J0.353
G1 X-234.638
G0 Z2.505
X-236.992 Y26.571
Z-0.4
G1 Z-0.7 F700
X-236.985 Y26.575 Z-0.767
X-236.966 Y26.586 Z-0.83
X-236.935 Y26.604 Z-0.887
X-236.894 Y26.629 Z-0.935
X-236.846 Y26.658 Z-0.97
X-236.791 Y26.69 Z-0.992
X-236.734 Y26.724 Z-1
G2 X-235.98 Y26.945 I0.809 J-1.36
G1 X-234.846
X-234.608 Y26.882
X-234.375 Y26.804
X-234.148 Y26.711
X-233.927 Y26.604
X-233.714 Y26.482
X-233.509 Y26.347
X-233.313 Y26.198
X-233.127 Y26.038
X-232.952 Y25.866
X-232.788 Y25.682
X-232.637 Y25.489
X-232.498 Y25.286
X-232.373 Y25.075
X-232.262 Y24.856
X-232.165 Y24.63
X-232.083 Y24.399
X-232.016 Y24.162
X-231.965 Y23.922
X-231.929 Y23.679
G2 X-230.782 Y15.673 I-26.345 J-7.861
X-230.679 Y3.819 I-339.183 J-8.864
G1 X-230.681 Y-6.788
X-230.683 Y-13.651
G2 X-230.806 Y-21.761 I-179.949 J-1.33
X-231.657 Y-26.584 I-13.624 J-0.083
X-232.27 Y-26.945 I-0.613 J0.339
G1 X-233.453
G0 Z2.505
X-235.857 Y26.571
Z-0.4
G1 Z-0.7 F700
X-235.851 Y26.575 Z-0.767
X-235.832 Y26.586 Z-0.83
X-235.801 Y26.604 Z-0.887
X-235.76 Y26.629 Z-0.935
X-235.711 Y26.658 Z-0.97
X-235.657 Y26.69 Z-0.992
X-235.599 Y26.724 Z-1
G2 X-234.846 Y26.945 I0.809 J-1.36
G1 X-233.633
X-233.402 Y26.878
X-233.176 Y26.796
X-232.955 Y26.701
X-232.74 Y26.592
X-232.532 Y26.47
X-232.332 Y26.336
X-232.141 Y26.19
X-231.958 Y26.033
X-231.786 Y25.865
X-231.624 Y25.687
X-231.473 Y25.499
X-231.334 Y25.302
X-231.208 Y25.098
X-231.094 Y24.885
X-230.993 Y24.667
X-230.905 Y24.443
X-230.832 Y24.213
X-230.772 Y23.98
X-230.727 Y23.744
X-230.696 Y23.505
G2 X-229.607 Y16.114 I-24.451 J-7.381
X-229.479 Y3.636 I-329.494 J-9.607
G1 X-229.481 Y-5.723
X-229.483 Y-13.21
G2 X-229.625 Y-21.943 I-173.311 J-1.549
X-230.48 Y-26.6 I-12.783 J-0.06
X-231.084 Y-26.945 I-0.604 J0.354
G1 X-232.27
G0 Z2.505
X-234.645 Y26.571
Z-0.4
G1 Z-0.7 F700
X-234.638 Y26.575 Z-0.767
X-234.619 Y26.586 Z-0.83
X-234.589 Y26.604 Z-0.887
X-234.548 Y26.629 Z-0.935
X-234.499 Y26.658 Z-0.97
X-234.444 Y26.69 Z-0.992
X-234.387 Y26.724 Z-1
G2 X-233.633 Y26.945 I0.809 J-1.36
G1 X-232.435
X-232.201 Y26.872
X-231.971 Y26.785
X-231.747 Y26.684
X-231.529 Y26.569
X-231.319 Y26.442
X-231.117 Y26.302
X-230.923 Y26.15
X-230.74 Y25.987
X-230.566 Y25.812
X-230.403 Y25.628
X-230.252 Y25.434
X-230.113 Y25.232
X-229.986 Y25.021
X-229.872 Y24.803
X-229.772 Y24.579
X-229.686 Y24.348
X-229.613 Y24.114
X-229.555 Y23.875
X-229.511 Y23.633
X-229.483 Y23.389
G2 X-228.386 Y15.37 I-28.273 J-7.95
X-228.279 Y4.14 I-323.488 J-8.685
G1 X-228.28 Y-2.1
X-228.283 Y-12.707
G2 X-228.451 Y-22.063 I-148.344 J-2.02
X-229.385 Y-26.72 I-10.76 J-0.264
G1 X-229.533 Y-26.842
X-229.709 Y-26.919
X-229.899 Y-26.945
X-231.084
G0 Z2.505
X-233.447 Y26.571
Z-0.4
G1 Z-0.7 F700
X-233.44 Y26.575 Z-0.767
X-233.421 Y26.586 Z-0.83
X-233.391 Y26.604 Z-0.887
X-233.35 Y26.629 Z-0.935
X-233.301 Y26.658 Z-0.97
X-233.246 Y26.69 Z-0.992
X-233.189 Y26.724 Z-1
G2 X-232.435 Y26.945 I0.809 J-1.36
G1 X-231.301
X-231.072 Y26.881
X-230.847 Y26.802
X-230.627 Y26.71
X-230.413 Y26.605
X-230.206 Y26.487
X-230.007 Y26.356
X-229.816 Y26.214
X-229.634 Y26.06
X-229.462 Y25.896
X-229.3 Y25.721
X-229.149 Y25.537
X-229.01 Y25.343
X-228.882 Y25.142
X-228.768 Y24.933
X-228.666 Y24.718
X-228.577 Y24.497
X-228.502 Y24.271
X-228.441 Y24.04
X-228.394 Y23.807
X-228.362 Y23.571
G2 X-227.201 Y15.564 I-27.04 J-8.01
X-227.079 Y3.087 I-353.341 J-9.671
G1 X-227.081 Y-5.648
X-227.083 Y-12.512
G2 X-227.247 Y-21.868 I-153.933 J-1.986
X-228.107 Y-26.594 I-13.096 J-0.058
X-228.714 Y-26.945 I-0.607 J0.348
G1 X-229.899
G0 Z2.505
X-232.313 Y26.571
Z-0.4
G1 Z-0.7 F700
X-232.306 Y26.575 Z-0.767
X-232.287 Y26.586 Z-0.83
X-232.256 Y26.604 Z-0.887
X-232.215 Y26.629 Z-0.935
X-232.167 Y26.658 Z-0.97
X-232.112 Y26.69 Z-0.992
X-232.055 Y26.724 Z-1
G2 X-231.301 Y26.945 I0.809 J-1.36
G1 X-230.167
X-229.929 Y26.885
X-229.697 Y26.809
X-229.469 Y26.719
X-229.248 Y26.613
X-229.034 Y26.494
X-228.829 Y26.361
X-228.632 Y26.215
X-228.445 Y26.057
X-228.269 Y25.886
X-228.105 Y25.705
X-227.952 Y25.514
X-227.812 Y25.313
X-227.686 Y25.103
X-227.573 Y24.886
X-227.475 Y24.661
X-227.391 Y24.431
X-227.323 Y24.196
X-227.27 Y23.957
X-227.232 Y23.715
G2 X-226.014 Y15.72 I-26.067 J-8.061
X-225.879 Y2.619 I-345.207 J-10.11
G1 X-225.881 Y-6.741
X-225.883 Y-12.356
G2 X-226.045 Y-21.713 I-158.048 J-1.942
X-226.914 Y-26.582 I-13.974 J-0.018
X-227.528 Y-26.945 I-0.614 J0.336
G1 X-228.714
G0 Z2.505
X-231.178 Y26.571
Z-0.4
G1 Z-0.7 F700
X-231.172 Y26.575 Z-0.767
X-231.153 Y26.586 Z-0.83
X-231.122 Y26.604 Z-0.887
X-231.081 Y26.629 Z-0.935
X-231.032 Y26.658 Z-0.97
X-230.978 Y26.69 Z-0.992
X-230.92 Y26.724 Z-1
G2 X-230.167 Y26.945 I0.809 J-1.36
G1 X-228.954
X-228.725 Y26.881
X-228.499 Y26.803
X-228.279 Y26.711
X-228.065 Y26.606
X-227.857 Y26.488
X-227.657 Y26.358
X-227.466 Y26.216
X-227.283 Y26.062
X-227.11 Y25.897
X-226.948 Y25.723
X-226.796 Y25.538
X-226.656 Y25.345
X-226.528 Y25.143
X-226.413 Y24.935
X-226.31 Y24.719
X-226.221 Y24.498
X-226.146 Y24.271
X-226.084 Y24.041
X-226.037 Y23.807
X-226.004 Y23.571
G2 X-224.816 Y15.568 I-27.046 J-8.104
X-224.68 Y2.466 I-345.967 J-10.154
G1 X-224.681 Y-5.645
X-224.683 Y-11.884
G2 X-224.852 Y-21.865 I-189.559 J-1.778
X-225.735 Y-26.595 I-13.471 J0.066
X-226.341 Y-26.945 I-0.606 J0.35
G1 X-227.528
G0 Z2.505
X-229.966 Y26.571
Z-0.4
G1 Z-0.7 F700
X-229.959 Y26.575 Z-0.767
X-229.94 Y26.586 Z-0.83
X-229.91 Y26.604 Z-0.887
X-229.869 Y26.629 Z-0.935
X-229.82 Y26.658 Z-0.97
X-229.765 Y26.69 Z-0.992
X-229.708 Y26.724 Z-1
G2 X-228.954 Y26.945 I0.809 J-1.36
G1 X-227.756
X-227.523 Y26.877
X-227.295 Y26.794
X-227.072 Y26.697
X-226.855 Y26.587
X-226.646 Y26.464
X-226.444 Y26.328
X-226.251 Y26.181
X-226.067 Y26.022
X-225.893 Y25.852
X-225.73 Y25.672
X-225.578 Y25.483
X-225.437 Y25.284
X-225.309 Y25.078
X-225.194 Y24.864
X-225.092 Y24.643
X-225.004 Y24.417
X-224.929 Y24.186
X-224.869 Y23.95
X-224.823 Y23.712
X-224.791 Y23.471
G2 X-223.619 Y15.463 I-27.729 J-8.148
X-223.48 Y2.362 I-342.562 J-10.202
G1 Y-5.125
X-223.483 Y-11.365
G2 X-223.679 Y-21.968 I-162.306 J-2.305
X-224.662 Y-26.746 I-11.064 J-0.213
G1 X-224.806 Y-26.854
X-224.973 Y-26.922
X-225.151 Y-26.945
X-226.341
G0 Z2.505
X-228.768 Y26.571
Z-0.4
G1 Z-0.7 F700
X-228.761 Y26.575 Z-0.767
X-228.742 Y26.586 Z-0.83
X-228.712 Y26.604 Z-0.887
X-228.671 Y26.629 Z-0.935
X-228.622 Y26.658 Z-0.97
X-228.567 Y26.69 Z-0.992
X-228.51 Y26.724 Z-1
G2 X-227.756 Y26.945 I0.809 J-1.36
G1 X-226.622
X-226.383 Y26.882
X-226.148 Y26.803
X-225.919 Y26.709
X-225.696 Y26.601
X-225.481 Y26.478
X-225.274 Y26.342
X-225.076 Y26.193
X-224.888 Y26.032
X-224.711 Y25.858
X-224.546 Y25.674
X-224.393 Y25.479
X-224.252 Y25.275
X-224.126 Y25.062
X-224.013 Y24.842
X-223.914 Y24.615
X-223.831 Y24.382
X-223.762 Y24.144
X-223.709 Y23.902
X-223.672 Y23.657
G2 X-222.436 Y15.663 I-26.528 J-8.196
X-222.28 Y-1.806 I-435.217 J-12.616
G1 X-222.283 Y-11.165
G2 X-222.462 Y-21.769 I-197.102 J-1.976
X-223.354 Y-26.587 I-14.191 J0.138
X-223.965 Y-26.945 I-0.611 J0.341
G1 X-225.151
G0 Z2.505
X-227.633 Y26.571
Z-0.4
G1 Z-0.7 F700
X-227.627 Y26.575 Z-0.767
X-227.608 Y26.586 Z-0.83
X-227.577 Y26.604 Z-0.887
X-227.536 Y26.629 Z-0.935
X-227.487 Y26.658 Z-0.97
X-227.433 Y26.69 Z-0.992
X-227.376 Y26.724 Z-1
G2 X-226.622 Y26.945 I0.809 J-1.36
G1 X-225.41
X-225.178 Y26.878
X-224.95 Y26.797
X-224.727 Y26.703
X-224.511 Y26.595
X-224.302 Y26.474
X-224.101 Y26.34
X-223.908 Y26.195
X-223.724 Y26.038
X-223.55 Y25.87
X-223.386 Y25.692
X-223.234 Y25.505
X-223.093 Y25.308
X-222.965 Y25.103
X-222.849 Y24.891
X-222.747 Y24.672
X-222.658 Y24.448
X-222.582 Y24.218
X-222.521 Y23.985
X-222.474 Y23.747
X-222.442 Y23.508
G2 X-221.236 Y15.506 I-27.49 J-8.233
X-221.08 Y-1.962 I-437.536 J-12.652
G1 X-221.082 Y-10.698
G2 X-221.279 Y-21.925 I-199.398 J-2.133
X-222.174 Y-26.6 I-13.42 J0.146
X-222.777 Y-26.945 I-0.603 J0.355
G1 X-223.965
G0 Z2.505
X-226.421 Y26.571
Z-0.4
G1 Z-0.7 F700
X-226.415 Y26.575 Z-0.767
X-226.396 Y26.586 Z-0.83
X-226.365 Y26.604 Z-0.887
X-226.324 Y26.629 Z-0.935
X-226.275 Y26.658 Z-0.97
X-226.221 Y26.69 Z-0.992
X-226.163 Y26.724 Z-1
G2 X-225.41 Y26.945 I0.809 J-1.36
G1 X-224.212
X-223.977 Y26.874
X-223.747 Y26.789
X-223.522 Y26.69
X-223.304 Y26.578
X-223.093 Y26.453
X-222.89 Y26.315
X-222.696 Y26.165
X-222.511 Y26.004
X-222.336 Y25.831
X-222.172 Y25.649
X-222.019 Y25.457
X-221.879 Y25.256
X-221.75 Y25.047
X-221.635 Y24.83
X-221.532 Y24.607
X-221.444 Y24.379
X-221.369 Y24.145
X-221.309 Y23.907
X-221.263 Y23.666
X-221.232 Y23.423
G2 X-220.04 Y15.417 I-28.084 J-8.274
X-219.88 Y-1.428 I-415.253 J-12.367
G1 X-219.882 Y-10.163
G2 X-220.092 Y-22.014 I-202.329 J-2.349
X-221.074 Y-26.719 I-11.57 J-0.041
G1 X-221.222 Y-26.841
X-221.398 Y-26.919
X-221.589 Y-26.945
X-222.777
G0 Z2.505
X-225.223 Y26.571
Z-0.4
G1 Z-0.7 F700
X-225.217 Y26.575 Z-0.767
X-225.197 Y26.586 Z-0.83
X-225.167 Y26.604 Z-0.887
X-225.126 Y26.629 Z-0.935
X-225.077 Y26.658 Z-0.97
X-225.023 Y26.69 Z-0.992
X-224.965 Y26.724 Z-1
G2 X-224.212 Y26.945 I0.809 J-1.36
G1 X-223.077
X-222.849 Y26.884
X-222.624 Y26.809
X-222.404 Y26.72
X-222.191 Y26.618
X-221.983 Y26.503
X-221.784 Y26.376
X-221.592 Y26.236
X-221.41 Y26.085
X-221.236 Y25.924
X-221.073 Y25.752
X-220.921 Y25.57
X-220.78 Y25.38
X-220.651 Y25.181
X-220.535 Y24.975
X-220.431 Y24.762
X-220.341 Y24.543
X-220.263 Y24.319
X-220.2 Y24.091
X-220.151 Y23.86
X-220.116 Y23.625
G2 X-218.857 Y15.634 I-26.799 J-8.316
X-218.68 Y-2.458 I-416.836 J-13.133
G1 X-218.682 Y-9.946
G2 X-218.885 Y-21.797 I-210.952 J-2.323
X-219.793 Y-26.59 I-14.201 J0.208
X-220.402 Y-26.945 I-0.61 J0.344
G1 X-221.589
G0 Z2.505
X-224.089 Y26.571
Z-0.4
G1 Z-0.7 F700
X-224.082 Y26.575 Z-0.767
X-224.063 Y26.586 Z-0.83
X-224.032 Y26.604 Z-0.887
X-223.992 Y26.629 Z-0.935
X-223.943 Y26.658 Z-0.97
X-223.888 Y26.69 Z-0.992
X-223.831 Y26.724 Z-1
G2 X-223.077 Y26.945 I0.809 J-1.36
G1 X-221.865
X-221.632 Y26.877
X-221.403 Y26.795
X-221.179 Y26.699
X-220.962 Y26.59
X-220.752 Y26.467
X-220.549 Y26.332
X-220.356 Y26.186
X-220.171 Y26.027
X-219.996 Y25.858
X-219.832 Y25.678
X-219.68 Y25.489
X-219.538 Y25.291
X-219.41 Y25.085
X-219.293 Y24.871
X-219.191 Y24.651
X-219.101 Y24.425
X-219.026 Y24.194
X-218.964 Y23.958
X-218.917 Y23.72
X-218.885 Y23.479
G2 X-217.657 Y15.479 I-27.737 J-8.351
X-217.48 Y-1.989 I-404.063 J-12.839
G1 X-217.482 Y-9.476
G2 X-217.701 Y-21.951 I-213.865 J-2.48
X-218.61 Y-26.603 I-13.452 J0.213
X-219.212 Y-26.945 I-0.602 J0.358
G1 X-220.402
G0 Z2.505
X-222.876 Y26.571
Z-0.4
G1 Z-0.7 F700
X-222.87 Y26.575 Z-0.767
X-222.851 Y26.586 Z-0.83
X-222.82 Y26.604 Z-0.887
X-222.779 Y26.629 Z-0.935
X-222.73 Y26.658 Z-0.97
X-222.676 Y26.69 Z-0.992
X-222.619 Y26.724 Z-1
G2 X-221.865 Y26.945 I0.809 J-1.36
G1 X-220.667
X-220.431 Y26.874
X-220.2 Y26.787
X-219.975 Y26.688
X-219.756 Y26.574
X-219.544 Y26.448
X-219.34 Y26.309
X-219.145 Y26.158
X-218.96 Y25.996
X-218.784 Y25.823
X-218.62 Y25.639
X-218.467 Y25.446
X-218.325 Y25.244
X-218.197 Y25.034
X-218.081 Y24.816
X-217.978 Y24.592
X-217.889 Y24.362
X-217.814 Y24.127
X-217.754 Y23.888
X-217.708 Y23.646
X-217.677 Y23.402
G2 X-216.461 Y15.399 I-28.284 J-8.39
X-216.28 Y-2.069 I-400.109 J-12.881
G1 X-216.282 Y-9.556
G2 X-216.516 Y-22.031 I-204.555 J-2.411
X-217.509 Y-26.72 I-11.594 J0.006
G1 X-217.657 Y-26.842
X-217.833 Y-26.919
X-218.024 Y-26.945
X-219.212
G0 Z2.505
X-221.678 Y26.571
Z-0.4
G1 Z-0.7 F700
X-221.672 Y26.575 Z-0.767
X-221.653 Y26.586 Z-0.83
X-221.622 Y26.604 Z-0.887
X-221.581 Y26.629 Z-0.935
X-221.532 Y26.658 Z-0.97
X-221.478 Y26.69 Z-0.992
X-221.42 Y26.724 Z-1
G2 X-220.667 Y26.945 I0.809 J-1.36
G1 X-219.533
X-219.303 Y26.884
X-219.078 Y26.808
X-218.858 Y26.719
X-218.644 Y26.616
X-218.436 Y26.501
X-218.236 Y26.373
X-218.044 Y26.233
X-217.861 Y26.082
X-217.687 Y25.92
X-217.524 Y25.748
X-217.371 Y25.566
X-217.23 Y25.375
X-217.101 Y25.176
X-216.984 Y24.969
X-216.88 Y24.755
X-216.789 Y24.536
X-216.711 Y24.311
X-216.648 Y24.083
X-216.598 Y23.85
X-216.563 Y23.615
G2 X-215.249 Y15.004 I-28.12 J-8.696
X-215.08 Y-2.464 I-428.506 J-12.886
G1 X-215.082 Y-9.328
G2 X-215.307 Y-21.803 I-213.9 J-2.388
X-216.227 Y-26.591 I-14.342 J0.273
X-216.836 Y-26.945 I-0.609 J0.345
G1 X-218.024
G0 Z2.505
X-220.544 Y26.571
Z-0.4
G1 Z-0.7 F700
X-220.538 Y26.575 Z-0.767
X-220.518 Y26.586 Z-0.83
X-220.488 Y26.604 Z-0.887
X-220.447 Y26.629 Z-0.935
X-220.398 Y26.658 Z-0.97
X-220.343 Y26.69 Z-0.992
X-220.286 Y26.724 Z-1
G2 X-219.533 Y26.945 I0.809 J-1.36
G1 X-218.32
X-218.086 Y26.877
X-217.857 Y26.795
X-217.633 Y26.699
X-217.415 Y26.589
X-217.205 Y26.466
X-217.002 Y26.331
X-216.808 Y26.184
X-216.623 Y26.026
X-216.448 Y25.856
X-216.283 Y25.676
X-216.13 Y25.487
X-215.988 Y25.289
X-215.859 Y25.082
X-215.743 Y24.868
X-215.639 Y24.647
X-215.549 Y24.421
X-215.474 Y24.189
X-215.412 Y23.953
X-215.365 Y23.714
X-215.332 Y23.473
G2 X-214.079 Y15.477 I-27.853 J-8.459
X-213.88 Y-2.615 I-391.269 J-13.356
G1 X-213.882 Y-8.854
G2 X-214.123 Y-21.953 I-217.517 J-2.549
X-215.043 Y-26.604 I-13.603 J0.273
X-215.644 Y-26.945 I-0.601 J0.359
G1 X-216.836
G0 Z2.505
X-219.332 Y26.571
Z-0.4
G1 Z-0.7 F700
X-219.325 Y26.575 Z-0.767
X-219.306 Y26.586 Z-0.83
X-219.275 Y26.604 Z-0.887
X-219.235 Y26.629 Z-0.935
X-219.186 Y26.658 Z-0.97
X-219.131 Y26.69 Z-0.992
X-219.074 Y26.724 Z-1
G2 X-218.32 Y26.945 I0.809 J-1.36
G1 X-217.122
X-216.886 Y26.874
X-216.655 Y26.788
X-216.429 Y26.688
X-216.21 Y26.575
X-215.998 Y26.449
X-215.794 Y26.31
X-215.598 Y26.16
X-215.413 Y25.997
X-215.237 Y25.824
X-215.072 Y25.641
X-214.918 Y25.448
X-214.777 Y25.246
X-214.647 Y25.036
X-214.531 Y24.818
X-214.428 Y24.594
X-214.339 Y24.364
X-214.264 Y24.129
X-214.203 Y23.89
X-214.156 Y23.648
X-214.124 Y23.403
G2 X-212.853 Y14.781 I-29.591 J-8.768
X-212.68 Y-2.688 I-427.496 J-12.96
G1 X-212.682 Y-8.927
G2 X-212.937 Y-22.025 I-209.495 J-2.482
X-213.94 Y-26.72 I-11.746 J0.057
G1 X-214.089 Y-26.842
X-214.265 Y-26.919
X-214.455 Y-26.945
X-215.644
G0 Z2.505
X-218.134 Y26.571
Z-0.4
G1 Z-0.7 F700
X-218.127 Y26.575 Z-0.767
X-218.108 Y26.586 Z-0.83
X-218.077 Y26.604 Z-0.887
X-218.036 Y26.629 Z-0.935
X-217.988 Y26.658 Z-0.97
X-217.933 Y26.69 Z-0.992
X-217.876 Y26.724 Z-1
G2 X-217.122 Y26.945 I0.809 J-1.36
G1 X-215.988
X-215.758 Y26.884
X-215.533 Y26.809
X-215.313 Y26.72
X-215.099 Y26.618
X-214.891 Y26.503
X-214.69 Y26.376
X-214.498 Y26.237
X-214.315 Y26.086
X-214.141 Y25.924
X-213.977 Y25.752
X-213.824 Y25.571
X-213.683 Y25.38
X-213.553 Y25.181
X-213.436 Y24.975
X-213.331 Y24.762
X-213.24 Y24.543
X-213.162 Y24.318
X-213.098 Y24.09
X-213.048 Y23.858
X-213.012 Y23.623
G2 X-211.67 Y15.016 I-28.158 J-8.798
X-211.481 Y-0.58 I-351.354 J-12.073
G1 Y-6.82
G2 X-211.721 Y-21.79 I-258.484 J-3.348
X-212.657 Y-26.59 I-14.73 J0.382
X-213.266 Y-26.945 I-0.609 J0.345
G1 X-214.455
G0 Z2.505
X-216.999 Y26.571
Z-0.4
G1 Z-0.7 F700
X-216.993 Y26.575 Z-0.767
X-216.974 Y26.586 Z-0.83
X-216.943 Y26.604 Z-0.887
X-216.902 Y26.629 Z-0.935
X-216.853 Y26.658 Z-0.97
X-216.799 Y26.69 Z-0.992
X-216.741 Y26.724 Z-1
G2 X-215.988 Y26.945 I0.809 J-1.36
G1 X-214.776
X-214.542 Y26.878
X-214.313 Y26.796
X-214.089 Y26.701
X-213.871 Y26.592
X-213.66 Y26.47
X-213.457 Y26.336
X-213.263 Y26.19
X-213.078 Y26.032
X-212.902 Y25.863
X-212.738 Y25.684
X-212.584 Y25.495
X-212.442 Y25.298
X-212.313 Y25.092
X-212.196 Y24.879
X-212.092 Y24.658
X-212.002 Y24.433
X-211.925 Y24.202
X-211.863 Y23.966
X-211.815 Y23.728
X-211.782 Y23.487
G2 X-210.502 Y15.495 I-27.859 J-8.558
X-210.281 Y-0.724 I-324.303 J-12.539
G1 Y-6.34
G2 X-210.536 Y-21.934 I-262.087 J-3.511
X-211.473 Y-26.603 I-14 J0.379
X-212.074 Y-26.945 I-0.602 J0.358
G1 X-213.266
G0 Z2.505
X-215.787 Y26.571
Z-0.4
G1 Z-0.7 F700
X-215.78 Y26.575 Z-0.767
X-215.761 Y26.586 Z-0.83
X-215.731 Y26.604 Z-0.887
X-215.69 Y26.629 Z-0.935
X-215.641 Y26.658 Z-0.97
X-215.586 Y26.69 Z-0.992
X-215.529 Y26.724 Z-1
G2 X-214.776 Y26.945 I0.809 J-1.36
G1 X-213.577
X-213.342 Y26.875
X-213.111 Y26.79
X-212.885 Y26.691
X-212.666 Y26.579
X-212.454 Y26.454
X-212.25 Y26.317
X-212.055 Y26.167
X-211.869 Y26.006
X-211.693 Y25.834
X-211.527 Y25.651
X-211.374 Y25.459
X-211.232 Y25.259
X-211.102 Y25.049
X-210.985 Y24.833
X-210.882 Y24.61
X-210.792 Y24.38
X-210.716 Y24.146
X-210.654 Y23.908
X-210.607 Y23.667
X-210.575 Y23.423
G2 X-209.274 Y14.805 I-29.549 J-8.868
X-209.081 Y-0.792 I-352.112 J-12.151
G1 Y-6.407
G2 X-209.349 Y-22 I-252.966 J-3.454
X-210.369 Y-26.719 I-12.113 J0.149
G1 X-210.517 Y-26.842
X-210.694 Y-26.919
X-210.885 Y-26.945
X-212.074
G0 Z2.505
X-214.589 Y26.571
Z-0.4
G1 Z-0.7 F700
X-214.582 Y26.575 Z-0.767
X-214.563 Y26.586 Z-0.83
X-214.533 Y26.604 Z-0.887
X-214.492 Y26.629 Z-0.935
X-214.443 Y26.658 Z-0.97
X-214.388 Y26.69 Z-0.992
X-214.331 Y26.724 Z-1
G2 X-213.577 Y26.945 I0.809 J-1.36
G1 X-212.443
X-212.214 Y26.885
X-211.989 Y26.811
X-211.769 Y26.724
X-211.555 Y26.623
X-211.347 Y26.51
X-211.147 Y26.383
X-210.955 Y26.245
X-210.771 Y26.096
X-210.597 Y25.935
X-210.433 Y25.765
X-210.28 Y25.584
X-210.138 Y25.395
X-210.008 Y25.197
X-209.89 Y24.992
X-209.785 Y24.78
X-209.694 Y24.561
X-209.615 Y24.338
X-209.55 Y24.11
X-209.5 Y23.879
X-209.463 Y23.645
G2 X-208.092 Y15.043 I-28.105 J-8.891
X-207.881 Y-1.177 I-344.01 J-12.586
G1 Y-6.792
G2 X-208.14 Y-21.762 I-250.726 J-3.15
X-209.085 Y-26.589 I-14.982 J0.428
X-209.695 Y-26.945 I-0.61 J0.343
G1 X-210.885
G0 Z2.505
X-213.455 Y26.571
Z-0.4
G1 Z-0.7 F700
X-213.448 Y26.575 Z-0.767
X-213.429 Y26.586 Z-0.83
X-213.398 Y26.604 Z-0.887
X-213.357 Y26.629 Z-0.935
X-213.309 Y26.658 Z-0.97
X-213.254 Y26.69 Z-0.992
X-213.197 Y26.724 Z-1
G2 X-212.443 Y26.945 I0.809 J-1.36
G1 X-211.231
X-210.998 Y26.879
X-210.769 Y26.799
X-210.546 Y26.706
X-210.328 Y26.599
X-210.118 Y26.479
X-209.915 Y26.346
X-209.721 Y26.201
X-209.536 Y26.045
X-209.36 Y25.878
X-209.196 Y25.7
X-209.042 Y25.513
X-208.9 Y25.317
X-208.77 Y25.113
X-208.652 Y24.901
X-208.548 Y24.682
X-208.457 Y24.458
X-208.38 Y24.228
X-208.317 Y23.994
X-208.268 Y23.757
X-208.234 Y23.517
G2 X-206.926 Y15.53 I-27.771 J-8.649
X-206.923 Y-21.898 I-568.008 J-18.755
X-207.9 Y-26.601 I-15.193 J0.704
X-208.503 Y-26.945 I-0.603 J0.355
G1 X-209.695
G0 Z2.505
X-212.242 Y26.571
Z-0.4
G1 Z-0.7 F700
X-212.236 Y26.575 Z-0.767
X-212.217 Y26.586 Z-0.83
X-212.186 Y26.604 Z-0.887
X-212.145 Y26.629 Z-0.935
X-212.096 Y26.658 Z-0.97
X-212.042 Y26.69 Z-0.992
X-211.984 Y26.724 Z-1
G2 X-211.231 Y26.945 I0.809 J-1.36
G1 X-210.033
X-209.798 Y26.877
X-209.567 Y26.794
X-209.343 Y26.697
X-209.124 Y26.587
X-208.912 Y26.464
X-208.709 Y26.328
X-208.513 Y26.18
X-208.328 Y26.021
X-208.152 Y25.851
X-207.986 Y25.67
X-207.832 Y25.48
X-207.69 Y25.281
X-207.56 Y25.074
X-207.443 Y24.859
X-207.338 Y24.637
X-207.248 Y24.41
X-207.171 Y24.177
X-207.109 Y23.941
X-207.061 Y23.701
X-207.027 Y23.458
G2 X-205.695 Y14.845 I-29.411 J-8.958
X-205.727 Y-21.96 I-584.991 J-17.898
X-206.71 Y-26.607 I-15.061 J0.759
X-207.31 Y-26.945 I-0.6 J0.361
G1 X-208.503
G0 Z2.505
X-211.044 Y26.571
Z-0.4
G1 Z-0.7 F700
X-211.038 Y26.575 Z-0.767
X-211.019 Y26.586 Z-0.83
X-210.988 Y26.604 Z-0.887
X-210.947 Y26.629 Z-0.935
X-210.898 Y26.658 Z-0.97
X-210.844 Y26.69 Z-0.992
X-210.786 Y26.724 Z-1
G2 X-210.033 Y26.945 I0.809 J-1.36
G1 X-208.898
X-208.658 Y26.884
X-208.422 Y26.806
X-208.191 Y26.714
X-207.967 Y26.607
X-207.751 Y26.486
X-207.542 Y26.351
X-207.343 Y26.203
X-207.153 Y26.043
X-206.975 Y25.871
X-206.807 Y25.687
X-206.652 Y25.493
X-206.51 Y25.29
X-206.381 Y25.078
X-206.266 Y24.858
X-206.165 Y24.631
X-206.079 Y24.398
X-206.009 Y24.16
X-205.953 Y23.918
X-205.914 Y23.673
G2 X-204.514 Y15.075 I-28.014 J-8.975
X-204.523 Y-21.729 I-575.173 J-18.266
X-205.509 Y-26.587 I-16.536 J0.83
X-206.12 Y-26.945 I-0.611 J0.341
G1 X-207.31
G0 Z2.505
X-209.91 Y26.571
Z-0.4
G1 Z-0.7 F700
X-209.903 Y26.575 Z-0.767
X-209.884 Y26.586 Z-0.83
X-209.854 Y26.604 Z-0.887
X-209.813 Y26.629 Z-0.935
X-209.764 Y26.658 Z-0.97
X-209.709 Y26.69 Z-0.992
X-209.652 Y26.724 Z-1
G2 X-208.898 Y26.945 I0.809 J-1.36
G1 X-207.686
X-207.454 Y26.882
X-207.226 Y26.804
X-207.004 Y26.712
X-206.787 Y26.608
X-206.578 Y26.49
X-206.375 Y26.36
X-206.181 Y26.217
X-205.996 Y26.063
X-205.821 Y25.899
X-205.656 Y25.723
X-205.502 Y25.539
X-205.36 Y25.345
X-205.229 Y25.143
X-205.111 Y24.933
X-205.007 Y24.716
X-204.915 Y24.494
X-204.837 Y24.266
X-204.773 Y24.034
X-204.723 Y23.799
X-204.688 Y23.561
G2 X-203.314 Y14.957 I-28.787 J-9.009
X-203.334 Y-21.848 I-563.724 J-18.091
X-204.405 Y-26.711 I-14.147 J0.565
G1 X-204.554 Y-26.838
X-204.733 Y-26.918
X-204.928 Y-26.945
X-206.12
G0 Z2.505
X-208.697 Y26.571
Z-0.4
G1 Z-0.7 F700
X-208.691 Y26.575 Z-0.767
X-208.672 Y26.586 Z-0.83
X-208.641 Y26.604 Z-0.887
X-208.6 Y26.629 Z-0.935
X-208.551 Y26.658 Z-0.97
X-208.497 Y26.69 Z-0.992
X-208.44 Y26.724 Z-1
G2 X-207.686 Y26.945 I0.809 J-1.36
G1 X-206.488
X-206.254 Y26.879
X-206.025 Y26.799
X-205.801 Y26.704
X-205.583 Y26.597
X-205.373 Y26.476
X-205.169 Y26.343
X-204.975 Y26.198
X-204.789 Y26.041
X-204.613 Y25.874
X-204.448 Y25.696
X-204.294 Y25.508
X-204.151 Y25.312
X-204.021 Y25.107
X-203.903 Y24.894
X-203.798 Y24.675
X-203.707 Y24.45
X-203.63 Y24.22
X-203.566 Y23.986
X-203.517 Y23.748
X-203.483 Y23.507
G2 X-202.118 Y14.9 I-29.19 J-9.041
X-202.144 Y-21.904 I-550.593 J-18.004
X-203.133 Y-26.602 I-15.486 J0.806
X-203.735 Y-26.945 I-0.602 J0.357
G1 X-204.928
G0 Z2.505
X-207.499 Y26.571
Z-0.4
G1 Z-0.7 F700
X-207.493 Y26.575 Z-0.767
X-207.474 Y26.586 Z-0.83
X-207.443 Y26.604 Z-0.887
X-207.402 Y26.629 Z-0.935
X-207.353 Y26.658 Z-0.97
X-207.299 Y26.69 Z-0.992
X-207.241 Y26.724 Z-1
G2 X-206.488 Y26.945 I0.809 J-1.36
G1 X-205.354
X-205.124 Y26.888
X-204.898 Y26.817
X-204.677 Y26.731
X-204.461 Y26.633
X-204.252 Y26.521
X-204.051 Y26.397
X-203.857 Y26.26
X-203.672 Y26.112
X-203.497 Y25.953
X-203.332 Y25.783
X-203.177 Y25.603
X-203.034 Y25.415
X-202.903 Y25.218
X-202.784 Y25.013
X-202.678 Y24.801
X-202.585 Y24.583
X-202.505 Y24.36
X-202.44 Y24.132
X-202.389 Y23.901
X-202.352 Y23.667
G2 X-200.971 Y15.694 I-26.939 J-8.771
X-200.948 Y-21.733 I-512.18 J-19.03
X-201.934 Y-26.587 I-16.391 J0.802
X-202.545 Y-26.945 I-0.611 J0.341
G1 X-203.735
G0 Z2.505
X-206.365 Y26.571
Z-0.4
G1 Z-0.7 F700
X-206.359 Y26.575 Z-0.767
X-206.34 Y26.586 Z-0.83
X-206.309 Y26.604 Z-0.887
X-206.268 Y26.629 Z-0.935
X-206.219 Y26.658 Z-0.97
X-206.165 Y26.69 Z-0.992
X-206.107 Y26.724 Z-1
G2 X-205.354 Y26.945 I0.809 J-1.36
G1 X-204.077
X-203.839 Y26.871
X-203.606 Y26.783
X-203.378 Y26.681
X-203.157 Y26.565
X-202.943 Y26.436
X-202.737 Y26.295
X-202.54 Y26.141
X-202.353 Y25.976
X-202.176 Y25.8
X-202.009 Y25.614
X-201.855 Y25.418
X-201.712 Y25.213
X-201.582 Y25
X-201.465 Y24.779
X-201.362 Y24.552
X-201.272 Y24.319
X-201.197 Y24.081
X-201.136 Y23.839
X-201.089 Y23.593
X-201.058 Y23.346
G2 X-199.721 Y14.731 I-30.144 J-9.089
X-199.765 Y-22.072 I-532.609 J-17.763
X-200.732 Y-26.565 I-15.181 J0.919
X-201.355 Y-26.945 I-0.623 J0.32
G1 X-202.545
G0 Z2.505
X-205.089 Y26.571
Z-0.4
G1 Z-0.7 F700
X-205.082 Y26.575 Z-0.767
X-205.063 Y26.586 Z-0.83
X-205.033 Y26.604 Z-0.887
X-204.992 Y26.629 Z-0.935
X-204.943 Y26.658 Z-0.97
X-204.888 Y26.69 Z-0.992
X-204.831 Y26.724 Z-1
G2 X-204.077 Y26.945 I0.809 J-1.36
G1 X-202.943
X-202.713 Y26.883
X-202.486 Y26.807
X-202.265 Y26.717
X-202.05 Y26.614
X-201.841 Y26.498
X-201.64 Y26.369
X-201.446 Y26.228
X-201.262 Y26.076
X-201.088 Y25.914
X-200.923 Y25.74
X-200.769 Y25.558
X-200.627 Y25.366
X-200.497 Y25.166
X-200.379 Y24.958
X-200.274 Y24.743
X-200.182 Y24.523
X-200.104 Y24.297
X-200.039 Y24.067
X-199.989 Y23.834
X-199.953 Y23.598
G2 X-198.542 Y15 I-28.554 J-9.101
X-198.557 Y-21.803 I-523.319 J-18.178
X-199.557 Y-26.592 I-16.348 J0.913
X-200.165 Y-26.945 I-0.608 J0.347
G1 X-201.355
G0 Z2.505
X-203.955 Y26.571
Z-0.4
G1 Z-0.7 F700
X-203.948 Y26.575 Z-0.767
X-203.929 Y26.586 Z-0.83
X-203.898 Y26.604 Z-0.887
X-203.858 Y26.629 Z-0.935
X-203.809 Y26.658 Z-0.97
X-203.754 Y26.69 Z-0.992
X-203.697 Y26.724 Z-1
G2 X-202.943 Y26.945 I0.809 J-1.36
G1 X-201.731
X-201.496 Y26.877
X-201.265 Y26.794
X-201.039 Y26.697
X-200.82 Y26.587
X-200.608 Y26.464
X-200.404 Y26.328
X-200.209 Y26.181
X-200.022 Y26.021
X-199.846 Y25.851
X-199.68 Y25.671
X-199.525 Y25.48
X-199.383 Y25.281
X-199.252 Y25.074
X-199.134 Y24.859
X-199.03 Y24.637
X-198.939 Y24.409
X-198.862 Y24.177
X-198.799 Y23.94
X-198.75 Y23.699
X-198.716 Y23.457
G2 X-197.377 Y15.473 I-28.293 J-8.852
X-197.377 Y-21.953 I-490.799 J-18.712
X-198.37 Y-26.606 I-15.284 J0.831
X-198.971 Y-26.945 I-0.6 J0.36
G1 X-200.165
G0 Z2.505
X-202.742 Y26.571
Z-0.4
G1 Z-0.7 F700
X-202.736 Y26.575 Z-0.767
X-202.717 Y26.586 Z-0.83
X-202.686 Y26.604 Z-0.887
X-202.645 Y26.629 Z-0.935
X-202.596 Y26.658 Z-0.97
X-202.542 Y26.69 Z-0.992
X-202.484 Y26.724 Z-1
G2 X-201.731 Y26.945 I0.809 J-1.36
G1 X-200.533
X-200.296 Y26.874
X-200.063 Y26.789
X-199.837 Y26.689
X-199.616 Y26.577
X-199.403 Y26.451
X-199.198 Y26.312
X-199.001 Y26.162
X-198.814 Y26
X-198.637 Y25.827
X-198.471 Y25.643
X-198.316 Y25.45
X-198.173 Y25.248
X-198.042 Y25.038
X-197.924 Y24.82
X-197.82 Y24.596
X-197.729 Y24.365
X-197.652 Y24.13
X-197.59 Y23.89
X-197.542 Y23.648
X-197.509 Y23.402
G2 X-196.143 Y14.793 I-29.947 J-9.167
X-196.181 Y-22.01 I-505.73 J-17.877
X-197.155 Y-26.562 I-15.446 J0.926
X-197.779 Y-26.945 I-0.624 J0.317
G1 X-198.971
G0 Z2.505
X-201.544 Y26.571
Z-0.4
G1 Z-0.7 F700
X-201.538 Y26.575 Z-0.767
X-201.519 Y26.586 Z-0.83
X-201.488 Y26.604 Z-0.887
X-201.447 Y26.629 Z-0.935
X-201.398 Y26.658 Z-0.97
X-201.344 Y26.69 Z-0.992
X-201.286 Y26.724 Z-1
G2 X-200.533 Y26.945 I0.809 J-1.36
G1 X-199.398
X-199.169 Y26.886
X-198.943 Y26.812
X-198.723 Y26.724
X-198.508 Y26.624
X-198.299 Y26.51
X-198.098 Y26.384
X-197.905 Y26.246
X-197.721 Y26.097
X-197.546 Y25.936
X-197.381 Y25.766
X-197.227 Y25.585
X-197.084 Y25.396
X-196.953 Y25.198
X-196.835 Y24.992
X-196.729 Y24.78
X-196.636 Y24.561
X-196.556 Y24.338
X-196.491 Y24.11
X-196.439 Y23.878
X-196.402 Y23.644
G2 X-194.963 Y15.051 I-28.401 J-9.171
X-194.974 Y-21.752 I-496.105 J-18.265
X-195.979 Y-26.589 I-16.618 J0.931
X-196.589 Y-26.945 I-0.61 J0.344
G1 X-197.779
G0 Z2.505
X-200.41 Y26.571
Z-0.4
G1 Z-0.7 F700
X-200.403 Y26.575 Z-0.767
X-200.384 Y26.586 Z-0.83
X-200.354 Y26.604 Z-0.887
X-200.313 Y26.629 Z-0.935
X-200.264 Y26.658 Z-0.97
X-200.209 Y26.69 Z-0.992
X-200.152 Y26.724 Z-1
G2 X-199.398 Y26.945 I0.809 J-1.36
G1 X-198.186
X-197.953 Y26.88
X-197.724 Y26.801
X-197.5 Y26.708
X-197.282 Y26.602
X-197.071 Y26.483
X-196.868 Y26.351
X-196.673 Y26.207
X-196.487 Y26.051
X-196.311 Y25.885
X-196.145 Y25.708
X-195.99 Y25.521
X-195.847 Y25.326
X-195.716 Y25.122
X-195.598 Y24.911
X-195.493 Y24.692
X-195.401 Y24.468
X-195.322 Y24.239
X-195.258 Y24.005
X-195.208 Y23.768
X-195.173 Y23.528
G2 X-193.762 Y14.928 I-29.188 J-9.203
X-193.786 Y-21.874 I-488.599 J-18.088
X-194.791 Y-26.6 I-15.888 J0.909
X-195.395 Y-26.945 I-0.604 J0.354
G1 X-196.589
G0 Z2.505
X-199.198 Y26.571
Z-0.4
G1 Z-0.7 F700
X-199.191 Y26.575 Z-0.767
X-199.172 Y26.586 Z-0.83
X-199.141 Y26.604 Z-0.887
X-199.1 Y26.629 Z-0.935
X-199.052 Y26.658 Z-0.97
X-198.997 Y26.69 Z-0.992
X-198.94 Y26.724 Z-1
G2 X-198.186 Y26.945 I0.809 J-1.36
G1 X-196.988
X-196.753 Y26.878
X-196.523 Y26.797
X-196.298 Y26.702
X-196.079 Y26.593
X-195.867 Y26.471
X-195.663 Y26.337
X-195.468 Y26.191
X-195.281 Y26.033
X-195.105 Y25.865
X-194.939 Y25.685
X-194.784 Y25.497
X-194.641 Y25.299
X-194.51 Y25.093
X-194.391 Y24.879
X-194.286 Y24.659
X-194.194 Y24.432
X-194.117 Y24.201
X-194.053 Y23.965
X-194.003 Y23.726
X-193.969 Y23.484
G2 X-192.566 Y14.882 I-29.54 J-9.232
X-192.595 Y-21.92 I-480.481 J-18.025
X-193.599 Y-26.604 I-15.614 J0.898
X-194.2 Y-26.945 I-0.601 J0.359
G1 X-195.395
G0 Z2.505
X-197.999 Y26.571
Z-0.4
G1 Z-0.7 F700
X-197.993 Y26.575 Z-0.767
X-197.974 Y26.586 Z-0.83
X-197.943 Y26.604 Z-0.887
X-197.902 Y26.629 Z-0.935
X-197.853 Y26.658 Z-0.97
X-197.799 Y26.69 Z-0.992
X-197.742 Y26.724 Z-1
G2 X-196.988 Y26.945 I0.809 J-1.36
G1 X-195.854
X-195.623 Y26.888
X-195.397 Y26.816
X-195.175 Y26.73
X-194.959 Y26.631
X-194.749 Y26.519
X-194.547 Y26.395
X-194.353 Y26.258
X-194.167 Y26.109
X-193.991 Y25.949
X-193.825 Y25.779
X-193.67 Y25.599
X-193.526 Y25.41
X-193.395 Y25.212
X-193.275 Y25.006
X-193.169 Y24.794
X-193.075 Y24.575
X-192.995 Y24.352
X-192.93 Y24.123
X-192.878 Y23.891
X-192.84 Y23.657
G2 X-191.424 Y15.689 I-27.207 J-8.945
X-191.397 Y-21.735 I-452.813 J-19.048
X-192.398 Y-26.588 I-16.633 J0.904
X-193.009 Y-26.945 I-0.61 J0.342
G1 X-194.2
G0 Z2.505
X-196.865 Y26.571
Z-0.4
G1 Z-0.7 F700
X-196.859 Y26.575 Z-0.767
X-196.84 Y26.586 Z-0.83
X-196.809 Y26.604 Z-0.887
X-196.768 Y26.629 Z-0.935
X-196.719 Y26.658 Z-0.97
X-196.665 Y26.69 Z-0.992
X-196.607 Y26.724 Z-1
G2 X-195.854 Y26.945 I0.809 J-1.36
G1 X-194.578
X-194.339 Y26.871
X-194.105 Y26.783
X-193.876 Y26.681
X-193.655 Y26.565
X-193.44 Y26.437
X-193.234 Y26.295
X-193.036 Y26.142
X-192.849 Y25.976
X-192.671 Y25.8
X-192.504 Y25.614
X-192.349 Y25.418
X-192.206 Y25.213
X-192.075 Y25
X-191.958 Y24.779
X-191.854 Y24.551
X-191.763 Y24.318
X-191.687 Y24.08
X-191.626 Y23.838
X-191.579 Y23.592
X-191.546 Y23.344
G2 X-190.169 Y14.735 I-30.367 J-9.275
X-190.214 Y-22.066 I-468.771 J-17.825
X-191.195 Y-26.565 I-15.442 J1.011
X-191.818 Y-26.945 I-0.623 J0.32
G1 X-193.009
G0 Z2.505
X-195.589 Y26.571
Z-0.4
G1 Z-0.7 F700
X-195.583 Y26.575 Z-0.767
X-195.564 Y26.586 Z-0.83
X-195.533 Y26.604 Z-0.887
X-195.492 Y26.629 Z-0.935
X-195.443 Y26.658 Z-0.97
X-195.389 Y26.69 Z-0.992
X-195.331 Y26.724 Z-1
G2 X-194.578 Y26.945 I0.809 J-1.36
G1 X-193.443
X-193.213 Y26.884
X-192.986 Y26.808
X-192.765 Y26.718
X-192.549 Y26.616
X-192.34 Y26.5
X-192.138 Y26.372
X-191.945 Y26.232
X-191.76 Y26.081
X-191.585 Y25.918
X-191.42 Y25.745
X-191.266 Y25.563
X-191.123 Y25.372
X-190.993 Y25.172
X-190.874 Y24.964
X-190.768 Y24.75
X-190.676 Y24.53
X-190.597 Y24.305
X-190.532 Y24.075
X-190.481 Y23.842
X-190.444 Y23.606
G2 X-188.991 Y15.014 I-28.718 J-9.274
X-189.005 Y-21.787 I-460.262 J-18.235
X-190.018 Y-26.592 I-16.662 J1.005
X-190.626 Y-26.945 I-0.608 J0.346
G1 X-191.818
G0 Z2.505
X-194.455 Y26.571
Z-0.4
G1 Z-0.7 F700
X-194.448 Y26.575 Z-0.767
X-194.429 Y26.586 Z-0.83
X-194.398 Y26.604 Z-0.887
X-194.358 Y26.629 Z-0.935
X-194.309 Y26.658 Z-0.97
X-194.254 Y26.69 Z-0.992
X-194.197 Y26.724 Z-1
G2 X-193.443 Y26.945 I0.809 J-1.36
G1 X-192.231
X-191.996 Y26.878
X-191.765 Y26.796
X-191.54 Y26.7
X-191.321 Y26.591
X-191.108 Y26.469
X-190.904 Y26.334
X-190.708 Y26.187
X-190.521 Y26.029
X-190.345 Y25.86
X-190.179 Y25.68
X-190.023 Y25.491
X-189.88 Y25.292
X-189.749 Y25.085
X-189.631 Y24.871
X-189.525 Y24.65
X-189.434 Y24.423
X-189.356 Y24.191
X-189.292 Y23.955
X-189.243 Y23.715
X-189.208 Y23.473
G2 X-187.789 Y14.873 I-29.615 J-9.306
X-187.818 Y-21.928 I-454.451 J-18.035
X-188.83 Y-26.604 I-15.784 J0.968
X-189.431 Y-26.945 I-0.601 J0.359
G1 X-190.626
G0 Z2.505
X-193.242 Y26.571
Z-0.4
G1 Z-0.7 F700
X-193.236 Y26.575 Z-0.767
X-193.217 Y26.586 Z-0.83
X-193.186 Y26.604 Z-0.887
X-193.145 Y26.629 Z-0.935
X-193.096 Y26.658 Z-0.97
X-193.042 Y26.69 Z-0.992
X-192.985 Y26.724 Z-1
G2 X-192.231 Y26.945 I0.809 J-1.36
G1 X-191.033
X-190.796 Y26.876
X-190.564 Y26.791
X-190.337 Y26.693
X-190.117 Y26.582
X-189.904 Y26.458
X-189.699 Y26.321
X-189.502 Y26.171
X-189.315 Y26.011
X-189.137 Y25.839
X-188.971 Y25.657
X-188.815 Y25.465
X-188.672 Y25.264
X-188.541 Y25.055
X-188.422 Y24.839
X-188.317 Y24.615
X-188.226 Y24.386
X-188.148 Y24.152
X-188.085 Y23.913
X-188.036 Y23.671
X-188.002 Y23.427
G2 X-186.592 Y14.824 I-30.008 J-9.336
X-186.627 Y-21.976 I-447.933 J-17.97
X-187.723 Y-26.719 I-13.58 J0.64
G1 X-187.871 Y-26.841
X-188.048 Y-26.919
X-188.239 Y-26.945
X-189.431
G0 Z2.505
X-192.044 Y26.571
Z-0.4
G1 Z-0.7 F700
X-192.038 Y26.575 Z-0.767
X-192.019 Y26.586 Z-0.83
X-191.988 Y26.604 Z-0.887
X-191.947 Y26.629 Z-0.935
X-191.898 Y26.658 Z-0.97
X-191.844 Y26.69 Z-0.992
X-191.786 Y26.724 Z-1
G2 X-191.033 Y26.945 I0.809 J-1.36
G1 X-189.899
X-189.668 Y26.887
X-189.442 Y26.814
X-189.221 Y26.727
X-189.005 Y26.628
X-188.796 Y26.515
X-188.595 Y26.39
X-188.401 Y26.252
X-188.216 Y26.103
X-188.04 Y25.943
X-187.875 Y25.773
X-187.72 Y25.593
X-187.577 Y25.403
X-187.445 Y25.206
X-187.325 Y25
X-187.219 Y24.788
X-187.125 Y24.57
X-187.045 Y24.346
X-186.979 Y24.118
X-186.927 Y23.886
X-186.889 Y23.652
G2 X-185.413 Y15.065 I-28.54 J-9.329
X-185.42 Y-21.735 I-440.101 J-18.314
X-186.437 Y-26.589 I-16.884 J1.005
X-187.047 Y-26.945 I-0.61 J0.343
G1 X-188.239
G0 Z2.505
X-190.91 Y26.571
Z-0.4
G1 Z-0.7 F700
X-190.904 Y26.575 Z-0.767
X-190.884 Y26.586 Z-0.83
X-190.854 Y26.604 Z-0.887
X-190.813 Y26.629 Z-0.935
X-190.764 Y26.658 Z-0.97
X-190.71 Y26.69 Z-0.992
X-190.652 Y26.724 Z-1
G2 X-189.899 Y26.945 I0.809 J-1.36
G1 X-188.686
X-188.454 Y26.882
X-188.225 Y26.805
X-188.002 Y26.714
X-187.785 Y26.61
X-187.574 Y26.493
X-187.371 Y26.363
X-187.176 Y26.221
X-186.99 Y26.068
X-186.814 Y25.904
X-186.648 Y25.729
X-186.493 Y25.544
X-186.35 Y25.351
X-186.218 Y25.149
X-186.099 Y24.939
X-185.993 Y24.723
X-185.9 Y24.5
X-185.821 Y24.273
X-185.756 Y24.041
X-185.705 Y23.805
X-185.669 Y23.567
G2 X-184.213 Y14.975 I-29.166 J-9.361
X-184.23 Y-21.825 I-434.793 J-18.19
X-185.247 Y-26.597 I-16.294 J0.977
X-185.852 Y-26.945 I-0.605 J0.351
G1 X-187.047
G0 Z2.505
X-189.698 Y26.571
Z-0.4
G1 Z-0.7 F700
X-189.691 Y26.575 Z-0.767
X-189.672 Y26.586 Z-0.83
X-189.641 Y26.604 Z-0.887
X-189.601 Y26.629 Z-0.935
X-189.552 Y26.658 Z-0.97
X-189.497 Y26.69 Z-0.992
X-189.44 Y26.724 Z-1
G2 X-188.686 Y26.945 I0.809 J-1.36
G1 X-187.488
X-187.254 Y26.881
X-187.025 Y26.802
X-186.801 Y26.709
X-186.583 Y26.603
X-186.372 Y26.484
X-186.168 Y26.352
X-185.973 Y26.209
X-185.787 Y26.053
X-185.61 Y25.887
X-185.444 Y25.711
X-185.289 Y25.524
X-185.145 Y25.329
X-185.014 Y25.125
X-184.895 Y24.914
X-184.789 Y24.696
X-184.696 Y24.472
X-184.617 Y24.242
X-184.552 Y24.009
X-184.502 Y23.772
X-184.466 Y23.532
G2 X-183.016 Y14.938 I-29.451 J-9.386
X-183.038 Y-21.862 I-430.825 J-18.147
X-184.054 Y-26.6 I-16.068 J0.967
X-184.657 Y-26.945 I-0.604 J0.354
G1 X-185.852
G0 Z2.505
X-188.5 Y26.571
Z-0.4
G1 Z-0.7 F700
X-188.493 Y26.575 Z-0.767
X-188.474 Y26.586 Z-0.83
X-188.443 Y26.604 Z-0.887
X-188.402 Y26.629 Z-0.935
X-188.354 Y26.658 Z-0.97
X-188.299 Y26.69 Z-0.992
X-188.242 Y26.724 Z-1
G2 X-187.488 Y26.945 I0.809 J-1.36
G1 X-186.276
X-186.039 Y26.876
X-185.807 Y26.792
X-185.58 Y26.694
X-185.359 Y26.583
X-185.146 Y26.459
X-184.94 Y26.322
X-184.744 Y26.173
X-184.556 Y26.012
X-184.378 Y25.841
X-184.212 Y25.659
X-184.056 Y25.467
X-183.912 Y25.266
X-183.781 Y25.057
X-183.662 Y24.841
X-183.557 Y24.618
X-183.465 Y24.388
X-183.387 Y24.154
X-183.324 Y23.915
X-183.274 Y23.674
X-183.24 Y23.429
G2 X-181.815 Y14.829 I-30.166 J-9.416
G1 X-181.719 Y12.376
X-181.636 Y9.924
X-181.568 Y7.471
X-181.514 Y5.017
X-181.474 Y2.564
X-181.448 Y0.11
X-181.436 Y-2.344
X-181.439 Y-4.798
X-181.455 Y-7.252
X-181.486 Y-9.706
X-181.53 Y-12.16
X-181.589 Y-14.613
X-181.662 Y-17.066
X-181.749 Y-19.519
X-181.851 Y-21.971
G2 X-182.948 Y-26.718 I-13.57 J0.634
G1 X-183.096 Y-26.841
X-183.273 Y-26.919
X-183.464 Y-26.945
X-184.657
G0 Z2.505
X-187.287 Y26.571
Z-0.4
G1 Z-0.7 F700
X-187.281 Y26.575 Z-0.767
X-187.262 Y26.586 Z-0.83
X-187.231 Y26.604 Z-0.887
X-187.19 Y26.629 Z-0.935
X-187.141 Y26.658 Z-0.97
X-187.087 Y26.69 Z-0.992
X-187.029 Y26.724 Z-1
G2 X-186.276 Y26.945 I0.809 J-1.36
G1 X-185.078
X-184.84 Y26.875
X-184.607 Y26.789
X-184.38 Y26.69
X-184.159 Y26.578
X-183.946 Y26.452
X-183.74 Y26.314
X-183.543 Y26.164
X-183.355 Y26.002
X-183.177 Y25.829
X-183.01 Y25.646
X-182.855 Y25.453
X-182.711 Y25.251
X-182.58 Y25.041
X-182.461 Y24.823
X-182.356 Y24.599
X-182.264 Y24.369
X-182.187 Y24.133
X-182.124 Y23.893
X-182.075 Y23.65
X-182.041 Y23.405
G2 X-180.619 Y14.803 I-30.374 J-9.44
X-180.656 Y-21.996 I-422.311 J-17.972
X-181.645 Y-26.562 I-15.676 J1.004
X-182.27 Y-26.945 I-0.624 J0.316
G1 X-183.464
G0 Z2.505
X-186.089 Y26.571
Z-0.4
G1 Z-0.7 F700
X-186.083 Y26.575 Z-0.767
X-186.064 Y26.586 Z-0.83
X-186.033 Y26.604 Z-0.887
X-185.992 Y26.629 Z-0.935
X-185.943 Y26.658 Z-0.97
X-185.889 Y26.69 Z-0.992
X-185.831 Y26.724 Z-1
G2 X-185.078 Y26.945 I0.809 J-1.36
G1 X-183.943
X-183.713 Y26.886
X-183.487 Y26.813
X-183.266 Y26.727
X-183.051 Y26.627
X-182.842 Y26.514
X-182.64 Y26.388
X-182.447 Y26.251
X-182.262 Y26.102
X-182.086 Y25.942
X-181.921 Y25.771
X-181.766 Y25.591
X-181.623 Y25.402
X-181.491 Y25.204
X-181.372 Y24.999
X-181.265 Y24.787
X-181.172 Y24.569
X-181.092 Y24.345
X-181.025 Y24.117
X-180.973 Y23.886
X-180.935 Y23.651
G2 X-179.442 Y15.066 I-28.743 J-9.421
X-179.447 Y-21.732 I-414.022 J-18.337
X-180.467 Y-26.589 I-16.906 J1.014
X-181.077 Y-26.945 I-0.61 J0.343
G1 X-182.27
G0 Z2.505
X-184.955 Y26.571
Z-0.4
G1 Z-0.7 F700
X-184.948 Y26.575 Z-0.767
X-184.929 Y26.586 Z-0.83
X-184.899 Y26.604 Z-0.887
X-184.858 Y26.629 Z-0.935
X-184.809 Y26.658 Z-0.97
X-184.754 Y26.69 Z-0.992
X-184.697 Y26.724 Z-1
G2 X-183.943 Y26.945 I0.809 J-1.36
G1 X-182.731
X-182.498 Y26.882
X-182.269 Y26.804
X-182.046 Y26.713
X-181.828 Y26.608
X-181.617 Y26.49
X-181.414 Y26.36
X-181.219 Y26.217
X-181.032 Y26.063
X-180.856 Y25.898
X-180.69 Y25.723
X-180.535 Y25.537
X-180.391 Y25.343
X-180.259 Y25.141
X-180.14 Y24.93
X-180.034 Y24.713
X-179.941 Y24.49
X-179.862 Y24.262
X-179.797 Y24.029
X-179.746 Y23.793
X-179.71 Y23.554
G2 X-178.241 Y14.964 I-29.42 J-9.452
X-178.259 Y-21.835 I-410.824 J-18.199
X-179.277 Y-26.598 I-16.262 J0.987
X-179.882 Y-26.945 I-0.605 J0.352
G1 X-181.077
G0 Z2.505
X-183.743 Y26.571
Z-0.4
G1 Z-0.7 F700
X-183.736 Y26.575 Z-0.767
X-183.717 Y26.586 Z-0.83
X-183.686 Y26.604 Z-0.887
X-183.645 Y26.629 Z-0.935
X-183.597 Y26.658 Z-0.97
X-183.542 Y26.69 Z-0.992
X-183.485 Y26.724 Z-1
G2 X-182.731 Y26.945 I0.809 J-1.36
G1 X-181.533
X-181.299 Y26.88
X-181.069 Y26.801
X-180.845 Y26.707
X-180.626 Y26.601
X-180.414 Y26.481
X-180.21 Y26.349
X-180.015 Y26.204
X-179.828 Y26.048
X-179.651 Y25.882
X-179.485 Y25.704
X-179.33 Y25.517
X-179.186 Y25.321
X-179.054 Y25.117
X-178.935 Y24.905
X-178.829 Y24.686
X-178.737 Y24.461
X-178.658 Y24.231
X-178.593 Y23.997
X-178.542 Y23.759
X-178.506 Y23.519
G2 X-177.044 Y14.926 I-29.704 J-9.476
X-177.066 Y-21.872 I-406.164 J-18.152
X-178.084 Y-26.601 I-16.023 J0.973
X-178.687 Y-26.945 I-0.603 J0.355
G1 X-179.882
G0 Z2.505
X-182.544 Y26.571
Z-0.4
G1 Z-0.7 F700
X-182.538 Y26.575 Z-0.767
X-182.519 Y26.586 Z-0.83
X-182.488 Y26.604 Z-0.887
X-182.447 Y26.629 Z-0.935
X-182.398 Y26.658 Z-0.97
X-182.344 Y26.69 Z-0.992
X-182.287 Y26.724 Z-1
G2 X-181.533 Y26.945 I0.809 J-1.36
G1 X-180.321
X-180.083 Y26.875
X-179.851 Y26.791
X-179.623 Y26.693
X-179.403 Y26.581
X-179.189 Y26.456
X-178.983 Y26.319
X-178.786 Y26.169
X-178.598 Y26.008
X-178.42 Y25.836
X-178.253 Y25.653
X-178.097 Y25.461
X-177.953 Y25.26
X-177.821 Y25.05
X-177.703 Y24.833
X-177.597 Y24.609
X-177.505 Y24.379
X-177.428 Y24.144
X-177.364 Y23.905
X-177.315 Y23.662
X-177.281 Y23.417
G2 X-175.842 Y14.819 I-30.408 J-9.506
X-175.878 Y-21.979 I-402.102 J-18.007
X-176.977 Y-26.719 I-13.541 J0.643
G1 X-177.126 Y-26.842
X-177.302 Y-26.919
X-177.493 Y-26.945
X-178.687
G0 Z2.505
X-181.332 Y26.571
Z-0.4
G1 Z-0.7 F700
X-181.326 Y26.575 Z-0.767
X-181.307 Y26.586 Z-0.83
X-181.276 Y26.604 Z-0.887
X-181.235 Y26.629 Z-0.935
X-181.186 Y26.658 Z-0.97
X-181.132 Y26.69 Z-0.992
X-181.074 Y26.724 Z-1
G2 X-180.321 Y26.945 I0.809 J-1.36
G1 X-179.123
X-178.885 Y26.874
X-178.652 Y26.789
X-178.424 Y26.689
X-178.203 Y26.576
X-177.989 Y26.451
X-177.783 Y26.312
X-177.585 Y26.161
X-177.397 Y25.999
X-177.219 Y25.826
X-177.052 Y25.642
X-176.897 Y25.449
X-176.753 Y25.246
X-176.621 Y25.036
X-176.503 Y24.818
X-176.397 Y24.593
X-176.306 Y24.362
X-176.228 Y24.126
X-176.165 Y23.886
X-176.116 Y23.643
X-176.082 Y23.397
G2 X-174.646 Y14.797 I-30.59 J-9.527
X-174.685 Y-22.001 I-398.9 J-17.987
X-175.784 Y-26.72 I-13.415 J0.638
G1 X-175.933 Y-26.842
X-176.108 Y-26.919
X-176.299 Y-26.945
X-177.493
G0 Z2.505
X-180.134 Y26.571
Z-0.4
G1 Z-0.7 F700
X-180.128 Y26.575 Z-0.767
X-180.108 Y26.586 Z-0.83
X-180.078 Y26.604 Z-0.887
X-180.037 Y26.629 Z-0.935
X-179.988 Y26.658 Z-0.97
X-179.934 Y26.69 Z-0.992
X-179.876 Y26.724 Z-1
G2 X-179.123 Y26.945 I0.809 J-1.36
G1 X-177.988
X-177.758 Y26.886
X-177.532 Y26.813
X-177.311 Y26.726
X-177.095 Y26.626
X-176.886 Y26.513
X-176.684 Y26.388
X-176.491 Y26.25
X-176.306 Y26.101
X-176.13 Y25.941
X-175.964 Y25.77
X-175.81 Y25.59
X-175.666 Y25.4
X-175.534 Y25.203
X-175.415 Y24.997
X-175.308 Y24.785
X-175.215 Y24.567
X-175.134 Y24.343
X-175.068 Y24.115
X-175.016 Y23.883
X-174.978 Y23.648
G2 X-173.47 Y15.066 I-28.907 J-9.501
X-173.475 Y-21.732 I-391.322 J-18.349
X-174.496 Y-26.589 I-16.912 J1.02
X-175.106 Y-26.945 I-0.61 J0.344
G1 X-176.299
G0 Z2.505
X-179 Y26.571
Z-0.4
G1 Z-0.7 F700
X-178.993 Y26.575 Z-0.767
X-178.974 Y26.586 Z-0.83
X-178.943 Y26.604 Z-0.887
X-178.903 Y26.629 Z-0.935
X-178.854 Y26.658 Z-0.97
X-178.799 Y26.69 Z-0.992
X-178.742 Y26.724 Z-1
G2 X-177.988 Y26.945 I0.809 J-1.36
G1 X-176.776
X-176.543 Y26.882
X-176.314 Y26.804
X-176.09 Y26.712
X-175.872 Y26.607
X-175.661 Y26.489
X-175.457 Y26.359
X-175.262 Y26.216
X-175.076 Y26.062
X-174.899 Y25.897
X-174.733 Y25.721
X-174.578 Y25.536
X-174.434 Y25.341
X-174.302 Y25.139
X-174.183 Y24.928
X-174.077 Y24.711
X-173.984 Y24.488
X-173.904 Y24.259
X-173.839 Y24.026
X-173.788 Y23.79
X-173.752 Y23.551
G2 X-172.268 Y14.962 I-29.585 J-9.532
X-172.286 Y-21.835 I-388.029 J-18.212
X-173.306 Y-26.598 I-16.258 J0.991
X-173.911 Y-26.945 I-0.605 J0.353
G1 X-175.106
G0 Z2.505
X-177.787 Y26.571
Z-0.4
G1 Z-0.7 F700
X-177.781 Y26.575 Z-0.767
X-177.762 Y26.586 Z-0.83
X-177.731 Y26.604 Z-0.887
X-177.69 Y26.629 Z-0.935
X-177.641 Y26.658 Z-0.97
X-177.587 Y26.69 Z-0.992
X-177.53 Y26.724 Z-1
G2 X-176.776 Y26.945 I0.809 J-1.36
G1 X-175.578
X-175.344 Y26.88
X-175.114 Y26.8
X-174.889 Y26.707
X-174.67 Y26.6
X-174.458 Y26.481
X-174.254 Y26.348
X-174.058 Y26.204
X-173.872 Y26.048
X-173.695 Y25.881
X-173.528 Y25.704
X-173.373 Y25.517
X-173.229 Y25.321
X-173.097 Y25.116
X-172.978 Y24.904
X-172.872 Y24.685
X-172.779 Y24.46
X-172.7 Y24.23
X-172.635 Y23.996
X-172.584 Y23.758
X-172.548 Y23.517
G2 X-171.071 Y14.927 I-29.853 J-9.554
X-171.093 Y-21.87 I-384.236 J-18.168
X-172.112 Y-26.601 I-16.029 J0.977
X-172.715 Y-26.945 I-0.603 J0.355
G1 X-173.911
G0 Z2.505
X-176.589 Y26.571
Z-0.4
G1 Z-0.7 F700
X-176.583 Y26.575 Z-0.767
X-176.564 Y26.586 Z-0.83
X-176.533 Y26.604 Z-0.887
X-176.492 Y26.629 Z-0.935
X-176.443 Y26.658 Z-0.97
X-176.389 Y26.69 Z-0.992
X-176.331 Y26.724 Z-1
G2 X-175.578 Y26.945 I0.809 J-1.36
G1 X-174.366
X-174.128 Y26.875
X-173.895 Y26.791
X-173.668 Y26.693
X-173.447 Y26.581
X-173.233 Y26.457
X-173.027 Y26.319
X-172.83 Y26.17
X-172.642 Y26.009
X-172.464 Y25.836
X-172.296 Y25.654
X-172.14 Y25.462
X-171.996 Y25.26
X-171.865 Y25.051
X-171.746 Y24.834
X-171.64 Y24.61
X-171.548 Y24.38
X-171.47 Y24.145
X-171.406 Y23.906
X-171.357 Y23.663
X-171.322 Y23.418
G2 X-169.869 Y14.821 I-30.542 J-9.583
X-169.904 Y-21.975 I-382.132 J-18.035
X-171.005 Y-26.719 I-13.576 J0.651
G1 X-171.154 Y-26.841
X-171.33 Y-26.919
X-171.521 Y-26.945
X-172.715
G0 Z2.505
X-175.377 Y26.571
Z-0.4
G1 Z-0.7 F700
X-175.37 Y26.575 Z-0.767
X-175.351 Y26.586 Z-0.83
X-175.321 Y26.604 Z-0.887
X-175.28 Y26.629 Z-0.935
X-175.231 Y26.658 Z-0.97
X-175.176 Y26.69 Z-0.992
X-175.119 Y26.724 Z-1
G2 X-174.366 Y26.945 I0.809 J-1.36
G1 X-173.167
X-172.93 Y26.874
X-172.696 Y26.789
X-172.469 Y26.69
X-172.247 Y26.577
X-172.033 Y26.452
X-171.827 Y26.313
X-171.63 Y26.163
X-171.442 Y26.001
X-171.264 Y25.828
X-171.096 Y25.644
X-170.94 Y25.451
X-170.796 Y25.249
X-170.665 Y25.038
X-170.546 Y24.82
X-170.44 Y24.595
X-170.349 Y24.365
X-170.271 Y24.129
X-170.208 Y23.889
X-170.159 Y23.646
X-170.124 Y23.4
G2 X-168.673 Y14.802 I-30.702 J-9.602
X-168.711 Y-21.994 I-378.441 J-18.014
X-169.812 Y-26.72 I-13.451 J0.642
G1 X-169.96 Y-26.842
X-170.136 Y-26.919
X-170.327 Y-26.945
X-171.521
G0 Z2.505
X-174.179 Y26.571
Z-0.4
G1 Z-0.7 F700
X-174.172 Y26.575 Z-0.767
X-174.153 Y26.586 Z-0.83
X-174.123 Y26.604 Z-0.887
X-174.082 Y26.629 Z-0.935
X-174.033 Y26.658 Z-0.97
X-173.978 Y26.69 Z-0.992
X-173.921 Y26.724 Z-1
G2 X-173.167 Y26.945 I0.809 J-1.36
G1 X-172.033
X-171.803 Y26.886
X-171.576 Y26.813
X-171.355 Y26.726
X-171.139 Y26.626
X-170.929 Y26.513
X-170.727 Y26.388
X-170.533 Y26.25
X-170.348 Y26.101
X-170.172 Y25.94
X-170.006 Y25.77
X-169.851 Y25.589
X-169.707 Y25.4
X-169.575 Y25.202
X-169.456 Y24.996
X-169.349 Y24.783
X-169.255 Y24.565
X-169.175 Y24.341
X-169.108 Y24.112
X-169.056 Y23.88
X-169.018 Y23.645
G2 X-167.497 Y15.065 I-29.042 J-9.572
X-167.5 Y-21.732 I-373.008 J-18.364
X-168.524 Y-26.589 I-16.921 J1.028
X-169.134 Y-26.945 I-0.61 J0.344
G1 X-170.327
G0 Z2.505
X-173.045 Y26.571
Z-0.4
G1 Z-0.7 F700
X-173.038 Y26.575 Z-0.767
X-173.019 Y26.586 Z-0.83
X-172.988 Y26.604 Z-0.887
X-172.947 Y26.629 Z-0.935
X-172.899 Y26.658 Z-0.97
X-172.844 Y26.69 Z-0.992
X-172.787 Y26.724 Z-1
G2 X-172.033 Y26.945 I0.809 J-1.36
G1 X-170.821
X-170.588 Y26.882
X-170.359 Y26.805
X-170.135 Y26.713
X-169.917 Y26.609
X-169.706 Y26.491
X-169.502 Y26.361
X-169.307 Y26.219
X-169.121 Y26.065
X-168.944 Y25.9
X-168.778 Y25.725
X-168.622 Y25.54
X-168.478 Y25.346
X-168.346 Y25.144
X-168.227 Y24.934
X-168.121 Y24.717
X-168.027 Y24.494
X-167.948 Y24.266
X-167.883 Y24.033
X-167.831 Y23.797
X-167.794 Y23.558
G2 X-166.296 Y14.972 I-29.662 J-9.602
X-166.311 Y-21.824 I-370.2 J-18.244
X-167.333 Y-26.597 I-16.321 J0.998
X-167.938 Y-26.945 I-0.605 J0.352
G1 X-169.134
G0 Z2.505
X-171.832 Y26.571
Z-0.4
G1 Z-0.7 F700
X-171.826 Y26.575 Z-0.767
X-171.807 Y26.586 Z-0.83
X-171.776 Y26.604 Z-0.887
X-171.735 Y26.629 Z-0.935
X-171.686 Y26.658 Z-0.97
X-171.632 Y26.69 Z-0.992
X-171.574 Y26.724 Z-1
G2 X-170.821 Y26.945 I0.809 J-1.36
G1 X-169.623
X-169.389 Y26.881
X-169.159 Y26.802
X-168.934 Y26.709
X-168.716 Y26.603
X-168.504 Y26.484
X-168.3 Y26.352
X-168.104 Y26.208
X-167.917 Y26.053
X-167.74 Y25.886
X-167.574 Y25.709
X-167.418 Y25.523
X-167.274 Y25.327
X-167.142 Y25.123
X-167.023 Y24.912
X-166.916 Y24.693
X-166.823 Y24.469
X-166.744 Y24.239
X-166.679 Y24.005
X-166.628 Y23.768
X-166.591 Y23.528
G2 X-165.099 Y14.94 I-29.907 J-9.623
X-165.118 Y-21.856 I-368.101 J-18.208
X-166.139 Y-26.6 I-16.12 J0.988
X-166.742 Y-26.945 I-0.604 J0.354
G1 X-167.938
G0 Z2.505
X-170.634 Y26.571
Z-0.4
G1 Z-0.7 F700
X-170.628 Y26.575 Z-0.767
X-170.609 Y26.586 Z-0.83
X-170.578 Y26.604 Z-0.887
X-170.537 Y26.629 Z-0.935
X-170.488 Y26.658 Z-0.97
X-170.434 Y26.69 Z-0.992
X-170.376 Y26.724 Z-1
G2 X-169.623 Y26.945 I0.809 J-1.36
G1 X-168.41
X-168.173 Y26.876
X-167.941 Y26.792
X-167.714 Y26.695
X-167.493 Y26.584
X-167.279 Y26.46
X-167.073 Y26.323
X-166.876 Y26.174
X-166.688 Y26.014
X-166.51 Y25.843
X-166.342 Y25.661
X-166.186 Y25.469
X-166.042 Y25.269
X-165.91 Y25.06
X-165.791 Y24.843
X-165.685 Y24.62
X-165.593 Y24.391
X-165.514 Y24.156
X-165.45 Y23.918
X-165.401 Y23.676
X-165.366 Y23.431
G2 X-163.896 Y14.837 I-30.58 J-9.651
X-163.929 Y-21.958 I-365.371 J-18.075
X-165.058 Y-26.748 I-13.171 J0.577
G1 X-165.202 Y-26.855
X-165.368 Y-26.923
X-165.545 Y-26.945
X-166.742
G0 Z2.505
X-169.422 Y26.571
Z-0.4
G1 Z-0.7 F700
X-169.415 Y26.575 Z-0.767
X-169.396 Y26.586 Z-0.83
X-169.366 Y26.604 Z-0.887
X-169.325 Y26.629 Z-0.935
X-169.276 Y26.658 Z-0.97
X-169.221 Y26.69 Z-0.992
X-169.164 Y26.724 Z-1
G2 X-168.41 Y26.945 I0.809 J-1.36
G1 X-167.212
X-166.975 Y26.875
X-166.742 Y26.791
X-166.514 Y26.692
X-166.293 Y26.58
X-166.079 Y26.455
X-165.873 Y26.318
X-165.676 Y26.168
X-165.488 Y26.007
X-165.31 Y25.834
X-165.142 Y25.652
X-164.986 Y25.459
X-164.842 Y25.258
X-164.71 Y25.048
X-164.591 Y24.831
X-164.486 Y24.606
X-164.394 Y24.376
X-164.316 Y24.141
X-164.252 Y23.902
X-164.202 Y23.659
X-164.168 Y23.414
G2 X-162.7 Y14.819 I-30.729 J-9.669
X-162.735 Y-21.976 I-362.238 J-18.056
X-163.836 Y-26.719 I-13.598 J0.658
G1 X-163.985 Y-26.842
X-164.161 Y-26.919
X-164.352 Y-26.945
X-165.545
G0 Z2.505
X-168.224 Y26.571
Z-0.4
G1 Z-0.7 F700
X-168.217 Y26.575 Z-0.767
X-168.198 Y26.586 Z-0.83
X-168.167 Y26.604 Z-0.887
X-168.127 Y26.629 Z-0.935
X-168.078 Y26.658 Z-0.97
X-168.023 Y26.69 Z-0.992
X-167.966 Y26.724 Z-1
G2 X-167.212 Y26.945 I0.809 J-1.36
G1 X-166.078
X-165.847 Y26.887
X-165.62 Y26.814
X-165.398 Y26.727
X-165.181 Y26.627
X-164.971 Y26.514
X-164.769 Y26.389
X-164.574 Y26.251
X-164.389 Y26.102
X-164.212 Y25.941
X-164.046 Y25.77
X-163.89 Y25.59
X-163.746 Y25.4
X-163.614 Y25.201
X-163.494 Y24.995
X-163.387 Y24.783
X-163.293 Y24.563
X-163.213 Y24.339
X-163.146 Y24.11
X-163.094 Y23.878
X-163.055 Y23.642
G2 X-161.523 Y15.063 I-29.153 J-9.635
X-161.525 Y-21.732 I-357.565 J-18.379
X-162.55 Y-26.589 I-16.944 J1.038
X-163.159 Y-26.945 I-0.61 J0.344
G1 X-164.352
G0 Z2.505
X-167.089 Y26.571
Z-0.4
G1 Z-0.7 F700
X-167.083 Y26.575 Z-0.767
X-167.064 Y26.586 Z-0.83
X-167.033 Y26.604 Z-0.887
X-166.992 Y26.629 Z-0.935
X-166.943 Y26.658 Z-0.97
X-166.889 Y26.69 Z-0.992
X-166.831 Y26.724 Z-1
G2 X-166.078 Y26.945 I0.809 J-1.36
G1 X-164.802
X-164.561 Y26.87
X-164.326 Y26.78
X-164.096 Y26.676
X-163.873 Y26.559
X-163.657 Y26.428
X-163.449 Y26.285
X-163.251 Y26.13
X-163.062 Y25.963
X-162.883 Y25.785
X-162.716 Y25.597
X-162.559 Y25.399
X-162.415 Y25.192
X-162.284 Y24.977
X-162.166 Y24.754
X-162.061 Y24.525
X-161.97 Y24.29
X-161.893 Y24.05
X-161.831 Y23.805
X-161.784 Y23.558
X-161.751 Y23.308
G2 X-160.302 Y14.708 I-31.278 J-9.694
X-160.351 Y-22.087 I-358.1 J-17.918
X-161.455 Y-26.724 I-13.069 J0.661
G1 X-161.603 Y-26.844
X-161.777 Y-26.92
X-161.966 Y-26.945
X-163.159
G0 Z2.505
X-165.813 Y26.571
Z-0.4
G1 Z-0.7 F700
X-165.807 Y26.575 Z-0.767
X-165.788 Y26.586 Z-0.83
X-165.757 Y26.604 Z-0.887
X-165.716 Y26.629 Z-0.935
X-165.667 Y26.658 Z-0.97
X-165.613 Y26.69 Z-0.992
X-165.555 Y26.724 Z-1
G2 X-164.802 Y26.945 I0.809 J-1.36
G1 X-163.668
X-163.436 Y26.883
X-163.208 Y26.806
X-162.986 Y26.716
X-162.769 Y26.613
X-162.559 Y26.496
X-162.356 Y26.367
X-162.162 Y26.226
X-161.976 Y26.074
X-161.8 Y25.91
X-161.635 Y25.737
X-161.48 Y25.553
X-161.336 Y25.361
X-161.205 Y25.16
X-161.085 Y24.951
X-160.979 Y24.736
X-160.886 Y24.515
X-160.806 Y24.288
X-160.741 Y24.057
X-160.689 Y23.823
X-160.652 Y23.586
G2 X-159.128 Y15.004 I-29.493 J-9.663
X-159.137 Y-21.79 I-353.604 J-18.308
X-160.165 Y-26.594 I-16.753 J1.074
X-160.773 Y-26.945 I-0.607 J0.348
G1 X-161.966
G0 Z2.505
X-164.679 Y26.571
Z-0.4
G1 Z-0.7 F700
X-164.672 Y26.575 Z-0.767
X-164.653 Y26.586 Z-0.83
X-164.623 Y26.604 Z-0.887
X-164.582 Y26.629 Z-0.935
X-164.533 Y26.658 Z-0.97
X-164.478 Y26.69 Z-0.992
X-164.421 Y26.724 Z-1
G2 X-163.668 Y26.945 I0.809 J-1.36
G1 X-162.455
X-162.219 Y26.877
X-161.987 Y26.795
X-161.761 Y26.699
X-161.541 Y26.589
X-161.328 Y26.467
X-161.122 Y26.332
X-160.925 Y26.184
X-160.738 Y26.025
X-160.56 Y25.855
X-160.393 Y25.675
X-160.237 Y25.485
X-160.093 Y25.286
X-159.961 Y25.078
X-159.842 Y24.863
X-159.736 Y24.641
X-159.643 Y24.413
X-159.565 Y24.18
X-159.5 Y23.943
X-159.45 Y23.702
X-159.415 Y23.459
G2 X-157.923 Y14.869 I-30.349 J-9.695
X-157.95 Y-21.925 I-352.694 J-18.138
X-158.975 Y-26.605 I-15.909 J1.033
X-159.576 Y-26.945 I-0.6 J0.36
G1 X-160.773
G0 Z2.505
X-163.467 Y26.571
Z-0.4
G1 Z-0.7 F700
X-163.46 Y26.575 Z-0.767
X-163.441 Y26.586 Z-0.83
X-163.41 Y26.604 Z-0.887
X-163.37 Y26.629 Z-0.935
X-163.321 Y26.658 Z-0.97
X-163.266 Y26.69 Z-0.992
X-163.209 Y26.724 Z-1
G2 X-162.455 Y26.945 I0.809 J-1.36
G1 X-161.257
X-161.02 Y26.876
X-160.787 Y26.792
X-160.56 Y26.694
X-160.339 Y26.583
X-160.125 Y26.459
X-159.919 Y26.322
X-159.721 Y26.173
X-159.533 Y26.012
X-159.355 Y25.84
X-159.188 Y25.658
X-159.031 Y25.467
X-158.887 Y25.266
X-158.755 Y25.057
X-158.636 Y24.84
X-158.53 Y24.616
X-158.437 Y24.387
X-158.359 Y24.152
X-158.295 Y23.913
X-158.245 Y23.671
X-158.21 Y23.426
G2 X-156.725 Y14.834 I-30.654 J-9.72
X-156.757 Y-21.96 I-350.054 J-18.096
X-157.865 Y-26.718 I-13.78 J0.701
G1 X-158.014 Y-26.841
X-158.19 Y-26.919
X-158.381 Y-26.945
X-159.576
G0 Z2.505
X-162.269 Y26.571
Z-0.4
G1 Z-0.7 F700
X-162.262 Y26.575 Z-0.767
X-162.243 Y26.586 Z-0.83
X-162.212 Y26.604 Z-0.887
X-162.171 Y26.629 Z-0.935
X-162.123 Y26.658 Z-0.97
X-162.068 Y26.69 Z-0.992
X-162.011 Y26.724 Z-1
G2 X-161.257 Y26.945 I0.809 J-1.36
G1 X-160.123
X-159.891 Y26.887
X-159.663 Y26.814
X-159.441 Y26.728
X-159.223 Y26.628
X-159.013 Y26.514
X-158.81 Y26.389
X-158.614 Y26.251
X-158.428 Y26.101
X-158.251 Y25.941
X-158.084 Y25.769
X-157.928 Y25.588
X-157.784 Y25.398
X-157.651 Y25.199
X-157.531 Y24.993
X-157.423 Y24.779
X-157.329 Y24.56
X-157.248 Y24.335
X-157.182 Y24.105
X-157.129 Y23.872
X-157.091 Y23.636
G2 X-155.547 Y15.059 I-29.208 J-9.686
X-155.547 Y-21.735 I-346.917 J-18.396
X-156.579 Y-26.59 I-17.041 J1.085
X-157.188 Y-26.945 I-0.609 J0.344
G1 X-158.381
G0 Z2.505
X-161.134 Y26.571
Z-0.4
G1 Z-0.7 F700
X-161.128 Y26.575 Z-0.767
X-161.109 Y26.586 Z-0.83
X-161.078 Y26.604 Z-0.887
X-161.037 Y26.629 Z-0.935
X-160.988 Y26.658 Z-0.97
X-160.934 Y26.69 Z-0.992
X-160.876 Y26.724 Z-1
G2 X-160.123 Y26.945 I0.809 J-1.36
G1 X-158.847
X-158.606 Y26.871
X-158.371 Y26.782
X-158.142 Y26.679
X-157.919 Y26.563
X-157.703 Y26.433
X-157.495 Y26.291
X-157.297 Y26.137
X-157.108 Y25.971
X-156.929 Y25.794
X-156.761 Y25.606
X-156.605 Y25.409
X-156.461 Y25.203
X-156.329 Y24.989
X-156.21 Y24.767
X-156.105 Y24.539
X-156.014 Y24.304
X-155.937 Y24.065
X-155.874 Y23.821
X-155.826 Y23.574
X-155.793 Y23.325
G2 X-154.327 Y14.728 I-31.219 J-9.748
X-154.373 Y-22.065 I-346.337 J-17.966
X-155.482 Y-26.723 I-13.27 J0.7
G1 X-155.63 Y-26.843
X-155.805 Y-26.919
X-155.994 Y-26.945
X-157.188
G0 Z2.505
X-159.858 Y26.571
Z-0.4
G1 Z-0.7 F700
X-159.852 Y26.575 Z-0.767
X-159.833 Y26.586 Z-0.83
X-159.802 Y26.604 Z-0.887
X-159.761 Y26.629 Z-0.935
X-159.712 Y26.658 Z-0.97
X-159.658 Y26.69 Z-0.992
X-159.6 Y26.724 Z-1
G2 X-158.847 Y26.945 I0.809 J-1.36
G1 X-157.712
X-157.481 Y26.884
X-157.254 Y26.808
X-157.031 Y26.719
X-156.815 Y26.617
X-156.605 Y26.501
X-156.403 Y26.373
X-156.208 Y26.234
X-156.023 Y26.082
X-155.847 Y25.92
X-155.681 Y25.747
X-155.526 Y25.564
X-155.382 Y25.373
X-155.25 Y25.173
X-155.131 Y24.966
X-155.024 Y24.751
X-154.93 Y24.531
X-154.85 Y24.305
X-154.784 Y24.075
X-154.732 Y23.841
X-154.694 Y23.605
G2 X-153.153 Y15.027 I-29.42 J-9.712
X-153.158 Y-21.767 I-342.408 J-18.353
X-154.192 Y-26.592 I-16.967 J1.113
X-154.8 Y-26.945 I-0.608 J0.347
G1 X-155.994
G0 Z2.505
X-158.724 Y26.571
Z-0.4
G1 Z-0.7 F700
X-158.717 Y26.575 Z-0.767
X-158.698 Y26.586 Z-0.83
X-158.668 Y26.604 Z-0.887
X-158.627 Y26.629 Z-0.935
X-158.578 Y26.658 Z-0.97
X-158.523 Y26.69 Z-0.992
X-158.466 Y26.724 Z-1
G2 X-157.712 Y26.945 I0.809 J-1.36
G1 X-156.5
X-156.264 Y26.879
X-156.033 Y26.798
X-155.807 Y26.703
X-155.588 Y26.595
X-155.375 Y26.473
X-155.17 Y26.34
X-154.973 Y26.194
X-154.786 Y26.036
X-154.608 Y25.867
X-154.441 Y25.688
X-154.285 Y25.5
X-154.14 Y25.302
X-154.008 Y25.096
X-153.889 Y24.882
X-153.782 Y24.661
X-153.689 Y24.435
X-153.61 Y24.203
X-153.545 Y23.967
X-153.495 Y23.727
X-153.459 Y23.485
G2 X-151.949 Y14.899 I-30.245 J-9.745
X-151.972 Y-21.894 I-340.489 J-18.189
X-153.002 Y-26.603 I-16.11 J1.058
X-153.604 Y-26.945 I-0.602 J0.358
G1 X-154.8
G0 Z2.505
X-157.511 Y26.571
Z-0.4
G1 Z-0.7 F700
X-157.505 Y26.575 Z-0.767
X-157.486 Y26.586 Z-0.83
X-157.455 Y26.604 Z-0.887
X-157.414 Y26.629 Z-0.935
X-157.366 Y26.658 Z-0.97
X-157.311 Y26.69 Z-0.992
X-157.254 Y26.724 Z-1
G2 X-156.5 Y26.945 I0.809 J-1.36
G1 X-155.302
X-155.065 Y26.877
X-154.833 Y26.795
X-154.606 Y26.699
X-154.386 Y26.589
X-154.172 Y26.466
X-153.967 Y26.331
X-153.77 Y26.183
X-153.582 Y26.024
X-153.404 Y25.854
X-153.236 Y25.674
X-153.08 Y25.483
X-152.935 Y25.284
X-152.803 Y25.076
X-152.683 Y24.861
X-152.577 Y24.639
X-152.484 Y24.411
X-152.405 Y24.178
X-152.34 Y23.94
X-152.29 Y23.699
X-152.254 Y23.455
G2 X-150.751 Y14.867 I-30.525 J-9.769
G1 X-150.636 Y12.569
X-150.536 Y10.271
X-150.452 Y7.972
X-150.383 Y5.672
X-150.33 Y3.372
X-150.293 Y1.072
X-150.271 Y-1.229
X-150.265 Y-3.53
X-150.274 Y-5.83
X-150.299 Y-8.131
X-150.34 Y-10.431
X-150.397 Y-12.731
X-150.469 Y-15.031
X-150.556 Y-17.33
X-150.659 Y-19.628
X-150.778 Y-21.926
G2 X-151.806 Y-26.606 I-15.908 J1.042
X-152.406 Y-26.945 I-0.6 J0.361
G1 X-153.604
G0 Z2.505
X-156.313 Y26.571
Z-0.4
G1 Z-0.7 F700
X-156.307 Y26.575 Z-0.767
X-156.288 Y26.586 Z-0.83
X-156.257 Y26.604 Z-0.887
X-156.216 Y26.629 Z-0.935
X-156.167 Y26.658 Z-0.97
X-156.113 Y26.69 Z-0.992
X-156.056 Y26.724 Z-1
G2 X-155.302 Y26.945 I0.809 J-1.36
G1 X-154.09
X-153.85 Y26.873
X-153.615 Y26.786
X-153.386 Y26.686
X-153.164 Y26.572
X-152.948 Y26.444
X-152.741 Y26.304
X-152.542 Y26.152
X-152.353 Y25.989
X-152.174 Y25.814
X-152.006 Y25.629
X-151.85 Y25.434
X-151.705 Y25.23
X-151.572 Y25.017
X-151.453 Y24.797
X-151.347 Y24.571
X-151.255 Y24.338
X-151.177 Y24.101
X-151.113 Y23.859
X-151.064 Y23.613
X-151.03 Y23.366
G2 X-149.549 Y14.772 I-31.179 J-9.799
G1 X-149.434 Y12.474
X-149.334 Y10.176
X-149.25 Y7.877
X-149.182 Y5.577
X-149.13 Y3.277
X-149.093 Y0.977
X-149.072 Y-1.324
X-149.066 Y-3.625
X-149.077 Y-5.925
X-149.103 Y-8.226
X-149.145 Y-10.526
X-149.202 Y-12.826
X-149.275 Y-15.126
X-149.364 Y-17.425
X-149.469 Y-19.723
X-149.589 Y-22.02
G2 X-150.699 Y-26.722 I-13.383 J0.677
G1 X-150.847 Y-26.843
X-151.023 Y-26.919
X-151.212 Y-26.945
X-152.406
G0 Z2.505
X-155.101 Y26.571
Z-0.4
G1 Z-0.7 F700
X-155.095 Y26.575 Z-0.767
X-155.076 Y26.586 Z-0.83
X-155.045 Y26.604 Z-0.887
X-155.004 Y26.629 Z-0.935
X-154.955 Y26.658 Z-0.97
X-154.901 Y26.69 Z-0.992
X-154.843 Y26.724 Z-1
G2 X-154.09 Y26.945 I0.809 J-1.36
G1 X-152.892
X-152.652 Y26.873
X-152.418 Y26.786
X-152.189 Y26.685
X-151.966 Y26.57
X-151.751 Y26.443
X-151.544 Y26.302
X-151.345 Y26.15
X-151.156 Y25.986
X-150.977 Y25.811
X-150.809 Y25.625
X-150.653 Y25.43
X-150.508 Y25.226
X-150.376 Y25.014
X-150.257 Y24.794
X-150.151 Y24.567
X-150.059 Y24.334
X-149.981 Y24.096
X-149.918 Y23.854
X-149.869 Y23.609
X-149.835 Y23.361
G2 X-148.353 Y14.767 I-31.258 J-9.814
G1 X-148.237 Y12.47
X-148.137 Y10.171
X-148.053 Y7.872
X-147.984 Y5.572
X-147.931 Y3.272
X-147.894 Y0.972
X-147.873 Y-1.329
X-147.868 Y-3.629
X-147.878 Y-5.93
X-147.904 Y-8.231
X-147.946 Y-10.531
X-148.004 Y-12.831
X-148.078 Y-15.13
X-148.168 Y-17.429
X-148.273 Y-19.727
X-148.394 Y-22.025
G2 X-149.504 Y-26.722 I-13.348 J0.674
G1 X-149.652 Y-26.843
X-149.827 Y-26.919
X-150.017 Y-26.945
X-151.212
G0 Z2.505
X-153.903 Y26.571
Z-0.4
G1 Z-0.7 F700
X-153.896 Y26.575 Z-0.767
X-153.877 Y26.586 Z-0.83
X-153.847 Y26.604 Z-0.887
X-153.806 Y26.629 Z-0.935
X-153.757 Y26.658 Z-0.97
X-153.702 Y26.69 Z-0.992
X-153.645 Y26.724 Z-1
G2 X-152.892 Y26.945 I0.809 J-1.36
G1 X-151.757
X-151.526 Y26.886
X-151.3 Y26.812
X-151.078 Y26.725
X-150.862 Y26.624
X-150.652 Y26.51
X-150.45 Y26.384
X-150.256 Y26.246
X-150.07 Y26.097
X-149.894 Y25.936
X-149.728 Y25.765
X-149.573 Y25.584
X-149.429 Y25.394
X-149.297 Y25.196
X-149.177 Y24.99
X-149.07 Y24.777
X-148.976 Y24.558
X-148.895 Y24.334
X-148.828 Y24.105
X-148.775 Y23.873
X-148.737 Y23.638
G2 X-147.18 Y15.062 I-29.396 J-9.765
X-147.179 Y-21.73 I-330.393 J-18.408
X-148.213 Y-26.59 I-17.071 J1.093
X-148.822 Y-26.945 I-0.609 J0.344
G1 X-150.017
G0 Z2.505
X-152.769 Y26.571
Z-0.4
G1 Z-0.7 F700
X-152.762 Y26.575 Z-0.767
X-152.743 Y26.586 Z-0.83
X-152.712 Y26.604 Z-0.887
X-152.672 Y26.629 Z-0.935
X-152.623 Y26.658 Z-0.97
X-152.568 Y26.69 Z-0.992
X-152.511 Y26.724 Z-1
G2 X-151.757 Y26.945 I0.809 J-1.36
G1 X-150.545
X-150.311 Y26.881
X-150.081 Y26.803
X-149.856 Y26.711
X-149.638 Y26.605
X-149.426 Y26.487
X-149.222 Y26.356
X-149.026 Y26.212
X-148.839 Y26.058
X-148.661 Y25.892
X-148.494 Y25.716
X-148.339 Y25.53
X-148.194 Y25.334
X-148.062 Y25.131
X-147.942 Y24.92
X-147.835 Y24.702
X-147.742 Y24.478
X-147.662 Y24.249
X-147.596 Y24.015
X-147.545 Y23.778
X-147.508 Y23.538
G2 X-145.976 Y14.956 I-30.083 J-9.796
X-145.99 Y-21.836 I-328.843 J-18.275
X-147.021 Y-26.599 I-16.373 J1.052
X-147.626 Y-26.945 I-0.604 J0.353
G1 X-148.822
G0 Z2.505
X-151.556 Y26.571
Z-0.4
G1 Z-0.7 F700
X-151.55 Y26.575 Z-0.767
X-151.531 Y26.586 Z-0.83
X-151.5 Y26.604 Z-0.887
X-151.459 Y26.629 Z-0.935
X-151.41 Y26.658 Z-0.97
X-151.356 Y26.69 Z-0.992
X-151.298 Y26.724 Z-1
G2 X-150.545 Y26.945 I0.809 J-1.36
G1 X-149.347
X-149.112 Y26.88
X-148.881 Y26.8
X-148.656 Y26.707
X-148.437 Y26.6
X-148.224 Y26.48
X-148.02 Y26.348
X-147.823 Y26.203
X-147.636 Y26.047
X-147.458 Y25.88
X-147.291 Y25.703
X-147.135 Y25.515
X-146.99 Y25.319
X-146.858 Y25.114
X-146.738 Y24.902
X-146.631 Y24.682
X-146.538 Y24.457
X-146.458 Y24.227
X-146.393 Y23.992
X-146.342 Y23.753
X-146.305 Y23.512
G2 X-144.779 Y14.929 I-30.303 J-9.814
X-144.796 Y-21.863 I-326.87 J-18.244
X-145.826 Y-26.601 I-16.187 J1.036
X-146.429 Y-26.945 I-0.603 J0.355
G1 X-147.626
G0 Z2.505
X-150.358 Y26.571
Z-0.4
G1 Z-0.7 F700
X-150.352 Y26.575 Z-0.767
X-150.333 Y26.586 Z-0.83
X-150.302 Y26.604 Z-0.887
X-150.261 Y26.629 Z-0.935
X-150.212 Y26.658 Z-0.97
X-150.158 Y26.69 Z-0.992
X-150.1 Y26.724 Z-1
G2 X-149.347 Y26.945 I0.809 J-1.36
G1 X-148.134
X-147.897 Y26.876
X-147.664 Y26.792
X-147.436 Y26.694
X-147.214 Y26.583
X-147 Y26.459
X-146.794 Y26.322
X-146.596 Y26.173
X-146.407 Y26.012
X-146.229 Y25.84
X-146.061 Y25.658
X-145.904 Y25.466
X-145.76 Y25.265
X-145.627 Y25.055
X-145.508 Y24.838
X-145.401 Y24.615
X-145.309 Y24.385
X-145.23 Y24.15
X-145.166 Y23.911
X-145.116 Y23.668
X-145.08 Y23.423
G2 X-143.576 Y14.834 I-30.937 J-9.843
G1 X-143.463 Y12.672
X-143.364 Y10.508
X-143.28 Y8.345
X-143.21 Y6.181
X-143.154 Y4.016
X-143.113 Y1.851
X-143.086 Y-0.314
X-143.073 Y-2.48
X-143.075 Y-4.645
X-143.091 Y-6.81
X-143.122 Y-8.975
X-143.167 Y-11.14
X-143.226 Y-13.305
X-143.3 Y-15.469
X-143.388 Y-17.632
X-143.491 Y-19.795
X-143.607 Y-21.957
G2 X-144.744 Y-26.749 I-13.228 J0.608
G1 X-144.887 Y-26.856
X-145.053 Y-26.923
X-145.231 Y-26.945
X-146.429
G0 Z2.505
X-149.146 Y26.571
Z-0.4
G1 Z-0.7 F700
X-149.139 Y26.575 Z-0.767
X-149.12 Y26.586 Z-0.83
X-149.09 Y26.604 Z-0.887
X-149.049 Y26.629 Z-0.935
X-149 Y26.658 Z-0.97
X-148.945 Y26.69 Z-0.992
X-148.888 Y26.724 Z-1
G2 X-148.134 Y26.945 I0.809 J-1.36
G1 X-146.936
X-146.698 Y26.875
X-146.465 Y26.791
X-146.237 Y26.693
X-146.016 Y26.581
X-145.802 Y26.456
X-145.595 Y26.319
X-145.398 Y26.169
X-145.209 Y26.008
X-145.031 Y25.835
X-144.863 Y25.653
X-144.706 Y25.46
X-144.562 Y25.259
X-144.429 Y25.049
X-144.31 Y24.832
X-144.204 Y24.608
X-144.111 Y24.378
X-144.033 Y24.142
X-143.969 Y23.903
X-143.919 Y23.66
X-143.884 Y23.414
G2 X-142.38 Y14.825 I-31.029 J-9.857
G1 X-142.267 Y12.663
X-142.167 Y10.5
X-142.082 Y8.336
X-142.012 Y6.172
X-141.956 Y4.007
X-141.914 Y1.842
X-141.887 Y-0.323
X-141.874 Y-2.488
X-141.876 Y-4.654
X-141.893 Y-6.819
X-141.923 Y-8.984
X-141.969 Y-11.149
X-142.029 Y-13.313
X-142.103 Y-15.477
X-142.192 Y-17.641
X-142.295 Y-19.804
X-142.412 Y-21.966
G2 X-143.521 Y-26.719 I-13.715 J0.693
G1 X-143.669 Y-26.841
X-143.846 Y-26.919
X-144.037 Y-26.945
X-145.231
G0 Z2.505
X-147.948 Y26.571
Z-0.4
G1 Z-0.7 F700
X-147.941 Y26.575 Z-0.767
X-147.922 Y26.586 Z-0.83
X-147.892 Y26.604 Z-0.887
X-147.851 Y26.629 Z-0.935
X-147.802 Y26.658 Z-0.97
X-147.747 Y26.69 Z-0.992
X-147.69 Y26.724 Z-1
G2 X-146.936 Y26.945 I0.809 J-1.36
G1 X-145.802
X-145.57 Y26.887
X-145.342 Y26.814
X-145.12 Y26.727
X-144.902 Y26.627
X-144.692 Y26.514
X-144.488 Y26.388
X-144.293 Y26.25
X-144.106 Y26.101
X-143.929 Y25.94
X-143.763 Y25.769
X-143.606 Y25.588
X-143.462 Y25.397
X-143.329 Y25.198
X-143.208 Y24.992
X-143.101 Y24.778
X-143.007 Y24.558
X-142.926 Y24.333
X-142.859 Y24.104
X-142.806 Y23.871
X-142.768 Y23.635
G2 X-141.203 Y15.06 I-29.471 J-9.809
X-141.2 Y-21.731 I-320.476 J-18.417
X-142.234 Y-26.59 I-17.032 J1.082
X-142.843 Y-26.945 I-0.61 J0.344
G1 X-144.037
G0 Z2.505
X-146.813 Y26.571
Z-0.4
G1 Z-0.7 F700
X-146.807 Y26.575 Z-0.767
X-146.788 Y26.586 Z-0.83
X-146.757 Y26.604 Z-0.887
X-146.716 Y26.629 Z-0.935
X-146.668 Y26.658 Z-0.97
X-146.613 Y26.69 Z-0.992
X-146.556 Y26.724 Z-1
G2 X-145.802 Y26.945 I0.809 J-1.36
G1 X-144.526
X-144.286 Y26.871
X-144.05 Y26.782
X-143.82 Y26.679
X-143.597 Y26.563
X-143.382 Y26.433
X-143.174 Y26.291
X-142.975 Y26.136
X-142.786 Y25.97
X-142.607 Y25.793
X-142.439 Y25.606
X-142.283 Y25.409
X-142.138 Y25.203
X-142.006 Y24.989
X-141.888 Y24.767
X-141.782 Y24.538
X-141.691 Y24.304
X-141.614 Y24.064
X-141.551 Y23.821
X-141.503 Y23.574
X-141.469 Y23.324
G2 X-139.982 Y14.73 I-31.481 J-9.876
X-140.027 Y-22.06 I-320.096 J-18.002
X-141.137 Y-26.722 I-13.264 J0.694
G1 X-141.285 Y-26.843
X-141.46 Y-26.919
X-141.649 Y-26.945
X-142.843
G0 Z2.505
X-145.537 Y26.571
Z-0.4
G1 Z-0.7 F700
X-145.531 Y26.575 Z-0.767
X-145.512 Y26.586 Z-0.83
X-145.481 Y26.604 Z-0.887
X-145.44 Y26.629 Z-0.935
X-145.391 Y26.658 Z-0.97
X-145.337 Y26.69 Z-0.992
X-145.28 Y26.724 Z-1
G2 X-144.526 Y26.945 I0.809 J-1.36
G1 X-143.392
X-143.16 Y26.884
X-142.933 Y26.808
X-142.71 Y26.719
X-142.494 Y26.617
X-142.284 Y26.501
X-142.081 Y26.373
X-141.886 Y26.234
X-141.701 Y26.082
X-141.525 Y25.92
X-141.359 Y25.747
X-141.203 Y25.564
X-141.059 Y25.373
X-140.927 Y25.173
X-140.808 Y24.965
X-140.701 Y24.751
X-140.607 Y24.53
X-140.527 Y24.305
X-140.46 Y24.074
X-140.408 Y23.841
X-140.37 Y23.604
G2 X-138.809 Y15.029 I-29.656 J-9.83
X-138.811 Y-21.762 I-317.238 J-18.378
X-139.847 Y-26.592 I-16.956 J1.11
X-140.455 Y-26.945 I-0.608 J0.347
G1 X-141.649
G0 Z2.505
X-144.403 Y26.571
Z-0.4
G1 Z-0.7 F700
X-144.397 Y26.575 Z-0.767
X-144.378 Y26.586 Z-0.83
X-144.347 Y26.604 Z-0.887
X-144.306 Y26.629 Z-0.935
X-144.257 Y26.658 Z-0.97
X-144.203 Y26.69 Z-0.992
X-144.145 Y26.724 Z-1
G2 X-143.392 Y26.945 I0.809 J-1.36
G1 X-142.179
X-141.944 Y26.879
X-141.712 Y26.798
X-141.486 Y26.703
X-141.266 Y26.595
X-141.053 Y26.474
X-140.848 Y26.34
X-140.651 Y26.194
X-140.464 Y26.037
X-140.286 Y25.868
X-140.119 Y25.689
X-139.962 Y25.501
X-139.818 Y25.303
X-139.685 Y25.097
X-139.566 Y24.883
X-139.459 Y24.662
X-139.366 Y24.436
X-139.287 Y24.204
X-139.222 Y23.968
X-139.171 Y23.728
X-139.134 Y23.486
G2 X-137.603 Y14.903 I-30.47 J-9.864
X-137.624 Y-21.887 I-316.083 J-18.221
X-138.656 Y-26.603 I-16.107 J1.053
X-139.257 Y-26.945 I-0.602 J0.357
G1 X-140.455
G0 Z2.505
X-143.191 Y26.571
Z-0.4
G1 Z-0.7 F700
X-143.184 Y26.575 Z-0.767
X-143.165 Y26.586 Z-0.83
X-143.135 Y26.604 Z-0.887
X-143.094 Y26.629 Z-0.935
X-143.045 Y26.658 Z-0.97
X-142.99 Y26.69 Z-0.992
X-142.933 Y26.724 Z-1
G2 X-142.179 Y26.945 I0.809 J-1.36
G1 X-140.981
X-140.745 Y26.877
X-140.512 Y26.795
X-140.286 Y26.699
X-140.065 Y26.59
X-139.851 Y26.467
X-139.646 Y26.332
X-139.448 Y26.185
X-139.26 Y26.026
X-139.082 Y25.856
X-138.914 Y25.676
X-138.758 Y25.486
X-138.613 Y25.287
X-138.48 Y25.079
X-138.361 Y24.864
X-138.254 Y24.642
X-138.161 Y24.414
X-138.082 Y24.181
X-138.017 Y23.943
X-137.966 Y23.702
X-137.93 Y23.459
G2 X-136.406 Y14.874 I-30.728 J-9.885
X-136.43 Y-21.916 I-314.452 J-18.19
X-137.46 Y-26.605 I-15.931 J1.042
X-138.06 Y-26.945 I-0.6 J0.36
G1 X-139.257
G0 Z2.505
X-141.993 Y26.571
Z-0.4
G1 Z-0.7 F700
X-141.986 Y26.575 Z-0.767
X-141.967 Y26.586 Z-0.83
X-141.936 Y26.604 Z-0.887
X-141.896 Y26.629 Z-0.935
X-141.847 Y26.658 Z-0.97
X-141.792 Y26.69 Z-0.992
X-141.735 Y26.724 Z-1
G2 X-140.981 Y26.945 I0.809 J-1.36
G1 X-139.769
X-139.529 Y26.873
X-139.295 Y26.787
X-139.066 Y26.687
X-138.843 Y26.573
X-138.628 Y26.446
X-138.42 Y26.307
X-138.222 Y26.155
X-138.032 Y25.992
X-137.853 Y25.817
X-137.685 Y25.632
X-137.528 Y25.438
X-137.383 Y25.234
X-137.25 Y25.022
X-137.131 Y24.802
X-137.025 Y24.576
X-136.932 Y24.344
X-136.854 Y24.106
X-136.79 Y23.865
X-136.741 Y23.62
X-136.706 Y23.372
G2 X-135.203 Y14.782 I-31.364 J-9.916
X-135.24 Y-22.008 I-313.112 J-18.077
X-136.351 Y-26.721 I-13.445 J0.683
G1 X-136.5 Y-26.842
X-136.675 Y-26.919
X-136.865 Y-26.945
X-138.06
G0 Z2.505
X-140.78 Y26.571
Z-0.4
G1 Z-0.7 F700
X-140.774 Y26.575 Z-0.767
X-140.755 Y26.586 Z-0.83
X-140.724 Y26.604 Z-0.887
X-140.683 Y26.629 Z-0.935
X-140.634 Y26.658 Z-0.97
X-140.58 Y26.69 Z-0.992
X-140.522 Y26.724 Z-1
G2 X-139.769 Y26.945 I0.809 J-1.36
G1 X-138.571
X-138.331 Y26.873
X-138.097 Y26.787
X-137.868 Y26.686
X-137.646 Y26.572
X-137.43 Y26.445
X-137.223 Y26.305
X-137.024 Y26.153
X-136.835 Y25.99
X-136.657 Y25.815
X-136.488 Y25.63
X-136.332 Y25.436
X-136.187 Y25.232
X-136.054 Y25.02
X-135.935 Y24.8
X-135.829 Y24.574
X-135.737 Y24.342
X-135.659 Y24.104
X-135.595 Y23.863
X-135.546 Y23.618
X-135.511 Y23.37
G2 X-134.007 Y14.78 I-31.42 J-9.928
X-134.044 Y-22.01 I-311.457 J-18.078
X-135.156 Y-26.721 I-13.425 J0.68
G1 X-135.304 Y-26.842
X-135.479 Y-26.919
X-135.669 Y-26.945
X-136.865
G0 Z2.505
X-139.582 Y26.571
Z-0.4
G1 Z-0.7 F700
X-139.576 Y26.575 Z-0.767
X-139.557 Y26.586 Z-0.83
X-139.526 Y26.604 Z-0.887
X-139.485 Y26.629 Z-0.935
X-139.436 Y26.658 Z-0.97
X-139.382 Y26.69 Z-0.992
X-139.324 Y26.724 Z-1
G2 X-138.571 Y26.945 I0.809 J-1.36
G1 X-137.436
X-137.205 Y26.886
X-136.978 Y26.812
X-136.756 Y26.725
X-136.539 Y26.624
X-136.329 Y26.511
X-136.126 Y26.385
X-135.931 Y26.246
X-135.745 Y26.097
X-135.569 Y25.936
X-135.402 Y25.764
X-135.247 Y25.583
X-135.102 Y25.393
X-134.97 Y25.195
X-134.849 Y24.988
X-134.742 Y24.775
X-134.648 Y24.555
X-134.567 Y24.331
X-134.5 Y24.102
X-134.447 Y23.869
X-134.408 Y23.633
G2 X-132.833 Y15.06 I-29.607 J-9.871
X-132.829 Y-21.729 I-308.959 J-18.428
X-133.865 Y-26.59 I-17.036 J1.091
X-134.475 Y-26.945 I-0.609 J0.345
G1 X-135.669
G0 Z2.505
X-138.26 Y26.626
Z-0.4
G1 Z-0.7 F700
X-138.253 Y26.63 Z-0.767
X-138.234 Y26.641 Z-0.83
X-138.203 Y26.66 Z-0.887
X-138.162 Y26.684 Z-0.935
X-138.114 Y26.713 Z-0.97
X-138.059 Y26.745 Z-0.992
X-138.002 Y26.779 Z-1
G2 X-137.436 Y26.945 I0.607 J-1.02
G1 X-136.224
X-135.99 Y26.882
X-135.761 Y26.804
X-135.536 Y26.713
X-135.318 Y26.608
X-135.106 Y26.491
X-134.902 Y26.36
X-134.706 Y26.218
X-134.519 Y26.064
X-134.342 Y25.899
X-134.175 Y25.723
X-134.018 Y25.538
X-133.874 Y25.344
X-133.741 Y25.141
X-133.621 Y24.931
X-133.514 Y24.713
X-133.42 Y24.49
X-133.34 Y24.261
X-133.274 Y24.028
X-133.222 Y23.792
X-133.185 Y23.552
G2 X-131.631 Y14.974 I-30.194 J-9.901
X-131.64 Y-21.815 I-307.468 J-18.323
X-132.672 Y-26.597 I-16.429 J1.045
X-133.277 Y-26.945 I-0.605 J0.352
G1 X-134.475
G0 Z2.505
X-137.236 Y26.571
Z-0.4
G1 Z-0.7 F700
X-137.229 Y26.575 Z-0.767
X-137.21 Y26.586 Z-0.83
X-137.179 Y26.604 Z-0.887
X-137.139 Y26.629 Z-0.935
X-137.09 Y26.658 Z-0.97
X-137.035 Y26.69 Z-0.992
X-136.978 Y26.724 Z-1
G2 X-136.224 Y26.945 I0.809 J-1.36
G1 X-135.026
X-134.792 Y26.881
X-134.561 Y26.802
X-134.336 Y26.71
X-134.117 Y26.604
X-133.905 Y26.485
X-133.701 Y26.354
X-133.504 Y26.21
X-133.317 Y26.055
X-133.14 Y25.889
X-132.972 Y25.712
X-132.816 Y25.526
X-132.671 Y25.331
X-132.539 Y25.127
X-132.419 Y24.915
X-132.312 Y24.697
X-132.218 Y24.473
X-132.138 Y24.243
X-132.072 Y24.009
X-132.02 Y23.771
X-131.983 Y23.531
G2 X-130.433 Y14.952 I-30.376 J-9.917
X-130.445 Y-21.837 I-306.4 J-18.3
X-131.476 Y-26.599 I-16.29 J1.037
X-132.08 Y-26.945 I-0.604 J0.353
G1 X-133.277
G0 Z2.505
X-136.038 Y26.571
Z-0.4
G1 Z-0.7 F700
X-136.031 Y26.575 Z-0.767
X-136.012 Y26.586 Z-0.83
X-135.981 Y26.604 Z-0.887
X-135.94 Y26.628 Z-0.935
X-135.892 Y26.657 Z-0.97
X-135.837 Y26.69 Z-0.992
X-135.78 Y26.724 Z-1
G2 X-135.026 Y26.945 I0.809 J-1.36
G1 X-133.814
X-133.577 Y26.877
X-133.344 Y26.794
X-133.117 Y26.697
X-132.896 Y26.587
X-132.682 Y26.464
X-132.475 Y26.328
X-132.278 Y26.18
X-132.089 Y26.021
X-131.911 Y25.85
X-131.743 Y25.669
X-131.586 Y25.478
X-131.441 Y25.279
X-131.309 Y25.07
X-131.189 Y24.854
X-131.082 Y24.632
X-130.989 Y24.403
X-130.91 Y24.169
X-130.845 Y23.931
X-130.794 Y23.689
X-130.759 Y23.445
G2 X-129.23 Y14.86 I-30.988 J-9.946
X-129.255 Y-21.929 I-305.302 J-18.189
X-130.283 Y-26.606 I-15.745 J1.006
X-130.882 Y-26.945 I-0.6 J0.361
G1 X-132.08
G0 Z2.505
X-134.825 Y26.571
Z-0.4
G1 Z-0.7 F700
X-134.819 Y26.574 Z-0.767
X-134.8 Y26.586 Z-0.83
X-134.769 Y26.604 Z-0.887
X-134.728 Y26.628 Z-0.935
X-134.679 Y26.657 Z-0.97
X-134.625 Y26.69 Z-0.992
X-134.567 Y26.724 Z-1
G2 X-133.814 Y26.945 I0.809 J-1.36
G1 X-132.616
X-132.378 Y26.876
X-132.146 Y26.793
X-131.918 Y26.696
X-131.697 Y26.586
X-131.483 Y26.462
X-131.277 Y26.326
X-131.079 Y26.177
X-130.891 Y26.017
X-130.713 Y25.846
X-130.545 Y25.665
X-130.388 Y25.474
X-130.243 Y25.274
X-130.111 Y25.065
X-129.991 Y24.849
X-129.885 Y24.626
X-129.792 Y24.397
X-129.713 Y24.163
X-129.648 Y23.924
X-129.597 Y23.682
X-129.562 Y23.438
G2 X-128.034 Y14.853 I-31.064 J-9.957
X-128.06 Y-21.936 I-303.881 J-18.184
X-129.086 Y-26.606 I-15.742 J1.009
X-129.685 Y-26.945 I-0.599 J0.361
G1 X-130.882
G0 Z2.505
X-133.627 Y26.571
Z-0.4
G1 Z-0.7 F700
X-133.621 Y26.574 Z-0.767
X-133.602 Y26.586 Z-0.83
X-133.571 Y26.604 Z-0.887
X-133.53 Y26.628 Z-0.935
X-133.481 Y26.657 Z-0.97
X-133.427 Y26.69 Z-0.992
X-133.369 Y26.724 Z-1
G2 X-132.616 Y26.945 I0.809 J-1.36
G1 X-131.481
X-131.249 Y26.887
X-131.02 Y26.814
X-130.796 Y26.728
X-130.578 Y26.628
X-130.367 Y26.515
X-130.162 Y26.389
X-129.966 Y26.251
X-129.779 Y26.101
X-129.601 Y25.94
X-129.434 Y25.769
X-129.277 Y25.587
X-129.132 Y25.397
X-128.999 Y25.197
X-128.878 Y24.99
X-128.77 Y24.776
X-128.675 Y24.555
X-128.594 Y24.33
X-128.527 Y24.099
X-128.475 Y23.866
X-128.436 Y23.629
G2 X-126.924 Y15.678 I-26.695 J-9.198
X-126.86 Y-21.731 I-287.331 J-19.196
X-127.882 Y-26.589 I-16.704 J0.976
X-128.491 Y-26.945 I-0.609 J0.344
G1 X-129.685
G0 Z2.505
X-132.493 Y26.57
Z-0.4
G1 Z-0.7 F700
X-132.486 Y26.574 Z-0.767
X-132.467 Y26.586 Z-0.83
X-132.437 Y26.604 Z-0.887
X-132.396 Y26.628 Z-0.935
X-132.347 Y26.657 Z-0.97
X-132.292 Y26.69 Z-0.992
X-132.235 Y26.724 Z-1
G2 X-131.481 Y26.945 I0.809 J-1.36
G1 X-130.205
X-129.966 Y26.872
X-129.731 Y26.784
X-129.502 Y26.683
X-129.279 Y26.568
X-129.063 Y26.44
X-128.856 Y26.3
X-128.657 Y26.147
X-128.468 Y25.983
X-128.29 Y25.807
X-128.121 Y25.621
X-127.965 Y25.426
X-127.82 Y25.221
X-127.688 Y25.008
X-127.569 Y24.788
X-127.463 Y24.561
X-127.371 Y24.328
X-127.293 Y24.09
X-127.23 Y23.847
X-127.181 Y23.601
X-127.147 Y23.353
G2 X-125.635 Y14.764 I-31.487 J-9.973
X-125.673 Y-22.024 I-301.579 J-18.077
X-126.783 Y-26.72 I-13.512 J0.714
G1 X-126.931 Y-26.841
X-127.107 Y-26.918
X-127.297 Y-26.945
X-128.491
G0 Z2.505
X-131.217 Y26.57
Z-0.4
G1 Z-0.7 F700
X-131.21 Y26.574 Z-0.767
X-131.191 Y26.586 Z-0.83
X-131.16 Y26.604 Z-0.887
X-131.12 Y26.628 Z-0.935
X-131.071 Y26.657 Z-0.97
X-131.016 Y26.69 Z-0.992
X-130.959 Y26.724 Z-1
G2 X-130.205 Y26.945 I0.809 J-1.36
G1 X-129.071
X-128.84 Y26.885
X-128.613 Y26.811
X-128.391 Y26.723
X-128.175 Y26.622
X-127.965 Y26.508
X-127.763 Y26.382
X-127.568 Y26.243
X-127.383 Y26.093
X-127.207 Y25.932
X-127.041 Y25.761
X-126.885 Y25.58
X-126.741 Y25.39
X-126.609 Y25.191
X-126.489 Y24.985
X-126.381 Y24.772
X-126.287 Y24.553
X-126.207 Y24.328
X-126.14 Y24.099
X-126.087 Y23.866
X-126.048 Y23.631
G2 X-124.462 Y15.06 I-29.647 J-9.917
X-124.456 Y-21.728 I-299.021 J-18.441
X-125.494 Y-26.589 I-17.145 J1.117
X-126.103 Y-26.945 I-0.609 J0.344
G1 X-127.297
G0 Z2.505
X-130.082 Y26.57
Z-0.4
G1 Z-0.7 F700
X-130.076 Y26.574 Z-0.767
X-130.057 Y26.585 Z-0.83
X-130.026 Y26.604 Z-0.887
X-129.985 Y26.628 Z-0.935
X-129.936 Y26.657 Z-0.97
X-129.882 Y26.69 Z-0.992
X-129.824 Y26.724 Z-1
G2 X-129.071 Y26.945 I0.809 J-1.36
G1 X-127.859
X-127.624 Y26.88
X-127.393 Y26.801
X-127.168 Y26.708
X-126.949 Y26.602
X-126.737 Y26.483
X-126.532 Y26.351
X-126.335 Y26.207
X-126.148 Y26.051
X-125.97 Y25.884
X-125.803 Y25.707
X-125.647 Y25.521
X-125.502 Y25.325
X-125.369 Y25.12
X-125.249 Y24.908
X-125.142 Y24.69
X-125.048 Y24.465
X-124.969 Y24.235
X-124.903 Y24
X-124.851 Y23.762
X-124.814 Y23.521
G2 X-123.257 Y14.943 I-30.414 J-9.952
X-123.269 Y-21.845 I-298.245 J-18.301
X-124.302 Y-26.599 I-16.325 J1.059
X-124.906 Y-26.945 I-0.604 J0.354
G1 X-126.103
G0 Z2.505
X-128.87 Y26.57
Z-0.4
G1 Z-0.7 F700
X-128.864 Y26.574 Z-0.767
X-128.845 Y26.585 Z-0.83
X-128.814 Y26.604 Z-0.887
X-128.773 Y26.628 Z-0.935
X-128.724 Y26.657 Z-0.97
X-128.67 Y26.689 Z-0.992
X-128.612 Y26.724 Z-1
G2 X-127.859 Y26.945 I0.809 J-1.36
G1 X-126.66
X-126.425 Y26.879
X-126.194 Y26.798
X-125.968 Y26.705
X-125.748 Y26.597
X-125.535 Y26.477
X-125.33 Y26.344
X-125.133 Y26.198
X-124.945 Y26.042
X-124.767 Y25.874
X-124.599 Y25.695
X-124.443 Y25.507
X-124.298 Y25.31
X-124.165 Y25.105
X-124.045 Y24.892
X-123.938 Y24.672
X-123.844 Y24.446
X-123.764 Y24.214
X-123.699 Y23.979
X-123.647 Y23.739
X-123.61 Y23.498
G2 X-122.059 Y14.918 I-30.641 J-9.971
X-122.074 Y-21.87 I-297.044 J-18.273
X-123.106 Y-26.601 I-16.122 J1.038
X-123.708 Y-26.945 I-0.603 J0.356
G1 X-124.906
G0 Z2.505
X-127.672 Y26.57
Z-0.4
G1 Z-0.7 F700
X-127.665 Y26.574 Z-0.767
X-127.646 Y26.585 Z-0.83
X-127.616 Y26.604 Z-0.887
X-127.575 Y26.628 Z-0.935
X-127.526 Y26.657 Z-0.97
X-127.471 Y26.689 Z-0.992
X-127.414 Y26.723 Z-1
G2 X-126.66 Y26.945 I0.809 J-1.36
G1 X-125.448
X-125.21 Y26.875
X-124.976 Y26.791
X-124.748 Y26.692
X-124.526 Y26.581
X-124.311 Y26.456
X-124.104 Y26.319
X-123.906 Y26.169
X-123.717 Y26.008
X-123.538 Y25.836
X-123.37 Y25.653
X-123.213 Y25.461
X-123.068 Y25.259
X-122.935 Y25.049
X-122.815 Y24.832
X-122.709 Y24.608
X-122.616 Y24.378
X-122.537 Y24.142
X-122.472 Y23.902
X-122.422 Y23.659
X-122.386 Y23.413
G2 X-120.856 Y14.828 I-31.256 J-10.001
X-120.885 Y-21.959 I-296.116 J-18.164
X-121.997 Y-26.718 I-13.702 J0.693
G1 X-122.145 Y-26.84
X-122.322 Y-26.918
X-122.512 Y-26.944
X-123.708 Y-26.945
G0 Z2.505
X-126.46 Y26.57
Z-0.4
G1 Z-0.7 F700
X-126.453 Y26.574 Z-0.767
X-126.434 Y26.585 Z-0.83
X-126.403 Y26.604 Z-0.887
X-126.363 Y26.628 Z-0.935
X-126.314 Y26.657 Z-0.97
X-126.259 Y26.689 Z-0.992
X-126.202 Y26.723 Z-1
G2 X-125.448 Y26.945 I0.809 J-1.36
G1 X-124.25
X-124.012 Y26.874
X-123.778 Y26.79
X-123.55 Y26.692
X-123.329 Y26.58
X-123.114 Y26.455
X-122.907 Y26.318
X-122.709 Y26.168
X-122.52 Y26.007
X-122.341 Y25.834
X-122.173 Y25.652
X-122.017 Y25.459
X-121.872 Y25.258
X-121.739 Y25.048
X-121.619 Y24.83
X-121.513 Y24.606
X-121.42 Y24.376
X-121.341 Y24.14
X-121.276 Y23.901
X-121.226 Y23.657
X-121.191 Y23.412
G2 X-119.66 Y14.827 I-31.305 J-10.012
X-119.688 Y-21.961 I-295.3 J-18.168
X-120.801 Y-26.717 I-13.692 J0.694
G1 X-120.949 Y-26.84
X-121.126 Y-26.918
X-121.316 Y-26.944
X-122.512
G0 Z2.505
X-125.262 Y26.57
Z-0.4
G1 Z-0.7 F700
X-125.255 Y26.574 Z-0.767
X-125.236 Y26.585 Z-0.83
X-125.205 Y26.603 Z-0.887
X-125.164 Y26.628 Z-0.935
X-125.116 Y26.657 Z-0.97
X-125.061 Y26.689 Z-0.992
X-125.004 Y26.723 Z-1
G2 X-124.25 Y26.945 I0.809 J-1.36
G1 X-123.116 Y26.944
X-122.883 Y26.886
X-122.655 Y26.813
X-122.431 Y26.726
X-122.214 Y26.626
X-122.002 Y26.513
X-121.798 Y26.387
X-121.602 Y26.249
X-121.415 Y26.099
X-121.238 Y25.938
X-121.071 Y25.766
X-120.914 Y25.584
X-120.769 Y25.394
X-120.636 Y25.194
X-120.515 Y24.987
X-120.407 Y24.773
X-120.312 Y24.553
X-120.231 Y24.328
X-120.164 Y24.097
X-120.111 Y23.864
X-120.073 Y23.627
G2 X-118.482 Y15.057 I-29.749 J-9.954
X-118.476 Y-21.731 I-293.12 J-18.451
X-119.513 Y-26.589 I-16.954 J1.079
X-120.122 Y-26.944 I-0.609 J0.345
G1 X-121.316
G0 Z2.505
X-124.127 Y26.57
Z-0.4
G1 Z-0.7 F700
X-124.121 Y26.574 Z-0.767
X-124.102 Y26.585 Z-0.83
X-124.071 Y26.603 Z-0.887
X-124.03 Y26.628 Z-0.935
X-123.981 Y26.657 Z-0.97
X-123.927 Y26.689 Z-0.992
X-123.869 Y26.723 Z-1
G2 X-123.116 Y26.944 I0.809 J-1.36
G1 X-121.84
X-121.599 Y26.87
X-121.364 Y26.782
X-121.134 Y26.68
X-120.911 Y26.564
X-120.695 Y26.435
X-120.488 Y26.293
X-120.289 Y26.14
X-120.099 Y25.974
X-119.92 Y25.798
X-119.752 Y25.611
X-119.595 Y25.415
X-119.451 Y25.209
X-119.318 Y24.995
X-119.199 Y24.774
X-119.094 Y24.546
X-119.002 Y24.312
X-118.924 Y24.073
X-118.861 Y23.83
X-118.812 Y23.583
X-118.778 Y23.334
G2 X-117.247 Y14.122 I-31.198 J-9.918
X-117.308 Y-22.042 I-283.009 J-17.603
X-118.414 Y-26.72 I-13.161 J0.639
G1 X-118.562 Y-26.842
X-118.737 Y-26.918
X-118.927 Y-26.944
X-120.122
G0 Z2.505
X-122.851 Y26.57
Z-0.4
G1 Z-0.7 F700
X-122.845 Y26.574 Z-0.767
X-122.826 Y26.585 Z-0.83
X-122.795 Y26.603 Z-0.887
X-122.754 Y26.628 Z-0.935
X-122.705 Y26.657 Z-0.97
X-122.651 Y26.689 Z-0.992
X-122.593 Y26.723 Z-1
G2 X-121.84 Y26.944 I0.809 J-1.36
G1 X-120.705
X-120.474 Y26.883
X-120.247 Y26.809
X-120.024 Y26.72
X-119.808 Y26.618
X-119.598 Y26.504
X-119.395 Y26.377
X-119.2 Y26.237
X-119.014 Y26.087
X-118.838 Y25.925
X-118.672 Y25.753
X-118.516 Y25.571
X-118.372 Y25.38
X-118.24 Y25.181
X-118.12 Y24.974
X-118.012 Y24.76
X-117.918 Y24.54
X-117.838 Y24.315
X-117.771 Y24.085
X-117.718 Y23.852
X-117.679 Y23.615
G2 X-116.089 Y15.045 I-29.82 J-9.968
X-116.084 Y-21.742 I-291.059 J-18.436
X-117.086 Y-26.602 I-23.586 J2.333
X-117.732 Y-26.944 I-0.689 J0.519
G1 X-118.927
G0 Z2.505
X-121.717 Y26.57
Z-0.4
G1 Z-0.7 F700
X-121.71 Y26.574 Z-0.767
X-121.691 Y26.585 Z-0.83
X-121.661 Y26.603 Z-0.887
X-121.62 Y26.627 Z-0.935
X-121.571 Y26.657 Z-0.97
X-121.516 Y26.689 Z-0.992
X-121.459 Y26.723 Z-1
G2 X-120.705 Y26.944 I0.809 J-1.36
G1 X-119.493
X-119.258 Y26.879
X-119.027 Y26.799
X-118.801 Y26.705
X-118.581 Y26.598
X-118.368 Y26.478
X-118.163 Y26.345
X-117.966 Y26.2
X-117.779 Y26.044
X-117.601 Y25.876
X-117.433 Y25.699
X-117.277 Y25.511
X-117.132 Y25.314
X-116.999 Y25.109
X-116.879 Y24.896
X-116.772 Y24.676
X-116.679 Y24.451
X-116.599 Y24.22
X-116.533 Y23.984
X-116.482 Y23.746
X-116.445 Y23.504
G2 X-114.869 Y14.303 I-30.146 J-9.897
X-114.903 Y-21.86 I-280.078 J-17.821
X-115.931 Y-26.6 I-15.969 J0.982
X-116.534 Y-26.944 I-0.603 J0.356
G1 X-117.732
G0 Z2.505
X-120.504 Y26.57
Z-0.4
G1 Z-0.7 F700
X-120.498 Y26.574 Z-0.767
X-120.479 Y26.585 Z-0.83
X-120.448 Y26.603 Z-0.887
X-120.407 Y26.627 Z-0.935
X-120.358 Y26.656 Z-0.97
X-120.304 Y26.689 Z-0.992
X-120.247 Y26.723 Z-1
G2 X-119.493 Y26.944 I0.809 J-1.36
G1 X-118.295
X-118.059 Y26.877
X-117.827 Y26.797
X-117.601 Y26.702
X-117.38 Y26.594
X-117.167 Y26.473
X-116.961 Y26.339
X-116.764 Y26.193
X-116.576 Y26.035
X-116.398 Y25.866
X-116.23 Y25.687
X-116.073 Y25.499
X-115.928 Y25.301
X-115.795 Y25.094
X-115.675 Y24.88
X-115.568 Y24.66
X-115.474 Y24.433
X-115.395 Y24.201
X-115.329 Y23.964
X-115.278 Y23.724
X-115.241 Y23.482
G2 X-113.671 Y14.28 I-30.359 J-9.915
X-113.708 Y-21.884 I-279.168 J-17.795
X-114.734 Y-26.602 I-15.802 J0.966
X-115.336 Y-26.944 I-0.602 J0.358
G1 X-116.534
G0 Z2.505
X-119.306 Y26.57
Z-0.4
G1 Z-0.7 F700
X-119.3 Y26.573 Z-0.767
X-119.281 Y26.585 Z-0.83
X-119.25 Y26.603 Z-0.887
X-119.209 Y26.627 Z-0.935
X-119.16 Y26.656 Z-0.97
X-119.106 Y26.689 Z-0.992
X-119.048 Y26.723 Z-1
G2 X-118.295 Y26.944 I0.809 J-1.36
G1 X-117.083
X-116.844 Y26.874
X-116.61 Y26.789
X-116.381 Y26.69
X-116.159 Y26.578
X-115.944 Y26.453
X-115.737 Y26.315
X-115.538 Y26.164
X-115.349 Y26.002
X-115.17 Y25.83
X-115.001 Y25.646
X-114.844 Y25.453
X-114.699 Y25.251
X-114.566 Y25.04
X-114.446 Y24.822
X-114.339 Y24.597
X-114.246 Y24.366
X-114.168 Y24.13
X-114.103 Y23.89
X-114.053 Y23.646
X-114.017 Y23.4
G2 X-112.468 Y14.192 I-30.95 J-9.944
X-112.518 Y-21.971 I-278.568 J-17.692
X-113.625 Y-26.718 I-13.458 J0.635
G1 X-113.773 Y-26.84
X-113.949 Y-26.917
X-114.14 Y-26.944
X-115.336
G0 Z2.505
X-118.094 Y26.57
Z-0.4
G1 Z-0.7 F700
X-118.088 Y26.573 Z-0.767
X-118.069 Y26.585 Z-0.83
X-118.038 Y26.603 Z-0.887
X-117.997 Y26.627 Z-0.935
X-117.948 Y26.656 Z-0.97
X-117.894 Y26.689 Z-0.992
X-117.836 Y26.723 Z-1
G2 X-117.083 Y26.944 I0.809 J-1.36
G1 X-115.884
X-115.646 Y26.873
X-115.412 Y26.788
X-115.184 Y26.69
X-114.962 Y26.577
X-114.747 Y26.452
X-114.54 Y26.314
X-114.341 Y26.164
X-114.152 Y26.002
X-113.973 Y25.829
X-113.805 Y25.646
X-113.648 Y25.453
X-113.503 Y25.251
X-113.37 Y25.04
X-113.251 Y24.822
X-113.144 Y24.597
X-113.051 Y24.367
X-112.972 Y24.131
X-112.908 Y23.89
X-112.858 Y23.647
X-112.822 Y23.4
G2 X-111.218 Y12.949 I-32.636 J-10.36
X-111.326 Y-21.97 I-270.476 J-16.618
X-112.428 Y-26.717 I-13.345 J0.595
G1 X-112.577 Y-26.84
X-112.753 Y-26.917
X-112.944 Y-26.944
X-114.14
G0 Z2.505
X-116.896 Y26.569
Z-0.4
G1 Z-0.7 F700
X-116.889 Y26.573 Z-0.767
X-116.87 Y26.585 Z-0.83
X-116.84 Y26.603 Z-0.887
X-116.799 Y26.627 Z-0.935
X-116.75 Y26.656 Z-0.97
X-116.695 Y26.689 Z-0.992
X-116.638 Y26.723 Z-1
G2 X-115.884 Y26.944 I0.809 J-1.36
G1 X-114.75
X-114.518 Y26.885
X-114.289 Y26.812
X-114.066 Y26.725
X-113.848 Y26.625
X-113.637 Y26.512
X-113.433 Y26.385
X-113.237 Y26.247
X-113.05 Y26.097
X-112.873 Y25.936
X-112.705 Y25.764
X-112.549 Y25.583
X-112.404 Y25.392
X-112.27 Y25.193
X-112.15 Y24.986
X-112.042 Y24.771
X-111.947 Y24.551
X-111.866 Y24.326
X-111.799 Y24.095
X-111.746 Y23.862
X-111.707 Y23.625
G2 X-110.095 Y14.433 I-29.406 J-9.895
X-110.108 Y-21.73 I-275.833 J-17.985
X-111.14 Y-26.589 I-16.696 J1.005
X-111.749 Y-26.944 I-0.609 J0.345
G1 X-112.944
G0 Z2.505
X-115.762 Y26.569
Z-0.4
G1 Z-0.7 F700
X-115.755 Y26.573 Z-0.767
X-115.736 Y26.585 Z-0.83
X-115.705 Y26.603 Z-0.887
X-115.665 Y26.627 Z-0.935
X-115.616 Y26.656 Z-0.97
X-115.561 Y26.689 Z-0.992
X-115.504 Y26.723 Z-1
G2 X-114.75 Y26.944 I0.809 J-1.36
G1 X-113.474
X-113.234 Y26.869
X-112.998 Y26.781
X-112.768 Y26.678
X-112.545 Y26.562
X-112.329 Y26.433
X-112.121 Y26.291
X-111.922 Y26.137
X-111.732 Y25.971
X-111.553 Y25.794
X-111.385 Y25.607
X-111.228 Y25.41
X-111.083 Y25.204
X-110.951 Y24.99
X-110.832 Y24.768
X-110.726 Y24.54
X-110.634 Y24.306
X-110.556 Y24.066
X-110.493 Y23.823
X-110.444 Y23.576
X-110.41 Y23.326
G2 X-108.872 Y14.115 I-31.325 J-9.966
X-108.935 Y-22.047 I-276.508 J-17.606
X-110.004 Y-26.735 I-15.763 J1.13
G1 X-110.189 Y-26.841
X-110.364 Y-26.918
X-110.553 Y-26.944
X-111.749
G0 Z2.505
X-114.486 Y26.569
Z-0.4
G1 Z-0.7 F700
X-114.479 Y26.573 Z-0.767
X-114.46 Y26.584 Z-0.83
X-114.429 Y26.603 Z-0.887
X-114.388 Y26.627 Z-0.935
X-114.34 Y26.656 Z-0.97
X-114.285 Y26.688 Z-0.992
X-114.228 Y26.723 Z-1
G2 X-113.474 Y26.944 I0.809 J-1.36
G1 X-112.34
X-112.108 Y26.883
X-111.881 Y26.808
X-111.658 Y26.719
X-111.441 Y26.617
X-111.231 Y26.502
X-111.028 Y26.375
X-110.834 Y26.235
X-110.648 Y26.084
X-110.471 Y25.922
