(tail START WITH 10mm OFFSET TO LEFT)
(Machine)
(  vendor: Autodesk)
(  description: Generic 3-axis)
(T1  D=3 CR=0 - ZMIN=-20 - flat end mill)
G90 G94
G17
G21
G28 G91 Z0
G90

(Pocket1)
T1
S18000 M3
G54
G0 X72.592 Y0.794
Z2.3
G18 G2 X72.77 Z2.026 I0.3 K0 F20
G1 X72.828 Y0.791 Z2.007
X72.889 Y0.788 Z2
X83.642 Y0.269 Z1.895
X84.904 Y0.177 Z1.883
X85.883 Y0.001 Z1.873
X84.865 Y-0.183 Z1.863
X80.887 Y-0.421 Z1.824
X72.796 Y-0.794 Z1.745
X35.5 Z1.381
Y0.794 Z1.365
X72.77 Z1.001
X83.642 Y0.269 Z0.895
X84.904 Y0.177 Z0.883
X85.883 Y0.001 Z0.873
X84.865 Y-0.183 Z0.863
X80.887 Y-0.421 Z0.824
X72.796 Y-0.794 Z0.745
X35.5 Z0.381
Y0.794 Z0.365
X72.77 Z0.001
X83.642 Y0.269 Z-0.105
X84.904 Y0.177 Z-0.117
X85.883 Y0.001 Z-0.127
X84.865 Y-0.183 Z-0.137
X80.887 Y-0.421 Z-0.176
X72.796 Y-0.794 Z-0.255
X35.5 Z-0.619
Y0.794 Z-0.635
X72.77 Z-0.999
X83.642 Y0.269 Z-1.105
X84.904 Y0.177 Z-1.117
X85.883 Y0.001 Z-1.127
X84.865 Y-0.183 Z-1.137
X80.887 Y-0.421 Z-1.176
X72.796 Y-0.794 Z-1.255
X35.5 Z-1.619
Y0.794 Z-1.635
X72.77 Z-1.999
X83.642 Y0.269 Z-2.105
X84.904 Y0.177 Z-2.117
X85.883 Y0.001 Z-2.127
X84.865 Y-0.183 Z-2.137
X80.887 Y-0.421 Z-2.176
X72.796 Y-0.794 Z-2.255
X35.5 Z-2.619
Y0.794 Z-2.635
X72.77 Z-2.999
X83.642 Y0.269 Z-3.105
X84.904 Y0.177 Z-3.117
X85.883 Y0.001 Z-3.127
X84.865 Y-0.183 Z-3.137
X80.887 Y-0.421 Z-3.176
X72.796 Y-0.794 Z-3.255
X35.5 Z-3.619
Y0.794 Z-3.635
X72.77 Z-3.999
X83.642 Y0.269 Z-4.105
X84.904 Y0.177 Z-4.117
X85.883 Y0.001 Z-4.127
X84.865 Y-0.183 Z-4.137
X80.887 Y-0.421 Z-4.176
X72.796 Y-0.794 Z-4.255
X35.5 Z-4.619
Y0.794 Z-4.635
X72.77 Z-4.999
X83.642 Y0.269 Z-5.105
X84.904 Y0.177 Z-5.117
X85.883 Y0.001 Z-5.127
X84.865 Y-0.183 Z-5.137
X80.887 Y-0.421 Z-5.176
X72.796 Y-0.794 Z-5.255
X35.5 Z-5.619
Y0.794 Z-5.635
X72.77 Z-5.999
X83.642 Y0.269 Z-6.105
X84.904 Y0.177 Z-6.117
X85.883 Y0.001 Z-6.127
X84.865 Y-0.183 Z-6.137
X80.887 Y-0.421 Z-6.176
X72.796 Y-0.794 Z-6.255
X35.5 Z-6.619
Y0.794 Z-6.635
X72.77 Z-6.999
X83.642 Y0.269 Z-7.105
X84.904 Y0.177 Z-7.117
X85.883 Y0.001 Z-7.127
X84.865 Y-0.183 Z-7.137
X80.887 Y-0.421 Z-7.176
X72.796 Y-0.794 Z-7.255
X35.5 Z-7.619
Y0.794 Z-7.635
X72.77 Z-7.999
X83.642 Y0.269 Z-8.105
X84.904 Y0.177 Z-8.117
X85.883 Y0.001 Z-8.127
X84.865 Y-0.183 Z-8.137
X80.887 Y-0.421 Z-8.176
X72.796 Y-0.794 Z-8.255
X35.5 Z-8.619
Y0.794 Z-8.635
X72.77 Z-8.999
X83.642 Y0.269 Z-9.105
X84.904 Y0.177 Z-9.117
X85.883 Y0.001 Z-9.127
X84.865 Y-0.183 Z-9.137
X80.887 Y-0.421 Z-9.176
X72.796 Y-0.794 Z-9.255
X35.5 Z-9.619
Y0.794 Z-9.635
X72.77 Z-9.999
X72.889 Y0.788 Z-10
X83.642 Y0.269 F50
X84.904 Y0.177
X85.883 Y0.001
X84.865 Y-0.183
X80.887 Y-0.421
X72.796 Y-0.794
X35.5
Y0.794
X72.77
X72.889 Y0.788
G17 G3 X73.662 Y1.251 I0.039 J0.812
G2 X74.436 Y1.715 I0.734 J-0.348
G1 X83.702 Y1.267
X85.03 Y1.171
X91.522 Y0
X84.984 Y-1.177
X80.94 Y-1.42
X72.819 Y-1.794
X34.5
Y1.794
X72.794
X74.436 Y1.715
G3 X75.209 Y2.178 I0.039 J0.812
G2 X75.982 Y2.641 I0.734 J-0.348
G1 X83.763 Y2.265
X85.155 Y2.164
X96.883 Y0.05
X97.07 Y0.006
X94.265 Y-0.522
X85.103 Y-2.172
X80.992 Y-2.419
X72.842 Y-2.794
X33.5
Y2.794
X72.818
X75.982 Y2.641
G3 X76.755 Y3.104 I0.039 J0.812
G2 X77.529 Y3.568 I0.734 J-0.348
G1 X83.823 Y3.264
X85.28 Y3.158
X97.086 Y1.029
X97.723 Y0.88
X100.954 Y0.007
X97.422 Y-0.945
X94.446 Y-1.505
X85.222 Y-3.167
X81.045 Y-3.417
X72.865 Y-3.794
X32.5
Y3.794
X72.843
X77.529 Y3.568
G3 X78.302 Y4.031 I0.039 J0.812
G2 X79.075 Y4.494 I0.734 J-0.348
G1 X83.883 Y4.262
X85.406 Y4.151
X97.289 Y2.009
X97.968 Y1.85
X104.791 Y0.005
X97.645 Y-1.921
X94.627 Y-2.489
X85.341 Y-4.161
X81.098 Y-4.416
X72.888 Y-4.794
X31.5
Y4.794
X72.867
X79.075 Y4.494
G3 X79.848 Y4.957 I0.039 J0.812
G2 X80.622 Y5.421 I0.734 J-0.348
G1 X83.944 Y5.26
X85.531 Y5.145
X97.492 Y2.989
X98.212 Y2.82
X108.628 Y0.004
X97.868 Y-2.896
X94.809 Y-3.472
X85.46 Y-5.156
X81.151 Y-5.415
X72.911 Y-5.794
X30.5
Y5.794
X72.891
X80.622 Y5.421
G3 X81.395 Y5.884 I0.039 J0.812
G2 X82.168 Y6.347 I0.734 J-0.348
G1 X84.004 Y6.258
X85.656 Y6.138
X97.695 Y3.968
X98.457 Y3.789
X112.466 Y0.002
X98.091 Y-3.872
X94.99 Y-4.456
X85.579 Y-6.151
X81.204 Y-6.413
X72.934 Y-6.794
X29.5
Y6.794
X72.915
X82.168 Y6.347
G3 X82.941 Y6.81 I0.039 J0.812
G2 X83.715 Y7.273 I0.734 J-0.348
G1 X84.065 Y7.257
X85.781 Y7.132
X97.898 Y4.948
X98.702 Y4.759
X116.303 Y0.001
X98.314 Y-4.848
X95.171 Y-5.439
X85.698 Y-7.145
X81.257 Y-7.412
X72.957 Y-7.794
X28.5
Y7.794
X72.939
X83.715 Y7.273
G3 X84.484 Y7.728 I0.039 J0.813
G2 X85.259 Y8.172 I0.717 J-0.352
G1 X85.907 Y8.125
X98.101 Y5.927
X98.946 Y5.729
X119.176 Y0.26
X120.113 Y0.039
X120.297 Y0.002
X119.888 Y-0.087
X119.187 Y-0.257
X98.537 Y-5.823
X95.352 Y-6.423
X85.817 Y-8.14
X81.31 Y-8.41
X72.98 Y-8.794
X27.5
Y8.794
X72.963
X84.125 Y8.255
X85.259 Y8.172
G3 X86.028 Y8.595 I0.058 J0.803
G2 X86.817 Y8.977 I0.657 J-0.352
G1 X98.304 Y6.907
X99.191 Y6.699
X119.437 Y1.225
X120.311 Y1.02
X123.235 Y0.43
X123.83 Y0.324
X124.939 Y0.15
X125.627 Y0.006
X122.016 Y-0.655
X121.563 Y-0.745
X120.101 Y-1.064
X119.447 Y-1.223
X98.76 Y-6.799
X95.533 Y-7.406
X85.936 Y-9.135
X81.363 Y-9.409
X73.003 Y-9.794
X26.5
Y9.794
X72.987
X84.185 Y9.253
X86.032 Y9.119
X86.817 Y8.977
G3 X87.644 Y9.336 I0.144 J0.8
G2 X88.471 Y9.695 I0.683 J-0.441
G1 X98.507 Y7.886
X99.436 Y7.668
X119.698 Y2.191
X120.508 Y2
X123.432 Y1.411
X123.984 Y1.312
X125.119 Y1.134
X130.509 Y0.003
X126.405 Y-0.868
X122.196 Y-1.638
X121.776 Y-1.722
X120.314 Y-2.041
X119.707 Y-2.188
X98.983 Y-7.774
X95.714 Y-8.39
X86.055 Y-10.129
X81.416 Y-10.408
X73.026 Y-10.794
X25.5
Y10.794
X73.011
X84.246 Y10.251
X86.157 Y10.112
X88.471 Y9.695
G3 X89.298 Y10.054 I0.144 J0.8
G2 X90.125 Y10.413 I0.683 J-0.441
G1 X98.71 Y8.866
X99.681 Y8.638
X119.959 Y3.156
X120.706 Y2.98
X123.63 Y2.391
X124.139 Y2.3
X125.299 Y2.118
X133 Y0.502
X135.152 Y0.034
X135.314 Y0
X135.21 Y-0.022
X126.599 Y-1.849
X122.376 Y-2.622
X121.989 Y-2.699
X120.526 Y-3.018
X119.968 Y-3.154
X99.206 Y-8.75
X95.895 Y-9.373
X86.174 Y-11.124
X81.469 Y-11.406
X73.049 Y-11.794
X24.5
Y11.794
X73.036
X84.306 Y11.25
X86.283 Y11.106
X90.125 Y10.413
G3 X90.951 Y10.772 I0.144 J0.8
G2 X91.778 Y11.131 I0.683 J-0.441
G1 X98.913 Y9.845
X99.925 Y9.608
X120.22 Y4.122
X120.903 Y3.961
X123.828 Y3.371
X124.293 Y3.288
X125.479 Y3.102
X133.209 Y1.48
X135.364 Y1.011
G3 X136.76 Y0.802 I2.291 J10.535
G1 X142.446 Y0.328
X144.587 Y0.084
X145.234 Y-0.011
X137.414 Y-0.719
X137.063 Y-0.756
X136.332 Y-0.847
X135.417 Y-1
X126.793 Y-2.83
X122.555 Y-3.606
X122.201 Y-3.676
X120.739 Y-3.995
X120.228 Y-4.119
X99.429 Y-9.726
X96.076 Y-10.357
X86.293 Y-12.119
X81.522 Y-12.405
X73.072 Y-12.794
X23.5
Y12.794
X73.06
X84.366 Y12.248
X86.408 Y12.099
X91.778 Y11.131
G3 X92.605 Y11.49 I0.144 J0.8
G2 X93.432 Y11.849 I0.683 J-0.441
G1 X99.116 Y10.825
X100.17 Y10.578
X120.481 Y5.087
X121.101 Y4.941
X124.025 Y4.351
X124.448 Y4.276
X125.659 Y4.086
X133.418 Y2.458
X135.577 Y1.988
G3 X136.843 Y1.799 I2.079 J9.558
G1 X142.544 Y1.323
X144.716 Y1.076
X145.738 Y0.926
X146.388 Y0.852
X151.506 Y0.448
X152.277 Y0.417
X225.5
Y-0.417
X152.277
G3 X151.395 Y-0.457 I0 J-9.781
G1 X137.505 Y-1.715
X137.186 Y-1.749
X136.455 Y-1.839
X135.625 Y-1.978
X126.987 Y-3.811
X122.735 Y-4.589
X122.414 Y-4.654
X120.952 Y-4.972
X120.488 Y-5.085
X99.652 Y-10.701
X96.257 Y-11.34
X86.412 Y-13.113
X81.575 Y-13.404
X73.095 Y-13.794
X22.5
Y13.794
X73.084
X84.427 Y13.246
X86.533 Y13.093
X93.432 Y11.849
G3 X94.259 Y12.208 I0.144 J0.8
G2 X95.085 Y12.567 I0.683 J-0.441
G1 X99.319 Y11.804
X100.415 Y11.547
X120.742 Y6.052
X121.299 Y5.921
X124.223 Y5.332
X124.602 Y5.264
X125.839 Y5.07
X133.627 Y3.436
X135.789 Y2.966
G3 X136.926 Y2.795 I1.866 J8.581
G1 X142.642 Y2.319
X144.846 Y2.068
X145.884 Y1.915
X146.467 Y1.849
X151.585 Y1.445
X152.277 Y1.417
X226.5
Y-1.417
X152.277
G3 X151.485 Y-1.453 I0 J-8.781
G1 X137.595 Y-2.711
X137.309 Y-2.741
X136.577 Y-2.832
X135.833 Y-2.956
X127.18 Y-4.793
X122.915 Y-5.573
X122.627 Y-5.631
X121.165 Y-5.949
X120.748 Y-6.051
X99.875 Y-11.677
X96.438 Y-12.323
X86.531 Y-14.108
X81.628 Y-14.402
X73.118 Y-14.794
X21.5
Y14.794
X73.108
X84.487 Y14.244
X86.659 Y14.087
X95.085 Y12.567
G3 X95.912 Y12.926 I0.144 J0.8
G2 X96.739 Y13.285 I0.683 J-0.441
G1 X99.522 Y12.784
X100.659 Y12.517
X121.003 Y7.018
X121.496 Y6.901
X124.42 Y6.312
X124.756 Y6.252
X126.019 Y6.054
X133.836 Y4.414
X136.002 Y3.943
G3 X137.009 Y3.792 I1.654 J7.604
G1 X142.74 Y3.314
X144.975 Y3.059
X146.029 Y2.905
X146.546 Y2.846
X151.664 Y2.441
X152.277 Y2.417
X227.5
Y-2.417
X152.277
G3 X151.576 Y-2.449 I0 J-7.781
G1 X137.685 Y-3.706
X137.431 Y-3.734
X136.7 Y-3.824
X136.04 Y-3.935
X127.374 Y-5.774
X123.095 Y-6.557
X122.84 Y-6.608
X121.378 Y-6.926
X121.009 Y-7.016
X100.098 Y-12.652
X96.62 Y-13.307
X86.65 Y-15.102
X81.681 Y-15.401
X73.141 Y-15.794
X20.5
Y15.794
X73.132
X84.548 Y15.243
X86.784 Y15.08
X96.739 Y13.285
G3 X97.566 Y13.644 I0.144 J0.8
G2 X98.393 Y14.003 I0.683 J-0.441
G1 X99.725 Y13.763
X100.904 Y13.487
X121.264 Y7.983
X121.694 Y7.882
X124.618 Y7.292
X124.911 Y7.24
X126.199 Y7.038
X134.045 Y5.392
X136.214 Y4.92
G3 X137.092 Y4.788 I1.441 J6.626
G1 X142.838 Y4.309
X145.104 Y4.051
X146.174 Y3.894
X146.625 Y3.843
X151.742 Y3.438
X152.277 Y3.417
X228.5
Y-3.417
X152.277
G3 X151.666 Y-3.445 I0 J-6.781
G1 X137.775 Y-4.702
X137.665 Y-4.713
X137.554 Y-4.726
X136.823 Y-4.816
X136.248 Y-4.913
X127.568 Y-6.755
G3 X121.59 Y-7.903 I14.88 J-93.58
G1 X121.269 Y-7.982
X100.32 Y-13.628
X96.801 Y-14.29
X86.769 Y-16.097
X81.734 Y-16.399
X73.164 Y-16.794
X19.5
Y16.794
X73.156
X84.608 Y16.241
X86.909 Y16.074
X98.393 Y14.003
G3 X99.214 Y14.37 I0.142 J0.786
G2 X100.045 Y14.715 I0.655 J-0.404
G1 X101.149 Y14.457
X121.525 Y8.948
X121.891 Y8.862
X124.816 Y8.273
X125.065 Y8.228
X126.379 Y8.022
X134.254 Y6.37
X136.427 Y5.897
G3 X137.175 Y5.785 I1.229 J5.649
G1 X142.937 Y5.305
X145.234 Y5.043
X146.319 Y4.883
X146.704 Y4.84
X151.821 Y4.435
X152.277 Y4.417
X229.5
Y-4.417
X152.277
G3 X151.756 Y-4.441 I0 J-5.781
G1 X137.865 Y-5.698
X137.771 Y-5.708
X137.677 Y-5.718
X136.946 Y-5.809
X136.455 Y-5.891
X127.762 Y-7.736
G3 X121.803 Y-8.88 I14.719 J-92.721
G1 X121.529 Y-8.947
X100.543 Y-14.604
X96.982 Y-15.274
X86.888 Y-17.092
X81.787 Y-17.398
X73.187 Y-17.794
X18.5
Y17.794
X73.18
X84.668 Y17.239
X87.034 Y17.067
X99.928 Y14.743
X100.045 Y14.715
G3 X100.885 Y15.032 I0.184 J0.785
G2 X101.731 Y15.335 I0.64 J-0.456
G1 X121.786 Y9.914
X122.089 Y9.842
G3 X126.559 Y9.006 I12.185 J52.801
G1 X134.463 Y7.347
X136.639 Y6.874
G3 X137.258 Y6.781 I1.016 J4.672
G1 X143.035 Y6.3
X145.363 Y6.035
X146.465 Y5.873
X146.783 Y5.837
X151.9 Y5.432
X152.277 Y5.417
X230.5
Y-5.417
X152.277
G3 X151.846 Y-5.437 I0 J-4.781
G1 X137.955 Y-6.694
X137.877 Y-6.702
X137.8 Y-6.711
X137.069 Y-6.801
X136.663 Y-6.869
X127.956 Y-8.717
G3 X121.789 Y-9.913 I13.522 J-86.237
G1 X100.766 Y-15.579
X97.163 Y-16.257
X87.007 Y-18.086
X81.84 Y-18.397
X73.21 Y-18.794
X17.5
Y18.794
X73.204
X84.729 Y18.237
X87.16 Y18.061
X100.131 Y15.722
X101.393 Y15.426
X101.731 Y15.335
G3 X102.585 Y15.622 I0.212 J0.784
G2 X103.44 Y15.909 I0.642 J-0.497
G1 X122.047 Y10.879
G3 X126.739 Y9.99 I12.214 J51.668
G1 X134.672 Y8.325
X136.852 Y7.851
G3 X137.341 Y7.778 I0.804 J3.695
G1 X143.133 Y7.295
X145.492 Y7.026
X146.61 Y6.862
X146.861 Y6.834
X151.979 Y6.429
X152.277 Y6.417
X231.5
Y-6.417
X152.277
G3 X151.936 Y-6.433 I0 J-3.781
G1 X138.046 Y-7.69
X137.984 Y-7.696
X137.922 Y-7.703
X137.191 Y-7.794
X136.87 Y-7.848
X128.15 Y-9.698
G3 X122.05 Y-10.878 I13.555 J-86.422
G1 X100.989 Y-16.555
X97.344 Y-17.241
X87.126 Y-19.081
X81.893 Y-19.395
X73.233 Y-19.794
X16.5
Y19.794
X73.229
X84.789 Y19.236
X87.285 Y19.054
X100.334 Y16.702
X101.638 Y16.396
X103.44 Y15.909
G3 X104.294 Y16.196 I0.212 J0.784
G2 X105.149 Y16.483 I0.642 J-0.497
G1 X122.308 Y11.844
G3 X126.919 Y10.974 I12.037 J51.154
G1 X134.881 Y9.303
X137.064 Y8.828
G3 X137.424 Y8.775 I0.591 J2.718
G1 X143.231 Y8.29
G3 X146.94 Y7.831 I52.819 J410.953
G1 X152.058 Y7.426
X152.131 Y7.421
X152.204 Y7.418
X152.277 Y7.417
X232.5
Y-7.417
X152.277
G3 X152.026 Y-7.429 I0 J-2.781
G1 X138.136 Y-8.686
G3 X137.078 Y-8.826 I0.909 J-10.955
G1 X128.343 Y-10.679
G3 X122.31 Y-11.844 I13.63 J-86.834
G1 X101.212 Y-17.53
X97.525 Y-18.224
X87.245 Y-20.076
X81.946 Y-20.394
X73.256 Y-20.794
X15.5
Y20.794
X73.253
X84.849 Y20.234
X87.41 Y20.048
X100.537 Y17.681
X101.883 Y17.366
X105.149 Y16.483
G3 X106.003 Y16.77 I0.212 J0.784
G2 X106.858 Y17.057 I0.642 J-0.497
G1 X122.569 Y12.81
G3 X127.1 Y11.958 I11.874 J50.718
G1 X135.09 Y10.281
G3 X137.507 Y9.771 I4.604 J15.835
G1 X143.329 Y9.286
G3 X147.019 Y8.828 I51.885 J402.802
G1 X152.137 Y8.423
X152.207 Y8.419
X152.277 Y8.417
X233.5
Y-8.417
X152.277
X152.197 Y-8.419
X152.117 Y-8.424
X138.226 Y-9.682
G3 X137.286 Y-9.804 I0.908 J-10.684
G1 X128.537 Y-11.661
G3 X122.57 Y-12.809 I13.684 J-87.144
G1 X101.435 Y-18.506
X97.706 Y-19.208
X87.364 Y-21.07
X81.999 Y-21.393
X73.279 Y-21.794
X14.5
Y21.794
X73.277
X84.91 Y21.232
X87.536 Y21.041
X100.74 Y18.661
X102.127 Y18.335
X106.858 Y17.057
G3 X107.712 Y17.344 I0.212 J0.784
G2 X108.567 Y17.631 I0.642 J-0.497
G1 X122.83 Y13.775
G3 X127.28 Y12.942 I11.674 J50.082
G1 X135.299 Y11.259
X137.489 Y10.783
X137.54 Y10.774
X137.591 Y10.768
X143.427 Y10.281
X145.88 Y10.002
X147.046 Y9.83
X147.098 Y9.824
X152.216 Y9.42
X152.246 Y9.418
X152.277 Y9.417
X234.5
Y-9.417
X152.277
X152.242 Y-9.418
X152.207 Y-9.42
X138.316 Y-10.678
X137.493 Y-10.782
X128.731 Y-12.642
G3 X122.83 Y-13.775 I13.749 J-87.517
G1 X101.658 Y-19.482
X97.887 Y-20.191
X87.483 Y-22.065
X82.052 Y-22.391
X73.302 Y-22.794
X13.5
Y22.794
X73.301
X84.97 Y22.23
X87.661 Y22.035
X100.943 Y19.64
X102.372 Y19.305
X108.567 Y17.631
X108.616 Y17.612 Z-9.978
X108.662 Y17.586 Z-9.956
X108.702 Y17.551 Z-9.934
X108.736 Y17.51 Z-9.912
X108.758 Y17.472 Z-9.806
X108.774 Y17.432 Z-9.7
G0 Z2

(Pocket2)
Z2.012
X145.61 Y9.914
G1 Z2 F20
Z-4.76 F50
X145.615 Y9.916 Z-4.813
X145.633 Y9.92 Z-4.864
X145.66 Y9.927 Z-4.91
X145.697 Y9.937 Z-4.948
X145.741 Y9.948 Z-4.976
X145.79 Y9.961 Z-4.994
X145.842 Y9.974 Z-5
X145.888 Y9.982
X145.935 Y9.983
X148.365 Y9.835
X151.995 Y9.563
X152.277 Y9.552
X231.5
Y9.459
Y7.435
G19 G2 Y7.135 Z-4.7 J0 K0.3
G0 Z2
Y-7.369
Z-4.7
G2 Y-7.669 Z-5 J-0.3 K0 F50
G1 Y-9.449
Y-9.552
X152.277
X152.195 Y-9.553
X152.112 Y-9.556
X152.03 Y-9.56
X146.838 Y-9.901
G17 G2 X146.588 Y-9.793 I-0.02 J0.299
G1 X145.294 Y-8.237
X145.251 Y-8.186 Z-4.992
X145.211 Y-8.137 Z-4.97
X145.174 Y-8.093 Z-4.935
X145.144 Y-8.057 Z-4.887
X145.121 Y-8.029 Z-4.83
X145.107 Y-8.012 Z-4.767
X145.102 Y-8.007 Z-4.7
G0 Z2.013
X113.562 Y16.167
G1 Z2 F20
Z-4.76 F50
X113.568 Z-4.813
X113.585 Y16.169 Z-4.864
X113.614 Y16.171 Z-4.91
X113.652 Y16.174 Z-4.948
X113.697 Y16.177 Z-4.976
X113.748 Y16.181 Z-4.994
X113.801 Y16.186 Z-5
X113.848
X113.895 Y16.178
X122.384 Y14.138
X124.049 Y13.815
X129.876 Y12.866
X137.349 Y11.529
G3 X137.668 Y11.491 I0.49 J2.738
G1 X148.433 Y10.832
X152.07 Y10.56
X152.173 Y10.554
X152.277 Y10.552
X232.5
Y9.427
X232.496 Y9.38
X232.18 Y7.382
X232.169 Y7.316 Z-4.992
X232.159 Y7.253 Z-4.97
X232.151 Y7.197 Z-4.935
X232.143 Y7.15 Z-4.887
X232.137 Y7.115 Z-4.83
X232.134 Y7.093 Z-4.767
X232.133 Y7.086 Z-4.7
G0 Z2
X232.171 Y-7.359
Z-4.73
G1 X232.172 Y-7.366 Z-4.79 F50
X232.175 Y-7.386 Z-4.847
X232.18 Y-7.418 Z-4.898
X232.186 Y-7.46 Z-4.941
X232.194 Y-7.51 Z-4.973
X232.203 Y-7.567 Z-4.993
X232.213 Y-7.626 Z-5
X232.496 Y-9.416
X232.499 Y-9.44
X232.5 Y-9.463
Y-10.552
X152.277
X152.186 Y-10.554
X152.095 Y-10.558
X137.474 Y-11.516
G3 X137.169 Y-11.553 I0.182 J-2.775
G1 X128.418 Y-13.107
G3 X120.922 Y-14.491 I7.382 J-60.985
G1 X113.629 Y-16.243
G2 X113.364 Y-16.18 I-0.07 J0.292
G1 X111.826 Y-14.866
X111.775 Y-14.822 Z-4.992
X111.727 Y-14.781 Z-4.97
X111.683 Y-14.744 Z-4.935
X111.647 Y-14.713 Z-4.887
X111.62 Y-14.69 Z-4.83
X111.603 Y-14.676 Z-4.767
X111.597 Y-14.671 Z-4.7
G0 Z2
X15.516 Y19.653
Z-4.76
G1 X15.514 Y19.658 Z-4.813 F50
X15.509 Y19.675 Z-4.864
X15.5 Y19.702 Z-4.91
X15.488 Y19.739 Z-4.948
X15.474 Y19.782 Z-4.976
X15.458 Y19.83 Z-4.994
X15.442 Y19.881 Z-5
X14.515 Y22.734
X14.507 Y22.764
X14.502 Y22.795
X14.5 Y22.827
Y23.345
X73.285
X77.626 Y23.177
X86.352 Y22.729
X87.709 Y22.604
X100.742 Y20.368
X122.617 Y15.11
X122.696 Y15.093
X124.158 Y14.811
X124.21 Y14.802
X130.045 Y13.851
X137.525 Y12.514
X137.593 Y12.503
X137.661 Y12.495
X137.729 Y12.489
X148.501 Y11.83
X152.144 Y11.557
X152.211 Y11.554
X152.277 Y11.552
X233.5
Y9.443
X233.496 Y9.396
X233.485 Y9.35
X233.467 Y9.307
X232.549 Y7.504
X232.518 Y7.444 Z-4.992
X232.49 Y7.388 Z-4.97
X232.464 Y7.337 Z-4.935
X232.442 Y7.295 Z-4.887
X232.426 Y7.263 Z-4.83
X232.416 Y7.243 Z-4.767
X232.412 Y7.237 Z-4.7
G0 Z2.593
X233.454 Y-9.134
Z2
G1 Z-4.73 F50
X233.455 Y-9.141 Z-4.79
X233.458 Y-9.16 Z-4.847
X233.463 Y-9.192 Z-4.898
X233.47 Y-9.234 Z-4.941
X233.478 Y-9.285 Z-4.973
X233.487 Y-9.341 Z-4.993
X233.496 Y-9.401 Z-5
X233.5 Y-9.448
Y-11.552
X152.277
X152.219 Y-11.553
X152.161 Y-11.556
X137.539 Y-12.514
X137.474 Y-12.519
X137.409 Y-12.527
X137.344 Y-12.538
X128.585 Y-14.093
G3 X121.177 Y-15.458 I7.21 J-59.911
G1 X100.742 Y-20.368
X87.709 Y-22.604
X86.353 Y-22.729
X74.726 Y-23.307
X71.846 Y-23.345
X14.5
Y-22.829
X14.504 Y-22.783
X14.515 Y-22.737
X14.533 Y-22.693
X15.451 Y-20.89
X15.482 Y-20.831 Z-4.992
X15.51 Y-20.774 Z-4.97
X15.536 Y-20.724 Z-4.935
X15.558 Y-20.681 Z-4.887
X15.574 Y-20.65 Z-4.83
X15.584 Y-20.63 Z-4.767
X15.588 Y-20.623 Z-4.7
G0 Z3.387
X13.628 Y22.16
Z2.011
G1 Z2 F20
Z-4.79 F50
X13.625 Y22.166 Z-4.844
X13.615 Y22.185 Z-4.895
X13.6 Y22.215 Z-4.938
X13.58 Y22.253 Z-4.972
X13.557 Y22.298 Z-4.993
X13.533 Y22.347 Z-5
X13.515 Y22.39
X13.504 Y22.436
X13.5 Y22.483
Y24.345
X73.305
X77.671 Y24.176
X86.423 Y23.727
X87.839 Y23.596
X100.944 Y21.348
X122.851 Y16.083
X122.886 Y16.075
X124.348 Y15.793
X130.213 Y14.837
X137.701 Y13.498
X137.745 Y13.492
X137.79 Y13.487
X148.569 Y12.828
X152.219 Y12.555
X152.248 Y12.553
X152.277 Y12.552
X234.5
Y8.943
G2 X234.376 Y8.7 I-0.3 J0
G1 X232.72 Y7.497
X232.666 Y7.458 Z-4.992
X232.615 Y7.421 Z-4.97
X232.569 Y7.387 Z-4.935
X232.531 Y7.359 Z-4.887
X232.502 Y7.338 Z-4.83
X232.484 Y7.325 Z-4.767
X232.478 Y7.321 Z-4.7
G0 Z3.387
X234.372 Y-8.593
Z2.011
G1 Z2 F20
Z-4.79 F50
X234.375 Y-8.599 Z-4.844
X234.385 Y-8.618 Z-4.895
X234.4 Y-8.648 Z-4.938
X234.42 Y-8.687 Z-4.972
X234.443 Y-8.732 Z-4.993
X234.467 Y-8.78 Z-5
X234.485 Y-8.824
X234.496 Y-8.869
X234.5 Y-8.916
Y-12.552
X152.277
X152.226 Y-12.554
X137.604 Y-13.512
X137.561 Y-13.516
X137.519 Y-13.522
X128.752 Y-15.079
X123.966 Y-15.852
X123.918 Y-15.861
X121.398 Y-16.434
X100.944 Y-21.348
X87.839 Y-23.596
X86.424 Y-23.727
X74.757 Y-24.307
X71.853 Y-24.345
X13.5
Y-22.517
G2 X13.624 Y-22.274 I0.3 J0
G1 X15.45 Y-20.947
X15.504 Y-20.908 Z-4.992
X15.556 Y-20.871 Z-4.97
X15.602 Y-20.837 Z-4.935
X15.64 Y-20.809 Z-4.887
X15.669 Y-20.788 Z-4.83
X15.687 Y-20.775 Z-4.767
X15.693 Y-20.771 Z-4.7
G0 Z2.013
X72.98 Y22.705
G1 Z-3 F20
Z-9.76 F50
X72.986 Y22.707 Z-9.813
X73.003 Y22.712 Z-9.864
X73.03 Y22.721 Z-9.91
X73.066 Y22.733 Z-9.948
X73.109 Y22.747 Z-9.976
X73.157 Y22.763 Z-9.994
X73.208 Y22.779 Z-10
X73.254 Y22.79
X73.301 Y22.794
X84.97 Y22.23
X87.661 Y22.035
X100.943 Y19.64
X102.372 Y19.305
X122.83 Y13.775
G3 X127.28 Y12.942 I11.674 J50.082
G1 X135.299 Y11.259
X137.489 Y10.783
X137.54 Y10.774
X137.591 Y10.768
X143.427 Y10.281
X145.88 Y10.002
X147.046 Y9.83
X147.098 Y9.824
X152.216 Y9.42
X152.246 Y9.418
X152.277 Y9.417
X234.5
Y8.902
X234.496 Y8.855
X233.949 Y5.398
X233.938 Y5.332 Z-9.992
X233.928 Y5.269 Z-9.97
X233.92 Y5.213 Z-9.935
X233.912 Y5.166 Z-9.887
X233.907 Y5.131 Z-9.83
X233.903 Y5.109 Z-9.767
X233.902 Y5.101 Z-9.7
G0 Z3.387
X234.372 Y-8.598
Z2.011
G1 Z-3 F20
Z-9.79 F50
X234.375 Y-8.605 Z-9.844
X234.385 Y-8.624 Z-9.895
X234.4 Y-8.653 Z-9.938
X234.42 Y-8.692 Z-9.972
X234.443 Y-8.737 Z-9.993
X234.467 Y-8.786 Z-10
X234.485 Y-8.829
X234.496 Y-8.875
X234.5 Y-8.922
Y-9.417
X152.277
X152.242 Y-9.418
X152.207 Y-9.42
X138.316 Y-10.678
X137.493 Y-10.782
X128.731 Y-12.642
G3 X122.83 Y-13.775 I13.749 J-87.517
G1 X101.658 Y-19.482
X97.887 Y-20.191
X87.483 Y-22.065
X82.052 Y-22.391
X73.302 Y-22.794
X73.258 Y-22.788 Z-9.982
X73.219 Y-22.768 Z-9.963
X73.194 Y-22.741 Z-9.875
G0 Z2.014
X73.005 Y-0.077
Z-7.7
G1 X72.999 Z-7.761 F20
X72.98 Y-0.078 Z-7.819
X72.951 Y-0.079 Z-7.873
X72.911 Y-0.081 Z-7.919
X72.862 Y-0.084 Z-7.956
X72.807 Y-0.087 Z-7.982
X72.759 Z-7.995
X72.709 Z-8
X33.5 Z-8.474
Y0.087 Z-8.476
X72.9 Z-8.952
X74.776 Y0.011 Z-8.975
X72.807 Y-0.087 Z-8.999
X33.5 Z-9.474
Y0.087 Z-9.476
X72.9 Z-9.952
X74.776 Y0.011 Z-9.975
X72.807 Y-0.087 Z-9.999
X33.5 Z-10.474
Y0.087 Z-10.476
X72.9 Z-10.952
X74.776 Y0.011 Z-10.975
X72.807 Y-0.087 Z-10.999
X33.5 Z-11.474
Y0.087 Z-11.476
X72.9 Z-11.952
X74.776 Y0.011 Z-11.975
X72.807 Y-0.087 Z-11.999
X33.5 Z-12.474
Y0.087 Z-12.476
X72.9 Z-12.952
X74.776 Y0.011 Z-12.975
X72.807 Y-0.087 Z-12.999
X33.5 Z-13.474
Y0.087 Z-13.476
X72.9 Z-13.952
X74.776 Y0.011 Z-13.975
X72.807 Y-0.087 Z-13.999
X33.5 Z-14.474
Y0.087 Z-14.476
X72.9 Z-14.952
X74.776 Y0.011 Z-14.975
X72.807 Y-0.087 Z-14.999
X72.709 Z-15
X33.5 F50
Y0.087
X72.9
X74.776 Y0.011
X72.807 Y-0.087
X72.709
G3 X71.959 Y-0.587 I0 J-0.813
G2 X71.209 Y-1.087 I-0.75 J0.313
G1 X32.5
Y1.087
X72.92
X76.717 Y0.933
X82.143 Y0.609
X84.977 Y0.372
X86.829 Y0
X84.883 Y-0.391
X80.872 Y-0.689
X72.832 Y-1.087
X71.209
G3 X70.459 Y-1.587 I0 J-0.813
G2 X69.709 Y-2.087 I-0.75 J0.313
G1 X31.5
Y2.087
X72.94
X76.767 Y1.932
X82.214 Y1.606
X85.117 Y1.364
X91.9 Y-0.001
X85.019 Y-1.384
X80.934 Y-1.688
X72.856 Y-2.087
X69.709
G3 X68.959 Y-2.587 I0 J-0.813
G2 X68.209 Y-3.087 I-0.75 J0.313
G1 X30.5
Y3.087
X72.961
X76.817 Y2.931
X82.286 Y2.604
X85.258 Y2.356
X94.419 Y0.513
X95.745 Y0.206
X96.361 Y0.002
X95.689 Y-0.221
X93.087 Y-0.782
X85.156 Y-2.377
X80.995 Y-2.686
X72.881 Y-3.087
X68.209
G3 X67.459 Y-3.587 I0 J-0.813
G2 X66.709 Y-4.087 I-0.75 J0.313
G1 X29.5
Y4.087
X72.981
X76.867 Y3.929
X82.357 Y3.601
X85.398 Y3.348
X94.63 Y1.49
X96.016 Y1.17
X99.544 Y0.002
X95.952 Y-1.187
X93.291 Y-1.761
X85.292 Y-3.369
X81.057 Y-3.684
X72.906 Y-4.087
X66.709
G3 X65.959 Y-4.587 I0 J-0.813
G2 X65.209 Y-5.087 I-0.75 J0.313
G1 X28.5
Y5.087
X73.001
X76.917 Y4.928
X82.428 Y4.599
X85.539 Y4.339
X94.842 Y2.468
X96.286 Y2.134
X102.727 Y0.001
X96.215 Y-2.153
X93.495 Y-2.74
X85.428 Y-4.362
X81.119 Y-4.682
X72.93 Y-5.087
X65.209
G3 X64.459 Y-5.587 I0 J-0.813
G2 X63.709 Y-6.087 I-0.75 J0.313
G1 X27.5
Y6.087
X73.021
X76.967 Y5.927
X82.5 Y5.596
X85.68 Y5.331
X95.053 Y3.445
X96.557 Y3.097
X105.91 Y0.001
X96.479 Y-3.119
X93.699 Y-3.719
X85.564 Y-5.355
X81.181 Y-5.68
X72.955 Y-6.087
X63.709
G3 X62.959 Y-6.587 I0 J-0.813
G2 X62.209 Y-7.087 I-0.75 J0.313
G1 X26.5
Y7.087
X73.041
X77.017 Y6.926
X82.571 Y6.594
X85.82 Y6.323
X95.264 Y4.423
X96.827 Y4.061
X109.093 Y0.001
X96.742 Y-4.085
X93.903 Y-4.698
X85.7 Y-6.347
X81.242 Y-6.678
X72.98 Y-7.087
X62.209
G3 X61.459 Y-7.587 I0 J-0.813
G2 X60.709 Y-8.087 I-0.75 J0.313
G1 X25.5
Y8.087
X73.062
X77.067 Y7.925
X82.643 Y7.591
X85.961 Y7.315
X95.476 Y5.4
X97.097 Y5.025
X112.276 Y0.001
X97.005 Y-5.052
X94.107 Y-5.677
X85.836 Y-7.34
X81.304 Y-7.677
X73.004 Y-8.087
X60.709
G3 X59.959 Y-8.587 I0 J-0.813
G2 X59.209 Y-9.087 I-0.75 J0.313
G1 X24.5
Y9.087
X73.082
X77.117 Y8.923
X82.714 Y8.589
X86.102 Y8.306
X95.687 Y6.378
X97.368 Y5.989
X115.459 Y0
X97.268 Y-6.018
X94.311 Y-6.656
X85.972 Y-8.333
X81.366 Y-8.675
X73.029 Y-9.087
X59.209
G3 X58.459 Y-9.587 I0 J-0.813
G2 X57.709 Y-10.087 I-0.75 J0.313
G1 X23.5
Y10.087
X73.102
X77.167 Y9.922
X82.785 Y9.586
X86.242 Y9.298
X95.898 Y7.355
X97.638 Y6.953
X118.007 Y0.21
X118.276 Y0.064
X118.396 Y0
X118.275 Y-0.064
X118.007 Y-0.21
X97.532 Y-6.984
X94.515 Y-7.635
X86.108 Y-9.325
X81.427 Y-9.673
X73.054 Y-10.087
X57.709
G3 X56.959 Y-10.587 I0 J-0.813
G2 X56.209 Y-11.087 I-0.75 J0.313
G1 X22.5
Y11.087
X73.122
X77.217 Y10.921
X82.857 Y10.584
X86.383 Y10.29
X96.11 Y8.333
X97.908 Y7.917
X118.405 Y1.132
X118.753 Y0.943
G3 X120.194 Y0.307 I4.66 J8.6
G1 X121.071 Y0.001
X120.18 Y-0.311
G3 X118.752 Y-0.944 I3.233 J-9.232
G1 X118.406 Y-1.131
X97.795 Y-7.95
X94.719 Y-8.614
X86.245 Y-10.318
X81.489 Y-10.671
X73.078 Y-11.087
X56.209
G3 X55.459 Y-11.587 I0 J-0.813
G2 X54.709 Y-12.087 I-0.75 J0.313
G1 X21.5
Y12.087
X73.142
X77.267 Y11.92
X82.928 Y11.581
X86.524 Y11.282
X96.321 Y9.31
X98.179 Y8.881
X118.804 Y2.053
X119.229 Y1.822
G3 X120.523 Y1.251 I4.184 J7.72
G1 X124.103 Y0.003
X120.51 Y-1.255
G3 X119.228 Y-1.823 I2.902 J-8.288
G1 X118.804 Y-2.053
X98.058 Y-8.916
X94.923 Y-9.593
X86.381 Y-11.31
X81.551 Y-11.669
X73.103 Y-12.087
X54.709
G3 X53.959 Y-12.587 I0 J-0.813
G2 X53.209 Y-13.087 I-0.75 J0.313
G1 X20.5
Y13.087
X73.163
X77.317 Y12.919
X83 Y12.579
X86.664 Y12.273
X96.532 Y10.288
X98.449 Y9.845
X119.202 Y2.975
X119.706 Y2.702
G3 X120.852 Y2.195 I3.708 J6.841
G1 X127.135 Y0.005
X120.841 Y-2.199
G3 X119.705 Y-2.702 I2.572 J-7.344
G1 X119.202 Y-2.974
X98.321 Y-9.883
X95.127 Y-10.572
X86.517 Y-12.303
X81.613 Y-12.667
X73.128 Y-13.087
X53.209
G3 X52.459 Y-13.587 I0 J-0.813
G2 X51.709 Y-14.087 I-0.75 J0.313
G1 X19.5
Y14.087
X73.183
X77.367 Y13.917
X83.071 Y13.577
X86.805 Y13.265
X96.744 Y11.265
X98.719 Y10.808
X119.6 Y3.896
X120.182 Y3.581
G3 X121.181 Y3.139 I3.231 J5.962
G1 X129.897 Y0.101
X130.177 Y0.011
X121.171 Y-3.143
G3 X120.181 Y-3.581 I2.241 J-6.4
G1 X119.601 Y-3.896
X98.585 Y-10.849
X95.331 Y-11.551
X86.653 Y-13.296
X81.674 Y-13.666
X73.152 Y-14.087
X51.709
G3 X50.959 Y-14.587 I0 J-0.813
G2 X50.209 Y-15.087 I-0.75 J0.313
G1 X18.5
Y15.087
X73.203
X77.417 Y14.916
X83.142 Y14.574
X86.946 Y14.257
X96.955 Y12.243
X98.99 Y11.772
X119.999 Y4.817
X120.659 Y4.46
G3 X121.51 Y4.084 I2.755 J5.083
G1 X130.226 Y1.046
X130.479 Y0.964
X131.48 Y0.666
X132.638 Y0.257
X133.211 Y0.014
X121.502 Y-4.087
G3 X120.658 Y-4.46 I1.911 J-5.456
G1 X119.999 Y-4.817
X98.848 Y-11.815
X95.535 Y-12.53
X86.789 Y-14.288
X81.736 Y-14.664
X73.177 Y-15.087
X50.209
G3 X49.459 Y-15.587 I0 J-0.813
G2 X48.709 Y-16.087 I-0.75 J0.313
G1 X17.5
Y16.087
X73.223
X77.467 Y15.915
X83.214 Y15.572
X87.086 Y15.249
X97.166 Y13.22
X99.26 Y12.736
X120.397 Y5.739
X121.135 Y5.339
G3 X121.839 Y5.028 I2.278 J4.204
G1 X130.555 Y1.99
G2 X135.559 Y0 I-6.016 J-22.416
G1 X133.938 Y-0.791
X121.832 Y-5.03
G3 X121.134 Y-5.34 I1.58 J-4.513
G1 X120.398 Y-5.739
X99.111 Y-12.781
X95.739 Y-13.509
X86.925 Y-15.281
X81.798 Y-15.662
X73.202 Y-16.087
X48.709
G3 X47.959 Y-16.587 I0 J-0.813
G2 X47.209 Y-17.087 I-0.75 J0.313
G1 X16.5
Y17.087
X73.243
X77.517 Y16.914
X83.285 Y16.569
X87.227 Y16.24
X97.378 Y14.198
X99.531 Y13.7
X120.796 Y6.66
X121.612 Y6.218
G3 X122.169 Y5.972 I1.802 J3.324
G1 X130.884 Y2.934
G2 X135.964 Y0.917 I-6.176 J-22.957
G1 X136.154 Y0.828
X136.347 Y0.75
X136.545 Y0.683
X136.746 Y0.627
X136.95 Y0.582
X139.409 Y0.116
X138.109 Y-0.375
X136.991 Y-0.575
G3 X135.997 Y-0.899 I0.664 J-3.722
G1 X134.324 Y-1.716
X122.163 Y-5.974
G3 X121.611 Y-6.219 I1.25 J-3.569
G1 X120.796 Y-6.66
X99.375 Y-13.747
X95.943 Y-14.488
X87.061 Y-16.274
X81.859 Y-16.66
X73.227 Y-17.087
X47.209
G3 X46.459 Y-17.587 I0 J-0.813
G2 X45.709 Y-18.087 I-0.75 J0.313
G1 X15.5
Y18.087
X73.264
X77.567 Y17.913
X83.356 Y17.567
X87.368 Y17.232
X97.589 Y15.175
X99.801 Y14.664
X121.194 Y7.582
X122.088 Y7.098
G3 X122.498 Y6.917 I1.325 J2.445
G1 X131.214 Y3.878
G2 X136.412 Y1.811 I-6.338 J-23.502
G1 X136.586 Y1.731
X136.766 Y1.663
X136.95 Y1.607
X137.137 Y1.565
X140.011 Y1.019
X141.341 Y0.715
X142.278 Y0.442
X142.565 Y0.238
X138.376 Y-1.344
X137.167 Y-1.559
G3 X136.435 Y-1.798 I0.488 J-2.738
G1 X134.71 Y-2.64
X122.493 Y-6.918
G3 X122.087 Y-7.098 I0.919 J-2.625
G1 X121.195 Y-7.582
X99.638 Y-14.714
X96.147 Y-15.467
X87.197 Y-17.266
X81.921 Y-17.658
X73.251 Y-18.087
X45.709
G3 X44.959 Y-18.587 I0 J-0.813
G2 X44.209 Y-19.087 I-0.75 J0.313
G1 X14.5
Y19.087
X73.284
X77.617 Y18.911
X83.428 Y18.564
X87.508 Y18.224
X97.8 Y16.153
X100.071 Y15.628
X121.593 Y8.503
X122.564 Y7.977
G3 X122.827 Y7.861 I0.849 J1.566
G1 X131.543 Y4.823
G2 X136.859 Y2.705 I-6.504 J-24.058
G1 X137.009 Y2.638
X137.164 Y2.585
X137.323 Y2.547
X140.215 Y1.998
X141.593 Y1.684
X142.719 Y1.354
X143.624 Y0.714
G3 X143.981 Y0.519 I1.028 J1.454
G1 X145.019 Y0.096
X138.643 Y-2.312
X137.343 Y-2.544
G3 X136.874 Y-2.697 I0.313 J-1.754
G1 X135.096 Y-3.565
X122.824 Y-7.862
G3 X122.564 Y-7.977 I0.589 J-1.681
G1 X121.593 Y-8.503
X99.901 Y-15.68
X96.351 Y-16.446
X87.334 Y-18.259
X81.983 Y-18.656
X73.276 Y-19.087
X44.209
G3 X43.459 Y-19.587 I0 J-0.813
G2 X42.709 Y-20.087 I-0.75 J0.313
G1 X13.5
Y20.087
X73.304
X77.667 Y19.91
X83.499 Y19.562
X87.649 Y19.216
X98.012 Y17.13
X100.342 Y16.592
X121.991 Y9.425
G3 X123.156 Y8.805 I3.479 J5.134
G1 X131.872 Y5.767
G2 X137.306 Y3.599 I-6.681 J-24.642
G1 X137.406 Y3.557
X137.51 Y3.53
X140.42 Y2.977
X141.845 Y2.652
X143.16 Y2.267
X144.202 Y1.53
X144.277 Y1.483
X144.358 Y1.445
X147.755 Y0.06
X138.909 Y-3.28
X137.518 Y-3.528
X137.413 Y-3.554
X137.313 Y-3.595
X135.482 Y-4.489
X123.155 Y-8.806
G3 X121.991 Y-9.425 I2.337 J-5.794
G1 X100.164 Y-16.646
X96.555 Y-17.425
X87.47 Y-19.252
X82.045 Y-19.655
X73.301 Y-20.087
X42.709
X42.656 Y-20.082 Z-14.978
X42.605 Y-20.068 Z-14.956
X42.557 Y-20.045 Z-14.934
X42.514 Y-20.015 Z-14.912
X42.483 Y-19.984 Z-14.806
X42.457 Y-19.949 Z-14.7
G0 Z2

(Pocket4)
Z2.011
X13.628 Y23.769
G1 Z2 F50
Z-1.79 F200
X13.625 Y23.775 Z-1.844
X13.615 Y23.794 Z-1.895
X13.6 Y23.824 Z-1.938
X13.58 Y23.862 Z-1.972
X13.557 Y23.908 Z-1.993
X13.533 Y23.956 Z-2
X13.515 Y23.999
X13.504 Y24.045
X13.5 Y24.092
Y24.737
X73.82 Y24.734
X82.804 Y24.361
X84.749 Y24.248
X90.783 Y23.546
X96.852 Y22.474
X101.715 Y21.523
X117.637 Y17.83
X123.77 Y16.377
X123.837 Y16.363
X123.904 Y16.351
X137.405 Y14.227
G3 X140.369 Y13.806 I10.67 J64.52
G1 X146.18 Y13.562
X152.299 Y13.175
X152.355 Y13.173
X152.411 Y13.172
X234.5
Y-13.172
X152.411
X152.35 Y-13.173
X152.289 Y-13.176
X138.788 Y-14.099
G3 X134.895 Y-14.437 I2.719 J-53.974
G1 X130.009 Y-15.365
X123.897 Y-16.351
X123.835 Y-16.363
X123.773 Y-16.376
X110.278 Y-19.553
X100.498 Y-21.779
X94.408 Y-22.921
X90.787 Y-23.545
X84.756 Y-24.247
X78.689 Y-24.551
X73.824 Y-24.734
X13.5 Y-24.737
Y-0.034
G3 X13 Y0.716 I-0.813 J0
G2 X12.5 Y1.466 I0.313 J0.75
G1 Y25.737
X73.841 Y25.734
X82.854 Y25.36
X84.836 Y25.245
X90.928 Y24.536
X97.035 Y23.457
X101.924 Y22.501
X117.866 Y18.804
X124.001 Y17.351
X124.03 Y17.344
X124.059 Y17.339
X137.561 Y15.215
G3 X140.411 Y14.805 I11.439 J69.505
G1 X146.233 Y14.561
X152.362 Y14.173
X152.411 Y14.172
X235.5
Y-14.172
X152.411
X152.358 Y-14.174
X138.856 Y-15.097
G3 X135.082 Y-15.42 I2.107 J-46.814
G1 X130.183 Y-16.35
X124.056 Y-17.339
X124.002 Y-17.35
X110.503 Y-20.528
X100.701 Y-22.758
X94.585 Y-23.905
X90.929 Y-24.535
X84.839 Y-25.244
X78.733 Y-25.55
X73.843 Y-25.734
X12.5 Y-25.737
Y1.466
G2 X12.753 Y1.762 I0.3 J0
G1 X15.238 Y2.156
X15.304 Y2.166 Z-1.992
X15.366 Y2.176 Z-1.97
X15.422 Y2.185 Z-1.935
X15.469 Y2.193 Z-1.887
X15.505 Y2.198 Z-1.83
X15.527 Y2.202 Z-1.767
X15.534 Y2.203 Z-1.7
G0 Z2.115
X13.628 Y23.737
Z2.011
G1 Z0 F50
Z-3.79 F200
X13.625 Y23.743 Z-3.844
X13.615 Y23.762 Z-3.895
X13.6 Y23.792 Z-3.938
X13.58 Y23.83 Z-3.972
X13.557 Y23.875 Z-3.993
X13.533 Y23.924 Z-4
X13.515 Y23.967
X13.504 Y24.013
X13.5 Y24.06
Y24.481
X73.818 Y24.478
X81.137 Y24.154
X85.978 Y23.906
X89.554 Y23.471
X99.297 Y21.781
X102.926 Y21.018
X112.722 Y18.699
X123.767 Y16.061
X123.834 Y16.046
X123.902 Y16.034
X134.941 Y14.287
X138.002 Y13.775
X138.062 Y13.766
X138.122 Y13.759
X138.183 Y13.754
X152.298 Y12.858
X152.355 Y12.855
X152.411 Y12.854
X234.5
X234.532 Y12.85 Z-3.987
X234.562 Y12.839 Z-3.973
X234.589 Y12.821 Z-3.96
X234.616 Y12.791 Z-3.863
G0 Z2.334
X234.372 Y-11.76
Z2.011
G1 Z0 F50
Z-3.79 F200
X234.375 Y-11.767 Z-3.844
X234.385 Y-11.785 Z-3.895
X234.4 Y-11.815 Z-3.938
X234.42 Y-11.854 Z-3.972
X234.443 Y-11.899 Z-3.993
X234.467 Y-11.947 Z-4
X234.485 Y-11.991
X234.496 Y-12.037
X234.5 Y-12.084
Y-12.854
X152.411
X152.352 Y-12.855
X152.292 Y-12.858
X137.256 Y-13.864
X137.2 Y-13.868
X137.144 Y-13.875
X137.089 Y-13.883
X123.894 Y-16.034
X123.831 Y-16.046
X123.768 Y-16.06
X104.06 Y-20.757
X100.511 Y-21.549
X91.971 Y-23.054
X88.345 Y-23.642
X85.989 Y-23.905
X76.235 Y-24.387
X73.824 Y-24.478
X13.5 Y-24.481
Y-24.059
G3 X13 Y-23.309 I-0.813 J0
G2 X12.5 Y-22.559 I0.313 J0.75
G1 Y25.481
X73.84 Y25.478
X81.184 Y25.153
X86.064 Y24.903
X89.7 Y24.461
X99.486 Y22.763
X103.145 Y21.994
X112.953 Y19.672
X123.999 Y17.033
X124.029 Y17.027
X124.059 Y17.021
X135.102 Y15.274
X138.167 Y14.761
X138.207 Y14.755
X138.246 Y14.752
X152.362 Y13.856
X152.411 Y13.854
X235.5
Y-13.854
X152.411
X152.359 Y-13.856
X137.323 Y-14.861
X137.286 Y-14.865
X137.25 Y-14.87
X124.055 Y-17.021
X124.027 Y-17.026
X124 Y-17.032
X104.284 Y-21.731
X100.707 Y-22.53
X92.138 Y-24.04
X88.48 Y-24.633
X86.069 Y-24.903
X76.278 Y-25.386
X73.843 Y-25.478
X12.5 Y-25.481
Y-22.559
G2 X12.664 Y-22.292 I0.3 J0
G1 X15.26 Y-20.969
X15.32 Y-20.938 Z-3.992
X15.376 Y-20.91 Z-3.97
X15.427 Y-20.884 Z-3.935
X15.469 Y-20.862 Z-3.887
X15.501 Y-20.846 Z-3.83
X15.521 Y-20.836 Z-3.767
X15.528 Y-20.833 Z-3.7
G0 Z2
X119.093 Y14.671
Z-2
G1 Z-5.76 F200
X119.099 Z-5.813
X119.117 Y14.672 Z-5.864
X119.145 Y14.675 Z-5.91
X119.183 Y14.678 Z-5.948
X119.228 Y14.682 Z-5.976
X119.279 Y14.686 Z-5.994
X119.332 Y14.69 Z-6
X119.379
X119.426 Y14.683
X123.31 Y13.764
X123.404 Y13.743
X123.499 Y13.724
X136.387 Y11.363
X136.699 Y11.319
X138.541 Y11.138
X138.657 Y11.129
X145.989 Y10.638
G3 X152.411 Y10.165 I12.564 J126.865
G1 X232.5
Y9.462
X232.496 Y9.415
X232.18 Y7.417
X232.169 Y7.351 Z-5.992
X232.159 Y7.288 Z-5.97
X232.151 Y7.232 Z-5.935
X232.143 Y7.185 Z-5.887
X232.137 Y7.15 Z-5.83
X232.134 Y7.128 Z-5.767
X232.133 Y7.12 Z-5.7
G0 Z2
X232.18 Y-7.397
Z-5.73
G1 X232.181 Y-7.403 Z-5.79 F200
X232.184 Y-7.423 Z-5.847
X232.19 Y-7.455 Z-5.898
X232.196 Y-7.497 Z-5.941
X232.204 Y-7.548 Z-5.973
X232.213 Y-7.604 Z-5.993
X232.223 Y-7.663 Z-6
X232.496 Y-9.392
X232.499 Y-9.415
X232.5 Y-9.439
Y-10.165
X152.411
X152.154 Y-10.174
X138.652 Y-11.095
X138.572 Y-11.101
X138.492 Y-11.109
X137.265 Y-11.245
X137.01 Y-11.282
X123.508 Y-13.723
X123.409 Y-13.742
X123.31 Y-13.764
X119.341 Y-14.703
G2 X119.077 Y-14.639 I-0.069 J0.292
G1 X117.542 Y-13.32
X117.492 Y-13.276 Z-5.992
X117.444 Y-13.235 Z-5.97
X117.401 Y-13.198 Z-5.935
X117.365 Y-13.167 Z-5.887
X117.337 Y-13.143 Z-5.83
X117.321 Y-13.129 Z-5.767
X117.315 Y-13.124 Z-5.7
G0 Z2
X14.546 Y22.504
Z1.722
G1 Z-2 F50
Z-5.73 F200
X14.545 Y22.51 Z-5.79
X14.542 Y22.53 Z-5.847
X14.537 Y22.562 Z-5.898
X14.53 Y22.604 Z-5.941
X14.522 Y22.655 Z-5.973
X14.513 Y22.711 Z-5.993
X14.504 Y22.77 Z-6
X14.5 Y22.817
Y23.225
X73.787 Y23.222
X87.347 Y22.532
X100.306 Y20.201
X103.914 Y19.382
X123.54 Y14.737
X123.61 Y14.721
X123.68 Y14.707
X136.567 Y12.346
G3 X138.724 Y12.126 I3.471 J23.354
G1 X146.064 Y11.635
G3 X152.411 Y11.165 I12.671 J128.084
G1 X233.5
Y9.431
X233.496 Y9.384
X233.485 Y9.338
X233.467 Y9.295
X232.549 Y7.492
X232.518 Y7.432 Z-5.992
X232.49 Y7.376 Z-5.97
X232.464 Y7.325 Z-5.935
X232.442 Y7.283 Z-5.887
X232.426 Y7.251 Z-5.83
X232.416 Y7.231 Z-5.767
X232.412 Y7.224 Z-5.7
G0 Z2
X232.484 Y-6.286
Z-5.76
G1 X232.486 Y-6.291 Z-5.813 F200
X232.491 Y-6.308 Z-5.864
X232.5 Y-6.336 Z-5.91
X232.512 Y-6.372 Z-5.948
X232.526 Y-6.415 Z-5.976
X232.542 Y-6.463 Z-5.994
X232.558 Y-6.514 Z-6
X233.485 Y-9.367
X233.493 Y-9.397
X233.498 Y-9.428
X233.5 Y-9.46
Y-11.165
X152.411
X152.316 Y-11.167
X152.222 Y-11.172
X138.72 Y-12.092
X137.188 Y-12.266
X123.686 Y-14.707
X123.613 Y-14.721
X123.54 Y-14.737
X101.511 Y-19.951
X96.676 Y-20.855
X87.348 Y-22.532
X73.787 Y-23.222
X14.5 Y-23.225
Y-22.803
X14.504 Y-22.757
X14.515 Y-22.711
X14.533 Y-22.667
X15.451 Y-20.864
X15.482 Y-20.805 Z-5.992
X15.51 Y-20.748 Z-5.97
X15.536 Y-20.698 Z-5.935
X15.558 Y-20.655 Z-5.887
X15.574 Y-20.624 Z-5.83
X15.584 Y-20.604 Z-5.767
X15.588 Y-20.597 Z-5.7
G0 Z2.115
X13.628 Y22.186
Z2.011
G1 Z-2 F50
Z-5.79 F200
X13.625 Y22.192 Z-5.844
X13.615 Y22.211 Z-5.895
X13.6 Y22.24 Z-5.938
X13.58 Y22.279 Z-5.972
X13.557 Y22.324 Z-5.993
X13.533 Y22.373 Z-6
X13.515 Y22.416
X13.504 Y22.462
X13.5 Y22.509
Y24.225
X73.812 Y24.222
X87.462 Y23.528
X100.505 Y21.181
X104.14 Y20.357
X123.77 Y15.71
X123.815 Y15.7
X123.86 Y15.691
X136.747 Y13.33
X138.791 Y13.124
X146.14 Y12.632
G3 X152.411 Y12.165 I12.626 J127.224
G1 X234.5
Y9.212
Y-0.022
Y-12.165
X152.411
X152.35 Y-12.166
X152.29 Y-12.169
X138.788 Y-13.09
X137.365 Y-13.251
X123.864 Y-15.691
X123.817 Y-15.7
X123.771 Y-15.71
X101.718 Y-20.929
X96.857 Y-21.839
X87.462 Y-23.528
X73.812 Y-24.222
X13.5 Y-24.225
Y-22.491
G3 X13 Y-21.741 I-0.813 J0
G2 X12.5 Y-20.991 I0.313 J0.75
G1 Y25.225
X73.837 Y25.222
X87.576 Y24.523
X100.705 Y22.161
X104.366 Y21.331
X124.001 Y16.683
X124.04 Y16.675
X136.928 Y14.314
X136.96 Y14.308
X136.992 Y14.304
X138.833 Y14.124
X146.215 Y13.629
X149.891 Y13.319
X152.363 Y13.167
X152.411 Y13.165
X235.5
Y-13.165
X152.411
X152.358 Y-13.167
X138.856 Y-14.088
X138.823 Y-14.091
X137.596 Y-14.227
X137.543 Y-14.235
X124.042 Y-16.675
X124.001 Y-16.683
X101.926 Y-21.908
X97.037 Y-22.822
X87.576 Y-24.523
X73.837 Y-25.222
X12.5 Y-25.225
Y-20.991
G2 X12.753 Y-20.695 I0.3 J0
G1 X15.238 Y-20.301
X15.304 Y-20.291 Z-5.992
X15.366 Y-20.281 Z-5.97
X15.422 Y-20.272 Z-5.935
X15.469 Y-20.264 Z-5.887
X15.505 Y-20.259 Z-5.83
X15.527 Y-20.255 Z-5.767
X15.534 Y-20.254 Z-5.7
G0 Z2
X109.757 Y17.196
Z-4
G1 Z-7.76 F200
X109.763 Z-7.813
X109.781 Y17.198 Z-7.864
X109.809 Y17.2 Z-7.91
X109.847 Y17.203 Z-7.948
X109.892 Y17.206 Z-7.976
X109.943 Y17.211 Z-7.994
X109.996 Y17.215 Z-8
X110.043
X110.09 Y17.208
X113.676 Y16.351
X122.228 Y14.04
X123.736 Y13.678
X131.657 Y12.223
G2 X137.306 Y11.331 I-15.638 J-117.373
G1 X137.401 Y11.321
X142.311 Y10.823
X142.405 Y10.815
X152.224 Y10.152
X152.317 Y10.148
X152.411 Y10.146
X233.5
Y9.443
Y5.943
G19 G2 Y5.643 Z-7.7 J0 K0.3
G0 Z2
X232.484 Y-6.279
Z-7.76
G1 X232.486 Y-6.285 Z-7.813 F200
X232.491 Y-6.301 Z-7.864
X232.5 Y-6.329 Z-7.91
X232.512 Y-6.365 Z-7.948
X232.526 Y-6.408 Z-7.976
X232.542 Y-6.456 Z-7.994
X232.558 Y-6.507 Z-8
X233.485 Y-9.36
X233.493 Y-9.391
X233.498 Y-9.422
X233.5 Y-9.453
Y-10.146
X152.411
X152.319 Y-10.148
X152.227 Y-10.152
X146.09 Y-10.56
G17 G3 X137.305 Y-11.338 I28.908 J-376.248
G1 X137.234 Y-11.344
X130.438 Y-12.453
X130.386 Y-12.462
X123.68 Y-13.689
X123.609 Y-13.703
X123.538 Y-13.719
X123.468 Y-13.736
X117.331 Y-15.363
X112.456 Y-16.662
X109.354 Y-17.395
G2 X109.008 Y-17.217 I-0.069 J0.292
G1 X107.76 Y-14.174
X107.734 Y-14.112 Z-7.992
X107.71 Y-14.053 Z-7.97
X107.689 Y-14.001 Z-7.935
X107.671 Y-13.957 Z-7.887
X107.657 Y-13.924 Z-7.83
X107.649 Y-13.903 Z-7.767
X107.646 Y-13.896 Z-7.7
G0 Z2.115
X13.628 Y22.176
G1 Z-4 F50
Z-7.79 F200
X13.625 Y22.182 Z-7.844
X13.615 Y22.201 Z-7.895
X13.6 Y22.231 Z-7.938
X13.58 Y22.27 Z-7.972
X13.557 Y22.315 Z-7.993
X13.533 Y22.363 Z-8
X13.515 Y22.407
X13.504 Y22.452
X13.5 Y22.499
Y23.672
X73.807 Y23.668
X79.884 Y23.326
X87.601 Y22.806
X100.504 Y20.48
X104.618 Y19.542
X113.922 Y17.321
X122.489 Y15.005
X123.916 Y14.662
X131.837 Y13.207
G2 X137.441 Y12.323 I-15.201 J-114.528
G1 X137.502 Y12.316
X142.412 Y11.818
X142.472 Y11.813
X152.291 Y11.15
X152.351 Y11.147
X152.411 Y11.146
X234.5
Y0.037
Y-8.916
Y-11.146
X152.411
X152.352 Y-11.147
X152.293 Y-11.15
X146.156 Y-11.557
G2 X137.463 Y-12.32 I-85.976 J929.913
G1 X137.395 Y-12.331
X130.599 Y-13.44
X130.566 Y-13.446
X123.86 Y-14.672
X123.792 Y-14.686
X123.724 Y-14.703
X117.587 Y-16.33
X112.7 Y-17.631
X101.719 Y-20.228
X96.857 Y-21.137
X87.45 Y-22.828
X76.212 Y-23.552
X73.814 Y-23.668
X13.5 Y-23.672
Y-22.501
G3 X13 Y-21.751 I-0.813 J0
G2 X12.5 Y-21.001 I0.313 J0.75
G1 Y24.673
X73.835 Y24.668
X79.946 Y24.324
X87.723 Y23.8
X100.704 Y21.46
X104.845 Y20.516
X114.169 Y18.29
X122.75 Y15.97
X124.054 Y15.654
X124.097 Y15.645
X132.018 Y14.19
G2 X137.603 Y13.31 I-15.073 J-113.749
G1 X142.513 Y12.813
X142.539 Y12.81
X152.358 Y12.148
X152.411 Y12.146
X235.5
Y-12.146
X152.411
X152.359 Y-12.148
X146.222 Y-12.555
X141.296 Y-12.998
X137.616 Y-13.31
X137.586 Y-13.313
X137.556 Y-13.318
X130.76 Y-14.427
X124.04 Y-15.656
X124.01 Y-15.662
X123.981 Y-15.669
X117.844 Y-17.296
X112.944 Y-18.601
X101.926 Y-21.206
X97.037 Y-22.121
X87.571 Y-23.823
X76.268 Y-24.551
X73.838 Y-24.668
X12.5 Y-24.673
Y-21.001
G2 X12.707 Y-20.715 I0.3 J0
G1 X15.234 Y-19.894
X15.297 Y-19.874 Z-7.992
X15.357 Y-19.854 Z-7.97
X15.411 Y-19.837 Z-7.935
X15.457 Y-19.822 Z-7.887
X15.491 Y-19.811 Z-7.83
X15.512 Y-19.804 Z-7.767
X15.519 Y-19.802 Z-7.7
G0 Z2.115
X13.628 Y22.177
G1 Z-6 F50
Z-9.79 F200
X13.625 Y22.183 Z-9.844
X13.615 Y22.202 Z-9.895
X13.6 Y22.232 Z-9.938
X13.58 Y22.27 Z-9.972
X13.557 Y22.315 Z-9.993
X13.533 Y22.364 Z-10
X13.515 Y22.407
X13.504 Y22.453
X13.5 Y22.5
Y22.871
X73.813 Y22.867
X83.571 Y22.382
X87.599 Y22.105
X100.505 Y19.778
X103.959 Y18.995
X122.489 Y13.986
G3 X129.99 Y12.585 I18.044 J75.829
G1 X136.094 Y11.33
G3 X137.805 Y10.99 I3.091 J11.076
G1 X147.336 Y10.296
G3 X152.411 Y9.831 I7.937 J58.752
G1 X234.5
X234.532 Y9.828 Z-9.987
X234.562 Y9.816 Z-9.973
X234.589 Y9.798 Z-9.96
X234.616 Y9.768 Z-9.863
G0 Z2.334
X234.372 Y-8.595
G1 Z-6 F50
Z-9.79 F200
X234.375 Y-8.602 Z-9.844
X234.385 Y-8.62 Z-9.895
X234.4 Y-8.65 Z-9.938
X234.42 Y-8.689 Z-9.972
X234.443 Y-8.734 Z-9.993
X234.467 Y-8.782 Z-10
X234.485 Y-8.826
X234.496 Y-8.872
X234.5 Y-8.919
Y-9.831
X152.411
X152.334 Y-9.833
X152.257 Y-9.838
X143.679 Y-10.583
X137.683 Y-11.008
X137.603 Y-11.015
X137.524 Y-11.026
X137.445 Y-11.041
X132.431 Y-12.085
X123.86 Y-13.653
X123.792 Y-13.667
X123.724 Y-13.684
X117.587 Y-15.311
X103.501 Y-19.104
X100.507 Y-19.778
X87.453 Y-22.126
X81.124 Y-22.513
X73.814 Y-22.867
X13.5 Y-22.871
Y-22.496
G3 X13 Y-21.746 I-0.813 J0
G2 X12.5 Y-20.996 I0.313 J0.75
G1 Y23.871
X73.838 Y23.867
X83.63 Y23.38
X87.723 Y23.099
X100.704 Y20.758
X104.201 Y19.965
X122.75 Y14.951
G3 X130.174 Y13.568 I19.371 J83.353
G1 X136.297 Y12.309
X137.775 Y12.001
X137.826 Y11.992
X137.878 Y11.987
X147.429 Y11.292
G3 X152.411 Y10.831 I7.933 J58.646
G1 X235.5
Y-10.831
X152.411
X152.377 Y-10.832
X152.343 Y-10.834
X143.758 Y-11.58
X137.753 Y-12.005
X137.701 Y-12.011
X137.649 Y-12.02
X132.623 Y-13.067
X124.04 Y-14.637
X124.01 Y-14.643
X123.981 Y-14.65
X117.844 Y-16.277
X103.741 Y-20.075
X100.705 Y-20.758
X87.572 Y-23.121
X81.179 Y-23.512
X73.838 Y-23.867
X12.5 Y-23.871
Y-20.996
X12.504 Y-20.949
X12.515 Y-20.903
X13.596 Y-17.575
X13.617 Y-17.511 Z-9.992
X13.636 Y-17.451 Z-9.97
X13.654 Y-17.397 Z-9.935
X13.669 Y-17.352 Z-9.887
X13.68 Y-17.318 Z-9.83
X13.687 Y-17.296 Z-9.767
X13.689 Y-17.289 Z-9.7
G0 Z2.051
X147.162 Y0.126
Z-8
G1 Z-11.76 F200
X147.168 Y0.127 Z-11.813
X147.185 Y0.131 Z-11.864
X147.213 Y0.138 Z-11.91
X147.25 Y0.147 Z-11.948
X147.294 Y0.158 Z-11.976
X147.343 Y0.169 Z-11.994
X147.395 Y0.182 Z-12
X147.442 Y0.189
X147.489
X149.97 Y-0.006
X146.888 Y-0.274
X146.827 Y-0.275
X146.766 Y-0.269
X146.707 Y-0.256
X144.213 Y0.458
G2 X144.39 Y1.437 I0.138 J0.481
G1 X151.721 Y0.859
X152.411 Y0.831
X227.5
Y-0.831
X152.411
X151.652 Y-0.864
X145.515 Y-1.397
X145.335 Y-1.414
X143.284 Y-1.635
G2 X142.802 Y-1.395 I-0.053 J0.497
G1 X140.76 Y2.012
G2 X141.262 Y2.764 I0.429 J0.257
G1 X142.117 Y2.637
X142.646 Y2.577
X151.799 Y1.856
X152.411 Y1.831
X228.5
Y-1.831
X152.411
X151.739 Y-1.861
X145.602 Y-2.393
X145.442 Y-2.408
X139.569 Y-3.04
G2 X139.107 Y-2.831 I-0.053 J0.497
G1 X134.307 Y3.978
G2 X134.805 Y4.758 I0.409 J0.288
G1 X135.093 Y4.705
X136.178 Y4.458
G3 X136.882 Y4.337 I1.504 J6.612
G1 X139.853 Y3.984
X142.263 Y3.626
X142.724 Y3.574
X151.878 Y2.852
X152.411 Y2.831
X229.5
Y-2.831
X152.411
X151.825 Y-2.857
X145.688 Y-3.389
X145.549 Y-3.403
X136.957 Y-4.327
G3 X136.263 Y-4.438 I0.725 J-6.742
G1 X134.613 Y-4.791
G2 X134.35 Y-4.721 I-0.063 J0.293
G1 X132.844 Y-3.369
X132.795 Y-3.325 Z-11.992
X132.747 Y-3.282 Z-11.97
X132.705 Y-3.244 Z-11.935
X132.67 Y-3.213 Z-11.887
X132.643 Y-3.189 Z-11.83
X132.627 Y-3.174 Z-11.767
X132.621 Y-3.169 Z-11.7
G0 Z2
X126.751 Y7.418
Z-8
G1 Z-11.76 F200
X126.757 Z-11.813
X126.775 Y7.42 Z-11.864
X126.804 Y7.423 Z-11.91
X126.841 Y7.426 Z-11.948
X126.887 Y7.43 Z-11.976
X126.937 Y7.435 Z-11.994
X126.99 Y7.44 Z-12
X127.038 Y7.441
X127.084 Y7.434
X132.726 Y6.159
G3 X136.4 Y5.433 I55.03 J268.868
X137 Y5.33 I1.282 J5.637
G1 X139.986 Y4.975
X142.41 Y4.616
X142.803 Y4.571
X151.957 Y3.849
X152.411 Y3.831
X230.5
Y-3.831
X152.411
X151.911 Y-3.853
X145.774 Y-4.385
X145.656 Y-4.397
X137.064 Y-5.321
G3 X136.472 Y-5.416 I0.618 J-5.748
G1 X130.373 Y-6.721
X127.432 Y-7.31
G2 X127.169 Y-7.236 I-0.059 J0.294
G1 X125.682 Y-5.864
X125.633 Y-5.819 Z-11.992
X125.586 Y-5.776 Z-11.97
X125.545 Y-5.737 Z-11.935
X125.51 Y-5.705 Z-11.887
X125.483 Y-5.681 Z-11.83
X125.467 Y-5.666 Z-11.767
X125.462 Y-5.661 Z-11.7
G0 Z2
X114.375 Y11.83
Z-8
G1 Z-11.76 F200
X114.381 Z-11.813
X114.399 Y11.831 Z-11.864
X114.428 Y11.833 Z-11.91
X114.466 Y11.835 Z-11.948
X114.511 Y11.837 Z-11.976
X114.562 Y11.84 Z-11.994
X114.615 Y11.842 Z-12
X114.662 Y11.841
X114.708 Y11.833
X118.511 Y10.817
G3 X123.004 Y9.39 I21.83 J60.938
G1 X123.281 Y9.318
X132.946 Y7.135
G3 X136.622 Y6.409 I55.795 J272.718
X137.118 Y6.323 I1.061 J4.662
G1 X140.118 Y5.966
X142.557 Y5.605
X142.882 Y5.568
X152.035 Y4.846
X152.411 Y4.831
X231.5
Y-4.831
X152.411
X151.998 Y-4.849
X145.861 Y-5.382
X145.763 Y-5.391
X137.171 Y-6.316
G3 X136.682 Y-6.394 I0.511 J-4.754
G1 X130.576 Y-7.7
G3 X123.079 Y-9.361 I20.344 J-109.607
G1 X122.72 Y-9.461
X119.034 Y-10.644
X117.93 Y-10.995
X114.397 Y-11.934
G2 X114.131 Y-11.877 I-0.077 J0.29
G1 X112.561 Y-10.601
X112.509 Y-10.558 Z-11.992
X112.46 Y-10.518 Z-11.97
X112.416 Y-10.482 Z-11.935
X112.379 Y-10.453 Z-11.887
X112.351 Y-10.43 Z-11.83
X112.334 Y-10.416 Z-11.767
X112.328 Y-10.411 Z-11.7
G0 Z2
X80.556 Y19.643
Z-8
G1 Z-11.76 F200
X80.562 Y19.644 Z-11.813
X80.579 Y19.649 Z-11.864
X80.606 Y19.657 Z-11.91
X80.643 Y19.667 Z-11.948
X80.687 Y19.678 Z-11.976
X80.736 Y19.692 Z-11.994
X80.787 Y19.706 Z-12
X80.834 Y19.714
X80.881 Y19.716
X84.654 Y19.53
X87.288 Y19.311
X100.029 Y16.749
X102.369 Y16.165
X118.797 Y11.775
G3 X123.501 Y10.294 I20.416 J56.608
G1 X133.167 Y8.11
G3 X136.843 Y7.384 I56.502 J276.281
X137.236 Y7.316 I0.839 J3.687
G1 X140.25 Y6.958
X142.703 Y6.594
X142.96 Y6.565
X152.114 Y5.843
X152.411 Y5.831
X232.5
Y-5.831
X152.411
X152.084 Y-5.846
X145.947 Y-6.378
X145.87 Y-6.385
X137.278 Y-7.31
G3 X136.891 Y-7.372 I0.404 J-3.76
G1 X130.779 Y-8.68
G3 X123.31 Y-10.334 I20.177 J-108.79
G1 X123.025 Y-10.413
X119.339 Y-11.596
X118.211 Y-11.956
X101.2 Y-16.476
X98.859 Y-16.984
X87.158 Y-19.334
X83.451 Y-19.597
X73.766 Y-20.065
X73.719
G2 X73.476 Y-19.942 I0 J0.3
G1 X72.287 Y-18.305
X72.248 Y-18.251 Z-11.992
X72.21 Y-18.2 Z-11.97
X72.177 Y-18.154 Z-11.935
X72.149 Y-18.115 Z-11.887
X72.128 Y-18.086 Z-11.83
X72.115 Y-18.068 Z-11.767
X72.11 Y-18.062 Z-11.7
G0 Z2
X15.516 Y16.96
Z-11.76
G1 X15.514 Y16.965 Z-11.813 F200
X15.509 Y16.982 Z-11.864
X15.5 Y17.009 Z-11.91
X15.488 Y17.045 Z-11.948
X15.474 Y17.089 Z-11.976
X15.458 Y17.137 Z-11.994
X15.442 Y17.188 Z-12
X14.515 Y20.041
X14.507 Y20.071
X14.502 Y20.102
X14.5 Y20.134
Y21.069
X73.789 Y21.065
X84.72 Y20.528
X87.428 Y20.303
X100.249 Y17.725
X102.619 Y17.133
X119.084 Y12.734
G3 X123.722 Y11.269 I20.545 J56.976
G1 X133.387 Y9.086
G3 X137.065 Y8.359 I57.269 J280.137
X137.354 Y8.309 I0.617 J2.712
X143.039 Y7.562 I51.06 J366.54
G1 X152.192 Y6.84
X152.265 Y6.835
X152.338 Y6.832
X152.411 Y6.831
X233.5
Y-6.831
X152.411
X152.331 Y-6.833
X152.251 Y-6.836
X152.171 Y-6.842
X146.034 Y-7.374
X145.977 Y-7.38
X137.385 Y-8.304
G3 X137.1 Y-8.35 I0.298 J-2.765
G1 X130.981 Y-9.659
G3 X118.491 Y-12.916 I12.471 J-73.408
G1 X101.435 Y-17.448
X99.064 Y-17.963
X87.292 Y-20.327
X83.511 Y-20.595
X73.79 Y-21.065
X14.5 Y-21.069
Y-20.132
X14.504 Y-20.085
X14.515 Y-20.039
X14.533 Y-19.996
X15.451 Y-18.193
X15.482 Y-18.133 Z-11.992
X15.51 Y-18.077 Z-11.97
X15.536 Y-18.026 Z-11.935
X15.558 Y-17.984 Z-11.887
X15.574 Y-17.952 Z-11.83
X15.584 Y-17.932 Z-11.767
X15.588 Y-17.926 Z-11.7
G0 Z2.115
X13.628 Y19.607
G1 Z-8 F50
Z-11.79 F200
X13.625 Y19.614 Z-11.844
X13.615 Y19.632 Z-11.895
X13.6 Y19.662 Z-11.938
X13.58 Y19.701 Z-11.972
X13.557 Y19.746 Z-11.993
X13.533 Y19.794 Z-12
X13.515 Y19.838
X13.504 Y19.884
X13.5 Y19.93
Y22.07
X73.814 Y22.065
X84.786 Y21.526
X87.569 Y21.294
X100.469 Y18.701
X102.869 Y18.101
X119.37 Y13.692
G3 X123.942 Y12.244 I20.677 J57.345
G1 X133.608 Y10.061
G3 X137.473 Y9.309 I17.585 J80.08
X143.118 Y8.559 I46.415 J327.536
G1 X152.271 Y7.837
X152.341 Y7.833
X152.411 Y7.831
X234.5
Y-7.831
X152.411
X152.334 Y-7.833
X152.257 Y-7.838
X146.12 Y-8.37
X146.083 Y-8.374
X137.492 Y-9.298
X137.431 Y-9.306
X137.37 Y-9.316
X137.309 Y-9.328
X131.184 Y-10.638
G3 X118.772 Y-13.876 I12.536 J-73.471
G1 X101.67 Y-18.42
X99.268 Y-18.942
X87.426 Y-21.32
X83.57 Y-21.593
X73.814 Y-22.065
X13.5 Y-22.07
Y-0.038
G3 X13 Y0.712 I-0.813 J0
G2 X12.5 Y1.462 I0.313 J0.75
G1 Y23.07
X73.838 Y23.065
X84.852 Y22.524
X87.709 Y22.286
X100.688 Y19.677
X103.12 Y19.07
X119.657 Y14.651
G3 X124.162 Y13.22 I20.838 J57.802
G1 X133.828 Y11.036
G2 X137.549 Y10.3 I-6.829 J-44.283
X143.196 Y9.556 I-10.5 J-101.438
G1 X152.35 Y8.834
X152.38 Y8.832
X152.411 Y8.831
X235.5
Y-8.831
X152.411
X152.377 Y-8.832
X152.344 Y-8.834
X146.206 Y-9.367
X137.599 Y-10.293
X137.559 Y-10.298
X137.519 Y-10.305
X131.387 Y-11.618
G3 X119.052 Y-14.836 I12.384 J-72.701
G1 X101.904 Y-19.393
X99.473 Y-19.921
X87.561 Y-22.313
X83.63 Y-22.592
X73.838 Y-23.065
X12.5 Y-23.07
Y1.462
G2 X12.753 Y1.758 I0.3 J0
G1 X15.238 Y2.152
X15.304 Y2.162 Z-11.992
X15.366 Y2.172 Z-11.97
X15.422 Y2.181 Z-11.935
X15.469 Y2.188 Z-11.887
X15.505 Y2.194 Z-11.83
X15.527 Y2.197 Z-11.767
X15.534 Y2.198 Z-11.7
G0 Z2
X146.261 Y0.498
Z-10
G1 Z-13.76 F200
X146.267 Y0.499 Z-13.813
X146.284 Y0.502 Z-13.864
X146.312 Y0.507 Z-13.91
X146.35 Y0.513 Z-13.948
X146.395 Y0.521 Z-13.976
X146.445 Y0.53 Z-13.994
X146.497 Y0.539 Z-14
X146.544 Y0.543
X146.591 Y0.54
X150.289 Y-0.001
X150.193 Y-0.015
X145.881 Y-0.651
G2 X145.519 Y-0.565 I-0.073 J0.495
G1 X143.072 Y1.162
G2 X143.433 Y2.065 I0.288 J0.409
G1 X145.437 Y1.719
X150.582 Y0.967
X150.837 Y0.935
X151.83 Y0.835
G3 X152.411 Y0.805 I0.581 J5.752
G1 X230.5
Y-0.805
X152.411
G3 X151.773 Y-0.841 I0 J-5.781
G1 X150.545 Y-0.977
X150.442 Y-0.99
X150.339 Y-1.004
X141.482 Y-2.311
G2 X141.044 Y-2.158 I-0.073 J0.495
G1 X136.11 Y3.117
G2 X136.604 Y3.942 I0.365 J0.342
G3 X137.304 Y3.81 I1.232 J4.62
G2 X145.582 Y2.709 I-6.642 J-81.569
G1 X150.727 Y1.956
X150.832 Y1.942
X150.938 Y1.93
X151.93 Y1.83
G3 X152.411 Y1.805 I0.481 J4.757
G1 X231.5
Y-1.805
X152.411
G3 X151.883 Y-1.835 I0 J-4.781
G1 X150.656 Y-1.971
X150.57 Y-1.981
X150.485 Y-1.993
X140.158 Y-3.518
X137.348 Y-3.805
G3 X136.575 Y-3.95 I0.487 J-4.756
G1 X133.199 Y-4.872
X133.135 Y-4.89 Z-13.992
X133.074 Y-4.906 Z-13.97
X133.019 Y-4.921 Z-13.935
X132.973 Y-4.934 Z-13.887
X132.938 Y-4.943 Z-13.83
X132.917 Y-4.949 Z-13.767
X132.91 Y-4.951 Z-13.7
G0 Z2
X126.193 Y7.611
Z-10
G1 Z-13.76 F200
X126.199 Z-13.813
X126.217 Y7.613 Z-13.864
X126.246 Y7.616 Z-13.91
X126.283 Y7.619 Z-13.948
X126.329 Y7.624 Z-13.976
X126.379 Y7.629 Z-13.994
X126.432 Y7.634 Z-14
X126.479 Y7.635
X126.526 Y7.628
G2 X136.736 Y4.941 I-18.731 J-91.896
G1 X136.959 Y4.881
X137.186 Y4.836
X137.415 Y4.804
G2 X145.727 Y3.698 I-6.658 J-81.83
G1 X150.871 Y2.946
X150.955 Y2.934
X151.038 Y2.925
X152.031 Y2.825
G3 X152.411 Y2.805 I0.38 J3.762
G1 X232.5
Y-2.805
X152.411
G3 X151.994 Y-2.829 I0 J-3.781
G1 X150.766 Y-2.965
X150.699 Y-2.973
X150.631 Y-2.982
X140.282 Y-4.51
X137.45 Y-4.8
G3 X136.753 Y-4.939 I0.385 J-3.762
G1 X133.329 Y-5.961
X126.989 Y-7.463
X123.583 Y-8.269
X123.518 Y-8.285 Z-13.992
X123.457 Y-8.299 Z-13.97
X123.401 Y-8.312 Z-13.935
X123.355 Y-8.323 Z-13.887
X123.32 Y-8.332 Z-13.83
X123.299 Y-8.337 Z-13.767
X123.291 Y-8.338 Z-13.7
G0 Z2
X101.83 Y15.979
Z-10
G1 Z-13.76 F200
X101.836 Z-13.813
X101.853 Y15.98 Z-13.864
X101.882 Y15.982 Z-13.91
X101.92 Y15.985 Z-13.948
X101.965 Y15.988 Z-13.976
X102.016 Y15.992 Z-13.994
X102.069 Y15.995 Z-14
X102.116
X102.162 Y15.987
X102.621 Y15.873
X107.429 Y14.594
X122.079 Y9.742
X123.582 Y9.301
X128.482 Y8.221
X131.039 Y7.638
X134.448 Y6.684
X137.027 Y5.901
G3 X137.526 Y5.798 I0.808 J2.661
G2 X145.871 Y4.688 I-6.677 J-82.114
G1 X151.016 Y3.935
X151.077 Y3.927
X151.139 Y3.92
X152.131 Y3.82
G3 X152.411 Y3.805 I0.28 J2.767
G1 X233.5
Y-3.805
X152.411
G3 X152.104 Y-3.822 I0 J-2.781
G1 X150.877 Y-3.959
X150.777 Y-3.972
X140.406 Y-5.503
X137.552 Y-5.795
G3 X137.04 Y-5.897 I0.283 J-2.767
G1 X133.588 Y-6.928
X123.54 Y-9.307
G3 X119.649 Y-10.547 I10.022 J-38.184
G1 X107.124 Y-14.676
X101.979 Y-16.043
X101.933 Y-16.052
X98.452 Y-16.41
X98.385 Y-16.417 Z-13.992
X98.322 Y-16.424 Z-13.97
X98.265 Y-16.429 Z-13.935
X98.218 Y-16.434 Z-13.887
X98.183 Y-16.438 Z-13.83
X98.161 Y-16.44 Z-13.767
X98.153 Y-16.441 Z-13.7
G0 Z2.115
X13.628 Y19.587
G1 Z-10 F50
Z-13.79 F200
X13.625 Y19.593 Z-13.844
X13.615 Y19.612 Z-13.895
X13.6 Y19.642 Z-13.938
X13.58 Y19.68 Z-13.972
X13.557 Y19.726 Z-13.993
X13.533 Y19.774 Z-14
X13.515 Y19.817
X13.504 Y19.863
X13.5 Y19.91
Y21.059
X73.805 Y21.056
X77.416 Y20.842
X87.572 Y20.034
X100.469 Y17.441
X102.87 Y16.841
X107.715 Y15.552
X122.393 Y10.691
X123.798 Y10.277
X128.701 Y9.197
X131.285 Y8.607
X134.729 Y7.644
X137.318 Y6.857
G3 X137.638 Y6.792 I0.518 J1.704
G2 X146.016 Y5.677 I-6.698 J-82.409
G1 X151.161 Y4.925
G3 X152.411 Y4.805 I1.694 J11.163
G1 X234.5
Y-4.805
X152.411
G3 X150.924 Y-4.961 I0.52 J-12.171
G1 X140.53 Y-6.495
X137.654 Y-6.79
G3 X137.326 Y-6.855 I0.182 J-1.772
G1 X133.846 Y-7.894
X123.77 Y-10.28
X123.703 Y-10.298
X123.637 Y-10.317
X119.954 Y-11.499
X107.41 Y-15.635
X101.67 Y-17.16
X99.268 Y-17.682
X87.421 Y-20.061
X76.197 Y-20.93
X73.811 Y-21.054
X13.5 Y-21.059
Y-19.934
G3 X13 Y-19.184 I-0.813 J0
G2 X12.5 Y-18.434 I0.313 J0.75
G1 Y22.059
X73.834 Y22.056
X77.485 Y21.839
X87.711 Y21.026
X100.688 Y18.416
X103.12 Y17.81
X108.001 Y16.511
X122.708 Y11.64
X123.958 Y11.268
X123.985 Y11.26
X124.013 Y11.254
X128.919 Y10.173
G2 X137.653 Y7.798 I-18.946 J-86.918
X146.161 Y6.667 I-6.904 J-84.465
G1 X151.306 Y5.914
G3 X152.411 Y5.805 I1.613 J10.751
G1 X235.5
Y-5.805
X152.411
G3 X151.07 Y-5.95 I0.622 J-12.051
G1 X140.654 Y-7.488
X137.756 Y-7.785
X137.707 Y-7.791
X137.659 Y-7.801
X137.612 Y-7.813
X134.105 Y-8.861
X124.001 Y-11.253
X123.971 Y-11.261
X123.942 Y-11.27
X120.26 Y-12.451
X107.695 Y-16.594
X101.904 Y-18.133
X99.473 Y-18.661
X87.558 Y-21.053
X76.262 Y-21.928
X73.837 Y-22.054
X12.5 Y-22.059
Y-18.434
X12.504 Y-18.387
X12.515 Y-18.341
X13.596 Y-15.012
X13.617 Y-14.949 Z-13.992
X13.636 Y-14.888 Z-13.97
X13.654 Y-14.834 Z-13.935
X13.669 Y-14.789 Z-13.887
X13.68 Y-14.755 Z-13.83
X13.687 Y-14.734 Z-13.767
X13.689 Y-14.727 Z-13.7
G0 Z2.051
X32.893 Y0.591
Z-11.7
G1 X32.901 Z-11.766 F50
X32.923 Z-11.829
X32.958 Z-11.886
X33.005 Z-11.934
X33.061 Z-11.969
X33.124 Z-11.992
X33.19 Z-12
X73.358 Y0.589 Z-12.385
X78.852 Y0.325 Z-12.438
X84.052 Y0.002 Z-12.488
X82.4 Y-0.115 Z-12.504
X73.317 Y-0.587 Z-12.591
X32.5 Y-0.59 Z-12.982
Y0.591 Z-12.993
X73.358 Y0.589 Z-13.385
X78.852 Y0.325 Z-13.438
X84.052 Y0.002 Z-13.488
X82.4 Y-0.115 Z-13.504
X73.317 Y-0.587 Z-13.591
X32.5 Y-0.59 Z-13.982
Y0.591 Z-13.993
X73.358 Y0.589 Z-14.385
X78.852 Y0.325 Z-14.438
X84.052 Y0.002 Z-14.488
X82.4 Y-0.115 Z-14.504
X73.317 Y-0.587 Z-14.591
X32.5 Y-0.59 Z-14.982
Y0.591 Z-14.993
X73.358 Y0.589 Z-15.385
X78.852 Y0.325 Z-15.438
X84.052 Y0.002 Z-15.488
X82.4 Y-0.115 Z-15.504
X73.317 Y-0.587 Z-15.591
X32.5 Y-0.59 Z-15.982
Y0.591 Z-15.993
X33.19 Z-16
X73.358 Y0.589 F200
X78.852 Y0.325
X84.052 Y0.002
X82.4 Y-0.115
X73.317 Y-0.587
X32.5 Y-0.59
Y0.591
X33.19
G3 X33.941 Y1.091 I0 J0.813
G2 X34.691 Y1.591 I0.75 J-0.313
G1 X73.382 Y1.589
X78.907 Y1.323
X84.659 Y0.966
X84.991 Y0.937
X89.631 Y-0.001
X89.399 Y-0.052
X85.009 Y-0.932
X82.461 Y-1.114
X73.343 Y-1.587
X31.5 Y-1.59
Y1.591
X34.691
G3 X35.441 Y2.091 I0 J0.812
G2 X36.191 Y2.591 I0.75 J-0.313
G1 X73.406 Y2.589
X78.962 Y2.322
X84.734 Y1.964
X85.134 Y1.929
X90.767 Y0.79
X94.224 Y-0.001
X89.606 Y-1.031
X85.143 Y-1.925
X82.523 Y-2.112
X73.369 Y-2.587
X30.5 Y-2.59
Y2.591
X36.191
G3 X36.941 Y3.091 I0 J0.813
G2 X37.691 Y3.59 I0.75 J-0.313
G1 X73.43 Y3.589
X79.017 Y3.32
X84.808 Y2.961
X85.277 Y2.92
X90.978 Y1.768
X95.46 Y0.742
X97.702 Y0
X95.362 Y-0.772
X89.814 Y-2.009
X85.277 Y-2.918
X82.584 Y-3.11
X73.395 Y-3.587
X29.5 Y-3.59
Y3.591
X37.691 Y3.59
G3 X38.441 Y4.09 I0 J0.813
G2 X39.191 Y4.59 I0.75 J-0.313
G1 X73.454 Y4.589
X79.072 Y4.319
X84.883 Y3.958
X85.42 Y3.911
X91.188 Y2.745
X95.729 Y1.706
X100.89 Y-0.001
X95.628 Y-1.737
X90.021 Y-2.987
X85.412 Y-3.911
X82.646 Y-4.108
X73.421 Y-4.587
X28.5 Y-4.591
Y4.591
X39.191 Y4.59
G3 X39.941 Y5.09 I0 J0.813
G2 X40.691 Y5.59 I0.75 J-0.313
G1 X73.478 Y5.589
X79.127 Y5.317
X84.957 Y4.956
X85.563 Y4.903
X91.399 Y3.723
X95.998 Y2.67
X104.078 Y-0.003
X95.894 Y-2.703
X90.228 Y-3.966
X85.546 Y-4.904
X82.707 Y-5.106
X73.447 Y-5.587
X27.5 Y-5.591
Y5.591
X40.691 Y5.59
G3 X41.441 Y6.09 I0 J0.813
G2 X42.191 Y6.59 I0.75 J-0.313
G1 X73.502 Y6.589
X79.182 Y6.316
X85.031 Y5.953
X85.706 Y5.894
X91.61 Y4.7
X96.268 Y3.635
X107.266 Y-0.004
X96.16 Y-3.668
X90.435 Y-4.944
X85.68 Y-5.897
X82.768 Y-6.104
X73.473 Y-6.587
X26.5 Y-6.591
Y6.591
X42.191 Y6.59
G3 X42.941 Y7.09 I0 J0.813
G2 X43.691 Y7.59 I0.75 J-0.313
G1 X73.526 Y7.589
X79.237 Y7.314
X85.106 Y6.95
X85.849 Y6.885
X91.82 Y5.678
X96.537 Y4.599
X110.453 Y-0.005
X96.426 Y-4.633
X90.642 Y-5.922
X85.815 Y-6.89
X82.83 Y-7.103
X73.499 Y-7.587
X25.5 Y-7.591
Y7.591
X43.691 Y7.59
G3 X44.441 Y8.09 I0 J0.812
G2 X45.191 Y8.59 I0.75 J-0.313
G1 X73.55 Y8.589
X79.292 Y8.313
X85.18 Y7.948
X85.992 Y7.877
X92.031 Y6.656
X96.806 Y5.563
X113.641 Y-0.007
X96.692 Y-5.598
X90.849 Y-6.901
X85.949 Y-7.883
X82.891 Y-8.101
X73.525 Y-8.587
X24.5 Y-8.591
Y8.591
X45.191 Y8.59
G3 X45.941 Y9.09 I0 J0.813
G2 X46.691 Y9.59 I0.75 J-0.313
G1 X73.574 Y9.589
X79.347 Y9.311
X85.255 Y8.945
X86.135 Y8.868
X92.242 Y7.633
X97.075 Y6.527
X116.813 Y-0.003
X116.695 Y-0.052
X96.958 Y-6.564
X91.056 Y-7.879
X86.083 Y-8.876
X82.953 Y-9.099
X73.551 Y-9.587
X23.5 Y-9.591
Y9.591
X46.691 Y9.59
G3 X47.441 Y10.09 I0 J0.813
G2 X48.191 Y10.59 I0.75 J-0.313
G1 X73.598 Y10.589
X79.402 Y10.31
X85.329 Y9.942
X86.278 Y9.859
X92.452 Y8.611
X97.344 Y7.492
X117.274 Y0.898
X117.585 Y0.764
X118.496 Y0.259
X118.994 Y-0.001
X118.378 Y-0.314
X117.464 Y-0.816
X117.044 Y-0.99
X97.224 Y-7.529
X91.263 Y-8.858
X86.218 Y-9.869
X83.014 Y-10.097
X73.577 Y-10.587
X22.5 Y-10.591
Y10.591
X48.191 Y10.59
G3 X48.941 Y11.09 I0 J0.813
G2 X49.691 Y11.59 I0.75 J-0.313
G1 X73.622 Y11.589
X79.457 Y11.308
X85.403 Y10.939
X86.421 Y10.851
X92.663 Y9.589
X97.614 Y8.456
X117.63 Y1.834
X118.027 Y1.662
X118.981 Y1.133
G3 X120.513 Y0.449 I4.74 J8.556
G1 X121.83 Y-0.008
X120.329 Y-0.534
G3 X118.859 Y-1.19 I3.238 J-9.23
G1 X117.897 Y-1.718
X117.393 Y-1.928
X97.49 Y-8.494
X91.47 Y-9.836
X86.352 Y-10.862
X83.076 Y-11.095
X73.603 Y-11.587
X21.5 Y-11.591
Y11.591
X49.691 Y11.59
G3 X50.441 Y12.09 I0 J0.813
G2 X51.191 Y12.59 I0.75 J-0.313
G1 X73.646 Y12.589
X79.512 Y12.307
X85.478 Y11.937
X86.563 Y11.842
X92.873 Y10.566
X97.883 Y9.42
X117.986 Y2.769
X118.468 Y2.561
X119.465 Y2.008
G3 X120.841 Y1.394 I4.255 J7.681
G1 X124.865 Y-0.003
X120.66 Y-1.478
G3 X119.34 Y-2.067 I2.907 J-8.286
G1 X118.331 Y-2.621
X117.742 Y-2.866
X97.756 Y-9.459
X91.677 Y-10.814
X86.486 Y-11.855
X83.137 Y-12.093
X73.629 Y-12.587
X20.5 Y-12.591
Y12.591
X51.191 Y12.59
G3 X51.941 Y13.09 I0 J0.813
G2 X52.691 Y13.59 I0.75 J-0.313
G1 X73.67 Y13.589
X79.567 Y13.305
X85.552 Y12.934
X86.706 Y12.833
X93.084 Y11.544
X98.152 Y10.384
X118.342 Y3.705
X118.91 Y3.459
X119.95 Y2.883
G3 X121.169 Y2.339 I3.77 J6.807
G1 X127.899 Y0.002
X120.991 Y-2.422
G3 X119.822 Y-2.943 I2.576 J-7.342
G1 X118.765 Y-3.524
X118.09 Y-3.804
X98.023 Y-10.425
X91.884 Y-11.793
X86.62 Y-12.848
X83.199 Y-13.092
X73.655 Y-13.587
X19.5 Y-13.591
Y13.591
X52.691 Y13.59
G3 X53.441 Y14.09 I0 J0.813
G2 X54.191 Y14.59 I0.75 J-0.313
G1 X73.694 Y14.589
X79.622 Y14.304
X85.627 Y13.931
X86.849 Y13.825
X93.295 Y12.522
X98.421 Y11.349
X118.698 Y4.64
X119.352 Y4.358
X120.435 Y3.758
G3 X121.497 Y3.283 I3.286 J5.932
G1 X129.321 Y0.567
X129.475 Y0.516
X130.995 Y0.029
X121.322 Y-3.365
G3 X120.303 Y-3.82 I2.245 J-6.399
G1 X119.199 Y-4.427
X118.439 Y-4.742
X98.289 Y-11.39
X92.091 Y-12.771
X86.755 Y-13.841
X83.26 Y-14.09
X73.681 Y-14.587
X18.5 Y-14.591
Y14.591
X54.191 Y14.59
G3 X54.941 Y15.09 I0 J0.813
G2 X55.691 Y15.59 I0.75 J-0.313
G1 X73.718 Y15.589
X79.677 Y15.302
X85.701 Y14.929
X86.992 Y14.816
X93.505 Y13.499
X98.69 Y12.313
X119.054 Y5.576
X119.793 Y5.256
X120.919 Y4.632
G3 X121.825 Y4.228 I2.801 J5.057
G1 X129.649 Y1.512
X129.78 Y1.468
X132.023 Y0.749
X133.337 Y0.213
X133.737 Y0.008
X133.228 Y-0.248
X121.653 Y-4.309
G3 X120.784 Y-4.697 I1.914 J-5.455
G1 X119.632 Y-5.329
X118.788 Y-5.68
X98.555 Y-12.355
X92.299 Y-13.749
X86.889 Y-14.834
X83.321 Y-15.088
X73.707 Y-15.587
X17.5 Y-15.591
Y15.591
X55.691 Y15.59
G3 X56.441 Y16.09 I0 J0.813
G2 X57.191 Y16.59 I0.75 J-0.313
G1 X73.742 Y16.589
X79.732 Y16.301
X85.776 Y15.926
X87.135 Y15.807
X93.716 Y14.477
X98.959 Y13.277
X119.41 Y6.511
X120.235 Y6.155
X121.404 Y5.507
G3 X122.153 Y5.173 I2.317 J4.182
G1 X129.977 Y2.457
G2 X135.499 Y0.229 I-5.828 J-22.409
G1 X135.668 Y0.146
X135.84 Y0.07
X136.014 Y0
G3 X135.538 Y-0.208 I1.668 J-4.481
G1 X133.619 Y-1.17
X121.984 Y-5.252
G3 X121.266 Y-5.573 I1.583 J-4.512
G1 X120.066 Y-6.232
X119.137 Y-6.618
X98.821 Y-13.32
X92.506 Y-14.728
X87.023 Y-15.827
X83.383 Y-16.086
X73.733 Y-16.587
X16.5 Y-16.591
Y16.592
X57.191 Y16.59
G3 X57.941 Y17.089 I0 J0.813
G2 X58.691 Y17.589 I0.75 J-0.313
G1 X73.766
X79.787 Y17.299
X85.85 Y16.923
X87.278 Y16.799
X93.927 Y15.455
X99.229 Y14.241
X119.766 Y7.447
X120.676 Y7.053
X121.888 Y6.382
G3 X122.48 Y6.118 I1.832 J3.308
G1 X130.305 Y3.401
G2 X135.956 Y1.119 I-6.012 J-23.021
G1 X136.142 Y1.029
X136.331 Y0.95
X136.526 Y0.882
X136.723 Y0.824
X136.923 Y0.777
X139.336 Y0.282
X139.8 Y0.176
X137.635 Y-0.637
X136.956 Y-0.77
G3 X135.986 Y-1.101 I0.726 J-3.711
G1 X134.01 Y-2.093
X122.315 Y-6.196
G3 X121.747 Y-6.45 I1.252 J-3.568
G1 X120.5 Y-7.135
X119.486 Y-7.556
X99.087 Y-14.285
X92.713 Y-15.706
X87.158 Y-16.82
X83.444 Y-17.084
X73.759 Y-17.587
X15.5 Y-17.591
Y17.592
X58.691 Y17.589
G3 X59.441 Y18.089 I0 J0.813
G2 X60.191 Y18.589 I0.75 J-0.313
G1 X73.79
X79.841 Y18.298
X85.924 Y17.921
X87.421 Y17.79
X94.137 Y16.432
X99.498 Y15.206
X120.122 Y8.382
X121.118 Y7.952
X122.373 Y7.257
G3 X122.808 Y7.062 I1.348 J2.433
G1 X130.633 Y4.346
G2 X136.413 Y2.008 I-6.197 J-23.637
G1 X136.584 Y1.927
X136.76 Y1.858
X136.94 Y1.801
X137.124 Y1.756
X139.548 Y1.26
X141.786 Y0.748
X142.499 Y0.478
X142.827 Y0.245
X137.909 Y-1.602
X137.148 Y-1.751
G3 X136.435 Y-1.995 I0.534 J-2.729
G1 X134.402 Y-3.015
X122.646 Y-7.14
G3 X122.228 Y-7.326 I0.921 J-2.624
G1 X120.933 Y-8.037
X119.835 Y-8.493
X99.353 Y-15.251
X92.92 Y-16.685
X87.292 Y-17.813
X83.506 Y-18.082
X73.785 Y-18.587
X14.5 Y-18.592
Y18.592
X60.191 Y18.589
G3 X60.941 Y19.089 I0 J0.813
G2 X61.691 Y19.589 I0.75 J-0.313
G1 X73.815
X79.896 Y19.296
X85.999 Y18.918
X87.564 Y18.781
X94.348 Y17.41
X99.767 Y16.17
X120.478 Y9.318
X121.56 Y8.85
X122.857 Y8.132
G3 X123.136 Y8.007 I0.863 J1.558
G1 X130.961 Y5.291
G2 X136.87 Y2.898 I-6.383 J-24.255
G1 X137.016 Y2.83
X137.168 Y2.776
X137.325 Y2.736
X139.76 Y2.237
X142.076 Y1.708
X142.974 Y1.368
X144.014 Y0.628
G3 X144.38 Y0.428 I1.032 J1.452
G1 X145.237 Y0.082
X138.183 Y-2.568
X137.34 Y-2.733
G3 X136.883 Y-2.889 I0.342 J-1.748
G1 X134.793 Y-3.938
X122.977 Y-8.083
G3 X122.71 Y-8.203 I0.59 J-1.681
G1 X121.367 Y-8.94
X120.184 Y-9.431
X99.619 Y-16.216
X93.127 Y-17.663
X87.426 Y-18.806
X83.567 Y-19.08
X73.811 Y-19.587
X13.5 Y-19.592
Y19.592
X61.691 Y19.589
G3 X62.441 Y20.089 I0 J0.813
G2 X63.191 Y20.589 I0.75 J-0.313
G1 X73.839
X79.951 Y20.295
X86.073 Y19.915
X87.707 Y19.773
X94.559 Y18.388
X100.036 Y17.134
X120.834 Y10.253
X122.001 Y9.749
G3 X123.464 Y8.952 I4.223 J6.008
G1 X131.289 Y6.235
X133.733 Y5.452
X135.427 Y4.761
X137.325 Y3.786
X137.423 Y3.744
X137.525 Y3.715
X139.972 Y3.214
X142.365 Y2.667
X143.448 Y2.258
X144.594 Y1.443
X144.671 Y1.394
X144.754 Y1.355
X147.992 Y0.048
X138.456 Y-3.533
X137.532 Y-3.714
X137.43 Y-3.742
X137.332 Y-3.783
X135.185 Y-4.86
X123.308 Y-9.027
G3 X121.801 Y-9.843 I2.97 J-7.29
G1 X120.533 Y-10.369
X99.885 Y-17.181
X93.334 Y-18.641
X87.561 Y-19.799
X83.629 Y-20.079
X73.837 Y-20.587
X12.5 Y-20.592
Y20.592
X63.191 Y20.589
X63.244 Y20.585 Z-15.978
X63.295 Y20.571 Z-15.956
X63.343 Y20.548 Z-15.934
X63.386 Y20.517 Z-15.912
X63.418 Y20.486 Z-15.806
X63.444 Y20.451 Z-15.7
G0 Z2
X31.806 Y-0.109
Z-13.7
G1 X31.798 Z-13.766 F50
X31.776 Z-13.829
X31.741 Z-13.886
X31.694 Z-13.933
X31.638 Z-13.969
X31.575 Z-13.992
X31.509 Z-14
X31.5
Y0.109 Z-14.003
X73.425 Y0.107 Z-14.476
X75.682 Y0.008 Z-14.501
X74.153 Y-0.064 Z-14.519
X74.059 Y-0.068 Z-14.52
X73.343 Y-0.106 Z-14.528
X31.5 Y-0.109 Z-15
Y0.109 Z-15.003
X73.425 Y0.107 Z-15.476
X75.682 Y0.008 Z-15.501
X74.153 Y-0.064 Z-15.519
X74.059 Y-0.068 Z-15.52
X73.343 Y-0.106 Z-15.528
X31.5 Y-0.109 Z-16
Y0.109 Z-16.003
X73.425 Y0.107 Z-16.476
X75.682 Y0.008 Z-16.501
X74.153 Y-0.064 Z-16.519
X74.059 Y-0.068 Z-16.52
X73.343 Y-0.106 Z-16.528
X31.5 Y-0.109 Z-17
Y0.109 Z-17.003
X73.425 Y0.107 Z-17.476
X75.682 Y0.008 Z-17.501
X74.153 Y-0.064 Z-17.519
X74.059 Y-0.068 Z-17.52
X73.343 Y-0.106 Z-17.528
X31.509 Y-0.109 Z-18
X31.5 F200
Y0.109
X73.425 Y0.107
X75.682 Y0.008
X74.153 Y-0.064
X74.059 Y-0.068
X73.343 Y-0.106
X31.509 Y-0.109
G3 X31.006 Y-0.322 I0 J-0.698
G2 X30.5 Y-0.118 I-0.212 J0.204
G1 Y1.109
X73.446 Y1.107
X80.202 Y0.812
X82.55 Y0.659
X84.383 Y0.437
X86.537 Y0.006
X84.895 Y-0.354
X84.603 Y-0.407
X82.161 Y-0.687
X74.2 Y-1.063
X74.11 Y-1.067
X73.369 Y-1.106
X30.5 Y-1.109
Y-0.118
G3 X30 Y0.632 I-0.813 J0
G2 X29.5 Y1.382 I0.313 J0.75
G1 Y2.109
X73.468 Y2.107
X80.256 Y1.81
X82.642 Y1.655
X84.541 Y1.425
X87.352 Y0.863
X91.194 Y0.001
X85.092 Y-1.334
X84.749 Y-1.397
X82.242 Y-1.685
X74.247 Y-2.062
X74.162 Y-2.066
X73.395 Y-2.106
X29.5 Y-2.109
Y1.382
G3 X29 Y2.132 I-0.813 J0
G2 X28.5 Y2.882 I0.313 J0.75
G1 Y3.109
X73.49 Y3.107
X80.311 Y2.809
X82.735 Y2.651
X84.7 Y2.413
X87.559 Y1.841
X92.181 Y0.805
X94.738 Y-0.007
X94.574 Y-0.06
X92.007 Y-0.844
X85.288 Y-2.315
X84.896 Y-2.386
X82.322 Y-2.682
X74.294 Y-3.06
X74.214 Y-3.064
X73.421 Y-3.106
X28.5 Y-3.109
Y2.882
G3 X28.132 Y3.449 I-0.62 J0
G2 X28.273 Y4.109 I0.141 J0.315
G1 X73.512 Y4.107
X80.365 Y3.807
X82.828 Y3.647
X84.858 Y3.401
X87.767 Y2.82
X92.442 Y1.771
X97.997 Y0.007
X94.876 Y-1.014
X92.26 Y-1.812
X85.485 Y-3.296
X85.043 Y-3.376
X82.403 Y-3.679
X74.341 Y-4.059
X74.266 Y-4.063
X73.447 Y-4.106
X27.5 Y-4.109
Y4.109
X28.273
G3 X29.023 Y4.609 I0 J0.813
G2 X29.773 Y5.109 I0.75 J-0.313
G1 X73.534 Y5.107
X80.419 Y4.806
X82.92 Y4.643
X85.017 Y4.389
X87.974 Y3.798
X92.703 Y2.738
X98.74 Y0.82
X101.197 Y0.001
X95.177 Y-1.968
X92.513 Y-2.781
X85.681 Y-4.276
X85.19 Y-4.366
X82.484 Y-4.676
X74.388 Y-5.058
X74.318 Y-5.062
X73.473 Y-5.106
X26.5 Y-5.109
Y5.109
X29.773
G3 X30.523 Y5.609 I0 J0.813
G2 X31.273 Y6.109 I0.75 J-0.313
G1 X73.556 Y6.107
X80.474 Y5.805
X83.013 Y5.639
X85.175 Y5.377
X88.182 Y4.776
X92.964 Y3.704
X99.05 Y1.771
X103.342 Y0.34
X104.126 Y0.007
X103.085 Y-0.433
X95.479 Y-2.921
X92.767 Y-3.749
X85.878 Y-5.257
X85.336 Y-5.355
X82.564 Y-5.674
X74.436 Y-6.057
X74.37 Y-6.06
X73.499 Y-6.106
X25.5 Y-6.109
Y6.109
X31.273
G3 X32.023 Y6.609 I0 J0.813
G2 X32.773 Y7.109 I0.75 J-0.313
G1 X73.578 Y7.107
X80.528 Y6.803
X83.106 Y6.636
X85.334 Y6.366
X88.389 Y5.754
X93.226 Y4.67
X99.359 Y2.722
X103.696 Y1.276
X106.689 Y0.004
X103.436 Y-1.371
X95.78 Y-3.875
X93.02 Y-4.717
X86.074 Y-6.238
X85.483 Y-6.345
X82.645 Y-6.671
X74.483 Y-7.056
X74.422 Y-7.059
X73.525 Y-7.106
X24.5 Y-7.109
Y7.109
X32.773
G3 X33.523 Y7.609 I0 J0.813
G2 X34.273 Y8.109 I0.75 J-0.313
G1 X73.6 Y8.107
X80.582 Y7.802
X83.198 Y7.632
X85.492 Y7.354
X88.597 Y6.733
X93.487 Y5.636
X99.669 Y3.673
X104.05 Y2.212
X109.251 Y0.001
X103.786 Y-2.308
X96.082 Y-4.828
X93.273 Y-5.685
X86.271 Y-7.218
X85.63 Y-7.335
X82.726 Y-7.668
X74.53 Y-8.055
X74.474 Y-8.058
X73.551 Y-8.106
X23.5 Y-8.109
Y8.11
X34.273 Y8.109
G3 X35.023 Y8.609 I0 J0.813
G2 X35.773 Y9.109 I0.75 J-0.313
G1 X73.621 Y9.107
X80.636 Y8.8
X83.291 Y8.628
X85.651 Y8.342
X88.804 Y7.711
X93.748 Y6.603
X99.978 Y4.624
X104.405 Y3.148
X111.814 Y-0.001
X104.137 Y-3.246
X96.383 Y-5.782
X93.527 Y-6.654
X86.467 Y-8.199
X85.777 Y-8.325
X82.807 Y-8.666
X74.577 Y-9.054
X74.525 Y-9.056
X73.577 Y-9.106
X22.5 Y-9.109
Y9.11
X35.773 Y9.109
G3 X36.523 Y9.609 I0 J0.813
G2 X37.273 Y10.109 I0.75 J-0.313
G1 X73.643 Y10.107
X80.691 Y9.799
X83.384 Y9.624
X85.809 Y9.33
X89.012 Y8.689
X94.009 Y7.569
X100.288 Y5.575
X104.759 Y4.084
X112.719 Y0.7
X113.949 Y0.011
X112.514 Y-0.791
X104.488 Y-4.183
X96.684 Y-6.735
X93.78 Y-7.622
X86.664 Y-9.179
X85.923 Y-9.314
X82.887 Y-9.663
X74.624 Y-10.053
X74.577 Y-10.055
X73.603 Y-10.106
X21.5 Y-10.109
Y10.11
X37.273 Y10.109
G3 X38.023 Y10.609 I0 J0.813
G2 X38.773 Y11.109 I0.75 J-0.313
G1 X73.665 Y11.107
X80.745 Y10.797
X83.476 Y10.62
X85.967 Y10.318
X89.219 Y9.668
X94.27 Y8.535
X100.597 Y6.526
X105.113 Y5.02
X113.161 Y1.599
X115.996 Y0.009
X112.954 Y-1.691
X104.838 Y-5.12
X96.986 Y-7.689
X94.033 Y-8.59
X86.86 Y-10.16
X86.07 Y-10.304
X82.968 Y-10.66
X74.671 Y-11.052
X74.629 Y-11.054
X73.629 Y-11.106
X20.5 Y-11.109
Y11.11
X38.773 Y11.109
G3 X39.523 Y11.609 I0 J0.813
G2 X40.273 Y12.109 I0.75 J-0.313
G1 X73.687 Y12.107
X80.799 Y11.796
X83.569 Y11.616
X86.126 Y11.306
X89.427 Y10.646
X94.532 Y9.501
X100.907 Y7.477
X105.468 Y5.956
X113.602 Y2.498
X118.043 Y0.008
X113.394 Y-2.59
X105.189 Y-6.058
X97.287 Y-8.642
X94.286 Y-9.558
X87.057 Y-11.141
X86.217 Y-11.294
X83.049 Y-11.658
X74.718 Y-12.05
X74.681 Y-12.052
X73.655 Y-12.106
X19.5 Y-12.11
Y12.11
X40.273 Y12.109
G3 X41.023 Y12.609 I0 J0.813
G2 X41.773 Y13.109 I0.75 J-0.313
G1 X73.709 Y13.107
X80.854 Y12.795
X83.662 Y12.612
X86.284 Y12.294
X89.634 Y11.624
X94.793 Y10.468
X101.216 Y8.428
X105.822 Y6.892
X114.044 Y3.397
X120.09 Y0.006
X113.834 Y-3.49
X105.54 Y-6.995
X97.589 Y-9.596
X94.54 Y-10.526
X87.254 Y-12.121
X86.364 Y-12.283
X83.129 Y-12.655
X74.765 Y-13.049
X74.733 Y-13.051
X73.681 Y-13.106
X18.5 Y-13.11
Y13.11
X41.773 Y13.109
G3 X42.523 Y13.609 I0 J0.813
G2 X43.273 Y14.109 I0.75 J-0.313
G1 X73.731 Y14.107
X80.908 Y13.793
X83.754 Y13.608
X86.443 Y13.282
X89.842 Y12.603
X95.054 Y11.434
X101.526 Y9.379
X106.176 Y7.828
X114.486 Y4.296
X120.892 Y0.703
G3 X121.849 Y0.275 I2.828 J5.042
G1 X122.146 Y-0.036
X121.95 Y-0.24
X121.529 Y-0.409
G3 X120.747 Y-0.772 I2.038 J-5.41
G1 X114.273 Y-4.39
X105.89 Y-7.933
X97.89 Y-10.549
X94.793 Y-11.495
X87.45 Y-13.102
X86.51 Y-13.273
X83.21 Y-13.652
X74.812 Y-14.048
X74.785 Y-14.05
X73.707 Y-14.106
X17.5 Y-14.11
Y14.11
X43.273 Y14.109
G3 X44.023 Y14.609 I0 J0.813
G2 X44.774 Y15.108 I0.75 J-0.313
G1 X73.753 Y15.107
X80.962 Y14.792
X83.847 Y14.604
X86.601 Y14.27
X90.049 Y13.581
X95.315 Y12.4
X101.835 Y10.33
X106.531 Y8.764
X114.927 Y5.195
X121.382 Y1.575
G3 X122.173 Y1.221 I2.339 J4.17
G1 X122.409 Y1.14
X123.53 Y-0.043
X122.508 Y-1.108
X121.882 Y-1.345
G3 X121.235 Y-1.645 I1.685 J-4.474
G1 X114.713 Y-5.29
X106.241 Y-8.87
X98.192 Y-11.503
X95.046 Y-12.463
X87.647 Y-14.083
X86.657 Y-14.263
X83.291 Y-14.65
X74.86 Y-15.047
X73.733 Y-15.106
X16.5 Y-15.11
Y15.11
X44.774 Y15.108
G3 X45.524 Y15.608 I0 J0.813
G2 X46.274 Y16.108 I0.75 J-0.313
G1 X73.775 Y16.107
X81.016 Y15.79
X83.94 Y15.6
X86.76 Y15.259
X90.256 Y14.559
X95.577 Y13.366
X102.145 Y11.28
X106.885 Y9.7
X115.369 Y6.094
X121.871 Y2.447
G3 X122.496 Y2.167 I1.85 J3.298
G1 X122.965 Y2.007
X124.914 Y-0.049
G3 X123.091 Y-1.958 I26.408 J-27.045
G1 X122.234 Y-2.281
G3 X121.723 Y-2.518 I1.333 J-3.539
G1 X115.153 Y-6.189
X106.592 Y-9.808
X98.493 Y-12.456
X95.3 Y-13.431
X87.843 Y-15.063
X86.804 Y-15.253
X83.371 Y-15.647
X74.907 Y-16.046
X73.759 Y-16.106
X15.5 Y-16.11
Y16.11
X46.274 Y16.108
G3 X47.024 Y16.608 I0 J0.813
G2 X47.774 Y17.108 I0.75 J-0.313
G1 X73.797 Y17.107
X81.071 Y16.789
X84.033 Y16.596
X86.918 Y16.247
X90.464 Y15.538
X95.838 Y14.333
X102.454 Y12.231
X107.239 Y10.636
X115.81 Y6.993
X122.36 Y3.319
G3 X122.82 Y3.113 I1.361 J2.426
G1 X123.521 Y2.873
X126.298 Y-0.055
G3 X123.674 Y-2.807 I34.266 J-35.301
G1 X122.587 Y-3.216
G3 X122.21 Y-3.391 I0.98 J-2.603
G1 X115.593 Y-7.089
X106.942 Y-10.745
X98.794 Y-13.41
X95.553 Y-14.399
X88.04 Y-16.044
X86.951 Y-16.242
X83.452 Y-16.644
X74.954 Y-17.045
X73.785 Y-17.106
X14.5 Y-17.11
Y17.11
X47.774 Y17.108
G3 X48.524 Y17.608 I0 J0.813
G2 X49.274 Y18.108 I0.75 J-0.313
G1 X73.818 Y18.107
X81.125 Y17.788
X84.125 Y17.592
X87.077 Y17.235
X90.671 Y16.516
X96.099 Y15.299
X102.764 Y13.182
X107.593 Y11.572
X116.252 Y7.892
X122.849 Y4.191
G3 X123.144 Y4.06 I0.871 J1.554
G1 X124.078 Y3.74
X127.609 Y0.015
X127.646 Y-0.023
X127.684 Y-0.059
X124.827 Y-3.018
X124.779 Y-3.07
X124.257 Y-3.656
X122.939 Y-4.152
G3 X122.698 Y-4.264 I0.628 J-1.667
G1 X116.033 Y-7.989
X107.293 Y-11.682
X99.096 Y-14.364
X95.806 Y-15.368
X88.236 Y-17.025
X87.097 Y-17.232
X83.533 Y-17.641
X75.001 Y-18.044
X73.811 Y-18.106
X13.5 Y-18.11
Y18.11
X49.274 Y18.108
G3 X50.024 Y18.608 I0 J0.813
G2 X50.774 Y19.108 I0.75 J-0.313
G1 X73.84 Y19.107
X81.179 Y18.786
X84.218 Y18.589
X87.235 Y18.223
X90.879 Y17.494
X96.36 Y16.265
X103.073 Y14.133
X107.948 Y12.508
X116.693 Y8.791
X123.338 Y5.063
G3 X124.634 Y4.606 I2.546 J5.153
G1 X128.335 Y0.703
X128.409 Y0.634
X128.492 Y0.575
X129.241 Y0.113
X125.547 Y-3.713
X125.526 Y-3.735
X124.839 Y-4.505
G3 X123.186 Y-5.137 I2.355 J-8.639
G1 X116.473 Y-8.889
X107.644 Y-12.62
X99.397 Y-15.317
X96.06 Y-16.336
X88.433 Y-18.005
X87.244 Y-18.222
X83.614 Y-18.639
X75.048 Y-19.043
X73.837 Y-19.106
X12.5 Y-19.11
Y19.11
X50.774 Y19.108
X50.826 Y19.103 Z-17.978
X50.878 Y19.09 Z-17.956
X50.925 Y19.067 Z-17.934
X50.969 Y19.036 Z-17.912
X51 Y19.005 Z-17.806
X51.026 Y18.97 Z-17.7
G0 Z2
X60.465 Y-0.673
Z-15.7
G18 G3 X60.168 Z-16 I-0.3 K0 F50
G1 X29.5 Z-16.281
Y0.672 Z-16.293
X73.596 Y0.671 Z-16.696
X79.243 Y0.505 Z-16.748
X79.875 Y0.47 Z-16.754
X80.355 Y0.424 Z-16.758
X83.434 Y-0.009 Z-16.787
X79.681 Y-0.494 Z-16.821
X78.194 Y-0.561 Z-16.835
X72.457 Y-0.673 Z-16.888
X29.5 Z-17.281
Y0.672 Z-17.293
X73.596 Y0.671 Z-17.696
X79.243 Y0.505 Z-17.748
X79.875 Y0.47 Z-17.754
X80.355 Y0.424 Z-17.758
X83.434 Y-0.009 Z-17.787
X79.681 Y-0.494 Z-17.821
X78.194 Y-0.561 Z-17.835
X72.457 Y-0.673 Z-17.888
X29.5 Z-18.281
Y0.672 Z-18.293
X73.596 Y0.671 Z-18.696
X79.243 Y0.505 Z-18.748
X79.875 Y0.47 Z-18.754
X80.355 Y0.424 Z-18.758
X83.434 Y-0.009 Z-18.787
X79.681 Y-0.494 Z-18.821
X78.194 Y-0.561 Z-18.835
X72.457 Y-0.673 Z-18.888
X29.5 Z-19.281
Y0.672 Z-19.293
X30.272 Z-19.3
X73.596 Y0.671 F200
X79.243 Y0.505
X79.875 Y0.47
X80.355 Y0.424
X83.434 Y-0.009
X79.681 Y-0.494
X78.194 Y-0.561
X72.457 Y-0.673
X29.5
Y0.672
X30.272
G17 G3 X31.022 Y1.172 I0 J0.813
G2 X31.772 Y1.672 I0.75 J-0.313
G1 X73.611 Y1.671
X79.285 Y1.504
X79.951 Y1.467
X80.473 Y1.417
X86.724 Y0.539
X89.037 Y-0.004
X85.729 Y-0.721
X79.767 Y-1.491
X78.227 Y-1.56
X72.466 Y-1.673
X28.5
Y1.672
X31.772
G3 X32.522 Y2.172 I0 J0.813
G2 X33.272 Y2.672 I0.75 J-0.313
G1 X73.626 Y2.671
X79.328 Y2.503
X80.027 Y2.465
X80.591 Y2.41
X86.908 Y1.522
X91.713 Y0.396
X92.89 Y0.015
X91.314 Y-0.503
X90.874 Y-0.629
X85.899 Y-1.707
X79.854 Y-2.488
X78.259 Y-2.56
X72.476 Y-2.673
X27.5
Y2.672
X33.272
G3 X34.022 Y3.172 I0 J0.813
G2 X34.772 Y3.672 I0.75 J-0.313
G1 X73.64 Y3.671
X79.37 Y3.503
X80.103 Y3.462
X80.709 Y3.404
X87.092 Y2.506
X91.982 Y1.36
X93.747 Y0.789
X95.798 Y0.09
X96.036 Y-0.003
X95.987 Y-0.021
X91.607 Y-1.459
X91.118 Y-1.599
X86.069 Y-2.693
X79.941 Y-3.485
X78.291 Y-3.559
X72.486 Y-3.673
X26.5
Y3.672
X34.772
G3 X35.522 Y4.172 I0 J0.812
G2 X36.272 Y4.672 I0.75 J-0.313
G1 X73.655 Y4.671
X79.412 Y4.502
X80.178 Y4.459
X80.826 Y4.397
X87.276 Y3.49
X92.25 Y2.324
X94.062 Y1.738
X96.141 Y1.03
X98.853 Y-0.024
G2 X91.362 Y-2.57 I-33.957 J87.642
G1 X86.24 Y-3.68
X80.027 Y-4.482
X78.323 Y-4.559
X72.496 Y-4.673
X25.5
Y4.672
X36.272
G3 X37.022 Y5.172 I0 J0.813
G2 X37.772 Y5.672 I0.75 J-0.313
G1 X73.67 Y5.671
X79.454 Y5.501
X80.254 Y5.457
X80.944 Y5.39
X87.46 Y4.474
X92.519 Y3.288
X94.377 Y2.687
X96.483 Y1.969
X101.627 Y-0.029
G2 X91.606 Y-3.54 I-43.048 J106.817
G1 X86.41 Y-4.666
X80.114 Y-5.479
X78.355 Y-5.558
X72.505 Y-5.673
X24.5
Y5.672
X37.772
G3 X38.522 Y6.172 I0 J0.813
G2 X39.272 Y6.672 I0.75 J-0.313
G1 X73.684 Y6.671
X79.497 Y6.5
X80.33 Y6.454
X81.062 Y6.383
X87.644 Y5.458
X92.787 Y4.252
X94.692 Y3.636
X96.825 Y2.909
X103.777 Y0.209
X104.161 Y0.045
X102.557 Y-0.743
G2 X91.85 Y-4.51 I-45.8 J113.071
G1 X86.58 Y-5.652
X80.201 Y-6.477
X78.388 Y-6.558
X72.515 Y-6.673
X23.5
Y6.672
X39.272
G3 X40.022 Y7.172 I0 J0.813
G2 X40.772 Y7.672 I0.75 J-0.313
G1 X73.699 Y7.671
X79.539 Y7.499
X80.405 Y7.451
X81.18 Y7.377
X87.828 Y6.442
X93.056 Y5.216
X95.008 Y4.585
X97.168 Y3.849
X104.154 Y1.135
X105.552 Y0.538
X106.489 Y0.074
X102.958 Y-1.66
G2 X92.094 Y-5.481 I-46.164 J113.919
G1 X86.75 Y-6.639
X80.287 Y-7.474
X78.42 Y-7.558
X72.525 Y-7.673
X22.5
Y7.672
X40.772
G3 X41.523 Y8.172 I0 J0.813
G2 X42.273 Y8.672 I0.75 J-0.313
G1 X73.714 Y8.671
X79.581 Y8.499
X80.481 Y8.449
X81.297 Y8.37
X88.013 Y7.426
X93.324 Y6.181
X95.323 Y5.534
X97.51 Y4.789
X104.532 Y2.061
X105.971 Y1.446
X108.751 Y0.071
X103.358 Y-2.578
G2 X92.338 Y-6.451 I-46.53 J114.776
G1 X86.921 Y-7.625
X80.374 Y-8.471
X78.452 Y-8.557
X72.535 Y-8.673
X21.5
Y8.672
X42.273
G3 X43.023 Y9.172 I0 J0.813
G2 X43.773 Y9.672 I0.75 J-0.313
G1 X73.728 Y9.671
X79.623 Y9.498
X80.557 Y9.446
X81.415 Y9.363
X88.197 Y8.41
X93.593 Y7.145
X95.638 Y6.483
X97.853 Y5.728
X104.909 Y2.987
X106.389 Y2.355
X111.013 Y0.068
X103.759 Y-3.495
G2 X92.581 Y-7.421 I-46.902 J115.646
G1 X87.091 Y-8.611
X80.461 Y-9.468
X78.484 Y-9.557
X72.544 Y-9.673
X20.5
Y9.672
X43.773
G3 X44.523 Y10.172 I0 J0.813
G2 X45.273 Y10.672 I0.75 J-0.313
G1 X73.743 Y10.671
X79.666 Y10.497
X80.633 Y10.444
X81.533 Y10.356
X88.381 Y9.394
X93.861 Y8.109
X95.953 Y7.432
X98.195 Y6.668
X105.287 Y3.913
X106.807 Y3.264
X111.624 Y0.881
X112.963 Y-0.048
X112.787 Y-0.175
X104.16 Y-4.412
G2 X92.825 Y-8.392 I-47.277 J116.524
G1 X87.261 Y-9.598
X80.547 Y-10.465
X78.516 Y-10.556
X72.554 Y-10.673
X19.5
Y10.672
X45.273
G3 X46.023 Y11.172 I0 J0.813
G2 X46.773 Y11.672 I0.75 J-0.313
G1 X73.758 Y11.671
X79.708 Y11.496
X80.708 Y11.441
X81.651 Y11.35
X88.565 Y10.378
X94.13 Y9.073
X96.268 Y8.381
X98.538 Y7.608
X105.664 Y4.839
X107.226 Y4.172
X112.134 Y1.745
X114.691 Y-0.03
X113.305 Y-1.035
X104.56 Y-5.33
G2 X93.069 Y-9.362 I-47.656 J117.414
G1 X87.431 Y-10.584
X80.634 Y-11.462
X78.549 Y-11.556
X72.564 Y-11.673
X18.5
Y11.672
X46.773
G3 X47.523 Y12.172 I0 J0.813
G2 X48.273 Y12.672 I0.75 J-0.313
G1 X73.772 Y12.671
X79.75 Y12.495
X80.784 Y12.438
X81.768 Y12.343
X88.749 Y11.362
X94.398 Y10.037
X96.583 Y9.33
X98.88 Y8.548
X106.042 Y5.765
X107.644 Y5.081
X112.643 Y2.608
X116.409 Y-0.005
X116.384 Y-0.037
X113.823 Y-1.895
X104.961 Y-6.247
G2 X93.313 Y-10.332 I-48.038 J118.311
G1 X87.602 Y-11.57
X80.721 Y-12.459
X78.581 Y-12.555
X72.574 Y-12.673
X17.5
Y12.672
X48.273
G3 X49.023 Y13.171 I0 J0.813
G2 X49.773 Y13.671 I0.75 J-0.313
G1 X73.787
X79.792 Y13.494
X80.86 Y13.436
X81.886 Y13.336
X88.933 Y12.346
X94.667 Y11.001
X96.898 Y10.279
X99.223 Y9.487
X106.419 Y6.692
X108.063 Y5.99
X113.153 Y3.472
X117.199 Y0.664
X117.734 Y0.052
X117.081 Y-0.766
X114.341 Y-2.755
X105.362 Y-7.164
G2 X93.557 Y-11.303 I-48.424 J119.217
G1 X87.772 Y-12.556
X80.807 Y-13.456
X78.613 Y-13.555
X72.583 Y-13.673
X16.5
Y13.672
X49.773 Y13.671
G3 X50.523 Y14.171 I0 J0.813
G2 X51.273 Y14.671 I0.75 J-0.313
G1 X73.802
X79.835 Y14.494
X80.935 Y14.433
X82.004 Y14.33
X89.117 Y13.33
X94.935 Y11.966
X97.214 Y11.228
X99.565 Y10.427
X106.797 Y7.618
X108.481 Y6.898
X113.662 Y4.336
X117.871 Y1.415
X118.629 Y0.548
X118.756 Y0.325
X118.855 Y-0.005
X118.859 Y-0.141
X117.778 Y-1.496
X114.858 Y-3.615
X105.762 Y-8.082
X101.983 Y-9.535
X99.606 Y-10.411
X94.84 Y-11.976
X93.801 Y-12.273
X87.942 Y-13.543
X80.894 Y-14.453
X78.645 Y-14.554
X72.593 Y-14.673
X15.5
Y14.672
X51.273 Y14.671
G3 X52.023 Y15.171 I0 J0.813
G2 X52.773 Y15.671 I0.75 J-0.313
G1 X73.816
X79.877 Y15.493
X81.011 Y15.43
X82.122 Y15.323
X89.301 Y14.314
X95.204 Y12.93
X97.529 Y12.177
X99.908 Y11.367
X107.174 Y8.544
X108.899 Y7.807
X114.172 Y5.199
X118.542 Y2.166
X119.448 Y1.13
X119.681 Y0.721
X119.851 Y0.157
X119.865 Y-0.309
X119.802 Y-0.563
X118.475 Y-2.226
X115.376 Y-4.474
X106.163 Y-8.999
X102.335 Y-10.471
X99.935 Y-11.355
X95.133 Y-12.932
X94.045 Y-13.244
X88.113 Y-14.529
X80.981 Y-15.451
X78.677 Y-15.554
X72.603 Y-15.673
X14.5
Y15.672
X52.773 Y15.671
G3 X53.523 Y16.171 I0 J0.813
G2 X54.273 Y16.671 I0.75 J-0.313
G1 X73.831
X79.919 Y16.492
X81.087 Y16.428
X82.239 Y16.316
X89.486 Y15.298
X95.472 Y13.894
X97.844 Y13.127
X100.25 Y12.307
X107.552 Y9.47
X109.318 Y8.716
X114.681 Y6.063
X119.214 Y2.917
X120.267 Y1.713
G2 X120.726 Y-1.018 I-2.373 J-1.803
G1 X119.172 Y-2.956
X115.894 Y-5.334
X106.563 Y-9.916
X102.687 Y-11.406
X100.264 Y-12.3
X95.427 Y-13.888
X94.289 Y-14.214
X88.283 Y-15.515
X81.067 Y-16.448
X78.71 Y-16.554
X72.613 Y-16.673
X13.5
Y16.672
X54.273 Y16.671
G3 X55.023 Y17.171 I0 J0.813
G2 X55.773 Y17.671 I0.75 J-0.313
G1 X73.846
X79.961 Y17.491
X81.163 Y17.425
X82.357 Y17.309
X89.67 Y16.282
X95.741 Y14.858
X98.159 Y14.076
X100.593 Y13.247
X107.93 Y10.396
X109.736 Y9.625
X115.191 Y6.927
X119.885 Y3.668
X121.086 Y2.295
G2 X121.642 Y-1.471 I-3.199 J-2.397
G1 X119.869 Y-3.685
X116.412 Y-6.194
X106.964 Y-10.834
X103.04 Y-12.342
X100.593 Y-13.244
X95.721 Y-14.844
X94.533 Y-15.184
X88.453 Y-16.502
X81.154 Y-17.445
X78.742 Y-17.553
X72.622 Y-17.673
X12.5
Y17.673
X55.773 Y17.671
X55.826 Y17.667 Z-19.278
X55.877 Y17.653 Z-19.256
X55.925 Y17.63 Z-19.234
X55.968 Y17.599 Z-19.212
X55.999 Y17.568 Z-19.106
X56.025 Y17.533 Z-19
G0 Z2

(Pocket5)
X129.624 Y-14.094
Z2
G1 Z-0.7 F600
X129.621 Y-14.1 Z-0.767
X129.611 Y-14.121 Z-0.83
X129.596 Y-14.153 Z-0.887
X129.576 Y-14.196 Z-0.935
X129.551 Y-14.247 Z-0.97
X129.524 Y-14.304 Z-0.992
X129.495 Y-14.365 Z-1
X128.448 Y-16.566
G2 X127.259 Y-17.48 I-1.492 J0.71
G1 X126.765 Y-17.572
X123.495 Y-18.125
X123.446 Y-18.135
X113.619 Y-20.44
X101.143 Y-23.299
X92.914 Y-24.848
X90.758 Y-25.176
X84.245 Y-25.916
X79.906 Y-26.138
X73.374 Y-26.369
X12
Y26.369
X73.372
X83.165 Y25.995
X85.319 Y25.794
X91.838 Y25.034
X97.27 Y24.037
X101.621 Y23.2
X121.261 Y18.662
X123.441 Y18.136
X123.495 Y18.125
X130.041 Y17.026
G3 X141.338 Y15.361 I22.325 J112.367
G1 X149.793 Y14.991
X151.968 Y14.847
X152.02 Y14.845
X236 Y14.836
Y-14.836
X152.02 Y-14.845
X151.968 Y-14.847
X146.517 Y-15.212
G3 X134.403 Y-16.148 I3.334 J-122.04
G1 X127.259 Y-17.48
G2 X127.093 Y-17.276 I-0.027 J0.147
G1 X127.52 Y-16.237
X128.328 Y-15.743
G2 X128.544 Y-15.928 I0.076 J-0.129
G1 X128.518 Y-15.99 Z-1.008
X128.495 Y-16.049 Z-1.03
X128.473 Y-16.102 Z-1.065
X128.455 Y-16.146 Z-1.113
X128.442 Y-16.179 Z-1.17
X128.433 Y-16.199 Z-1.233
X128.431 Y-16.206 Z-1.3
Z-1.7
X128.428 Y-16.213 Z-1.767
X128.419 Y-16.234 Z-1.83
X128.406 Y-16.267 Z-1.887
X128.388 Y-16.311 Z-1.935
X128.367 Y-16.364 Z-1.97
X128.343 Y-16.422 Z-1.992
X128.318 Y-16.484 Z-2
G2 X127.237 Y-17.347 I-1.311 J0.533
G1 X123.498 Y-17.965
X123.444 Y-17.976
X112.526 Y-20.578
X101.623 Y-23.086
X93.999 Y-24.518
X90.752 Y-25.077
X84.248 Y-25.793
X76.633 Y-26.133
X73.374 Y-26.24
X12
Y26.24
X73.372
X82.089 Y25.904
X84.246 Y25.793
X90.75 Y25.078
X97.272 Y23.923
X101.62 Y23.086
X117.984 Y19.294
X123.441 Y17.977
X123.472 Y17.97
X123.502 Y17.964
X137.7 Y15.703
G3 X140.52 Y15.301 I9.474 J56.36
G1 X146.517 Y15.048
X151.968 Y14.687
X152.02 Y14.686
X236 Y14.677
Y-14.677
X152.02 Y-14.686
X151.965 Y-14.688
X137.767 Y-15.69
G3 X135.22 Y-15.903 I3.855 J-61.586
G1 X130.041 Y-16.884
X127.237 Y-17.347
G2 X127.104 Y-17.097 I-0.024 J0.148
G1 X128.747 Y-15.404
G3 X128.713 Y-15.106 I-0.017 J0.149
X128.58 Y-15.261 I0.017 J-0.149
G1 X128.584 Y-15.728
X128.559 Y-15.79 Z-2.008
X128.535 Y-15.849 Z-2.03
X128.514 Y-15.902 Z-2.065
X128.496 Y-15.946 Z-2.113
X128.482 Y-15.979 Z-2.17
X128.474 Y-15.999 Z-2.233
X128.471 Y-16.006 Z-2.3
Z-2.7
X128.468 Y-16.013 Z-2.767
X128.46 Y-16.034 Z-2.83
X128.446 Y-16.067 Z-2.887
X128.429 Y-16.111 Z-2.935
X128.407 Y-16.164 Z-2.97
X128.383 Y-16.222 Z-2.992
X128.358 Y-16.284 Z-3
G2 X127.213 Y-17.198 I-1.388 J0.566
G1 X123.498 Y-17.808
X123.47 Y-17.813
X123.443 Y-17.819
X109.249 Y-21.219
X101.622 Y-22.973
X96.184 Y-23.999
X89.66 Y-25.104
X85.338 Y-25.592
X76.632 Y-26.006
X73.374 Y-26.114
X12
Y26.114
X73.372
X80.997 Y25.815
X85.337 Y25.593
X89.659 Y25.104
X98.366 Y23.602
X101.62 Y22.974
X114.32 Y20.022
X123.441 Y17.819
X123.471 Y17.812
X123.502 Y17.807
X134.423 Y16.062
G3 X139.7 Y15.265 I11.115 J55.738
G1 X143.24 Y15.108
X151.968 Y14.53
X152.02 Y14.528
X236 Y14.52
Y-14.52
X151.969 Y-14.532
X151.913 Y-14.534
X137.772 Y-15.546
X136.348 Y-15.627
X136.299 Y-15.631
X136.251 Y-15.638
X132.228 Y-16.374
X127.213 Y-17.198
G2 X127.065 Y-16.964 I-0.024 J0.148
G1 X128.117 Y-15.506
X128.664 Y-15.548
G2 X128.77 Y-15.785 I-0.015 J-0.149
G1 X128.731 Y-15.839 Z-3.008
X128.694 Y-15.891 Z-3.03
X128.661 Y-15.937 Z-3.065
X128.634 Y-15.976 Z-3.113
X128.613 Y-16.005 Z-3.17
X128.6 Y-16.023 Z-3.233
X128.596 Y-16.029 Z-3.3
Z-3.7
X128.591 Y-16.035 Z-3.767
X128.578 Y-16.053 Z-3.83
X128.557 Y-16.082 Z-3.887
X128.53 Y-16.121 Z-3.935
X128.497 Y-16.167 Z-3.97
X128.46 Y-16.218 Z-3.992
X128.421 Y-16.273 Z-4
G2 X127.187 Y-17.04 I-1.543 J1.106
G1 X123.498 Y-17.649
X123.47 Y-17.654
X123.442 Y-17.66
X105.972 Y-21.86
X101.624 Y-22.86
X96.185 Y-23.856
X89.656 Y-24.981
X86.426 Y-25.372
X76.631 Y-25.878
X73.374 Y-25.985
X12
Y25.985
X73.372
X79.903 Y25.725
X86.425 Y25.373
X89.655 Y24.981
X100.539 Y23.075
X104.456 Y22.208
X116.89 Y19.242
X123.441 Y17.66
X123.472 Y17.654
X123.502 Y17.648
X132.237 Y16.257
X138.378 Y15.25
X138.417 Y15.244
X138.455 Y15.241
X151.97 Y14.371
X152.02 Y14.369
X236 Y14.361
Y-14.361
X152.02 Y-14.369
X151.966 Y-14.371
X139.955 Y-15.195
X137.362 Y-15.364
X137.324 Y-15.368
X137.286 Y-15.373
X127.187 Y-17.04
G2 X126.853 Y-16.838 I-0.049 J0.296
G1 X126.097 Y-14.562
X126.076 Y-14.499 Z-3.992
X126.056 Y-14.439 Z-3.97
X126.038 Y-14.385 Z-3.935
X126.023 Y-14.34 Z-3.887
X126.012 Y-14.306 Z-3.83
X126.005 Y-14.285 Z-3.767
X126.003 Y-14.278 Z-3.7
G0 Z2
X148.753 Y13.313
G1 Z-2 F50
Z-4.76 F600
X148.759 Y13.314 Z-4.813
X148.776 Y13.319 Z-4.864
X148.804 Y13.326 Z-4.91
X148.841 Y13.336 Z-4.948
X148.885 Y13.347 Z-4.976
X148.934 Y13.36 Z-4.994
X148.986 Y13.373 Z-5
X149.032 Y13.382
X149.079 Y13.383
X151.914 Y13.214
X151.967 Y13.211
X152.02 Y13.21
X235 Y13.202
X235.032 Y13.198 Z-4.987
X235.062 Y13.187 Z-4.973
X235.089 Y13.169 Z-4.96
X235.116 Y13.139 Z-4.863
G0 Z2.082
X235 Y-12.844
G1 Z-2 F50
Z-4.7 F600
G19 G2 Y-13.144 Z-5 J-0.3 K0
G1 Y-13.174
Y-13.202
X152.02 Y-13.211
X151.966
X151.912 Y-13.214
X149.292 Y-13.373
G17 G3 X148.574 Y-13.917 I0.049 J-0.811
G2 X147.855 Y-14.462 I-0.768 J0.267
G1 X137.775 Y-15.073
X137.731 Y-15.077
X137.687 Y-15.083
X131.139 Y-16.232
X123.498 Y-17.49
X123.47 Y-17.495
X123.442 Y-17.501
X101.624 Y-22.746
X90.728 Y-24.653
X88.571 Y-25.025
X86.434 Y-25.244
X74.46 Y-25.831
X49.36 Y-25.857
X12
Y25.857
X73.371
X78.812 Y25.635
X86.433 Y25.244
X88.571 Y25.025
X100.54 Y22.961
X103.949 Y22.209
X123.441 Y17.501
X123.469 Y17.495
X123.498 Y17.49
X133.323 Y15.869
X137.96 Y15.052
X138.004 Y15.046
X138.049 Y15.042
X151.973 Y14.212
X152.02 Y14.21
X236 Y14.202
Y-14.202
X152.02 Y-14.211
X151.973 Y-14.212
X147.855 Y-14.462
G2 X147.717 Y-14.237 I-0.009 J0.15
G1 X148.215 Y-13.385
X148.554 Y-12.987
X149.377 Y-12.673
G2 X149.541 Y-12.913 I0.05 J-0.141
G1 X149.497 Y-12.964 Z-5.008
X149.455 Y-13.011 Z-5.03
X149.418 Y-13.054 Z-5.065
X149.387 Y-13.09 Z-5.113
X149.363 Y-13.117 Z-5.17
X149.349 Y-13.134 Z-5.233
X149.344 Y-13.14 Z-5.3
Z-5.7
X149.339 Y-13.145 Z-5.767
X149.324 Y-13.162 Z-5.83
X149.301 Y-13.189 Z-5.887
X149.27 Y-13.225 Z-5.935
X149.232 Y-13.268 Z-5.97
X149.191 Y-13.315 Z-5.992
X149.147 Y-13.366 Z-6
G2 X147.825 Y-14.024 I-1.455 J1.267
G1 X138.315 Y-14.682
X138.28 Y-14.685
X138.245 Y-14.69
X136.607 Y-14.952
X123.485 Y-17.334
X123.444 Y-17.342
X101.623 Y-22.522
X87.632 Y-25.037
X74.459 Y-25.703
X49.36 Y-25.73
X12
Y25.73
X73.37
X79.181 Y25.471
X87.768 Y25.02
X101.623 Y22.522
X123.991 Y17.23
X124.032 Y17.221
X137.683 Y14.752
X137.727 Y14.745
X137.77 Y14.741
X147.595 Y14.083
X151.958 Y13.738
X151.989 Y13.736
X152.02 Y13.735
X236 Y13.726
Y-13.726
X152.02 Y-13.735
X151.966 Y-13.737
X147.825 Y-14.024
X147.754
X147.684 Y-14.014
X142.485 Y-12.886
X142.408 Y-12.876
X142.329 Y-12.877
X142.263 Y-12.884 Z-6.008
X142.2 Y-12.89 Z-6.03
X142.143 Y-12.896 Z-6.065
X142.096 Y-12.901 Z-6.113
X142.06 Y-12.905 Z-6.17
X142.038 Y-12.907 Z-6.233
X142.031 Y-12.908 Z-6.3
Z-6.7
X142.023 Z-6.767
X142.001 Y-12.91 Z-6.83
X141.966 Y-12.914 Z-6.887
X141.918 Y-12.919 Z-6.935
X141.862 Y-12.925 Z-6.97
X141.799 Y-12.931 Z-6.992
X141.732 Y-12.938 Z-7
X140.613 Y-13.051
X137.644 Y-13.35
X137.58 Y-13.358
X137.517 Y-13.368
X128.78 Y-14.889
X123.884 Y-15.746
X123.81 Y-15.761
X123.736 Y-15.779
X118.824 Y-17.077
X116.999 Y-17.509
G2 X116.652 Y-17.331 I-0.069 J0.292
G1 X115.813 Y-15.285
X115.788 Y-15.223 Z-6.992
X115.764 Y-15.165 Z-6.97
X115.743 Y-15.112 Z-6.935
X115.724 Y-15.068 Z-6.887
X115.711 Y-15.035 Z-6.83
X115.703 Y-15.014 Z-6.767
X115.7 Y-15.008 Z-6.7
G0 Z2
X117.366 Y17.311
Z0
G1 Z-4 F50
Z-6.76 F600
X117.372 Y17.312 Z-6.813
X117.39 Y17.313 Z-6.864
X117.418 Y17.316 Z-6.91
X117.456 Y17.319 Z-6.948
X117.501 Y17.322 Z-6.976
X117.552 Y17.327 Z-6.994
X117.605 Y17.331 Z-7
X117.652
X117.699 Y17.324
X119.622 Y16.867
X123.734 Y15.779
X123.8 Y15.763
X123.868 Y15.749
X133.411 Y13.995
X136.165 Y13.562
X138.14 Y13.307
X138.184 Y13.302
X138.229 Y13.298
X144.227 Y12.825
G3 X152.02 Y12.226 I15.757 J153.894
G1 X235 Y12.217
Y12.17
X234.996 Y12.123
X234.985 Y12.077
X234.967 Y12.034
X233.591 Y9.333
X233.561 Y9.274 Z-6.992
X233.532 Y9.217 Z-6.97
X233.506 Y9.166 Z-6.935
X233.485 Y9.124 Z-6.887
X233.468 Y9.092 Z-6.83
X233.458 Y9.072 Z-6.767
X233.455 Y9.066 Z-6.7
G0 Z2
X234.954 Y-11.849
G1 Z-4 F50
Z-6.73 F600
X234.955 Y-11.856 Z-6.79
X234.958 Y-11.876 Z-6.847
X234.963 Y-11.907 Z-6.898
X234.97 Y-11.95 Z-6.941
X234.978 Y-12 Z-6.973
X234.987 Y-12.056 Z-6.993
X234.996 Y-12.116 Z-7
X235 Y-12.163
Y-12.217
X152.02 Y-12.226
X151.959 Y-12.227
X151.898 Y-12.23
X142.919 Y-12.846
G3 X142.201 Y-13.401 I0.056 J-0.814
G2 X141.493 Y-13.967 I-0.793 J0.266
G1 X137.744 Y-14.345
X137.716 Y-14.349
X137.688 Y-14.353
X128.951 Y-15.874
X124.057 Y-16.731
X124.024 Y-16.738
X123.992 Y-16.745
X119.067 Y-18.048
X101.483 Y-22.205
X87.49 Y-24.71
X73.908 Y-25.596
X12 Y-25.602
Y25.602
X74.18 Y25.582
X87.762 Y24.681
X101.622 Y22.171
X119.865 Y17.837
X123.99 Y16.745
X124.019 Y16.738
X124.048 Y16.732
X134.951 Y14.729
X134.992 Y14.723
X138.268 Y14.299
X138.307 Y14.295
X144.31 Y13.822
X147.583 Y13.532
X151.966 Y13.228
X152.02 Y13.226
X236 Y13.217
Y-13.217
X152.02 Y-13.226
X151.966 Y-13.227
X142.137 Y-13.902
X142.112 Y-13.904
X141.493 Y-13.967
G2 X141.343 Y-13.753 I-0.015 J0.149
G1 X141.958 Y-12.482
X142.998 Y-12.141
G2 X143.157 Y-12.381 I0.044 J-0.144
G1 X143.114 Y-12.432 Z-7.008
X143.074 Y-12.481 Z-7.03
X143.037 Y-12.524 Z-7.065
X143.007 Y-12.561 Z-7.113
X142.984 Y-12.588 Z-7.17
X142.97 Y-12.605 Z-7.233
X142.965 Y-12.611 Z-7.3
Z-7.7
X142.96 Y-12.617 Z-7.767
X142.946 Y-12.634 Z-7.83
X142.923 Y-12.661 Z-7.887
X142.892 Y-12.698 Z-7.935
X142.856 Y-12.741 Z-7.97
X142.815 Y-12.79 Z-7.992
X142.772 Y-12.841 Z-8
G2 X141.454 Y-13.531 I-1.492 J1.247
G3 X137.695 Y-13.86 I5.984 J-90.072
G1 X130.05 Y-15.125
X123.481 Y-16.352
X123.452 Y-16.358
X123.423 Y-16.365
X113.847 Y-18.931
X101.623 Y-21.821
X87.491 Y-24.359
X75.531 Y-25.126
X73.372 Y-25.211
X12
Y25.211
X73.369
X77.711 Y25.001
X87.762 Y24.33
X101.623 Y21.821
X114.696 Y18.725
X123.421 Y16.366
X123.452 Y16.358
X123.482 Y16.352
X132.765 Y14.63
G3 X137.751 Y13.853 I39.813 J238.919
G1 X144.304 Y13.25
X151.966 Y12.718
X152.02 Y12.716
X236 Y12.707
Y-12.707
X152.02 Y-12.716
X151.965 Y-12.718
X145.413 Y-13.176
X141.454 Y-13.531
G2 X141.136 Y-13.306 I-0.027 J0.299
G1 X140.311 Y-10.025
X140.294 Y-9.96 Z-7.992
X140.279 Y-9.899 Z-7.97
X140.265 Y-9.844 Z-7.935
X140.253 Y-9.798 Z-7.887
X140.245 Y-9.763 Z-7.83
X140.239 Y-9.742 Z-7.767
X140.237 Y-9.734 Z-7.7
G0 Z2
X107.787 Y18.882
Z-6
G1 Z-8.76 F600
X107.793 Z-8.813
X107.811 Y18.884 Z-8.864
X107.839 Y18.886 Z-8.91
X107.877 Y18.889 Z-8.948
X107.923 Y18.893 Z-8.976
X107.973 Y18.897 Z-8.994
X108.027 Y18.901 Z-9
X108.074
X108.12 Y18.894
X110.081 Y18.427
X123.16 Y14.891
X123.23 Y14.874
X123.3 Y14.859
X130.299 Y13.562
G2 X137.563 Y12.302 I-16.829 J-118.605
G1 X139.814 Y12.056
X139.883 Y12.05
X151.896 Y11.211
X151.958 Y11.208
X152.02 Y11.207
X235 Y11.198
Y10.87
Y7.37
G19 G2 Y7.07 Z-8.7 J0 K0.3
G0 Z2
X234.954 Y-10.535
G1 Z-6 F50
Z-8.73 F600
X234.955 Y-10.542 Z-8.79
X234.958 Y-10.562 Z-8.847
X234.963 Y-10.594 Z-8.898
X234.97 Y-10.636 Z-8.941
X234.978 Y-10.686 Z-8.973
X234.987 Y-10.743 Z-8.993
X234.996 Y-10.802 Z-9
X235 Y-10.849
Y-11.198
X152.02 Y-11.207
X151.954 Y-11.208
X151.889 Y-11.211
X148.613 Y-11.453
X140.965 Y-12.047
X137.693 Y-12.286
G17 G3 X133.129 Y-13.036 I5.885 J-50.091
G1 X123.3 Y-14.859
X123.231 Y-14.873
X123.162 Y-14.89
X108.991 Y-18.7
X107.44 Y-19.067
G3 X106.825 Y-19.726 I0.187 J-0.791
G2 X106.21 Y-20.385 I-0.802 J0.132
G1 X101.623 Y-21.47
X87.491 Y-24.008
X77.714 Y-24.619
X73.37 Y-24.811
X12
Y24.811
X73.368
X80.987 Y24.435
X87.762 Y23.98
X101.622 Y21.47
X110.327 Y19.396
X123.421 Y15.856
X123.452 Y15.849
X123.482 Y15.842
X130.481 Y14.545
X133.323 Y14.107
X137.68 Y13.297
X139.952 Y13.048
X151.966 Y12.209
X152.02 Y12.207
X236 Y12.198
Y-12.198
X152.02 Y-12.207
X151.991
X151.962 Y-12.209
X148.686 Y-12.451
X141.04 Y-13.045
X137.766 Y-13.283
X137.73 Y-13.287
X137.695 Y-13.292
X133.326 Y-14.016
X123.482 Y-15.842
X123.452 Y-15.849
X123.422 Y-15.856
X109.236 Y-19.67
X106.21 Y-20.385
G2 X106.045 Y-20.167 I-0.035 J0.146
G1 X107.176 Y-18.187
X107.216 Y-18.173
X107.258 Y-18.171
X107.299 Y-18.181
X107.335 Y-18.202
X107.364 Y-18.232
X107.384 Y-18.269
X107.448 Y-18.574
X107.419 Y-18.634 Z-9.008
X107.392 Y-18.691 Z-9.03
X107.368 Y-18.743 Z-9.065
X107.347 Y-18.786 Z-9.113
X107.332 Y-18.818 Z-9.17
X107.322 Y-18.838 Z-9.233
X107.319 Y-18.845 Z-9.3
Z-9.7
X107.316 Y-18.851 Z-9.767
X107.307 Y-18.871 Z-9.83
X107.291 Y-18.904 Z-9.887
X107.271 Y-18.947 Z-9.935
X107.246 Y-18.998 Z-9.97
X107.219 Y-19.055 Z-9.992
X107.191 Y-19.116 Z-10
G2 X106.111 Y-20.017 I-1.517 J0.72
G1 X104.867 Y-20.352
X101.623 Y-21.119
X87.491 Y-23.657
X80.99 Y-24.06
X73.369 Y-24.41
X12
Y24.41
X73.369
X83.171 Y23.941
X87.762 Y23.629
X101.655 Y21.111
X106.114 Y20.025
X123.421 Y15.347
G3 X130.042 Y14.167 I21.168 J99.631
G1 X136.579 Y12.879
X137.944 Y12.61
X137.992 Y12.603
X138.04 Y12.598
X149.769 Y11.77
X151.942 Y11.553
X151.981 Y11.55
X152.02 Y11.549
X236 Y11.539
Y-11.539
X152.02 Y-11.55
X151.987
X151.954 Y-11.552
X146.499 Y-12.014
X137.767 Y-12.633
X137.717 Y-12.638
X137.667 Y-12.646
X134.397 Y-13.311
X123.483 Y-15.333
X123.452 Y-15.339
X123.421 Y-15.347
X106.111 Y-20.017
G2 X105.759 Y-19.85 I-0.078 J0.29
G1 X104.445 Y-16.911
X104.417 Y-16.85 Z-9.992
X104.392 Y-16.792 Z-9.97
X104.368 Y-16.741 Z-9.935
X104.349 Y-16.697 Z-9.887
X104.334 Y-16.665 Z-9.83
X104.325 Y-16.644 Z-9.767
X104.322 Y-16.637 Z-9.7
G0 Z2
X87.007 Y22.246
Z-8
G1 Z-10.76 F600
X87.013 Y22.248 Z-10.813
X87.03 Y22.252 Z-10.864
X87.058 Y22.259 Z-10.91
X87.095 Y22.268 Z-10.948
X87.139 Y22.279 Z-10.976
X87.188 Y22.291 Z-10.994
X87.24 Y22.304 Z-11
X87.286 Y22.312
X87.333
X87.598 Y22.294
X99.506 Y20.127
X101.369 Y19.74
X123.162 Y13.875
G3 X129.813 Y12.572 I47.271 J223.649
G1 X137.445 Y10.917
X137.519 Y10.903
X137.593 Y10.891
X137.668 Y10.883
X144.845 Y10.26
G3 X152.02 Y9.555 I13.212 J97.549
G1 X235 Y9.545
Y8.842
Y5.342
G19 G2 Y5.042 Z-10.7 J0 K0.3
G0 Z2
X234.911 Y-8.543
G1 Z-8 F50
Z-10.76 F600
X234.913 Y-8.549 Z-10.813
X234.918 Y-8.565 Z-10.864
X234.927 Y-8.593 Z-10.91
X234.939 Y-8.629 Z-10.948
X234.953 Y-8.672 Z-10.976
X234.969 Y-8.72 Z-10.994
X234.985 Y-8.771 Z-11
X234.996 Y-8.817
X235 Y-8.864
Y-9.545
X152.02 Y-9.556
X151.938 Y-9.557
X151.857 Y-9.563
X138.206 Y-10.815
X137.448 Y-10.918
X127.641 Y-13.024
X123.295 Y-13.844
X123.228 Y-13.858
X123.162 Y-13.875
X101.378 Y-19.737
X97.085 Y-20.583
X87.723 Y-22.252
G17 G3 X87.082 Y-22.83 I0.143 J-0.804
G2 X86.406 Y-23.367 I-0.716 J0.206
G1 X80.993 Y-23.662
X73.369 Y-24.011
X12
Y24.011
X73.368
X86.446 Y23.377
X87.724 Y23.287
X99.697 Y21.109
X101.601 Y20.713
X123.422 Y14.84
G3 X130.018 Y13.55 I47.446 J225.113
G1 X137.657 Y11.894
X137.706 Y11.885
X137.755 Y11.879
X144.951 Y11.255
G3 X152.02 Y10.555 I13.275 J98.022
G1 X236 Y10.545
Y-10.545
X152.02 Y-10.556
X151.984
X151.949 Y-10.559
X138.297 Y-11.811
X137.658 Y-11.896
X127.839 Y-14.004
X123.48 Y-14.827
X123.451 Y-14.833
X123.422 Y-14.84
X101.605 Y-20.712
X97.27 Y-21.566
X87.495 Y-23.308
X86.406 Y-23.367
G2 X86.262 Y-23.154 I-0.008 J0.15
G1 X86.826 Y-21.956
X87.759 Y-21.529
G2 X87.944 Y-21.748 I0.06 J-0.138
G1 X87.908 Y-21.804 Z-11.008
X87.874 Y-21.857 Z-11.03
X87.843 Y-21.905 Z-11.065
X87.817 Y-21.945 Z-11.113
X87.798 Y-21.975 Z-11.17
X87.786 Y-21.994 Z-11.233
X87.782 Y-22 Z-11.3
Z-11.7
X87.778 Y-22.007 Z-11.767
X87.766 Y-22.025 Z-11.83
X87.746 Y-22.055 Z-11.887
X87.721 Y-22.095 Z-11.935
X87.69 Y-22.143 Z-11.97
X87.656 Y-22.196 Z-11.992
X87.62 Y-22.252 Z-12
G2 X86.384 Y-22.972 I-1.324 J0.852
G1 X83.176 Y-23.153
X73.369 Y-23.608
X12
Y23.608
X73.369
X86.44 Y22.993
X87.746 Y22.878
X101.818 Y20.021
X121.217 Y14.86
X123.379 Y14.144
X123.414 Y14.134
X123.45 Y14.124
X134.371 Y11.618
G3 X142.091 Y10.508 I11.482 J52.462
G1 X144.432 Y10.165
X144.482 Y10.159
X151.957 Y9.551
X151.988 Y9.549
X152.02
X236 Y9.539
Y-9.539
X152.02 Y-9.55
X151.983
X151.947 Y-9.553
X143.21 Y-10.371
X137.734 Y-10.993
X137.696 Y-10.999
X137.659 Y-11.006
X127.83 Y-13.113
G3 X120.675 Y-15.011 I8.477 J-46.387
G1 X101.605 Y-20.078
X87.486 Y-22.91
X86.384 Y-22.972
G2 X86.074 Y-22.736 I-0.017 J0.3
G1 X85.368 Y-19.476
X85.354 Y-19.411 Z-11.992
X85.34 Y-19.349 Z-11.97
X85.328 Y-19.293 Z-11.935
X85.318 Y-19.247 Z-11.887
X85.311 Y-19.212 Z-11.83
X85.306 Y-19.19 Z-11.767
X85.304 Y-19.183 Z-11.7
G0 Z2
X135.928 Y8.216
Z-10
G1 Z-12.76 F600
X135.934 Y8.217 Z-12.813
X135.952 Y8.218 Z-12.864
X135.98 Y8.221 Z-12.91
X136.018 Y8.224 Z-12.948
X136.064 Y8.228 Z-12.976
X136.114 Y8.233 Z-12.994
X136.167 Y8.237 Z-13
X136.214 Y8.238
X136.261 Y8.231
G3 X140.13 Y7.554 I6.835 J27.676
G1 X141.294 Y7.412
X151.794 Y6.558
X151.869 Y6.553
X151.945 Y6.55
X152.02 Y6.549
X234 Y6.539
Y5.836
Y-5.832
Y-6.539
X152.02 Y-6.55
G3 X151.749 Y-6.563 I0 J-2.781
G1 X137.551 Y-7.955
G3 X137.287 Y-7.993 I0.271 J-2.768
G1 X136.413 Y-8.165
X132.979 Y-8.838
X132.913 Y-8.851 Z-12.992
X132.851 Y-8.863 Z-12.97
X132.795 Y-8.874 Z-12.935
X132.749 Y-8.883 Z-12.887
X132.713 Y-8.89 Z-12.83
X132.692 Y-8.894 Z-12.767
X132.684 Y-8.896 Z-12.7
G0 Z2
X234.954 Y-5.507
G1 Z-10 F50
Z-12.73 F600
X234.955 Y-5.514 Z-12.79
X234.958 Y-5.533 Z-12.847
X234.963 Y-5.565 Z-12.898
X234.97 Y-5.607 Z-12.941
X234.978 Y-5.658 Z-12.973
X234.987 Y-5.714 Z-12.993
X234.996 Y-5.774 Z-13
X235 Y-5.821
Y-7.539
X152.02 Y-7.55
X151.962
X151.904 Y-7.553
X151.846 Y-7.558
X137.649 Y-8.95
X137.592 Y-8.956
X137.536 Y-8.965
X137.48 Y-8.975
X132.019 Y-10.045
X131.947 Y-10.061
X123.21 Y-12.154
X123.139 Y-12.172
X123.068 Y-12.194
X114.926 Y-14.873
X101.378 Y-18.473
X87.342 Y-21.289
X77.65 Y-22.018
X73.348 Y-22.208
X13
Y-22.067
X13.004 Y-22.02
X13.015 Y-21.974
X13.033 Y-21.931
X14.473 Y-19.105
X14.503 Y-19.045 Z-12.992
X14.532 Y-18.989 Z-12.97
X14.558 Y-18.938 Z-12.935
X14.579 Y-18.896 Z-12.887
X14.595 Y-18.864 Z-12.83
X14.605 Y-18.844 Z-12.767
X14.609 Y-18.837 Z-12.7
G0 Z2
X13 Y21.735
G1 Z-10 F50
Z-12.7 F600
G19 G3 Y22.035 Z-13 J0.3 K0
G1 Y22.065
Y22.208
X73.347
X78.737 Y21.961
X87.605 Y21.256
X101.376 Y18.474
X115.502 Y14.7
X123.065 Y12.195
X123.119 Y12.178
X123.173 Y12.163
X123.228 Y12.149
X131.965 Y10.153
G17 G2 X137.486 Y8.975 I-12.007 J-69.756
G3 X140.954 Y8.443 I9.095 J47.753
G1 X151.876 Y7.555
X151.948 Y7.55
X152.02 Y7.549
X235 Y7.539
Y5.851
G3 X235.5 Y5.101 I0.813 J0
G2 X236 Y4.351 I-0.313 J-0.75
G1 Y-8.539
X152.02 Y-8.55
X151.982
X151.944 Y-8.553
X137.746 Y-9.945
X137.709 Y-9.95
X137.672 Y-9.956
X132.212 Y-11.027
X132.18 Y-11.034
X123.443 Y-13.126
X123.412 Y-13.134
X123.381 Y-13.144
X115.211 Y-15.832
X101.605 Y-19.448
X87.478 Y-22.282
X77.709 Y-23.017
X73.37 Y-23.208
X12
Y23.208
X73.37
X78.799 Y22.959
X87.744 Y22.249
X101.604 Y19.448
X115.789 Y15.658
X123.379 Y13.144
X123.415 Y13.133
X123.451 Y13.124
X132.188 Y11.128
G2 X137.675 Y9.957 I-11.772 J-68.61
G3 X141.035 Y9.44 I8.841 J46.227
G1 X151.957 Y8.551
X151.988 Y8.549
X152.02
X236 Y8.539
Y4.351
X235 Y-5.19
G19 G3 Y-5.49 Z-13.3 J0 K-0.3
G1 Z-13.7
G2 Y-5.79 Z-14 J-0.3 K0
G1 Y-5.825
Y-5.907
X152.02 Y-5.922
G17 G3 X151.764 Y-5.94 I0 J-1.781
G1 X144.592 Y-6.982
X142.54 Y-7.192
G2 X141.992 Y-6.644 I-0.051 J0.497
G1 X143.342 Y6.602
G2 X143.89 Y7.049 I0.497 J-0.051
X151.762 Y5.94 I-68.699 J-516.372
G3 X152.02 Y5.922 I0.258 J1.762
G1 X235 Y5.907
Y5.813
G3 X235.5 Y5.063 I0.813 J0
G2 X236 Y4.313 I-0.313 J-0.75
G1 Y-6.907
X152.02 Y-6.922
X151.982 Y-6.923
X151.945 Y-6.925
