(Generated with: DXF2GCODE, Version: Py3.6.7 PyQt5.11.3, Date: $Date: Fri Oct 25 20:45:56 2019 +0200 $)
(Created from file: C:/Users/Ferdinand Hubbard/Desktop/solarplane/temp/airfoil test sml.dxf)
(Output format description: G-CODE)
(Time: Tue Jul 20 18:14:47 2021)
G21 (Units in millimeters)
G90 (Absolute programming)
G64 (Default cutting) G17 (XY plane) G40 (Cancel radius comp.) G49 (Cancel length comp.)
G0 Z   2.000 

(*** LAYER: Visible (ANSI) ***)
T1 M6
S16000

(* SHAPE Nr: 19 *)
G0 X  62.692 Y  -6.904
M3 M8
G0 Z   0.000 
F10
G1 Z  -0.500
F100
G1 X  62.692 Y  12.452
G3 X  67.660 Y  15.961 I   0.985 J   3.877
G1 X  88.280 Y  16.459
G3 X  88.291 Y  16.392 I   3.955 J   0.596
G1 X  76.803 Y   4.904
G1 X  65.326 Y  -6.573
G3 X  62.692 Y  -6.904 I  -0.847 J  -3.909
F10
G1 Z  -1.000
F100
G1 X  62.692 Y  12.452
G3 X  67.660 Y  15.961 I   0.985 J   3.877
G1 X  88.280 Y  16.459
G3 X  88.291 Y  16.392 I   3.955 J   0.596
G1 X  76.803 Y   4.904
G1 X  65.326 Y  -6.573
G3 X  62.692 Y  -6.904 I  -0.847 J  -3.909
F10
G1 Z   0.000
G0 Z   2.000 
M9 M5

(* SHAPE Nr: 18 *)

(* SHAPE Nr: 17 *)

(* SHAPE Nr: 16 *)
G0 X -62.339 Y   2.571
M3 M8
G0 Z   0.000 
G1 Z  -0.500
F100
G1 X -63.993 Y   0.917
G1 X -65.655 Y  -0.744
G3 X -70.603 Y  -3.822 I  -1.026 J  -3.866
G1 X -74.435 Y  -3.539
G1 X -78.735 Y  -3.221
G3 X -86.280 Y  -2.674 I-261.758 J-3559.099
G3 X -93.903 Y  -2.147 I-121.334 J-1698.988
G3 X-100.881 Y  -1.724 I -37.365 J-558.466
G1 X -84.412 Y   0.192
G1 X -62.389 Y   2.755
G3 X -62.339 Y   2.571 I   3.884 J   0.955
F10
G1 Z  -1.000
F100
G1 X -63.993 Y   0.917
G1 X -65.655 Y  -0.744
G3 X -70.603 Y  -3.822 I  -1.026 J  -3.866
G1 X -74.435 Y  -3.539
G1 X -78.735 Y  -3.221
G3 X -86.280 Y  -2.674 I-261.758 J-3559.099
G3 X -93.903 Y  -2.147 I-121.334 J-1698.988
G3 X-100.881 Y  -1.724 I -37.365 J-558.466
G1 X -84.412 Y   0.192
G1 X -62.389 Y   2.755
G3 X -62.339 Y   2.571 I   3.884 J   0.955
F10
G1 Z   0.000
G0 Z   2.000 
M9 M5

(* SHAPE Nr: 15 *)
G0 X  96.394 Y  16.656
M3 M8
G0 Z   0.000 
G1 Z  -0.500
F100
G1 X 149.324 Y  17.935
G1 X 136.467 Y   5.078
G1 X 123.346 Y  -8.044
G3 X 121.019 Y  -7.969 I  -1.286 J  -3.788
G1 X  96.394 Y  16.656
F10
G1 Z  -1.000
F100
G1 X 149.324 Y  17.935
G1 X 136.467 Y   5.078
G1 X 123.346 Y  -8.044
G3 X 121.019 Y  -7.969 I  -1.286 J  -3.788
G1 X  96.394 Y  16.656
F10
G1 Z   0.000
G0 Z   2.000 
M9 M5

(* SHAPE Nr: 14 *)
G0 X   7.060 Y  -4.579
M3 M8
G0 Z   0.000 
G1 Z  -0.500
F100
G3 X   9.341 Y  -8.132 I  12.786 J   5.699
G1 X   7.091 Y  -8.054
G1 X   4.784 Y  -7.974
G3 X   7.060 Y  -4.579 I  -9.090 J   8.555
F10
G1 Z  -1.000
F100
G3 X   9.341 Y  -8.132 I  12.786 J   5.699
G1 X   7.091 Y  -8.054
G1 X   4.784 Y  -7.974
G3 X   7.060 Y  -4.579 I  -9.090 J   8.555
F10
G1 Z   0.000
G0 Z   2.000 
M9 M5

(* SHAPE Nr: 13 *)
G0 X 216.646 Y  -7.515
M3 M8
G0 Z   0.000 
G1 Z  -0.500
F100
G1 X 216.646 Y  13.788
G3 X 220.113 Y  17.250 I  -0.500 J   3.969
G1 X 221.936 Y  17.241
G3 X 222.438 Y  17.741 I   0.002 J   0.500
G1 X 222.438 Y  20.522
G2 X 223.104 Y  20.271 I  -5.587 J -15.833
G2 X 224.497 Y  19.679 I -13.731 J -34.220
G2 X 226.722 Y  18.630 I -28.422 J -63.197
G2 X 232.453 Y  15.573 I -45.067 J -91.387
G2 X 235.145 Y  13.953 I -39.449 J -68.595
G2 X 237.113 Y  12.647 I -26.087 J -41.461
G2 X 237.863 Y  12.104 I -15.825 J -22.650
G3 X 231.577 Y  -9.239 I   2.324 J -12.282
G2 X 230.738 Y  -9.349 I  -9.970 J  72.718
G2 X 226.971 Y  -9.782 I -22.999 J 183.441
G2 X 218.619 Y -10.518 I -26.729 J 255.552
G3 X 216.646 Y  -7.515 I  -3.973 J  -0.461
F10
G1 Z  -1.000
F100
G1 X 216.646 Y  13.788
G3 X 220.113 Y  17.250 I  -0.500 J   3.969
G1 X 221.936 Y  17.241
G3 X 222.438 Y  17.741 I   0.002 J   0.500
G1 X 222.438 Y  20.522
G2 X 223.104 Y  20.271 I  -5.587 J -15.833
G2 X 224.497 Y  19.679 I -13.731 J -34.220
G2 X 226.722 Y  18.630 I -28.422 J -63.197
G2 X 232.453 Y  15.573 I -45.067 J -91.387
G2 X 235.145 Y  13.953 I -39.449 J -68.595
G2 X 237.113 Y  12.647 I -26.087 J -41.461
G2 X 237.863 Y  12.104 I -15.825 J -22.650
G3 X 231.577 Y  -9.239 I   2.324 J -12.282
G2 X 230.738 Y  -9.349 I  -9.970 J  72.718
G2 X 226.971 Y  -9.782 I -22.999 J 183.441
G2 X 218.619 Y -10.518 I -26.729 J 255.552
G3 X 216.646 Y  -7.515 I  -3.973 J  -0.461
F10
G1 Z   0.000
G0 Z   2.000 
M9 M5

(* SHAPE Nr: 12 *)
G0 X -51.848 Y  -5.154
M3 M8
G0 Z   0.000 
G1 Z  -0.500
F100
G2 X -53.946 Y  -5.011 I 143.085 J2109.251
G2 X -62.687 Y  -4.397 I 219.635 J3190.681
G3 X -62.820 Y  -3.566 I  -3.994 J  -0.213
G1 X -59.435 Y  -0.181
G3 X -57.004 Y   0.002 I   0.930 J   3.890
G1 X -54.078 Y  -2.924
G1 X -51.848 Y  -5.154
F10
G1 Z  -1.000
F100
G2 X -53.946 Y  -5.011 I 143.085 J2109.251
G2 X -62.687 Y  -4.397 I 219.635 J3190.681
G3 X -62.820 Y  -3.566 I  -3.994 J  -0.213
G1 X -59.435 Y  -0.181
G3 X -57.004 Y   0.002 I   0.930 J   3.890
G1 X -54.078 Y  -2.924
G1 X -51.848 Y  -5.154
F10
G1 Z   0.000
G0 Z   2.000 
M9 M5

(* SHAPE Nr: 11 *)
G0 X -13.968 Y  -7.319
M3 M8
G0 Z   0.000 
G1 Z  -0.500
F100
G1 X -14.582 Y  -7.298
G3 X -17.530 Y  -3.670 I  -3.993 J  -0.234
G1 X -17.530 Y   4.784
G3 X -15.657 Y   8.192 I  -2.127 J   3.388
G1 X -14.052 Y   8.379
G3 X -16.787 Y   0.603 I   9.745 J  -7.797
G3 X -16.787 Y   0.602 I   0.500 J  -0.001
G1 X -16.787 Y   0.582
G1 X -16.787 Y   0.562
G3 X -16.787 Y   0.561 I   0.500 J   0.000
G3 X -13.968 Y  -7.319 I  12.481 J   0.021
F10
G1 Z  -1.000
F100
G1 X -14.582 Y  -7.298
G3 X -17.530 Y  -3.670 I  -3.993 J  -0.234
G1 X -17.530 Y   4.784
G3 X -15.657 Y   8.192 I  -2.127 J   3.388
G1 X -14.052 Y   8.379
G3 X -16.787 Y   0.603 I   9.745 J  -7.797
G3 X -16.787 Y   0.602 I   0.500 J  -0.001
G1 X -16.787 Y   0.582
G1 X -16.787 Y   0.562
G3 X -16.787 Y   0.561 I   0.500 J   0.000
G3 X -13.968 Y  -7.319 I  12.481 J   0.021
F10
G1 Z   0.000
G0 Z   2.000 
M9 M5

(* SHAPE Nr: 10 *)
G0 X -21.530 Y   4.637
M3 M8
G0 Z   0.000 
G1 Z  -0.500
F100
G1 X -21.530 Y  -1.775
G1 X -29.476 Y   6.191
G3 X -29.467 Y   6.585 I  -3.990 J   0.288
G1 X -23.555 Y   7.273
G3 X -21.530 Y   4.637 I   3.898 J   0.899
F10
G1 Z  -1.000
F100
G1 X -21.530 Y  -1.775
G1 X -29.476 Y   6.191
G3 X -29.467 Y   6.585 I  -3.990 J   0.288
G1 X -23.555 Y   7.273
G3 X -21.530 Y   4.637 I   3.898 J   0.899
F10
G1 Z   0.000
G0 Z   2.000 
M9 M5

(* SHAPE Nr: 9 *)
G0 X -22.440 Y  -6.498
M3 M8
G0 Z   0.000 
G1 Z  -0.500
F100
G3 X -22.528 Y  -6.916 I   3.864 J  -1.033
G2 X -35.965 Y  -6.164 I 119.641 J2256.417
G2 X -43.068 Y  -5.730 I 102.045 J1729.657
G3 X -43.081 Y  -5.565 I  -3.992 J  -0.223
G1 X -34.805 Y   2.710
G3 X -31.786 Y   2.848 I   1.340 J   3.769
G1 X -22.440 Y  -6.498
F10
G1 Z  -1.000
F100
G3 X -22.528 Y  -6.916 I   3.864 J  -1.033
G2 X -35.965 Y  -6.164 I 119.641 J2256.417
G2 X -43.068 Y  -5.730 I 102.045 J1729.657
G3 X -43.081 Y  -5.565 I  -3.992 J  -0.223
G1 X -34.805 Y   2.710
G3 X -31.786 Y   2.848 I   1.340 J   3.769
G1 X -22.440 Y  -6.498
F10
G1 Z   0.000
G0 Z   2.000 
M9 M5

(* SHAPE Nr: 8 *)
G0 X 157.623 Y  18.135
M3 M8
G0 Z   0.000 
G1 Z  -0.500
F100
G1 X 211.370 Y  19.434
G1 X 211.370 Y  17.777
G3 X 211.870 Y  17.277 I   0.500 J   0.000
G1 X 212.175 Y  17.277
G3 X 212.356 Y  16.478 I   3.971 J   0.480
G1 X 187.382 Y  -8.396
G3 X 184.188 Y  -8.430 I  -1.558 J  -3.684
G1 X 157.623 Y  18.135
F10
G1 Z  -1.000
F100
G1 X 211.370 Y  19.434
G1 X 211.370 Y  17.777
G3 X 211.870 Y  17.277 I   0.500 J   0.000
G1 X 212.175 Y  17.277
G3 X 212.356 Y  16.478 I   3.971 J   0.480
G1 X 187.382 Y  -8.396
G3 X 184.188 Y  -8.430 I  -1.558 J  -3.684
G1 X 157.623 Y  18.135
F10
G1 Z   0.000
G0 Z   2.000 
M9 M5

(* SHAPE Nr: 7 *)
G0 X -37.525 Y   5.648
M3 M8
G0 Z   0.000 
G1 Z  -0.500
F100
G1 X -45.461 Y  -2.288
G3 X -48.926 Y  -2.417 I  -1.599 J  -3.664
G1 X -54.538 Y   3.195
G3 X -54.505 Y   3.672 I  -3.967 J   0.515
G1 X -37.525 Y   5.648
F10
G1 Z  -1.000
F100
G1 X -45.461 Y  -2.288
G3 X -48.926 Y  -2.417 I  -1.599 J  -3.664
G1 X -54.538 Y   3.195
G3 X -54.505 Y   3.672 I  -3.967 J   0.515
G1 X -37.525 Y   5.648
F10
G1 Z   0.000
G0 Z   2.000 
M9 M5

(* SHAPE Nr: 6 *)
G0 X 189.921 Y -11.621
M3 M8
G0 Z   0.000 
G1 Z  -0.500
F100
G1 X 212.646 Y  11.104
G1 X 212.646 Y  -7.515
G3 X 210.646 Y -10.977 I   2.000 J  -3.464
G2 X 210.072 Y -11.003 I -18.853 J 415.770
G2 X 207.093 Y -11.125 I -22.213 J 505.269
G2 X 196.805 Y -11.462 I -37.142 J 975.904
G2 X 191.017 Y -11.599 I -21.165 J 769.444
G2 X 189.921 Y -11.621 I -15.745 J 788.027
F10
G1 Z  -1.000
F100
G1 X 212.646 Y  11.104
G1 X 212.646 Y  -7.515
G3 X 210.646 Y -10.977 I   2.000 J  -3.464
G2 X 210.072 Y -11.003 I -18.853 J 415.770
G2 X 207.093 Y -11.125 I -22.213 J 505.269
G2 X 196.805 Y -11.462 I -37.142 J 975.904
G2 X 191.017 Y -11.599 I -21.165 J 769.444
G2 X 189.921 Y -11.621 I -15.745 J 788.027
F10
G1 Z   0.000
G0 Z   2.000 
M9 M5

(* SHAPE Nr: 5 *)
G0 X   6.819 Y   6.244
M3 M8
G0 Z   0.000 
G1 Z  -0.500
F100
G3 X   3.392 Y  10.408 I -11.125 J  -5.662
G1 X   6.918 Y  10.819
G1 X  10.123 Y  11.192
G3 X   6.819 Y   6.244 I   9.724 J -10.071
F10
G1 Z  -1.000
F100
G3 X   3.392 Y  10.408 I -11.125 J  -5.662
G1 X   6.918 Y  10.819
G1 X  10.123 Y  11.192
G3 X   6.819 Y   6.244 I   9.724 J -10.071
F10
G1 Z   0.000
G0 Z   2.000 
M9 M5

(* SHAPE Nr: 4 *)
G0 X 125.992 Y -11.100
M3 M8
G0 Z   0.000 
G1 Z  -0.500
F100
G1 X 152.740 Y  14.642
G3 X 155.232 Y  14.869 I   0.903 J   3.897
G1 X 168.495 Y   1.606
G1 X 181.834 Y -11.733
G2 X 178.619 Y -11.760 I -11.117 J1140.756
G2 X 167.328 Y -11.802 I -12.422 J1793.375
G2 X 157.454 Y -11.783 I  -1.196 J1895.414
G2 X 144.601 Y -11.687 I  10.170 J2221.091
G2 X 126.040 Y -11.440 I  32.864 J3170.314
G3 X 125.992 Y -11.100 I  -3.981 J  -0.391
F10
G1 Z  -1.000
F100
G1 X 152.740 Y  14.642
G3 X 155.232 Y  14.869 I   0.903 J   3.897
G1 X 168.495 Y   1.606
G1 X 181.834 Y -11.733
G2 X 178.619 Y -11.760 I -11.117 J1140.756
G2 X 167.328 Y -11.802 I -12.422 J1793.375
G2 X 157.454 Y -11.783 I  -1.196 J1895.414
G2 X 144.601 Y -11.687 I  10.170 J2221.091
G2 X 126.040 Y -11.440 I  32.864 J3170.314
G3 X 125.992 Y -11.100 I  -3.981 J  -0.391
F10
G1 Z   0.000
G0 Z   2.000 
M9 M5

(* SHAPE Nr: 3 *)
G0 X  68.290 Y  -9.266
M3 M8
G0 Z   0.000 
G1 Z  -0.500
F100
G1 X  90.856 Y  13.301
G3 X  93.951 Y  13.442 I   1.379 J   3.755
G1 X 106.048 Y   1.345
G1 X 118.194 Y -10.802
G3 X 118.095 Y -11.302 I   3.865 J  -1.030
G2 X 110.043 Y -11.144 I  66.978 J3620.851
G2 X  96.184 Y -10.836 I  94.371 J4553.998
G1 X  92.379 Y -10.744
G1 X  86.719 Y -10.602
G1 X  81.130 Y -10.456
G2 X  75.397 Y -10.300 I 125.495 J4708.700
G2 X  69.211 Y -10.123 I 119.506 J4287.980
G2 X  68.461 Y -10.101 I 126.604 J4318.900
G3 X  68.290 Y  -9.266 I  -3.982 J  -0.381
F10
G1 Z  -1.000
F100
G1 X  90.856 Y  13.301
G3 X  93.951 Y  13.442 I   1.379 J   3.755
G1 X 106.048 Y   1.345
G1 X 118.194 Y -10.802
G3 X 118.095 Y -11.302 I   3.865 J  -1.030
G2 X 110.043 Y -11.144 I  66.978 J3620.851
G2 X  96.184 Y -10.836 I  94.371 J4553.998
G1 X  92.379 Y -10.744
G1 X  86.719 Y -10.602
G1 X  81.130 Y -10.456
G2 X  75.397 Y -10.300 I 125.495 J4708.700
G2 X  69.211 Y -10.123 I 119.506 J4287.980
G2 X  68.461 Y -10.101 I 126.604 J4318.900
G3 X  68.290 Y  -9.266 I  -3.982 J  -0.381
F10
G1 Z   0.000
G0 Z   2.000 
M9 M5

(* SHAPE Nr: 2 *)
G0 X  12.068 Y  -6.658
M3 M8
G0 Z   0.000 
G1 Z  -0.500
F100
G2 X  27.624 Y   8.899 I   7.778 J   7.778
G2 X  12.068 Y  -6.658 I  -7.778 J  -7.778
F10
G1 Z  -1.000
F100
G2 X  27.624 Y   8.899 I   7.778 J   7.778
G2 X  12.068 Y  -6.658 I  -7.778 J  -7.778
F10
G1 Z   0.000
G0 Z   2.000 
M9 M5

(* SHAPE Nr: 1 *)
G0 X   0.997 Y   5.885
M3 M8
G0 Z   0.000 
G1 Z  -0.500
F100
G2 X  -9.610 Y  -4.721 I  -5.303 J  -5.303
G2 X   0.997 Y   5.885 I   5.303 J   5.303
F10
G1 Z  -1.000
F100
G2 X  -9.610 Y  -4.721 I  -5.303 J  -5.303
G2 X   0.997 Y   5.885 I   5.303 J   5.303
F10
G1 Z   0.000
G0 Z   2.000 
M9 M5

(* SHAPE Nr: 0 *)
G0 X  42.276 Y  -2.534
M3 M8
G0 Z   0.000 
G1 Z  -0.500
F100
G2 X  52.883 Y   8.073 I   5.303 J   5.303
G2 X  42.276 Y  -2.534 I  -5.303 J  -5.303
F10
G1 Z  -1.000
F100
G2 X  52.883 Y   8.073 I   5.303 J   5.303
G2 X  42.276 Y  -2.534 I  -5.303 J  -5.303
F10
G1 Z   0.000
G0 Z   2.000 
M9 M5

(* SHAPE Nr: 20 *)
G0 X  -0.944 Y -11.570
M3 M8
G0 Z   0.000 
G1 Z  -0.500
F100
G3 X  -3.910 Y -11.447 I -54.515 J-1277.230
G1 X  -7.206 Y -11.316
G2 X -11.863 Y -11.127 I 101.931 J2576.426
G2 X -21.701 Y -10.673 I  41.996 J1015.038
G2 X -30.080 Y -10.230 I 122.691 J2401.522
G2 X -40.927 Y  -9.620 I 178.515 J3270.228
G2 X -55.080 Y  -8.735 I  89.284 J1541.618
G2 X -68.351 Y  -7.814 I 196.320 J2924.269
G2 X -75.348 Y  -7.306 I 292.162 J4075.042
G1 X -86.162 Y  -6.509
G3 X -96.513 Y  -5.771 I-206.743 J-2826.336
G3 X-101.494 Y  -5.438 I -62.130 J-894.361
G3 X-106.539 Y  -5.140 I -34.246 J-536.142
G3 X-112.531 Y  -4.848 I -28.679 J-526.859
G3 X-112.931 Y  -4.832 I  -4.224 J -98.147
G2 X-113.051 Y  -4.812 I   0.019 J   0.500
G1 X-113.124 Y  -4.791
G2 X-115.499 Y  -2.294 I   0.124 J   2.497
G1 X-115.499 Y  -1.887
G2 X-114.999 Y  -1.387 I   0.500 J  -0.000
G1 X-110.499 Y  -1.387
G1 X-110.499 Y   0.168
G2 X-110.056 Y   0.664 I   0.500 J   0.000
G1 X  48.629 Y  18.598
G2 X  49.742 Y  17.604 I   0.112 J  -0.994
G1 X  49.742 Y  16.515
G1 X  53.742 Y  16.515
G1 X  53.742 Y  17.843
G2 X  54.715 Y  18.843 I   1.000 J   0.000
G1 X 134.278 Y  20.986
G1 X 213.841 Y  23.128
G2 X 214.868 Y  22.128 I   0.027 J  -1.000
G1 X 214.868 Y  21.203
G1 X 214.868 Y  20.777
G1 X 218.868 Y  20.777
G1 X 218.868 Y  24.581
G2 X 220.220 Y  25.526 I   1.007 J   0.000
G1 X 220.363 Y  25.474
G1 X 220.507 Y  25.421
G2 X 220.508 Y  25.421 I  -0.171 J  -0.470
G2 X 221.638 Y  24.998 I -25.538 J -69.811
G2 X 229.950 Y  21.337 I -34.037 J -88.561
G2 X 234.415 Y  18.935 I -36.625 J -73.424
G2 X 239.994 Y  15.350 I -35.632 J -61.588
G2 X 242.858 Y  13.186 I -35.555 J -50.043
G2 X 244.644 Y  11.682 I -30.556 J -38.079
G2 X 245.526 Y  10.880 I -28.864 J -32.643
G2 X 245.650 Y  10.697 I  -0.341 J  -0.365
G1 X 246.481 Y   8.566
G1 X 247.311 Y   6.436
G2 X 246.855 Y   4.723 I  -1.398 J  -0.545
G1 X 246.647 Y   4.555
G2 X 245.949 Y   4.624 I  -0.314 J   0.389
G3 X 245.870 Y  -5.072 I  -5.761 J  -4.802
G2 X 246.565 Y  -5.011 I   0.379 J  -0.326
G1 X 246.617 Y  -5.054
G2 X 246.668 Y  -7.026 I  -0.821 J  -1.008
G1 X 241.756 Y -11.466
G2 X 241.528 Y -11.584 I  -0.335 J   0.371
G2 X 240.040 Y -11.898 I -22.911 J 104.622
G2 X 238.541 Y -12.193 I -21.636 J 105.980
G2 X 234.790 Y -12.835 I -19.967 J 105.376
G2 X 231.240 Y -13.329 I -19.702 J 128.807
G2 X 226.902 Y -13.824 I -25.518 J 204.285
G2 X 223.738 Y -14.130 I -25.077 J 242.457
G2 X 219.235 Y -14.494 I -21.718 J 240.602
G2 X 213.833 Y -14.828 I -20.186 J 282.565
G2 X 208.113 Y -15.092 I -24.189 J 462.851
G2 X 197.484 Y -15.450 I -34.303 J 860.123
G2 X 188.139 Y -15.651 I -21.377 J 777.025
G2 X 178.285 Y -15.760 I -17.187 J1110.182
G2 X 158.575 Y -15.782 I -11.863 J1796.129
G2 X 139.593 Y -15.624 I  10.492 J2401.458
G2 X 114.581 Y -15.225 I  41.843 J3409.027
G2 X  94.239 Y -14.778 I  85.185 J4343.221
G2 X  94.238 Y -14.778 I   0.012 J   0.500
G1 X  85.046 Y -14.547
G1 X  80.405 Y -14.424
G1 X  75.754 Y -14.297
G2 X  62.559 Y -13.909 I 110.359 J3978.142
G2 X  53.314 Y -13.595 I  48.842 J1572.441
G2 X  50.151 Y -13.470 I  22.592 J 611.450
G2 X  49.467 Y -13.440 I  19.515 J 463.219
G1 X  38.000 Y -13.079
G1 X  26.688 Y -12.722
G2 X  26.682 Y -12.725 I  -0.215 J   0.546
G2 X  26.450 Y -12.786 I  -0.405 J   1.063
G2 X  26.157 Y -12.818 I  -0.505 J   3.279
G2 X  25.692 Y -12.836 I  -0.622 J   9.763
G2 X  24.982 Y -12.837 I  -0.390 J  24.241
G2 X  23.738 Y -12.808 I   0.806 J  61.152
G2 X  21.866 Y -12.734 I   5.208 J 155.262
G2 X  19.583 Y -12.623 I  16.814 J 368.576
G2 X  17.631 Y -12.520 I  45.767 J 883.013
G2 X  17.630 Y -12.520 I   0.027 J   0.499
G1 X  14.067 Y -12.324
G3 X   8.048 Y -11.999 I-132.779 J-2404.966
G3 X   3.003 Y -11.747 I -47.845 J-907.867
G3 X  -0.944 Y -11.570 I -41.896 J-888.945
F10
G1 Z  -1.000
F100
G3 X  -3.910 Y -11.447 I -54.515 J-1277.230
G1 X  -7.206 Y -11.316
G2 X -11.863 Y -11.127 I 101.931 J2576.426
G2 X -21.701 Y -10.673 I  41.996 J1015.038
G2 X -30.080 Y -10.230 I 122.691 J2401.522
G2 X -40.927 Y  -9.620 I 178.515 J3270.228
G2 X -55.080 Y  -8.735 I  89.284 J1541.618
G2 X -68.351 Y  -7.814 I 196.320 J2924.269
G2 X -75.348 Y  -7.306 I 292.162 J4075.042
G1 X -86.162 Y  -6.509
G3 X -96.513 Y  -5.771 I-206.743 J-2826.336
G3 X-101.494 Y  -5.438 I -62.130 J-894.361
G3 X-106.539 Y  -5.140 I -34.246 J-536.142
G3 X-112.531 Y  -4.848 I -28.679 J-526.859
G3 X-112.931 Y  -4.832 I  -4.224 J -98.147
G2 X-113.051 Y  -4.812 I   0.019 J   0.500
G1 X-113.124 Y  -4.791
G2 X-115.499 Y  -2.294 I   0.124 J   2.497
G1 X-115.499 Y  -1.887
G2 X-114.999 Y  -1.387 I   0.500 J  -0.000
G1 X-110.499 Y  -1.387
G1 X-110.499 Y   0.168
G2 X-110.056 Y   0.664 I   0.500 J   0.000
G1 X  48.629 Y  18.598
G2 X  49.742 Y  17.604 I   0.112 J  -0.994
G1 X  49.742 Y  16.515
G1 X  53.742 Y  16.515
G1 X  53.742 Y  17.843
G2 X  54.715 Y  18.843 I   1.000 J   0.000
G1 X 134.278 Y  20.986
G1 X 213.841 Y  23.128
G2 X 214.868 Y  22.128 I   0.027 J  -1.000
G1 X 214.868 Y  21.203
G1 X 214.868 Y  20.777
G1 X 218.868 Y  20.777
G1 X 218.868 Y  24.581
G2 X 220.220 Y  25.526 I   1.007 J   0.000
G1 X 220.363 Y  25.474
G1 X 220.507 Y  25.421
G2 X 220.508 Y  25.421 I  -0.171 J  -0.470
G2 X 221.638 Y  24.998 I -25.538 J -69.811
G2 X 229.950 Y  21.337 I -34.037 J -88.561
G2 X 234.415 Y  18.935 I -36.625 J -73.424
G2 X 239.994 Y  15.350 I -35.632 J -61.588
G2 X 242.858 Y  13.186 I -35.555 J -50.043
G2 X 244.644 Y  11.682 I -30.556 J -38.079
G2 X 245.526 Y  10.880 I -28.864 J -32.643
G2 X 245.650 Y  10.697 I  -0.341 J  -0.365
G1 X 246.481 Y   8.566
G1 X 247.311 Y   6.436
G2 X 246.855 Y   4.723 I  -1.398 J  -0.545
G1 X 246.647 Y   4.555
G2 X 245.949 Y   4.624 I  -0.314 J   0.389
G3 X 245.870 Y  -5.072 I  -5.761 J  -4.802
G2 X 246.565 Y  -5.011 I   0.379 J  -0.326
G1 X 246.617 Y  -5.054
G2 X 246.668 Y  -7.026 I  -0.821 J  -1.008
G1 X 241.756 Y -11.466
G2 X 241.528 Y -11.584 I  -0.335 J   0.371
G2 X 240.040 Y -11.898 I -22.911 J 104.622
G2 X 238.541 Y -12.193 I -21.636 J 105.980
G2 X 234.790 Y -12.835 I -19.967 J 105.376
G2 X 231.240 Y -13.329 I -19.702 J 128.807
G2 X 226.902 Y -13.824 I -25.518 J 204.285
G2 X 223.738 Y -14.130 I -25.077 J 242.457
G2 X 219.235 Y -14.494 I -21.718 J 240.602
G2 X 213.833 Y -14.828 I -20.186 J 282.565
G2 X 208.113 Y -15.092 I -24.189 J 462.851
G2 X 197.484 Y -15.450 I -34.303 J 860.123
G2 X 188.139 Y -15.651 I -21.377 J 777.025
G2 X 178.285 Y -15.760 I -17.187 J1110.182
G2 X 158.575 Y -15.782 I -11.863 J1796.129
G2 X 139.593 Y -15.624 I  10.492 J2401.458
G2 X 114.581 Y -15.225 I  41.843 J3409.027
G2 X  94.239 Y -14.778 I  85.185 J4343.221
G2 X  94.238 Y -14.778 I   0.012 J   0.500
G1 X  85.046 Y -14.547
G1 X  80.405 Y -14.424
G1 X  75.754 Y -14.297
G2 X  62.559 Y -13.909 I 110.359 J3978.142
G2 X  53.314 Y -13.595 I  48.842 J1572.441
G2 X  50.151 Y -13.470 I  22.592 J 611.450
G2 X  49.467 Y -13.440 I  19.515 J 463.219
G1 X  38.000 Y -13.079
G1 X  26.688 Y -12.722
G2 X  26.682 Y -12.725 I  -0.215 J   0.546
G2 X  26.450 Y -12.786 I  -0.405 J   1.063
G2 X  26.157 Y -12.818 I  -0.505 J   3.279
G2 X  25.692 Y -12.836 I  -0.622 J   9.763
G2 X  24.982 Y -12.837 I  -0.390 J  24.241
G2 X  23.738 Y -12.808 I   0.806 J  61.152
G2 X  21.866 Y -12.734 I   5.208 J 155.262
G2 X  19.583 Y -12.623 I  16.814 J 368.576
G2 X  17.631 Y -12.520 I  45.767 J 883.013
G2 X  17.630 Y -12.520 I   0.027 J   0.499
G1 X  14.067 Y -12.324
G3 X   8.048 Y -11.999 I-132.779 J-2404.966
G3 X   3.003 Y -11.747 I -47.845 J-907.867
G3 X  -0.944 Y -11.570 I -41.896 J-888.945
F10
G1 Z   0.000
G0 Z   2.000 
M9 M5
G0 X   0.000 Y   0.000
M2 (Program end)