(Generated with: DXF2GCODE, Version: Py3.6.7 PyQt5.11.3, Date: $Date: Fri Oct 25 20:45:56 2019 +0200 $)
(Created from file: C:/Users/Ferdinand Hubbard/Desktop/solarplane/temp/airfoil test.dxf)
(Output format description: G-CODE)
(Time: Tue Jul 20 18:22:32 2021)
G21 (Units in millimeters)
G90 (Absolute programming)
G64 (Default cutting) G17 (XY plane) G40 (Cancel radius comp.) G49 (Cancel length comp.)
G0 Z   2.000 

(*** LAYER: Visible (ANSI) ***)
T1 M6
S16000

(* SHAPE Nr: 19 *)
G0 X   9.926 Y -10.812
M3 M8
G0 Z   0.000 
F10
G1 Z  -0.500
F100
G1 X   9.926 Y   8.544
G3 X  14.894 Y  12.053 I   0.985 J   3.877
G1 X  35.514 Y  12.551
G3 X  35.525 Y  12.484 I   3.955 J   0.596
G1 X  24.037 Y   0.996
G1 X  12.560 Y -10.481
G3 X   9.926 Y -10.812 I  -0.847 J  -3.909
F10
G1 Z  -1.000
F100
G1 X   9.926 Y   8.544
G3 X  14.894 Y  12.053 I   0.985 J   3.877
G1 X  35.514 Y  12.551
G3 X  35.525 Y  12.484 I   3.955 J   0.596
G1 X  24.037 Y   0.996
G1 X  12.560 Y -10.481
G3 X   9.926 Y -10.812 I  -0.847 J  -3.909
F10
G1 Z   0.000
G0 Z   2.000 
M9 M5

(* SHAPE Nr: 18 *)

(* SHAPE Nr: 17 *)

(* SHAPE Nr: 16 *)
G0 X-115.105 Y  -1.337
M3 M8
G0 Z   0.000 
G1 Z  -0.500
F100
G1 X-116.759 Y  -2.991
G1 X-118.421 Y  -4.652
G3 X-123.368 Y  -7.730 I  -1.026 J  -3.866
G1 X-127.201 Y  -7.447
G1 X-131.500 Y  -7.130
G3 X-139.045 Y  -6.583 I-261.758 J-3559.099
G3 X-146.669 Y  -6.056 I-121.334 J-1698.988
G3 X-153.647 Y  -5.632 I -37.365 J-558.466
G1 X-137.178 Y  -3.716
G1 X-115.155 Y  -1.154
G3 X-115.105 Y  -1.337 I   3.884 J   0.955
F10
G1 Z  -1.000
F100
G1 X-116.759 Y  -2.991
G1 X-118.421 Y  -4.652
G3 X-123.368 Y  -7.730 I  -1.026 J  -3.866
G1 X-127.201 Y  -7.447
G1 X-131.500 Y  -7.130
G3 X-139.045 Y  -6.583 I-261.758 J-3559.099
G3 X-146.669 Y  -6.056 I-121.334 J-1698.988
G3 X-153.647 Y  -5.632 I -37.365 J-558.466
G1 X-137.178 Y  -3.716
G1 X-115.155 Y  -1.154
G3 X-115.105 Y  -1.337 I   3.884 J   0.955
F10
G1 Z   0.000
G0 Z   2.000 
M9 M5

(* SHAPE Nr: 15 *)
G0 X  43.628 Y  12.747
M3 M8
G0 Z   0.000 
G1 Z  -0.500
F100
G1 X  96.558 Y  14.026
G1 X  83.702 Y   1.170
G1 X  70.580 Y -11.952
G3 X  68.253 Y -11.878 I  -1.286 J  -3.788
G1 X  43.628 Y  12.747
F10
G1 Z  -1.000
F100
G1 X  96.558 Y  14.026
G1 X  83.702 Y   1.170
G1 X  70.580 Y -11.952
G3 X  68.253 Y -11.878 I  -1.286 J  -3.788
G1 X  43.628 Y  12.747
F10
G1 Z   0.000
G0 Z   2.000 
M9 M5

(* SHAPE Nr: 14 *)
G0 X -43.425 Y -12.041
M3 M8
G0 Z   0.000 
G1 Z  -0.500
F100
G1 X -45.675 Y -11.962
G1 X -47.982 Y -11.882
G3 X -45.706 Y  -8.487 I  -9.090 J   8.555
G3 X -43.425 Y -12.041 I  12.786 J   5.699
F10
G1 Z  -1.000
F100
G1 X -45.675 Y -11.962
G1 X -47.982 Y -11.882
G3 X -45.706 Y  -8.487 I  -9.090 J   8.555
G3 X -43.425 Y -12.041 I  12.786 J   5.699
F10
G1 Z   0.000
G0 Z   2.000 
M9 M5

(* SHAPE Nr: 13 *)
G0 X 163.880 Y -11.423
M3 M8
G0 Z   0.000 
G1 Z  -0.500
F100
G1 X 163.880 Y   9.880
G3 X 167.348 Y  13.341 I  -0.500 J   3.969
G1 X 169.170 Y  13.333
G3 X 169.672 Y  13.833 I   0.002 J   0.500
G1 X 169.672 Y  16.614
G2 X 170.338 Y  16.363 I  -5.587 J -15.833
G2 X 171.731 Y  15.770 I -13.731 J -34.220
G2 X 173.957 Y  14.721 I -28.422 J -63.197
G2 X 179.688 Y  11.664 I -45.067 J -91.387
G2 X 182.379 Y  10.044 I -39.449 J -68.595
G2 X 184.347 Y   8.739 I -26.087 J -41.461
G2 X 185.097 Y   8.196 I -15.825 J -22.650
G3 X 178.811 Y -13.147 I   2.324 J -12.282
G2 X 177.973 Y -13.257 I  -9.970 J  72.718
G2 X 174.206 Y -13.691 I -22.999 J 183.441
G2 X 165.853 Y -14.427 I -26.729 J 255.552
G3 X 163.880 Y -11.423 I  -3.973 J  -0.461
F10
G1 Z  -1.000
F100
G1 X 163.880 Y   9.880
G3 X 167.348 Y  13.341 I  -0.500 J   3.969
G1 X 169.170 Y  13.333
G3 X 169.672 Y  13.833 I   0.002 J   0.500
G1 X 169.672 Y  16.614
G2 X 170.338 Y  16.363 I  -5.587 J -15.833
G2 X 171.731 Y  15.770 I -13.731 J -34.220
G2 X 173.957 Y  14.721 I -28.422 J -63.197
G2 X 179.688 Y  11.664 I -45.067 J -91.387
G2 X 182.379 Y  10.044 I -39.449 J -68.595
G2 X 184.347 Y   8.739 I -26.087 J -41.461
G2 X 185.097 Y   8.196 I -15.825 J -22.650
G3 X 178.811 Y -13.147 I   2.324 J -12.282
G2 X 177.973 Y -13.257 I  -9.970 J  72.718
G2 X 174.206 Y -13.691 I -22.999 J 183.441
G2 X 165.853 Y -14.427 I -26.729 J 255.552
G3 X 163.880 Y -11.423 I  -3.973 J  -0.461
F10
G1 Z   0.000
G0 Z   2.000 
M9 M5

(* SHAPE Nr: 12 *)
G0 X-104.614 Y  -9.062
M3 M8
G0 Z   0.000 
G1 Z  -0.500
F100
G2 X-106.712 Y  -8.919 I 143.085 J2109.251
G2 X-115.453 Y  -8.305 I 219.635 J3190.681
G3 X-115.586 Y  -7.474 I  -3.994 J  -0.213
G1 X-112.200 Y  -4.089
G3 X-109.770 Y  -3.906 I   0.930 J   3.890
G1 X-106.844 Y  -6.833
G1 X-104.614 Y  -9.062
F10
G1 Z  -1.000
F100
G2 X-106.712 Y  -8.919 I 143.085 J2109.251
G2 X-115.453 Y  -8.305 I 219.635 J3190.681
G3 X-115.586 Y  -7.474 I  -3.994 J  -0.213
G1 X-112.200 Y  -4.089
G3 X-109.770 Y  -3.906 I   0.930 J   3.890
G1 X-106.844 Y  -6.833
G1 X-104.614 Y  -9.062
F10
G1 Z   0.000
G0 Z   2.000 
M9 M5

(* SHAPE Nr: 11 *)
G0 X -66.818 Y   4.470
M3 M8
G0 Z   0.000 
G1 Z  -0.500
F100
G3 X -69.553 Y  -3.305 I   9.745 J  -7.797
G3 X -69.553 Y  -3.306 I   0.500 J  -0.001
G1 X -69.553 Y  -3.327
G1 X -69.553 Y  -3.347
G3 X -69.553 Y  -3.348 I   0.500 J   0.000
G3 X -66.733 Y -11.227 I  12.481 J   0.021
G1 X -67.348 Y -11.206
G3 X -70.296 Y  -7.579 I  -3.993 J  -0.234
G1 X -70.296 Y   0.876
G3 X -68.423 Y   4.284 I  -2.127 J   3.388
G1 X -66.818 Y   4.470
F10
G1 Z  -1.000
F100
G3 X -69.553 Y  -3.305 I   9.745 J  -7.797
G3 X -69.553 Y  -3.306 I   0.500 J  -0.001
G1 X -69.553 Y  -3.327
G1 X -69.553 Y  -3.347
G3 X -69.553 Y  -3.348 I   0.500 J   0.000
G3 X -66.733 Y -11.227 I  12.481 J   0.021
G1 X -67.348 Y -11.206
G3 X -70.296 Y  -7.579 I  -3.993 J  -0.234
G1 X -70.296 Y   0.876
G3 X -68.423 Y   4.284 I  -2.127 J   3.388
G1 X -66.818 Y   4.470
F10
G1 Z   0.000
G0 Z   2.000 
M9 M5

(* SHAPE Nr: 10 *)
G0 X -74.296 Y   0.729
M3 M8
G0 Z   0.000 
G1 Z  -0.500
F100
G1 X -74.296 Y  -5.683
G1 X -82.241 Y   2.282
G3 X -82.232 Y   2.677 I  -3.990 J   0.288
G1 X -76.321 Y   3.365
G3 X -74.296 Y   0.729 I   3.898 J   0.899
F10
G1 Z  -1.000
F100
G1 X -74.296 Y  -5.683
G1 X -82.241 Y   2.282
G3 X -82.232 Y   2.677 I  -3.990 J   0.288
G1 X -76.321 Y   3.365
G3 X -74.296 Y   0.729 I   3.898 J   0.899
F10
G1 Z   0.000
G0 Z   2.000 
M9 M5

(* SHAPE Nr: 9 *)
G0 X -75.206 Y -10.407
M3 M8
G0 Z   0.000 
G1 Z  -0.500
F100
G3 X -75.294 Y -10.824 I   3.864 J  -1.033
G2 X -88.731 Y -10.072 I 119.641 J2256.417
G2 X -95.834 Y  -9.638 I 102.045 J1729.657
G3 X -95.847 Y  -9.473 I  -3.992 J  -0.223
G1 X -87.571 Y  -1.199
G3 X -84.552 Y  -1.060 I   1.340 J   3.769
G1 X -75.206 Y -10.407
F10
G1 Z  -1.000
F100
G3 X -75.294 Y -10.824 I   3.864 J  -1.033
G2 X -88.731 Y -10.072 I 119.641 J2256.417
G2 X -95.834 Y  -9.638 I 102.045 J1729.657
G3 X -95.847 Y  -9.473 I  -3.992 J  -0.223
G1 X -87.571 Y  -1.199
G3 X -84.552 Y  -1.060 I   1.340 J   3.769
G1 X -75.206 Y -10.407
F10
G1 Z   0.000
G0 Z   2.000 
M9 M5

(* SHAPE Nr: 8 *)
G0 X 104.857 Y  14.227
M3 M8
G0 Z   0.000 
G1 Z  -0.500
F100
G1 X 158.604 Y  15.526
G1 X 158.604 Y  13.869
G3 X 159.104 Y  13.369 I   0.500 J   0.000
G1 X 159.409 Y  13.369
G3 X 159.590 Y  12.569 I   3.971 J   0.480
G1 X 147.094 Y   0.123
G1 X 134.616 Y -12.304
G3 X 131.422 Y -12.338 I  -1.558 J  -3.684
G1 X 104.857 Y  14.227
F10
G1 Z  -1.000
F100
G1 X 158.604 Y  15.526
G1 X 158.604 Y  13.869
G3 X 159.104 Y  13.369 I   0.500 J   0.000
G1 X 159.409 Y  13.369
G3 X 159.590 Y  12.569 I   3.971 J   0.480
G1 X 147.094 Y   0.123
G1 X 134.616 Y -12.304
G3 X 131.422 Y -12.338 I  -1.558 J  -3.684
G1 X 104.857 Y  14.227
F10
G1 Z   0.000
G0 Z   2.000 
M9 M5

(* SHAPE Nr: 7 *)
G0 X -90.291 Y   1.739
M3 M8
G0 Z   0.000 
G1 Z  -0.500
F100
G1 X -98.227 Y  -6.197
G3 X-101.692 Y  -6.325 I  -1.599 J  -3.664
G1 X-107.304 Y  -0.713
G3 X-107.271 Y  -0.236 I  -3.967 J   0.515
G1 X -90.291 Y   1.739
F10
G1 Z  -1.000
F100
G1 X -98.227 Y  -6.197
G3 X-101.692 Y  -6.325 I  -1.599 J  -3.664
G1 X-107.304 Y  -0.713
G3 X-107.271 Y  -0.236 I  -3.967 J   0.515
G1 X -90.291 Y   1.739
F10
G1 Z   0.000
G0 Z   2.000 
M9 M5

(* SHAPE Nr: 6 *)
G0 X 137.156 Y -15.529
M3 M8
G0 Z   0.000 
G1 Z  -0.500
F100
G1 X 159.880 Y   7.196
G1 X 159.880 Y -11.423
G3 X 157.880 Y -14.885 I   2.000 J  -3.464
G2 X 157.306 Y -14.911 I -18.853 J 415.770
G2 X 154.328 Y -15.033 I -22.213 J 505.269
G2 X 144.039 Y -15.370 I -37.142 J 975.904
G2 X 138.251 Y -15.508 I -21.165 J 769.444
G2 X 137.156 Y -15.529 I -15.745 J 788.027
F10
G1 Z  -1.000
F100
G1 X 159.880 Y   7.196
G1 X 159.880 Y -11.423
G3 X 157.880 Y -14.885 I   2.000 J  -3.464
G2 X 157.306 Y -14.911 I -18.853 J 415.770
G2 X 154.328 Y -15.033 I -22.213 J 505.269
G2 X 144.039 Y -15.370 I -37.142 J 975.904
G2 X 138.251 Y -15.508 I -21.165 J 769.444
G2 X 137.156 Y -15.529 I -15.745 J 788.027
F10
G1 Z   0.000
G0 Z   2.000 
M9 M5

(* SHAPE Nr: 5 *)
G0 X -42.643 Y   7.283
M3 M8
G0 Z   0.000 
G1 Z  -0.500
F100
G3 X -45.947 Y   2.336 I   9.724 J -10.071
G3 X -49.374 Y   6.500 I -11.125 J  -5.662
G1 X -45.848 Y   6.910
G1 X -42.643 Y   7.283
F10
G1 Z  -1.000
F100
G3 X -45.947 Y   2.336 I   9.724 J -10.071
G3 X -49.374 Y   6.500 I -11.125 J  -5.662
G1 X -45.848 Y   6.910
G1 X -42.643 Y   7.283
F10
G1 Z   0.000
G0 Z   2.000 
M9 M5

(* SHAPE Nr: 4 *)
G0 X  73.226 Y -15.008
M3 M8
G0 Z   0.000 
G1 Z  -0.500
F100
G1 X  99.974 Y  10.734
G3 X 102.467 Y  10.960 I   0.903 J   3.897
G1 X 115.729 Y  -2.303
G1 X 129.068 Y -15.641
G2 X 125.853 Y -15.668 I -11.117 J1140.756
G2 X 114.563 Y -15.711 I -12.422 J1793.375
G2 X 104.688 Y -15.691 I  -1.196 J1895.414
G2 X  91.835 Y -15.595 I  10.170 J2221.091
G2 X  73.275 Y -15.348 I  32.864 J3170.314
G3 X  73.226 Y -15.008 I  -3.981 J  -0.391
F10
G1 Z  -1.000
F100
G1 X  99.974 Y  10.734
G3 X 102.467 Y  10.960 I   0.903 J   3.897
G1 X 115.729 Y  -2.303
G1 X 129.068 Y -15.641
G2 X 125.853 Y -15.668 I -11.117 J1140.756
G2 X 114.563 Y -15.711 I -12.422 J1793.375
G2 X 104.688 Y -15.691 I  -1.196 J1895.414
G2 X  91.835 Y -15.595 I  10.170 J2221.091
G2 X  73.275 Y -15.348 I  32.864 J3170.314
G3 X  73.226 Y -15.008 I  -3.981 J  -0.391
F10
G1 Z   0.000
G0 Z   2.000 
M9 M5

(* SHAPE Nr: 3 *)
G0 X  15.524 Y -13.174
M3 M8
G0 Z   0.000 
G1 Z  -0.500
F100
G1 X  38.090 Y   9.392
G3 X  41.185 Y   9.533 I   1.379 J   3.755
G1 X  53.282 Y  -2.564
G1 X  65.429 Y -14.710
G3 X  65.329 Y -15.210 I   3.865 J  -1.030
G2 X  57.277 Y -15.052 I  66.978 J3620.851
G2 X  43.418 Y -14.744 I  94.371 J4553.998
G1 X  39.613 Y -14.652
G1 X  33.953 Y -14.511
G1 X  28.364 Y -14.365
G2 X  22.632 Y -14.208 I 125.495 J4708.700
G2 X  16.445 Y -14.032 I 119.506 J4287.980
G2 X  15.695 Y -14.009 I 126.604 J4318.900
G3 X  15.524 Y -13.174 I  -3.982 J  -0.381
F10
G1 Z  -1.000
F100
G1 X  38.090 Y   9.392
G3 X  41.185 Y   9.533 I   1.379 J   3.755
G1 X  53.282 Y  -2.564
G1 X  65.429 Y -14.710
G3 X  65.329 Y -15.210 I   3.865 J  -1.030
G2 X  57.277 Y -15.052 I  66.978 J3620.851
G2 X  43.418 Y -14.744 I  94.371 J4553.998
G1 X  39.613 Y -14.652
G1 X  33.953 Y -14.511
G1 X  28.364 Y -14.365
G2 X  22.632 Y -14.208 I 125.495 J4708.700
G2 X  16.445 Y -14.032 I 119.506 J4287.980
G2 X  15.695 Y -14.009 I 126.604 J4318.900
G3 X  15.524 Y -13.174 I  -3.982 J  -0.381
F10
G1 Z   0.000
G0 Z   2.000 
M9 M5

(* SHAPE Nr: 2 *)
G0 X -25.141 Y   4.990
M3 M8
G0 Z   0.000 
G1 Z  -0.500
F100
G2 X -40.698 Y -10.566 I  -7.778 J  -7.778
G2 X -25.141 Y   4.990 I   7.778 J   7.778
F10
G1 Z  -1.000
F100
G2 X -40.698 Y -10.566 I  -7.778 J  -7.778
G2 X -25.141 Y   4.990 I   7.778 J   7.778
F10
G1 Z   0.000
G0 Z   2.000 
M9 M5

(* SHAPE Nr: 1 *)
G0 X -51.769 Y   1.977
M3 M8
G0 Z   0.000 
G1 Z  -0.500
F100
G2 X -62.375 Y  -8.630 I  -5.303 J  -5.303
G2 X -51.769 Y   1.977 I   5.303 J   5.303
F10
G1 Z  -1.000
F100
G2 X -62.375 Y  -8.630 I  -5.303 J  -5.303
G2 X -51.769 Y   1.977 I   5.303 J   5.303
F10
G1 Z   0.000
G0 Z   2.000 
M9 M5

(* SHAPE Nr: 0 *)
G0 X   0.117 Y   4.164
M3 M8
G0 Z   0.000 
G1 Z  -0.500
F100
G2 X -10.490 Y  -6.442 I  -5.303 J  -5.303
G2 X   0.117 Y   4.164 I   5.303 J   5.303
F10
G1 Z  -1.000
F100
G2 X -10.490 Y  -6.442 I  -5.303 J  -5.303
G2 X   0.117 Y   4.164 I   5.303 J   5.303
F10
G1 Z   0.000
G0 Z   2.000 
M9 M5

(* SHAPE Nr: 20 *)
G0 X  -3.024 Y  12.606
M3 M8
G0 Z   0.000 
G1 Z  -0.500
F100
G1 X   0.976 Y  12.606
G1 X   0.976 Y  13.935
G2 X   1.949 Y  14.935 I   1.000 J   0.000
G1 X 161.075 Y  19.220
G2 X 162.102 Y  18.220 I   0.027 J  -1.000
G1 X 162.102 Y  17.295
G1 X 162.102 Y  16.869
G1 X 166.102 Y  16.869
G1 X 166.102 Y  20.673
G2 X 167.454 Y  21.618 I   1.007 J   0.000
G1 X 167.598 Y  21.566
G1 X 167.741 Y  21.513
G2 X 167.742 Y  21.513 I  -0.171 J  -0.470
G2 X 168.872 Y  21.089 I -25.538 J -69.811
G2 X 177.184 Y  17.429 I -34.037 J -88.561
G2 X 181.649 Y  15.027 I -36.625 J -73.424
G2 X 187.228 Y  11.442 I -35.632 J -61.588
G2 X 190.092 Y   9.278 I -35.555 J -50.043
G2 X 191.878 Y   7.774 I -30.556 J -38.079
G2 X 192.760 Y   6.972 I -28.864 J -32.643
G2 X 192.884 Y   6.788 I  -0.341 J  -0.365
G1 X 193.715 Y   4.658
G1 X 194.546 Y   2.527
G2 X 194.089 Y   0.814 I  -1.398 J  -0.545
G1 X 193.881 Y   0.647
G2 X 193.183 Y   0.716 I  -0.314 J   0.389
G3 X 193.104 Y  -8.981 I  -5.761 J  -4.802
G2 X 193.799 Y  -8.919 I   0.379 J  -0.326
G1 X 193.852 Y  -8.962
G2 X 193.902 Y -10.934 I  -0.821 J  -1.008
G1 X 188.990 Y -15.374
G2 X 188.762 Y -15.492 I  -0.335 J   0.371
G2 X 187.274 Y -15.807 I -22.911 J 104.622
G2 X 185.775 Y -16.102 I -21.636 J 105.980
G2 X 182.024 Y -16.744 I -19.967 J 105.376
G2 X 178.474 Y -17.237 I -19.702 J 128.807
G2 X 174.137 Y -17.732 I -25.518 J 204.285
G2 X 170.972 Y -18.038 I -25.077 J 242.457
G2 X 166.469 Y -18.403 I -21.718 J 240.602
G2 X 161.067 Y -18.737 I -20.186 J 282.565
G2 X 155.347 Y -19.000 I -24.189 J 462.851
G2 X 144.718 Y -19.358 I -34.303 J 860.123
G2 X 135.373 Y -19.559 I -21.377 J 777.025
G2 X 125.520 Y -19.668 I -17.187 J1110.182
G2 X 105.809 Y -19.690 I -11.863 J1796.129
G2 X  86.827 Y -19.532 I  10.492 J2401.458
G2 X  61.815 Y -19.133 I  41.843 J3409.027
G2 X  41.473 Y -18.687 I  85.185 J4343.221
G2 X  41.472 Y -18.687 I   0.012 J   0.500
G1 X  32.280 Y -18.455
G1 X  27.639 Y -18.332
G1 X  22.988 Y -18.205
G2 X   9.793 Y -17.818 I 110.359 J3978.142
G2 X   0.548 Y -17.503 I  48.842 J1572.441
G2 X  -2.615 Y -17.378 I  22.592 J 611.450
G2 X  -3.299 Y -17.349 I  19.515 J 463.219
G1 X -14.766 Y -16.987
G1 X -26.078 Y -16.631
G2 X -26.084 Y -16.633 I  -0.215 J   0.546
G2 X -26.315 Y -16.694 I  -0.405 J   1.063
G2 X -26.609 Y -16.726 I  -0.505 J   3.279
G2 X -27.074 Y -16.745 I  -0.622 J   9.763
G2 X -27.784 Y -16.746 I  -0.390 J  24.241
G2 X -29.028 Y -16.717 I   0.806 J  61.152
G2 X -30.900 Y -16.643 I   5.208 J 155.262
G2 X -33.183 Y -16.531 I  16.814 J 368.576
G2 X -35.135 Y -16.428 I  45.767 J 883.013
G1 X -38.699 Y -16.232
G3 X -44.718 Y -15.908 I-132.779 J-2404.966
G3 X -49.763 Y -15.656 I -47.845 J-907.867
G3 X -53.710 Y -15.478 I -41.896 J-888.945
G3 X -56.676 Y -15.355 I -54.515 J-1277.230
G1 X -59.971 Y -15.224
G2 X -64.629 Y -15.036 I 101.931 J2576.426
G2 X -74.467 Y -14.581 I  41.996 J1015.038
G2 X -82.846 Y -14.138 I 122.691 J2401.522
G2 X -93.693 Y -13.528 I 178.515 J3270.228
G2 X-107.846 Y -12.643 I  89.284 J1541.618
G2 X-121.116 Y -11.722 I 196.320 J2924.269
G2 X-128.113 Y -11.214 I 292.162 J4075.042
G2 X-128.114 Y -11.214 I   0.037 J   0.499
G1 X-138.928 Y -10.417
G3 X-149.279 Y  -9.679 I-206.743 J-2826.336
G3 X-154.260 Y  -9.347 I -62.130 J-894.361
G3 X-159.305 Y  -9.048 I -34.246 J-536.142
G3 X-165.297 Y  -8.756 I -28.679 J-526.859
G3 X-165.697 Y  -8.740 I  -4.224 J -98.147
G2 X-165.817 Y  -8.720 I   0.019 J   0.500
G1 X-165.889 Y  -8.699
G2 X-168.265 Y  -6.203 I   0.124 J   2.497
G1 X-168.265 Y  -5.795
G2 X-167.765 Y  -5.295 I   0.500 J  -0.000
G1 X-163.265 Y  -5.295
G1 X-163.265 Y  -3.741
G2 X-162.821 Y  -3.244 I   0.500 J   0.000
G1 X  -4.136 Y  14.690
G2 X  -3.024 Y  13.696 I   0.112 J  -0.994
G1 X  -3.024 Y  12.606
F10
G1 Z  -1.000
F100
G1 X   0.976 Y  12.606
G1 X   0.976 Y  13.935
G2 X   1.949 Y  14.935 I   1.000 J   0.000
G1 X 161.075 Y  19.220
G2 X 162.102 Y  18.220 I   0.027 J  -1.000
G1 X 162.102 Y  17.295
G1 X 162.102 Y  16.869
G1 X 166.102 Y  16.869
G1 X 166.102 Y  20.673
G2 X 167.454 Y  21.618 I   1.007 J   0.000
G1 X 167.598 Y  21.566
G1 X 167.741 Y  21.513
G2 X 167.742 Y  21.513 I  -0.171 J  -0.470
G2 X 168.872 Y  21.089 I -25.538 J -69.811
G2 X 177.184 Y  17.429 I -34.037 J -88.561
G2 X 181.649 Y  15.027 I -36.625 J -73.424
G2 X 187.228 Y  11.442 I -35.632 J -61.588
G2 X 190.092 Y   9.278 I -35.555 J -50.043
G2 X 191.878 Y   7.774 I -30.556 J -38.079
G2 X 192.760 Y   6.972 I -28.864 J -32.643
G2 X 192.884 Y   6.788 I  -0.341 J  -0.365
G1 X 193.715 Y   4.658
G1 X 194.546 Y   2.527
G2 X 194.089 Y   0.814 I  -1.398 J  -0.545
G1 X 193.881 Y   0.647
G2 X 193.183 Y   0.716 I  -0.314 J   0.389
G3 X 193.104 Y  -8.981 I  -5.761 J  -4.802
G2 X 193.799 Y  -8.919 I   0.379 J  -0.326
G1 X 193.852 Y  -8.962
G2 X 193.902 Y -10.934 I  -0.821 J  -1.008
G1 X 188.990 Y -15.374
G2 X 188.762 Y -15.492 I  -0.335 J   0.371
G2 X 187.274 Y -15.807 I -22.911 J 104.622
G2 X 185.775 Y -16.102 I -21.636 J 105.980
G2 X 182.024 Y -16.744 I -19.967 J 105.376
G2 X 178.474 Y -17.237 I -19.702 J 128.807
G2 X 174.137 Y -17.732 I -25.518 J 204.285
G2 X 170.972 Y -18.038 I -25.077 J 242.457
G2 X 166.469 Y -18.403 I -21.718 J 240.602
G2 X 161.067 Y -18.737 I -20.186 J 282.565
G2 X 155.347 Y -19.000 I -24.189 J 462.851
G2 X 144.718 Y -19.358 I -34.303 J 860.123
G2 X 135.373 Y -19.559 I -21.377 J 777.025
G2 X 125.520 Y -19.668 I -17.187 J1110.182
G2 X 105.809 Y -19.690 I -11.863 J1796.129
G2 X  86.827 Y -19.532 I  10.492 J2401.458
G2 X  61.815 Y -19.133 I  41.843 J3409.027
G2 X  41.473 Y -18.687 I  85.185 J4343.221
G2 X  41.472 Y -18.687 I   0.012 J   0.500
G1 X  32.280 Y -18.455
G1 X  27.639 Y -18.332
G1 X  22.988 Y -18.205
G2 X   9.793 Y -17.818 I 110.359 J3978.142
G2 X   0.548 Y -17.503 I  48.842 J1572.441
G2 X  -2.615 Y -17.378 I  22.592 J 611.450
G2 X  -3.299 Y -17.349 I  19.515 J 463.219
G1 X -14.766 Y -16.987
G1 X -26.078 Y -16.631
G2 X -26.084 Y -16.633 I  -0.215 J   0.546
G2 X -26.315 Y -16.694 I  -0.405 J   1.063
G2 X -26.609 Y -16.726 I  -0.505 J   3.279
G2 X -27.074 Y -16.745 I  -0.622 J   9.763
G2 X -27.784 Y -16.746 I  -0.390 J  24.241
G2 X -29.028 Y -16.717 I   0.806 J  61.152
G2 X -30.900 Y -16.643 I   5.208 J 155.262
G2 X -33.183 Y -16.531 I  16.814 J 368.576
G2 X -35.135 Y -16.428 I  45.767 J 883.013
G1 X -38.699 Y -16.232
G3 X -44.718 Y -15.908 I-132.779 J-2404.966
G3 X -49.763 Y -15.656 I -47.845 J-907.867
G3 X -53.710 Y -15.478 I -41.896 J-888.945
G3 X -56.676 Y -15.355 I -54.515 J-1277.230
G1 X -59.971 Y -15.224
G2 X -64.629 Y -15.036 I 101.931 J2576.426
G2 X -74.467 Y -14.581 I  41.996 J1015.038
G2 X -82.846 Y -14.138 I 122.691 J2401.522
G2 X -93.693 Y -13.528 I 178.515 J3270.228
G2 X-107.846 Y -12.643 I  89.284 J1541.618
G2 X-121.116 Y -11.722 I 196.320 J2924.269
G2 X-128.113 Y -11.214 I 292.162 J4075.042
G2 X-128.114 Y -11.214 I   0.037 J   0.499
G1 X-138.928 Y -10.417
G3 X-149.279 Y  -9.679 I-206.743 J-2826.336
G3 X-154.260 Y  -9.347 I -62.130 J-894.361
G3 X-159.305 Y  -9.048 I -34.246 J-536.142
G3 X-165.297 Y  -8.756 I -28.679 J-526.859
G3 X-165.697 Y  -8.740 I  -4.224 J -98.147
G2 X-165.817 Y  -8.720 I   0.019 J   0.500
G1 X-165.889 Y  -8.699
G2 X-168.265 Y  -6.203 I   0.124 J   2.497
G1 X-168.265 Y  -5.795
G2 X-167.765 Y  -5.295 I   0.500 J  -0.000
G1 X-163.265 Y  -5.295
G1 X-163.265 Y  -3.741
G2 X-162.821 Y  -3.244 I   0.500 J   0.000
G1 X  -4.136 Y  14.690
G2 X  -3.024 Y  13.696 I   0.112 J  -0.994
G1 X  -3.024 Y  12.606
F10
G1 Z   0.000
G0 Z   2.000 
M9 M5
G0 X   0.000 Y   0.000
M2 (Program end)