(Generated with: DXF2GCODE, Version: Py3.6.7 PyQt5.11.3, Date: $Date: Fri Oct 25 20:45:56 2019 +0200 $)
(Created from file: C:/Users/Ferdinand Hubbard/Desktop/solarplane/temp/pinion drill.dxf)
(Output format description: G-CODE)
(Time: Tue Jul 20 17:53:06 2021)
G21 (Units in millimeters)
G90 (Absolute programming)
G64 (Default cutting) G17 (XY plane) G40 (Cancel radius comp.) G49 (Cancel length comp.)
G0 Z   2.000 

(*** LAYER: Sketch Geometry (ANSI) ***)
T1 M6
S16000

(* SHAPE Nr: 0 *)
G0 X  -0.530 Y  -0.530
M3 M8
G0 Z   0.000 
F100
G1 Z  -0.500
F50
G2 X   0.530 Y   0.530 I   0.530 J   0.530
G2 X  -0.530 Y  -0.530 I  -0.530 J  -0.530
F100
G1 Z  -1.000
F50
G2 X   0.530 Y   0.530 I   0.530 J   0.530
G2 X  -0.530 Y  -0.530 I  -0.530 J  -0.530
F100
G1 Z  -1.500
F50
G2 X   0.530 Y   0.530 I   0.530 J   0.530
G2 X  -0.530 Y  -0.530 I  -0.530 J  -0.530
F100
G1 Z  -2.000
F50
G2 X   0.530 Y   0.530 I   0.530 J   0.530
G2 X  -0.530 Y  -0.530 I  -0.530 J  -0.530
F100
G1 Z  -2.500
F50
G2 X   0.530 Y   0.530 I   0.530 J   0.530
G2 X  -0.530 Y  -0.530 I  -0.530 J  -0.530
F100
G1 Z  -3.000
F50
G2 X   0.530 Y   0.530 I   0.530 J   0.530
G2 X  -0.530 Y  -0.530 I  -0.530 J  -0.530
F100
G1 Z  -3.500
F50
G2 X   0.530 Y   0.530 I   0.530 J   0.530
G2 X  -0.530 Y  -0.530 I  -0.530 J  -0.530
F100
G1 Z  -4.000
F50
G2 X   0.530 Y   0.530 I   0.530 J   0.530
G2 X  -0.530 Y  -0.530 I  -0.530 J  -0.530
F100
G1 Z  -4.500
F50
G2 X   0.530 Y   0.530 I   0.530 J   0.530
G2 X  -0.530 Y  -0.530 I  -0.530 J  -0.530
F100
G1 Z  -5.000
F50
G2 X   0.530 Y   0.530 I   0.530 J   0.530
G2 X  -0.530 Y  -0.530 I  -0.530 J  -0.530
F100
G1 Z  -5.500
F50
G2 X   0.530 Y   0.530 I   0.530 J   0.530
G2 X  -0.530 Y  -0.530 I  -0.530 J  -0.530
F100
G1 Z  -6.000
F50
G2 X   0.530 Y   0.530 I   0.530 J   0.530
G2 X  -0.530 Y  -0.530 I  -0.530 J  -0.530
F100
G1 Z  -6.500
F50
G2 X   0.530 Y   0.530 I   0.530 J   0.530
G2 X  -0.530 Y  -0.530 I  -0.530 J  -0.530
F100
G1 Z  -7.000
F50
G2 X   0.530 Y   0.530 I   0.530 J   0.530
G2 X  -0.530 Y  -0.530 I  -0.530 J  -0.530
F100
G1 Z  -7.500
F50
G2 X   0.530 Y   0.530 I   0.530 J   0.530
G2 X  -0.530 Y  -0.530 I  -0.530 J  -0.530
F100
G1 Z  -8.000
F50
G2 X   0.530 Y   0.530 I   0.530 J   0.530
G2 X  -0.530 Y  -0.530 I  -0.530 J  -0.530
F100
G1 Z  -8.500
F50
G2 X   0.530 Y   0.530 I   0.530 J   0.530
G2 X  -0.530 Y  -0.530 I  -0.530 J  -0.530
F100
G1 Z  -9.000
F50
G2 X   0.530 Y   0.530 I   0.530 J   0.530
G2 X  -0.530 Y  -0.530 I  -0.530 J  -0.530
F100
G1 Z  -9.500
F50
G2 X   0.530 Y   0.530 I   0.530 J   0.530
G2 X  -0.530 Y  -0.530 I  -0.530 J  -0.530
F100
G1 Z -10.000
F50
G2 X   0.530 Y   0.530 I   0.530 J   0.530
G2 X  -0.530 Y  -0.530 I  -0.530 J  -0.530
F100
G1 Z -10.500
F50
G2 X   0.530 Y   0.530 I   0.530 J   0.530
G2 X  -0.530 Y  -0.530 I  -0.530 J  -0.530
F100
G1 Z -11.000
F50
G2 X   0.530 Y   0.530 I   0.530 J   0.530
G2 X  -0.530 Y  -0.530 I  -0.530 J  -0.530
F100
G1 Z -11.500
F50
G2 X   0.530 Y   0.530 I   0.530 J   0.530
G2 X  -0.530 Y  -0.530 I  -0.530 J  -0.530
F100
G1 Z -12.000
F50
G2 X   0.530 Y   0.530 I   0.530 J   0.530
G2 X  -0.530 Y  -0.530 I  -0.530 J  -0.530
F100
G1 Z -12.500
F50
G2 X   0.530 Y   0.530 I   0.530 J   0.530
G2 X  -0.530 Y  -0.530 I  -0.530 J  -0.530
F100
G1 Z -13.000
F50
G2 X   0.530 Y   0.530 I   0.530 J   0.530
G2 X  -0.530 Y  -0.530 I  -0.530 J  -0.530
F100
G1 Z -13.500
F50
G2 X   0.530 Y   0.530 I   0.530 J   0.530
G2 X  -0.530 Y  -0.530 I  -0.530 J  -0.530
F100
G1 Z -14.000
F50
G2 X   0.530 Y   0.530 I   0.530 J   0.530
G2 X  -0.530 Y  -0.530 I  -0.530 J  -0.530
F100
G1 Z -14.500
F50
G2 X   0.530 Y   0.530 I   0.530 J   0.530
G2 X  -0.530 Y  -0.530 I  -0.530 J  -0.530
F100
G1 Z -15.000
F50
G2 X   0.530 Y   0.530 I   0.530 J   0.530
G2 X  -0.530 Y  -0.530 I  -0.530 J  -0.530
F100
G1 Z   0.000
G0 Z   2.000 
M9 M5
G0 X   0.000 Y   0.000
M2 (Program end)