(1001)
(Machine)
(  vendor: Autodesk)
(  description: Generic 3-axis)
(T1  D=3 CR=0 - ZMIN=-3.998 - flat end mill)
G90 G94
G17
G21
G28 G91 Z0
G90

(Adaptive1)
T1
S18000 M3
G54
G0 X-0.393 Y-3.604
Z2.502
Z-1.4
G1 Z-1.7 F750
X-0.391 Y-3.597 Z-1.767
X-0.385 Y-3.576 Z-1.83
X-0.376 Y-3.541 Z-1.887
X-0.365 Y-3.495 Z-1.935
X-0.35 Y-3.44 Z-1.97
X-0.335 Y-3.378 Z-1.992
X-0.318 Y-3.314 Z-2
G3 X-0.083 Y-1.681 I-7.419 J1.9
G1 X-0.082 Y-0.901
Y48.391
X-0.083 Y93.627
X-0.046 Y93.778
X0.109 Y94.05
X0.561 Y94.479
X1.132 Y94.73
X1.739 Y94.877
X2.357 Y94.962
X2.979 Y95.012
X3.602 Y95.042
X4.226 Y95.059
X4.85 Y95.069
X5.473 Y95.075
X6.097 Y95.078
X7.345 Y95.081
X10.465 Y95.083
X54.765
X105.305
X155.844 Y95.084
X206.384
X256.923
X271.586
X271.742 Y95.072
X271.886 Y95.012
X272.134 Y94.824
X272.528 Y94.34
X272.758 Y93.76
X272.893 Y93.151
X272.971 Y92.532
X273.017 Y91.91
X273.044 Y91.286
X273.06 Y90.663
X273.069 Y90.039
X273.074 Y89.415
X273.077 Y88.791
X273.08 Y87.543
X273.082 Y84.423
Y60.089
X273.083 Y9.55
Y1.438
X273.08 Y1.282
X273.029 Y1.135
X272.847 Y0.882
X272.369 Y0.481
X271.791 Y0.246
X271.182 Y0.109
X270.563 Y0.03
X269.941 Y-0.017
X269.318 Y-0.044
X268.694 Y-0.06
X268.07 Y-0.07
X267.446 Y-0.075
X266.822 Y-0.078
X265.574 Y-0.081
X262.455 Y-0.083
X231.257
X180.718
X130.178 Y-0.084
X79.639
X29.099
X2.893
X2.74 Y-0.056
X2.465 Y0.092
X2.247 Y0.315
X1.903 Y0.835
X1.701 Y1.426
X1.584 Y2.038
X1.515 Y2.659
X1.475 Y3.281
X1.451 Y3.905
X1.438 Y4.529
X1.43 Y5.152
X1.425 Y5.776
X1.422 Y6.4
X1.42 Y7.648
X1.418 Y12.016
Y23.247
X1.417 Y73.786
Y91.881
X1.489 Y92.184
X1.659 Y92.446
X2.108 Y92.879
X2.669 Y93.151
X3.27 Y93.319
X3.886 Y93.422
X4.507 Y93.485
X5.129 Y93.524
X5.753 Y93.547
X6.377 Y93.561
X7.001 Y93.57
X7.624 Y93.575
X8.248 Y93.578
X9.496 Y93.581
X12.616 Y93.583
X33.206
X83.746
X134.285 Y93.584
X184.825
X235.364
X269.837
X269.991 Y93.558
X270.282 Y93.444
X270.527 Y93.251
X270.931 Y92.776
X271.183 Y92.205
X271.339 Y91.601
X271.434 Y90.984
X271.492 Y90.363
X271.527 Y89.74
X271.549 Y89.117
X271.562 Y88.493
X271.57 Y87.869
X271.574 Y87.245
X271.577 Y86.621
X271.58 Y85.373
X271.582 Y82.253
Y78.51
X271.583 Y27.97
Y3.168
X271.559 Y3.014
X271.448 Y2.723
X271.257 Y2.476
X270.783 Y2.07
X270.213 Y1.817
X269.609 Y1.661
X268.992 Y1.565
X268.371 Y1.507
X267.748 Y1.472
X267.124 Y1.45
X266.501 Y1.437
X265.877 Y1.429
X265.253 Y1.425
X264.629 Y1.422
X263.381 Y1.419
X260.261 Y1.417
X246.534
X195.995
X145.455
X94.916 Y1.416
X44.376
X4.756
X4.6 Y1.425
X4.299 Y1.507
X4.041 Y1.683
X3.613 Y2.136
X3.344 Y2.7
X3.179 Y3.301
X3.077 Y3.917
X3.015 Y4.538
X2.977 Y5.161
X2.954 Y5.784
X2.94 Y6.408
X2.931 Y7.032
X2.926 Y7.656
X2.923 Y8.28
X2.92 Y9.528
X2.919 Y11.399
X2.917 Y61.939
Y90.328
X3 Y90.629
X3.169 Y90.891
X3.611 Y91.332
X4.168 Y91.614
X4.766 Y91.791
X5.38 Y91.902
X6 Y91.971
X6.622 Y92.014
X7.246 Y92.04
X7.87 Y92.056
X8.493 Y92.067
X9.117 Y92.073
X9.741 Y92.077
X10.989 Y92.08
X13.485 Y92.082
X24.092 Y92.083
X74.632
X125.171
X175.711 Y92.084
X226.25
X268.055
X268.367 Y92.083
X268.662 Y91.984
X268.919 Y91.806
X269.348 Y91.354
X269.623 Y90.794
X269.797 Y90.194
X269.905 Y89.58
X269.972 Y88.959
X270.014 Y88.337
X270.04 Y87.714
X270.056 Y87.09
X270.066 Y86.466
X270.072 Y85.842
X270.076 Y85.218
X270.078 Y84.594
X270.081 Y82.722
X270.082 Y73.987
X270.083 Y34.055
Y4.729
X270.018 Y4.424
X269.862 Y4.154
X269.435 Y3.699
X268.884 Y3.406
X268.288 Y3.221
X267.675 Y3.106
X267.055 Y3.034
X266.433 Y2.99
X265.81 Y2.962
X265.186 Y2.945
X264.562 Y2.934
X263.938 Y2.928
X263.314 Y2.924
X262.066 Y2.92
X259.571 Y2.918
X249.587 Y2.917
X199.048
X148.508
X97.969 Y2.916
X47.429
X6.249
X5.942 Y2.972
X5.67 Y3.124
X5.209 Y3.545
X4.913 Y4.095
X4.727 Y4.69
X4.61 Y5.303
X4.537 Y5.923
X4.492 Y6.545
X4.464 Y7.168
X4.446 Y7.792
X4.436 Y8.416
X4.429 Y9.04
X4.425 Y9.664
X4.421 Y10.912
X4.42 Y11.536
X4.418 Y15.279
X4.417 Y62.075
Y88.593
X4.432 Y88.904
X4.549 Y89.194
X4.737 Y89.443
X5.201 Y89.86
X5.765 Y90.128
X6.365 Y90.298
X6.98 Y90.405
X7.6 Y90.472
X8.223 Y90.514
X8.846 Y90.54
X9.47 Y90.556
X10.094 Y90.566
X10.717 Y90.572
X11.341 Y90.576
X12.589 Y90.58
X15.085 Y90.582
X27.564 Y90.583
X78.104
X128.643
X179.183 Y90.584
X229.722
X266.535
X266.847 Y90.579
X267.142 Y90.477
X267.398 Y90.3
X267.83 Y89.849
X268.108 Y89.29
X268.285 Y88.692
X268.396 Y88.078
X268.466 Y87.458
X268.509 Y86.836
X268.537 Y86.212
X268.554 Y85.589
X268.564 Y84.965
X268.571 Y84.341
X268.575 Y83.717
X268.579 Y82.469
X268.581 Y79.973
X268.582 Y78.101
X268.583 Y27.562
Y6.348
X268.549 Y6.038
X268.417 Y5.755
X268.22 Y5.513
X267.743 Y5.111
X267.175 Y4.852
X266.573 Y4.689
X265.957 Y4.587
X265.336 Y4.523
X264.714 Y4.483
X264.09 Y4.458
X263.467 Y4.443
X262.843 Y4.433
X262.219 Y4.427
X261.595 Y4.423
X260.347 Y4.42
X257.851 Y4.418
X240.381 Y4.417
X189.841
X139.302 Y4.416
X88.762
X38.222
X7.649
X7.354 Y4.517
X7.098 Y4.696
X6.668 Y5.148
X6.39 Y5.706
X6.214 Y6.305
X6.103 Y6.919
X6.033 Y7.539
X5.99 Y8.161
X5.963 Y8.785
X5.946 Y9.408
X5.936 Y10.032
X5.929 Y10.656
X5.925 Y11.28
X5.921 Y12.528
X5.919 Y15.024
X5.918 Y23.759
X5.917 Y74.298
Y87.089
X5.94 Y87.4
X6.061 Y87.688
X6.25 Y87.936
X6.714 Y88.353
X7.277 Y88.622
X7.877 Y88.793
X8.492 Y88.901
X9.112 Y88.969
X9.734 Y89.012
X10.358 Y89.038
X10.981 Y89.055
X11.605 Y89.065
X12.229 Y89.072
X12.853 Y89.076
X14.101 Y89.08
X16.597 Y89.082
X42.803 Y89.083
X93.342
X143.882 Y89.084
X194.421
X244.961
X265.239
X265.543 Y89.015
X265.813 Y88.858
X266.271 Y88.434
X266.568 Y87.885
X266.758 Y87.291
X266.878 Y86.679
X266.954 Y86.059
X267.002 Y85.437
X267.031 Y84.814
X267.05 Y84.19
X267.062 Y83.567
X267.069 Y82.943
X267.074 Y82.319
X267.077 Y81.695
X267.08 Y80.447
X267.082 Y77.327
Y59.857
X267.083 Y9.317
Y7.757
X267.01 Y7.454
X266.853 Y7.184
X266.428 Y6.728
X265.88 Y6.43
X265.285 Y6.24
X264.673 Y6.12
X264.054 Y6.045
X263.432 Y5.997
X262.808 Y5.967
X262.185 Y5.949
X261.561 Y5.937
X260.937 Y5.93
X260.313 Y5.925
X259.689 Y5.922
X258.441 Y5.919
X255.321 Y5.917
X219.133
X168.593
X118.053 Y5.916
X67.514
X16.974
X9.487
X9.175 Y5.92
X8.879 Y6.018
X8.621 Y6.194
X8.185 Y6.64
X7.903 Y7.197
X7.723 Y7.794
X7.61 Y8.408
X7.538 Y9.028
X7.493 Y9.65
X7.465 Y10.273
X7.448 Y10.897
X7.437 Y11.521
X7.43 Y12.145
X7.425 Y12.769
X7.423 Y13.393
X7.42 Y14.64
X7.418 Y17.76
Y47.71
X7.417 Y85.77
X7.5 Y86.071
X7.665 Y86.336
X8.098 Y86.785
X8.65 Y87.077
X9.245 Y87.263
X9.858 Y87.381
X10.477 Y87.456
X11.099 Y87.503
X11.723 Y87.533
X12.346 Y87.551
X12.97 Y87.563
X13.594 Y87.57
X14.218 Y87.575
X14.842 Y87.578
X16.09 Y87.581
X19.209 Y87.583
X69.749
X120.289
X170.828 Y87.584
X221.368
X263.796
X264.094 Y87.493
X264.356 Y87.323
X264.797 Y86.882
X265.085 Y86.328
X265.268 Y85.732
X265.384 Y85.119
X265.458 Y84.499
X265.504 Y83.877
X265.533 Y83.254
X265.551 Y82.63
X265.562 Y82.006
X265.57 Y81.382
X265.574 Y80.758
X265.577 Y80.134
X265.58 Y78.886
X265.582 Y75.767
X265.583 Y29.595
Y9.317
X265.53 Y9.009
X265.386 Y8.733
X264.977 Y8.261
X264.435 Y7.953
X263.843 Y7.756
X263.231 Y7.631
X262.613 Y7.552
X261.991 Y7.502
X261.367 Y7.47
X260.744 Y7.451
X260.12 Y7.438
X259.496 Y7.43
X258.872 Y7.425
X258.248 Y7.422
X257 Y7.419
X253.881 Y7.417
X236.41
X185.871
X135.331 Y7.416
X84.791
X34.252
X10.854
X10.545 Y7.459
X10.264 Y7.594
X9.783 Y7.992
X9.467 Y8.53
X9.265 Y9.121
X9.137 Y9.731
X9.056 Y10.35
X9.005 Y10.972
X8.973 Y11.595
X8.952 Y12.219
X8.94 Y12.842
X8.932 Y13.466
X8.927 Y14.09
X8.924 Y14.714
X8.92 Y15.962
X8.919 Y18.458
X8.918 Y33.432
X8.917 Y83.972
Y84.284
X9.006 Y84.583
X9.174 Y84.846
X9.612 Y85.29
X10.164 Y85.58
X10.76 Y85.765
X11.373 Y85.883
X11.993 Y85.957
X12.615 Y86.003
X13.238 Y86.033
X13.862 Y86.051
X14.485 Y86.063
X15.109 Y86.07
X15.733 Y86.075
X16.357 Y86.078
X17.605 Y86.081
X20.725 Y86.083
X58.162
X108.701
X159.241 Y86.084
X209.78
X260.32
X262.192
X262.498 Y86.027
X262.773 Y85.879
X263.242 Y85.468
X263.549 Y84.924
X263.745 Y84.332
X263.869 Y83.72
X263.948 Y83.101
X263.997 Y82.479
X264.029 Y81.856
X264.048 Y81.233
X264.061 Y80.609
X264.069 Y79.985
X264.073 Y79.361
X264.077 Y78.737
X264.08 Y77.489
X264.082 Y74.993
X264.083 Y38.181
Y10.727
X263.999 Y10.427
X263.833 Y10.162
X263.399 Y9.715
X262.847 Y9.423
X262.252 Y9.236
X261.639 Y9.118
X261.02 Y9.044
X260.397 Y8.997
X259.774 Y8.967
X259.151 Y8.949
X258.527 Y8.937
X257.903 Y8.93
X257.279 Y8.925
X256.655 Y8.922
X255.407 Y8.919
X252.287 Y8.917
X241.68
X191.141
X140.601 Y8.916
X90.062
X39.522
X12.38
X12.07 Y8.948
X11.786 Y9.077
X11.542 Y9.272
X11.134 Y9.744
X10.87 Y10.309
X10.703 Y10.91
X10.598 Y11.525
X10.531 Y12.146
X10.489 Y12.768
X10.463 Y13.392
X10.446 Y14.015
X10.436 Y14.639
X10.429 Y15.263
X10.425 Y15.887
X10.421 Y17.135
X10.419 Y19.007
X10.418 Y31.486
X10.417 Y82.025
Y82.649
X10.462 Y82.958
X10.599 Y83.238
X10.998 Y83.718
X11.537 Y84.033
X12.127 Y84.235
X12.738 Y84.363
X13.357 Y84.444
X13.978 Y84.495
X14.602 Y84.528
X15.225 Y84.548
X15.849 Y84.561
X16.473 Y84.569
X17.097 Y84.574
X17.721 Y84.577
X18.969 Y84.581
X21.464 Y84.582
X59.525 Y84.583
X110.065
X160.604 Y84.584
X211.144
X260.747
X261.05 Y84.508
X261.317 Y84.347
X261.771 Y83.919
X262.067 Y83.37
X262.257 Y82.775
X262.377 Y82.163
X262.453 Y81.544
X262.5 Y80.922
X262.531 Y80.299
X262.55 Y79.675
X262.562 Y79.051
X262.569 Y78.427
X262.574 Y77.803
X262.577 Y77.179
X262.58 Y75.931
X262.582 Y72.812
X262.583 Y34.127
Y12.289
X262.52 Y11.983
X262.368 Y11.711
X261.95 Y11.247
X261.405 Y10.944
X260.812 Y10.751
X260.2 Y10.628
X259.581 Y10.55
X258.959 Y10.501
X258.336 Y10.47
X257.712 Y10.45
X257.088 Y10.438
X256.464 Y10.43
X255.841 Y10.425
X255.217 Y10.422
X253.969 Y10.419
X251.473 Y10.418
X234.626 Y10.417
X184.087
X133.547 Y10.416
X83.008
X32.468
X13.75
X13.448 Y10.495
X13.181 Y10.656
X12.728 Y11.085
X12.432 Y11.634
X12.243 Y12.229
X12.123 Y12.841
X12.048 Y13.461
X12 Y14.083
X11.97 Y14.706
X11.951 Y15.33
X11.939 Y15.953
X11.931 Y16.577
X11.926 Y17.201
X11.923 Y17.825
X11.92 Y19.073
X11.918 Y22.193
Y41.535
X11.917 Y81.156
X11.961 Y81.465
X12.1 Y81.744
X12.501 Y82.222
X13.041 Y82.535
X13.631 Y82.736
X14.242 Y82.864
X14.861 Y82.945
X15.483 Y82.996
X16.106 Y83.028
X16.729 Y83.048
X17.353 Y83.061
X17.977 Y83.069
X18.601 Y83.074
X19.225 Y83.077
X20.473 Y83.081
X21.721 Y83.082
X31.08 Y83.083
X72.26
X122.8
X173.339 Y83.084
X223.879
X259.132
X259.441 Y83.045
X259.724 Y82.912
X259.966 Y82.715
X260.37 Y82.24
X260.632 Y81.674
X260.798 Y81.072
X260.903 Y80.457
X260.97 Y79.837
X261.011 Y79.214
X261.037 Y78.591
X261.054 Y77.967
X261.064 Y77.343
X261.071 Y76.719
X261.075 Y76.096
X261.079 Y74.848
X261.081 Y72.976
X261.082 Y68.608
X261.083 Y18.069
Y13.701
X260.989 Y13.403
X260.818 Y13.143
X260.376 Y12.702
X259.822 Y12.415
X259.226 Y12.232
X258.613 Y12.116
X257.993 Y12.042
X257.371 Y11.996
X256.747 Y11.967
X256.124 Y11.948
X255.5 Y11.937
X254.876 Y11.93
X254.252 Y11.925
X253.628 Y11.922
X252.38 Y11.919
X249.261 Y11.917
X215.568
X165.028
X114.488 Y11.916
X63.949
X15.281
X14.976 Y11.982
X14.705 Y12.137
X14.244 Y12.557
X13.943 Y13.104
X13.751 Y13.697
X13.628 Y14.309
X13.551 Y14.928
X13.502 Y15.55
X13.471 Y16.173
X13.451 Y16.797
X13.439 Y17.421
X13.431 Y18.045
X13.426 Y18.669
X13.423 Y19.293
X13.42 Y20.54
X13.418 Y23.036
X13.417 Y63.593
Y79.815
X13.515 Y80.111
X13.69 Y80.37
X14.136 Y80.806
X14.691 Y81.091
X15.288 Y81.272
X15.901 Y81.387
X16.521 Y81.46
X17.143 Y81.505
X17.767 Y81.534
X18.39 Y81.552
X19.014 Y81.563
X19.638 Y81.571
X20.262 Y81.575
X20.886 Y81.578
X22.134 Y81.581
X25.253 Y81.583
X47.092
X97.631
X148.171 Y81.584
X198.71
X249.25
X257.673
X257.98 Y81.527
X258.256 Y81.382
X258.728 Y80.974
X259.04 Y80.434
X259.239 Y79.843
X259.365 Y79.231
X259.445 Y78.613
X259.496 Y77.991
X259.527 Y77.368
X259.548 Y76.744
X259.56 Y76.12
X259.568 Y75.496
X259.573 Y74.872
X259.576 Y74.248
X259.58 Y73.001
X259.582 Y70.505
Y40.555
X259.583 Y15.286
X259.518 Y14.981
X259.365 Y14.709
X258.946 Y14.246
X258.4 Y13.944
X257.807 Y13.75
X257.195 Y13.628
X256.576 Y13.55
X255.954 Y13.501
X255.331 Y13.47
X254.707 Y13.45
X254.084 Y13.438
X253.46 Y13.43
X252.836 Y13.426
X252.212 Y13.422
X250.964 Y13.419
X248.468 Y13.418
X235.365 Y13.417
X184.826
X134.286 Y13.416
X83.747
X33.207
X16.984
X16.673 Y13.424
X16.378 Y13.527
X16.121 Y13.704
X15.688 Y14.153
X15.407 Y14.71
X15.227 Y15.307
X15.113 Y15.921
X15.041 Y16.541
X14.995 Y17.163
X14.967 Y17.786
X14.949 Y18.41
X14.937 Y19.034
X14.93 Y19.658
X14.926 Y20.282
X14.923 Y20.906
X14.92 Y22.153
X14.918 Y25.273
Y46.487
X14.917 Y78.309
X15.014 Y78.605
X15.188 Y78.864
X15.632 Y79.303
X16.187 Y79.588
X16.784 Y79.77
X17.397 Y79.885
X18.016 Y79.958
X18.639 Y80.004
X19.262 Y80.033
X19.886 Y80.052
X20.509 Y80.063
X21.133 Y80.07
X21.757 Y80.075
X22.381 Y80.078
X23.629 Y80.081
X26.749 Y80.083
X32.988
X83.528
X134.067 Y80.084
X184.607
X235.147
X256.049
X256.36 Y80.069
X256.652 Y79.958
X256.904 Y79.774
X257.329 Y79.317
X257.605 Y78.757
X257.781 Y78.159
X257.892 Y77.545
X257.962 Y76.925
X258.007 Y76.303
X258.034 Y75.679
X258.052 Y75.056
X258.063 Y74.432
X258.07 Y73.808
X258.074 Y73.184
X258.077 Y72.56
X258.08 Y71.312
X258.082 Y68.192
Y51.346
X258.083 Y16.717
X257.994 Y16.418
X257.826 Y16.155
X257.388 Y15.711
X256.835 Y15.421
X256.24 Y15.236
X255.627 Y15.118
X255.007 Y15.044
X254.385 Y14.997
X253.762 Y14.967
X253.138 Y14.949
X252.514 Y14.937
X251.89 Y14.93
X251.267 Y14.925
X250.643 Y14.922
X249.395 Y14.919
X246.275 Y14.917
X243.155
X192.616
X142.076 Y14.916
X91.537
X40.997
X18.223
X17.924 Y15.004
X17.661 Y15.172
X17.214 Y15.608
X16.924 Y16.16
X16.738 Y16.756
X16.62 Y17.368
X16.546 Y17.988
X16.498 Y18.61
X16.469 Y19.233
X16.45 Y19.857
X16.438 Y20.481
X16.431 Y21.105
X16.426 Y21.729
X16.423 Y22.353
X16.42 Y23.6
X16.418 Y26.72
Y41.695
X16.417 Y76.636
X16.459 Y76.945
X16.593 Y77.227
X16.791 Y77.468
X17.266 Y77.872
X17.833 Y78.133
X18.434 Y78.299
X19.049 Y78.404
X19.67 Y78.47
X20.292 Y78.512
X20.916 Y78.538
X21.539 Y78.555
X22.163 Y78.565
X22.787 Y78.572
X23.411 Y78.576
X24.659 Y78.58
X26.531 Y78.582
X30.898 Y78.583
X81.438
X131.978 Y78.584
X182.517
X233.057
X254.583
X254.894 Y78.558
X255.181 Y78.436
X255.428 Y78.246
X255.845 Y77.782
X256.115 Y77.219
X256.287 Y76.619
X256.396 Y76.005
X256.465 Y75.385
X256.508 Y74.762
X256.535 Y74.139
X256.553 Y73.515
X256.564 Y72.891
X256.57 Y72.268
X256.575 Y71.644
X256.579 Y70.396
X256.581 Y68.524
X256.582 Y53.549
Y50.429
X256.583 Y18.296
X256.521 Y17.991
X256.37 Y17.717
X255.955 Y17.252
X255.41 Y16.948
X254.817 Y16.753
X254.206 Y16.629
X253.587 Y16.551
X252.965 Y16.502
X252.341 Y16.47
X251.718 Y16.451
X251.094 Y16.438
X250.47 Y16.431
X249.846 Y16.426
X249.222 Y16.422
X247.974 Y16.419
X245.479 Y16.418
X239.239 Y16.417
X188.7
X138.16 Y16.416
X87.62
X37.081
X19.922
X19.611 Y16.439
X19.323 Y16.559
X19.075 Y16.748
X18.658 Y17.211
X18.387 Y17.774
X18.214 Y18.373
X18.104 Y18.987
X18.035 Y19.608
X17.992 Y20.23
X17.965 Y20.853
X17.947 Y21.477
X17.936 Y22.101
X17.93 Y22.725
X17.925 Y23.349
X17.923 Y23.973
X17.92 Y25.221
X17.918 Y28.34
Y48.93
X17.917 Y75.136
X17.962 Y75.445
X18.099 Y75.725
X18.496 Y76.207
X19.032 Y76.526
X19.621 Y76.73
X20.232 Y76.86
X20.85 Y76.942
X21.472 Y76.994
X22.095 Y77.027
X22.719 Y77.048
X23.342 Y77.061
X23.966 Y77.069
X24.59 Y77.074
X25.214 Y77.077
X26.462 Y77.081
X28.958 Y77.082
X41.437 Y77.083
X91.976
X142.516 Y77.084
X193.055
X243.595
X253.266
X253.566 Y77
X253.831 Y76.834
X254.28 Y76.401
X254.572 Y75.85
X254.759 Y75.254
X254.878 Y74.642
X254.953 Y74.022
X255.001 Y73.4
X255.031 Y72.777
X255.05 Y72.153
X255.062 Y71.529
X255.069 Y70.906
X255.074 Y70.282
X255.077 Y69.658
X255.08 Y68.41
X255.082 Y65.29
X255.083 Y37.213
Y19.742
X255.003 Y19.441
X254.839 Y19.175
X254.408 Y18.724
X253.858 Y18.429
X253.263 Y18.241
X252.651 Y18.122
X252.032 Y18.046
X251.409 Y17.998
X250.786 Y17.968
X250.163 Y17.949
X249.539 Y17.937
X248.915 Y17.93
X248.291 Y17.925
X247.667 Y17.922
X246.419 Y17.919
X243.299 Y17.917
X222.709
X172.17
X121.63 Y17.916
X71.09
X21.175
X20.881 Y18.02
X20.625 Y18.198
X20.191 Y18.647
X19.909 Y19.203
X19.728 Y19.8
X19.614 Y20.414
X19.542 Y21.034
X19.496 Y21.656
X19.467 Y22.279
X19.449 Y22.903
X19.438 Y23.527
X19.43 Y24.151
X19.426 Y24.774
X19.423 Y25.398
X19.42 Y26.646
X19.418 Y29.766
X19.417 Y67.827
Y73.754
X19.497 Y74.056
X19.659 Y74.322
X20.089 Y74.774
X20.639 Y75.069
X21.234 Y75.258
X21.846 Y75.378
X22.465 Y75.454
X23.087 Y75.502
X23.711 Y75.532
X24.334 Y75.551
X24.958 Y75.563
X25.582 Y75.57
X26.206 Y75.575
X26.83 Y75.578
X28.078 Y75.581
X31.198 Y75.583
X63.019
X113.558
X164.098 Y75.584
X214.637
X251.762
X252.063 Y75.501
X252.328 Y75.337
X252.778 Y74.904
X253.071 Y74.353
X253.258 Y73.758
X253.378 Y73.146
X253.453 Y72.526
X253.501 Y71.904
X253.531 Y71.281
X253.55 Y70.657
X253.562 Y70.034
X253.569 Y69.41
X253.574 Y68.786
X253.577 Y68.162
X253.58 Y66.914
X253.582 Y63.794
Y63.17
X253.583 Y21.366
X253.542 Y21.057
X253.409 Y20.775
X253.212 Y20.533
X252.736 Y20.129
X252.17 Y19.867
X251.569 Y19.701
X250.953 Y19.596
X250.333 Y19.53
X249.71 Y19.488
X249.087 Y19.462
X248.463 Y19.445
X247.84 Y19.435
X247.216 Y19.428
X246.592 Y19.424
X245.968 Y19.422
X244.72 Y19.419
X241.6 Y19.417
X195.428
X144.889
X94.349 Y19.416
X43.809
X22.907
X22.597 Y19.444
X22.311 Y19.569
X22.064 Y19.76
X21.65 Y20.227
X21.382 Y20.791
X21.211 Y21.391
X21.103 Y22.005
X21.034 Y22.625
X20.991 Y23.248
X20.964 Y23.871
X20.947 Y24.495
X20.936 Y25.119
X20.93 Y25.742
X20.925 Y26.366
X20.921 Y27.614
X20.919 Y29.486
X20.918 Y45.085
Y48.205
X20.917 Y72.226
X20.986 Y72.531
X21.143 Y72.801
X21.565 Y73.26
X22.112 Y73.56
X22.706 Y73.752
X23.317 Y73.874
X23.937 Y73.951
X24.559 Y74
X25.182 Y74.03
X25.806 Y74.05
X26.429 Y74.062
X27.053 Y74.07
X27.677 Y74.075
X28.301 Y74.078
X29.549 Y74.081
X32.669 Y74.083
X46.396
X96.935
X147.475 Y74.084
X198.014
X248.554
X250.114
X250.424 Y74.049
X250.708 Y73.92
X250.952 Y73.726
X251.36 Y73.254
X251.625 Y72.689
X251.794 Y72.089
X251.9 Y71.474
X251.968 Y70.854
X252.01 Y70.231
X252.037 Y69.608
X252.053 Y68.984
X252.064 Y68.36
X252.071 Y67.736
X252.075 Y67.112
X252.079 Y65.864
X252.081 Y63.993
X252.082 Y47.77
X252.083 Y25.932
Y22.812
X252.021 Y22.506
X251.873 Y22.232
X251.461 Y21.763
X250.919 Y21.455
X250.327 Y21.257
X249.716 Y21.132
X249.097 Y21.053
X248.475 Y21.003
X247.852 Y20.971
X247.228 Y20.951
X246.604 Y20.939
X245.98 Y20.931
X245.356 Y20.926
X244.732 Y20.923
X243.484 Y20.919
X240.989 Y20.917
X205.424
X154.884
X104.345 Y20.916
X53.805
X24.48
X24.168 Y20.931
X23.875 Y21.036
X23.619 Y21.215
X23.187 Y21.665
X22.906 Y22.222
X22.727 Y22.82
X22.613 Y23.433
X22.541 Y24.053
X22.495 Y24.675
X22.467 Y25.299
X22.449 Y25.922
X22.437 Y26.546
X22.43 Y27.17
X22.426 Y27.794
X22.423 Y28.418
X22.42 Y29.666
X22.418 Y32.786
Y40.897
X22.417 Y70.534
X22.429 Y70.846
X22.537 Y71.139
X22.718 Y71.393
X23.171 Y71.822
X23.729 Y72.1
X24.327 Y72.278
X24.941 Y72.391
X25.561 Y72.462
X26.183 Y72.507
X26.807 Y72.535
X27.43 Y72.553
X28.054 Y72.564
X28.678 Y72.571
X29.302 Y72.575
X29.926 Y72.578
X31.174 Y72.581
X34.294 Y72.583
X42.405
X92.944
X143.484 Y72.584
X194.024
X244.563
X248.619
X248.928 Y72.545
X249.211 Y72.412
X249.454 Y72.217
X249.862 Y71.744
X250.125 Y71.179
X250.294 Y70.578
X250.4 Y69.963
X250.467 Y69.343
X250.51 Y68.721
X250.537 Y68.097
X250.553 Y67.474
X250.564 Y66.85
X250.571 Y66.226
X250.575 Y65.602
X250.579 Y64.354
X250.581 Y62.482
X250.582 Y46.26
X250.583 Y26.917
Y24.421
X250.56 Y24.11
X250.44 Y23.822
X250.252 Y23.573
X249.788 Y23.156
X249.226 Y22.885
X248.626 Y22.712
X248.012 Y22.603
X247.392 Y22.534
X246.77 Y22.491
X246.146 Y22.464
X245.522 Y22.446
X244.899 Y22.436
X244.275 Y22.429
X243.651 Y22.424
X243.027 Y22.422
X241.779 Y22.419
X238.659 Y22.417
X203.718
X153.179
X102.639 Y22.416
X52.1
X25.894
X25.584 Y22.451
X25.3 Y22.579
X25.055 Y22.773
X24.645 Y23.243
X24.379 Y23.808
X24.209 Y24.408
X24.101 Y25.023
X24.034 Y25.643
X23.991 Y26.265
X23.964 Y26.889
X23.947 Y27.512
X23.936 Y28.136
X23.929 Y28.76
X23.925 Y29.384
X23.921 Y30.632
X23.919 Y32.504
X23.918 Y45.607
X23.917 Y69.317
X24.018 Y69.612
X24.194 Y69.87
X24.64 Y70.306
X25.196 Y70.59
X25.793 Y70.771
X26.406 Y70.886
X27.026 Y70.959
X27.648 Y71.005
X28.271 Y71.034
X28.895 Y71.052
X29.519 Y71.063
X30.143 Y71.071
X30.766 Y71.075
X31.39 Y71.078
X32.638 Y71.081
X35.758 Y71.083
X50.109
X100.648
X151.188 Y71.084
X201.727
X247.275
X247.575 Y70.996
X247.838 Y70.828
X248.284 Y70.391
X248.575 Y69.839
X248.761 Y69.244
X248.879 Y68.631
X248.954 Y68.012
X249.001 Y67.39
X249.031 Y66.766
X249.05 Y66.143
X249.062 Y65.519
X249.069 Y64.895
X249.074 Y64.271
X249.077 Y63.647
X249.08 Y62.399
X249.082 Y59.28
X249.083 Y25.898
X249.051 Y25.588
X248.923 Y25.303
X248.73 Y25.058
X248.262 Y24.646
X247.698 Y24.379
X247.098 Y24.209
X246.483 Y24.101
X245.863 Y24.033
X245.24 Y23.99
X244.617 Y23.963
X243.993 Y23.946
X243.37 Y23.935
X242.746 Y23.929
X242.122 Y23.924
X240.874 Y23.92
X240.25 Y23.919
X237.13 Y23.917
X189.71
X139.171 Y23.916
X88.631
X38.092
X27.484
X27.173 Y23.931
X26.879 Y24.035
X26.623 Y24.213
X26.189 Y24.662
X25.908 Y25.219
X25.728 Y25.817
X25.614 Y26.43
X25.541 Y27.05
X25.496 Y27.672
X25.467 Y28.295
X25.449 Y28.919
X25.437 Y29.543
X25.43 Y30.167
X25.426 Y30.791
X25.423 Y31.415
X25.42 Y32.662
X25.418 Y35.782
X25.417 Y62.612
Y67.603
X25.449 Y67.914
X25.576 Y68.199
X25.768 Y68.444
X26.237 Y68.855
X26.802 Y69.122
X27.402 Y69.292
X28.017 Y69.4
X28.637 Y69.468
X29.259 Y69.51
X29.883 Y69.537
X30.506 Y69.554
X31.13 Y69.565
X31.754 Y69.571
X32.378 Y69.576
X33.626 Y69.58
X35.498 Y69.582
X51.72 Y69.583
X69.815
X120.354
X170.894 Y69.584
X221.433
X245.767
X246.067 Y69.499
X246.332 Y69.333
X246.78 Y68.899
X247.072 Y68.348
X247.259 Y67.753
X247.378 Y67.14
X247.453 Y66.521
X247.501 Y65.899
X247.531 Y65.275
X247.55 Y64.652
X247.562 Y64.028
X247.569 Y63.404
X247.574 Y62.78
X247.577 Y62.156
X247.58 Y60.908
X247.582 Y57.789
Y44.062
X247.583 Y27.215
X247.491 Y26.917
X247.322 Y26.655
X246.884 Y26.211
X246.331 Y25.921
X245.735 Y25.736
X245.123 Y25.619
X244.503 Y25.545
X243.881 Y25.498
X243.258 Y25.468
X242.634 Y25.449
X242.01 Y25.437
X241.386 Y25.43
X240.762 Y25.425
X240.138 Y25.422
X238.89 Y25.419
X235.771 Y25.417
X214.557
X164.017
X113.477 Y25.416
X62.938
X28.933
X28.622 Y25.439
X28.333 Y25.559
X28.084 Y25.746
X27.664 Y26.207
X27.391 Y26.769
X27.217 Y27.368
X27.107 Y27.982
X27.037 Y28.602
X26.993 Y29.224
X26.965 Y29.848
X26.948 Y30.471
X26.937 Y31.095
X26.93 Y31.719
X26.925 Y32.343
X26.923 Y32.967
X26.92 Y34.215
X26.918 Y37.334
Y41.078
X26.917 Y66.036
X26.936 Y66.347
X27.046 Y66.639
X27.227 Y66.893
X27.68 Y67.322
X28.239 Y67.6
X28.837 Y67.778
X29.451 Y67.89
X30.071 Y67.961
X30.693 Y68.006
X31.316 Y68.035
X31.94 Y68.052
X32.564 Y68.064
X33.188 Y68.071
X33.812 Y68.075
X34.436 Y68.078
X35.683 Y68.081
X38.803 Y68.083
X51.282
X101.822
X152.361 Y68.084
X202.901
X244.081
X244.392 Y68.06
X244.68 Y67.938
X244.928 Y67.749
X245.344 Y67.284
X245.614 Y66.722
X245.787 Y66.122
X245.896 Y65.508
X245.965 Y64.888
X246.008 Y64.266
X246.036 Y63.642
X246.053 Y63.019
X246.064 Y62.395
X246.071 Y61.771
X246.075 Y61.147
X246.079 Y59.899
X246.081 Y58.027
X246.082 Y43.052
X246.083 Y28.702
X245.988 Y28.405
X245.816 Y28.144
X245.374 Y27.704
X244.82 Y27.417
X244.223 Y27.233
X243.61 Y27.117
X242.991 Y27.043
X242.369 Y26.997
X241.745 Y26.967
X241.122 Y26.949
X240.498 Y26.937
X239.874 Y26.93
X239.25 Y26.925
X238.626 Y26.922
X237.378 Y26.919
X234.258 Y26.917
X227.395
X176.855
X126.316 Y26.916
X75.776
X30.228
X29.929 Y27.003
X29.665 Y27.17
X29.218 Y27.605
X28.927 Y28.157
X28.74 Y28.752
X28.622 Y29.365
X28.547 Y29.984
X28.499 Y30.606
X28.469 Y31.23
X28.45 Y31.853
X28.438 Y32.477
X28.431 Y33.101
X28.426 Y33.725
X28.423 Y34.349
X28.42 Y35.597
X28.418 Y38.717
X28.417 Y64.61
X28.454 Y64.92
X28.583 Y65.204
X28.778 Y65.448
X29.248 Y65.858
X29.813 Y66.123
X30.413 Y66.293
X31.028 Y66.4
X31.648 Y66.468
X32.271 Y66.51
X32.894 Y66.537
X33.518 Y66.554
X34.142 Y66.565
X34.766 Y66.571
X35.39 Y66.576
X36.638 Y66.58
X38.509 Y66.582
X44.749 Y66.583
X95.288
X145.828 Y66.584
X196.368
X242.539
X242.851 Y66.566
X243.142 Y66.455
X243.396 Y66.272
X243.823 Y65.818
X244.101 Y65.259
X244.278 Y64.661
X244.39 Y64.047
X244.461 Y63.427
X244.506 Y62.805
X244.534 Y62.181
X244.552 Y61.558
X244.563 Y60.934
X244.57 Y60.31
X244.575 Y59.686
X244.577 Y59.062
X244.58 Y57.814
X244.582 Y54.694
X244.583 Y30.361
X244.539 Y30.052
X244.404 Y29.771
X244.007 Y29.289
X243.47 Y28.972
X242.88 Y28.769
X242.269 Y28.639
X241.651 Y28.558
X241.029 Y28.506
X240.406 Y28.473
X239.782 Y28.452
X239.159 Y28.439
X238.535 Y28.431
X237.911 Y28.426
X237.287 Y28.423
X236.039 Y28.419
X233.543 Y28.417
X227.928
X177.388
X126.849 Y28.416
X76.309
X32.009
X31.697 Y28.421
X31.4 Y28.518
X31.141 Y28.691
X30.702 Y29.134
X30.416 Y29.689
X30.233 Y30.285
X30.117 Y30.898
X30.043 Y31.518
X29.997 Y32.14
X29.968 Y32.763
X29.949 Y33.387
X29.938 Y34.011
X29.93 Y34.635
X29.926 Y35.259
X29.923 Y35.883
X29.92 Y37.131
X29.918 Y40.25
X29.917 Y63.024
X29.934 Y63.336
X30.041 Y63.629
X30.221 Y63.884
X30.672 Y64.315
X31.229 Y64.596
X31.827 Y64.775
X32.44 Y64.888
X33.06 Y64.96
X33.682 Y65.005
X34.306 Y65.034
X34.929 Y65.052
X35.553 Y65.064
X36.177 Y65.071
X36.801 Y65.075
X37.425 Y65.078
X38.673 Y65.081
X41.793 Y65.083
X49.904
X100.444
X150.983 Y65.084
X201.523
X241.143
X241.452 Y65.037
X241.732 Y64.899
X242.211 Y64.5
X242.528 Y63.963
X242.731 Y63.373
X242.86 Y62.762
X242.942 Y62.144
X242.994 Y61.522
X243.026 Y60.899
X243.047 Y60.275
X243.06 Y59.651
X243.068 Y59.027
X243.073 Y58.404
X243.077 Y57.78
X243.08 Y56.532
X243.081 Y55.284
X243.082 Y46.549
X243.083 Y31.886
X243.05 Y31.576
X242.922 Y31.291
X242.729 Y31.047
X242.257 Y30.638
X241.692 Y30.373
X241.092 Y30.205
X240.477 Y30.098
X239.856 Y30.031
X239.234 Y29.989
X238.61 Y29.962
X237.987 Y29.946
X237.363 Y29.935
X236.739 Y29.928
X236.115 Y29.924
X234.867 Y29.92
X232.995 Y29.918
X217.397 Y29.917
X216.773
X166.233
X115.694 Y29.916
X65.154
X33.333
X33.025 Y29.969
X32.748 Y30.111
X32.274 Y30.516
X31.962 Y31.057
X31.763 Y31.648
X31.636 Y32.259
X31.556 Y32.878
X31.505 Y33.5
X31.473 Y34.123
X31.452 Y34.747
X31.44 Y35.371
X31.432 Y35.994
X31.427 Y36.618
X31.423 Y37.242
X31.42 Y38.49
X31.418 Y40.986
Y47.849
X31.417 Y61.576
X31.443 Y61.887
X31.565 Y62.174
X31.753 Y62.423
X32.217 Y62.841
X32.778 Y63.112
X33.378 Y63.285
X33.992 Y63.395
X34.612 Y63.465
X35.235 Y63.508
X35.858 Y63.536
X36.482 Y63.553
X37.105 Y63.564
X37.729 Y63.571
X38.353 Y63.576
X38.977 Y63.578
X40.225 Y63.581
X43.345 Y63.583
X67.055
X117.594
X168.134 Y63.584
X218.674
X239.576
X239.887 Y63.562
X240.176 Y63.444
X240.425 Y63.256
X240.842 Y62.793
X241.114 Y62.231
X241.287 Y61.632
X241.396 Y61.017
X241.465 Y60.397
X241.508 Y59.775
X241.536 Y59.151
X241.553 Y58.528
X241.564 Y57.904
X241.571 Y57.28
X241.575 Y56.656
X241.578 Y56.032
X241.58 Y54.784
X241.582 Y51.664
X241.583 Y34.818
Y33.258
X241.506 Y32.956
X241.346 Y32.687
X240.919 Y32.232
X240.371 Y31.935
X239.777 Y31.745
X239.164 Y31.624
X238.545 Y31.548
X237.923 Y31.5
X237.3 Y31.469
X236.676 Y31.45
X236.052 Y31.438
X235.428 Y31.43
X234.805 Y31.425
X234.181 Y31.422
X232.933 Y31.419
X229.813 Y31.417
X193.624
X143.085 Y31.416
X92.545
X42.005
X34.83
X34.522 Y31.465
X34.245 Y31.609
X33.771 Y32.015
X33.461 Y32.556
X33.262 Y33.147
X33.135 Y33.758
X33.055 Y34.377
X33.004 Y34.999
X32.972 Y35.622
X32.952 Y36.246
X32.94 Y36.87
X32.932 Y37.494
X32.926 Y38.118
X32.923 Y38.741
X32.92 Y39.989
X32.918 Y42.485
X32.917 Y59.956
X32.918 Y60.268
X33.004 Y60.568
X33.17 Y60.832
X33.603 Y61.28
X34.155 Y61.573
X34.75 Y61.76
X35.362 Y61.879
X35.982 Y61.954
X36.604 Y62.001
X37.227 Y62.032
X37.851 Y62.05
X38.475 Y62.062
X39.098 Y62.07
X39.722 Y62.075
X40.346 Y62.078
X41.594 Y62.081
X44.714 Y62.083
X45.962
X96.501
X147.041 Y62.084
X197.581
X238.137
X238.446 Y62.04
X238.727 Y61.904
X239.208 Y61.507
X239.527 Y60.971
X239.73 Y60.381
X239.86 Y59.771
X239.942 Y59.152
X239.994 Y58.53
X240.026 Y57.907
X240.047 Y57.284
X240.06 Y56.66
X240.068 Y56.036
X240.073 Y55.412
X240.077 Y54.788
X240.08 Y53.54
X240.081 Y52.916
X240.082 Y48.549
X240.083 Y34.822
X240.029 Y34.515
X239.884 Y34.238
X239.476 Y33.766
X238.934 Y33.457
X238.342 Y33.259
X237.731 Y33.133
X237.112 Y33.054
X236.49 Y33.003
X235.867 Y32.972
X235.243 Y32.951
X234.619 Y32.939
X233.996 Y32.931
X233.372 Y32.926
X232.748 Y32.923
X231.5 Y32.919
X229.004 Y32.917
X208.414
X157.874
X107.335 Y32.916
X56.795
X36.205
X35.907 Y33.008
X35.646 Y33.179
X35.205 Y33.62
X34.917 Y34.174
X34.733 Y34.77
X34.617 Y35.383
X34.543 Y36.003
X34.497 Y36.625
X34.468 Y37.248
X34.449 Y37.872
X34.438 Y38.496
X34.43 Y39.12
X34.426 Y39.744
X34.423 Y40.368
X34.42 Y41.616
X34.418 Y44.735
X34.417 Y58.774
X34.504 Y59.074
X34.672 Y59.337
X35.107 Y59.784
X35.659 Y60.075
X36.255 Y60.261
X36.867 Y60.38
X37.487 Y60.455
X38.109 Y60.502
X38.732 Y60.532
X39.356 Y60.551
X39.979 Y60.563
X40.603 Y60.57
X41.227 Y60.575
X41.851 Y60.578
X43.099 Y60.581
X46.219 Y60.583
X87.399
X137.939 Y60.584
X188.478
X236.522
X236.834 Y60.575
X237.128 Y60.472
X237.384 Y60.293
X237.816 Y59.842
X238.096 Y59.285
X238.276 Y58.688
X238.389 Y58.074
X238.46 Y57.454
X238.505 Y56.832
X238.534 Y56.209
X238.552 Y55.585
X238.563 Y54.961
X238.57 Y54.337
X238.575 Y53.713
X238.577 Y53.089
X238.58 Y51.841
X238.582 Y48.722
X238.583 Y36.243
X238.503 Y35.941
X238.34 Y35.675
X237.908 Y35.224
X237.358 Y34.93
X236.764 Y34.741
X236.151 Y34.622
X235.532 Y34.546
X234.91 Y34.498
X234.287 Y34.468
X233.663 Y34.449
X233.039 Y34.437
X232.415 Y34.43
X231.791 Y34.425
X231.167 Y34.422
X229.919 Y34.419
X226.8 Y34.417
X211.825
X161.285
X110.746 Y34.416
X60.206
X37.744
X37.443 Y34.496
X37.177 Y34.659
X36.725 Y35.089
X36.43 Y35.639
X36.242 Y36.234
X36.122 Y36.846
X36.047 Y37.466
X35.999 Y38.088
X35.969 Y38.711
X35.95 Y39.335
X35.938 Y39.958
X35.931 Y40.582
X35.926 Y41.206
X35.923 Y41.83
X35.92 Y43.078
X35.918 Y46.198
X35.917 Y57.117
X35.954 Y57.427
X36.083 Y57.71
X36.278 Y57.954
X36.75 Y58.362
X37.315 Y58.626
X37.916 Y58.795
X38.531 Y58.902
X39.151 Y58.969
X39.774 Y59.011
X40.397 Y59.038
X41.021 Y59.054
X41.645 Y59.065
X42.269 Y59.072
X42.893 Y59.076
X44.14 Y59.08
X46.012 Y59.082
X62.235 Y59.083
X90.312
X140.852 Y59.084
X191.391
X235.068
X235.379 Y59.063
X235.668 Y58.945
X235.917 Y58.758
X236.338 Y58.297
X236.61 Y57.735
X236.784 Y57.136
X236.894 Y56.522
X236.964 Y55.902
X237.008 Y55.28
X237.035 Y54.656
X237.053 Y54.032
X237.064 Y53.409
X237.071 Y52.785
X237.075 Y52.161
X237.078 Y51.537
X237.08 Y50.289
X237.082 Y47.169
X237.083 Y37.81
X237.025 Y37.503
X236.878 Y37.229
X236.466 Y36.759
X235.923 Y36.453
X235.331 Y36.256
X234.719 Y36.131
X234.1 Y36.052
X233.479 Y36.002
X232.855 Y35.971
X232.232 Y35.951
X231.608 Y35.938
X230.984 Y35.931
X230.36 Y35.926
X229.736 Y35.922
X228.488 Y35.919
X225.992 Y35.917
X202.906
X152.367
X101.827 Y35.916
X51.288
X39.433
X39.121 Y35.935
X38.832 Y36.052
X38.582 Y36.239
X38.162 Y36.7
X37.889 Y37.261
X37.716 Y37.86
X37.605 Y38.475
X37.536 Y39.095
X37.492 Y39.717
X37.465 Y40.34
X37.447 Y40.964
X37.436 Y41.588
X37.429 Y42.212
X37.425 Y42.836
X37.422 Y43.46
X37.42 Y44.708
X37.418 Y47.827
X37.417 Y55.627
X37.46 Y55.936
X37.594 Y56.217
X37.988 Y56.701
X38.523 Y57.022
X39.112 Y57.228
X39.722 Y57.359
X40.34 Y57.441
X40.962 Y57.494
X41.585 Y57.527
X42.209 Y57.547
X42.833 Y57.561
X43.456 Y57.569
X44.08 Y57.574
X44.704 Y57.577
X45.952 Y57.581
X48.448 Y57.583
X54.687
X105.227
X155.767 Y57.584
X206.306
X233.76
X234.061 Y57.502
X234.326 Y57.338
X234.777 Y56.907
X235.07 Y56.356
X235.258 Y55.761
X235.378 Y55.149
X235.453 Y54.529
X235.501 Y53.907
X235.531 Y53.284
X235.55 Y52.66
X235.562 Y52.036
X235.569 Y51.413
X235.574 Y50.789
X235.577 Y50.165
X235.58 Y48.917
X235.582 Y45.797
X235.583 Y39.246
X235.504 Y38.944
X235.341 Y38.677
X234.911 Y38.225
X234.361 Y37.93
X233.767 Y37.742
X233.154 Y37.622
X232.535 Y37.546
X231.913 Y37.498
X231.29 Y37.468
X230.666 Y37.449
X230.042 Y37.437
X229.418 Y37.43
X228.794 Y37.425
X228.17 Y37.422
X226.922 Y37.419
X223.803 Y37.417
X181.998
X131.459 Y37.416
X80.919
X40.987
X40.675 Y37.428
X40.381 Y37.531
X40.124 Y37.708
X39.69 Y38.156
X39.408 Y38.712
X39.227 Y39.31
X39.113 Y39.923
X39.041 Y40.543
X38.995 Y41.165
X38.967 Y41.789
X38.949 Y42.412
X38.937 Y43.036
X38.93 Y43.66
X38.925 Y44.284
X38.923 Y44.908
X38.92 Y46.156
X38.919 Y46.78
X38.918 Y51.771
Y54.267
X39.001 Y54.568
X39.166 Y54.832
X39.6 Y55.281
X40.151 Y55.574
X40.746 Y55.761
X41.359 Y55.88
X41.978 Y55.955
X42.6 Y56.002
X43.223 Y56.032
X43.847 Y56.051
X44.471 Y56.063
X45.095 Y56.07
X45.719 Y56.075
X46.343 Y56.078
X47.591 Y56.081
X50.71 Y56.083
X81.284
X131.823 Y56.084
X182.363
X232.278
X232.578 Y55.996
X232.841 Y55.828
X233.286 Y55.391
X233.577 Y54.839
X233.762 Y54.243
X233.88 Y53.631
X233.955 Y53.011
X234.002 Y52.389
X234.032 Y51.766
X234.05 Y51.142
X234.062 Y50.518
X234.07 Y49.894
X234.074 Y49.27
X234.077 Y48.646
X234.08 Y47.399
X234.082 Y44.279
Y40.847
X234.036 Y40.539
X233.898 Y40.259
X233.498 Y39.78
X232.959 Y39.466
X232.368 Y39.265
X231.758 Y39.137
X231.139 Y39.056
X230.517 Y39.005
X229.894 Y38.972
X229.271 Y38.952
X228.647 Y38.939
X228.023 Y38.931
X227.399 Y38.926
X226.775 Y38.923
X225.527 Y38.919
X223.031 Y38.917
X199.945
X149.406
X98.866 Y38.916
X48.327
X42.399
X42.089 Y38.948
X41.804 Y39.075
X41.559 Y39.268
X41.147 Y39.737
X40.88 Y40.301
X40.709 Y40.901
X40.602 Y41.515
X40.533 Y42.136
X40.491 Y42.758
X40.464 Y43.381
X40.447 Y44.005
X40.436 Y44.629
X40.429 Y45.253
X40.425 Y45.877
X40.42 Y47.125
X40.418 Y48.997
Y52.74
X40.492 Y53.043
X40.651 Y53.311
X41.077 Y53.767
X41.626 Y54.065
X42.22 Y54.255
X42.832 Y54.376
X43.451 Y54.452
X44.073 Y54.501
X44.696 Y54.531
X45.32 Y54.55
X45.944 Y54.562
X46.568 Y54.57
X47.192 Y54.575
X47.816 Y54.578
X49.064 Y54.581
X52.183 Y54.583
X69.654
X120.193
X170.733 Y54.584
X221.272
X230.632
X230.941 Y54.543
X231.223 Y54.41
X231.465 Y54.213
X231.869 Y53.738
X232.131 Y53.171
X232.298 Y52.57
X232.403 Y51.955
X232.469 Y51.335
X232.511 Y50.712
X232.538 Y50.089
X232.554 Y49.465
X232.565 Y48.841
X232.571 Y48.217
X232.575 Y47.593
X232.58 Y46.346
X232.582 Y44.474
Y42.29
X232.52 Y41.984
X232.368 Y41.712
X231.95 Y41.249
X231.404 Y40.945
X230.811 Y40.751
X230.2 Y40.628
X229.581 Y40.55
X228.959 Y40.501
X228.336 Y40.47
X227.712 Y40.45
X227.088 Y40.438
X226.464 Y40.43
X225.84 Y40.425
X225.216 Y40.422
X223.968 Y40.419
X221.473 Y40.417
X205.25
X154.711
X104.171 Y40.416
X53.631
X43.96
X43.649 Y40.436
X43.358 Y40.547
X43.104 Y40.73
X42.677 Y41.184
X42.4 Y41.743
X42.222 Y42.341
X42.11 Y42.955
X42.039 Y43.575
X41.994 Y44.197
X41.966 Y44.821
X41.948 Y45.444
X41.937 Y46.068
X41.93 Y46.692
X41.925 Y47.316
X41.922 Y47.94
X41.919 Y49.188
X41.918 Y51.06
X41.935 Y51.371
X42.05 Y51.661
X42.235 Y51.912
X42.694 Y52.334
X43.255 Y52.609
X43.854 Y52.784
X44.468 Y52.894
X45.088 Y52.964
X45.71 Y53.008
X46.334 Y53.036
X46.957 Y53.053
X47.581 Y53.064
X48.205 Y53.071
X48.829 Y53.076
X49.453 Y53.078
X50.701 Y53.081
X53.82 Y53.083
X70.043
X120.583
X171.122 Y53.084
X221.662
X229.149
X229.457 Y53.034
X229.736 Y52.895
X230.214 Y52.494
X230.531 Y51.956
X230.733 Y51.366
X230.862 Y50.755
X230.943 Y50.137
X230.994 Y49.515
X231.027 Y48.892
X231.047 Y48.268
X231.06 Y47.644
X231.068 Y47.02
X231.074 Y46.396
X231.077 Y45.773
X231.08 Y44.525
X231.081 Y43.901
X231.053 Y43.59
X230.929 Y43.304
X230.737 Y43.057
X230.269 Y42.645
X229.706 Y42.378
X229.105 Y42.207
X228.491 Y42.1
X227.87 Y42.032
X227.248 Y41.989
X226.625 Y41.963
X226.001 Y41.946
X225.377 Y41.935
X224.753 Y41.928
X224.129 Y41.924
X222.881 Y41.92
X221.009 Y41.918
X205.411 Y41.917
X199.171
X148.632
X98.092 Y41.916
X47.553
X45.369
X45.06 Y41.96
X44.779 Y42.095
X44.296 Y42.49
X43.977 Y43.026
X43.772 Y43.616
X43.642 Y44.226
X43.559 Y44.844
X43.507 Y45.466
X43.474 Y46.089
X43.453 Y46.713
X43.44 Y47.336
X43.432 Y47.96
X43.427 Y48.584
X43.422 Y49.52
X43.434 Y49.832
X43.539 Y50.126
X43.717 Y50.382
X44.166 Y50.815
X44.724 Y51.096
X45.321 Y51.275
X45.935 Y51.389
X46.554 Y51.46
X47.177 Y51.506
X47.8 Y51.534
X48.424 Y51.552
X49.048 Y51.564
X49.672 Y51.571
X50.295 Y51.575
X50.919 Y51.578
X52.167 Y51.581
X55.287 Y51.583
X82.117
X132.656 Y51.584
X183.196
X227.496
X227.808 Y51.579
X228.104 Y51.482
X228.364 Y51.309
X228.802 Y50.864
X229.087 Y50.309
X229.27 Y49.713
X229.385 Y49.099
X229.458 Y48.48
X229.504 Y47.858
X229.533 Y47.234
X229.551 Y46.611
X229.563 Y45.987
X229.57 Y45.363
X229.528 Y45.054
X229.393 Y44.773
X228.996 Y44.291
X228.46 Y43.972
X227.87 Y43.768
X227.26 Y43.639
X226.641 Y43.557
X226.019 Y43.505
X225.396 Y43.473
X224.773 Y43.452
X224.149 Y43.439
X223.525 Y43.431
X222.901 Y43.426
X222.277 Y43.423
X221.029 Y43.419
X218.534 Y43.417
X181.097
X130.557 Y43.416
X80.018
X46.949
X46.637 Y43.43
X46.346 Y43.542
X46.094 Y43.726
X45.67 Y44.184
X45.394 Y44.743
X45.218 Y45.342
X45.107 Y45.956
X45.037 Y46.576
X44.993 Y47.198
X44.965 Y47.822
X44.956 Y48.134
X44.993 Y48.443
X45.126 Y48.726
X45.323 Y48.968
X45.798 Y49.372
X46.365 Y49.634
X46.966 Y49.8
X47.581 Y49.905
X48.201 Y49.971
X48.824 Y50.013
X49.447 Y50.039
X50.071 Y50.055
X50.695 Y50.066
X51.319 Y50.072
X51.943 Y50.076
X53.191 Y50.08
X55.686 Y50.083
X106.226
X156.766 Y50.084
X207.305
X226.024
X226.335 Y50.072
X226.629 Y49.966
X226.884 Y49.787
X227.316 Y49.337
X227.596 Y48.779
X227.775 Y48.181
X227.889 Y47.568
X227.96 Y46.948
X227.965 Y46.792
X227.918 Y46.484
X227.771 Y46.209
X227.356 Y45.742
X226.811 Y45.439
X226.218 Y45.246
X225.606 Y45.123
X224.987 Y45.047
X224.365 Y44.998
X223.741 Y44.968
X223.118 Y44.949
X222.494 Y44.937
X221.87 Y44.93
X221.246 Y44.925
X220.622 Y44.922
X219.374 Y44.919
X216.254 Y44.917
X201.28
X150.74
X100.201 Y44.916
X49.661
X48.413
X48.102 Y44.942
X47.816 Y45.066
X47.569 Y45.256
X47.153 Y45.722
X46.884 Y46.284
X46.798 Y46.584
X46.775 Y46.739
X46.791 Y46.894
X46.886 Y47.191
X47.067 Y47.445
X47.527 Y47.867
X48.09 Y48.136
X48.69 Y48.304
X49.305 Y48.409
X49.926 Y48.475
X50.549 Y48.515
X51.172 Y48.541
X51.796 Y48.557
X52.42 Y48.567
X53.044 Y48.573
X53.667 Y48.577
X54.915 Y48.58
X57.411 Y48.583
X92.352
X142.892 Y48.584
X193.431
X194.055
X194.21 Y48.57
X194.38 Y48.556
X194.571 Y48.542
X194.79 Y48.529
X195.047 Y48.515
X195.356 Y48.501
X195.746 Y48.488
X196.274 Y48.474
X196.898 Y48.464
X197.522 Y48.457
X198.146 Y48.454
X199.394 Y48.451
X202.513 Y48.449
X224.664
X224.97 Y48.391
X225.24 Y48.234
X225.296 Y48.18
X225.349 Y48.123
X225.452 Y48.006
X225.514 Y47.862
X225.528 Y47.707
X225.494 Y47.555
X225.414 Y47.421
X225.18 Y47.214
X224.612 Y46.957
X224.007 Y46.801
X223.391 Y46.705
X222.77 Y46.647
X222.147 Y46.611
X221.523 Y46.588
X220.9 Y46.574
X220.276 Y46.566
X219.652 Y46.561
X219.028 Y46.557
X217.78 Y46.554
X215.284 Y46.552
X207.797
X157.257
X106.718 Y46.551
X56.178
X49.939
X49.861 Y46.557
G3 X49.548 Y46.256 I-0.013 J-0.3
G1 X49.561 Y46.205 Z-1.995
X49.574 Y46.156 Z-1.981
X49.587 Y46.109 Z-1.958
X49.62 Y46.074 Z-1.921
X49.648 Y46.044 Z-1.874
X49.669 Y46.022 Z-1.82
X49.682 Y46.009 Z-1.762
X49.686 Y46.004 Z-1.7
G0 Z2.502
X-0.393 Y-3.604
Z-3.398
G1 Z-3.698 F750
X-0.391 Y-3.597 Z-3.765
X-0.385 Y-3.576 Z-3.828
X-0.376 Y-3.541 Z-3.885
X-0.365 Y-3.495 Z-3.933
X-0.35 Y-3.44 Z-3.968
X-0.335 Y-3.378 Z-3.99
X-0.318 Y-3.314 Z-3.998
G3 X-0.083 Y-1.681 I-7.419 J1.9
G1 X-0.082 Y-0.901
Y48.391
X-0.083 Y93.627
X-0.046 Y93.778
X0.109 Y94.05
X0.561 Y94.479
X1.132 Y94.73
X1.739 Y94.877
X2.357 Y94.962
X2.979 Y95.012
X3.602 Y95.042
X4.226 Y95.059
X4.85 Y95.069
X5.473 Y95.075
X6.097 Y95.078
X7.345 Y95.081
X10.465 Y95.083
X54.765
X105.305
X155.844 Y95.084
X206.384
X256.923
X271.586
X271.742 Y95.072
X271.886 Y95.012
X272.134 Y94.824
X272.528 Y94.34
X272.758 Y93.76
X272.893 Y93.151
X272.971 Y92.532
X273.017 Y91.91
X273.044 Y91.286
X273.06 Y90.663
X273.069 Y90.039
X273.074 Y89.415
X273.077 Y88.791
X273.08 Y87.543
X273.082 Y84.423
Y60.089
X273.083 Y9.55
Y1.438
X273.08 Y1.282
X273.029 Y1.135
X272.847 Y0.882
X272.369 Y0.481
X271.791 Y0.246
X271.182 Y0.109
X270.563 Y0.03
X269.941 Y-0.017
X269.318 Y-0.044
X268.694 Y-0.06
X268.07 Y-0.07
X267.446 Y-0.075
X266.822 Y-0.078
X265.574 Y-0.081
X262.455 Y-0.083
X231.257
X180.718
X130.178 Y-0.084
X79.639
X29.099
X2.893
X2.74 Y-0.056
X2.465 Y0.092
X2.247 Y0.315
X1.903 Y0.835
X1.701 Y1.426
X1.584 Y2.038
X1.515 Y2.659
X1.475 Y3.281
X1.451 Y3.905
X1.438 Y4.529
X1.43 Y5.152
X1.425 Y5.776
X1.422 Y6.4
X1.42 Y7.648
X1.418 Y12.016
Y23.247
X1.417 Y73.786
Y91.881
X1.489 Y92.184
X1.659 Y92.446
X2.108 Y92.879
X2.669 Y93.151
X3.27 Y93.319
X3.886 Y93.422
X4.507 Y93.485
X5.129 Y93.524
X5.753 Y93.547
X6.377 Y93.561
X7.001 Y93.57
X7.624 Y93.575
X8.248 Y93.578
X9.496 Y93.581
X12.616 Y93.583
X33.206
X83.746
X134.285 Y93.584
X184.825
X235.364
X269.837
X269.991 Y93.558
X270.282 Y93.444
X270.527 Y93.251
X270.931 Y92.776
X271.183 Y92.205
X271.339 Y91.601
X271.434 Y90.984
X271.492 Y90.363
X271.527 Y89.74
X271.549 Y89.117
X271.562 Y88.493
X271.57 Y87.869
X271.574 Y87.245
X271.577 Y86.621
X271.58 Y85.373
X271.582 Y82.253
Y78.51
X271.583 Y27.97
Y3.168
X271.559 Y3.014
X271.448 Y2.723
X271.257 Y2.476
X270.783 Y2.07
X270.213 Y1.817
X269.609 Y1.661
X268.992 Y1.565
X268.371 Y1.507
X267.748 Y1.472
X267.124 Y1.45
X266.501 Y1.437
X265.877 Y1.429
X265.253 Y1.425
X264.629 Y1.422
X263.381 Y1.419
X260.261 Y1.417
X246.534
X195.995
X145.455
X94.916 Y1.416
X44.376
X4.756
X4.6 Y1.425
X4.299 Y1.507
X4.041 Y1.683
X3.613 Y2.136
X3.344 Y2.7
X3.179 Y3.301
X3.077 Y3.917
X3.015 Y4.538
X2.977 Y5.161
X2.954 Y5.784
X2.94 Y6.408
X2.931 Y7.032
X2.926 Y7.656
X2.923 Y8.28
X2.92 Y9.528
X2.919 Y11.399
X2.917 Y61.939
Y90.328
X3 Y90.629
X3.169 Y90.891
X3.611 Y91.332
X4.168 Y91.614
X4.766 Y91.791
X5.38 Y91.902
X6 Y91.971
X6.622 Y92.014
X7.246 Y92.04
X7.87 Y92.056
X8.493 Y92.067
X9.117 Y92.073
X9.741 Y92.077
X10.989 Y92.08
X13.485 Y92.082
X24.092 Y92.083
X74.632
X125.171
X175.711 Y92.084
X226.25
X268.055
X268.367 Y92.083
X268.662 Y91.984
X268.919 Y91.806
X269.348 Y91.354
X269.623 Y90.794
X269.797 Y90.194
X269.905 Y89.58
X269.972 Y88.959
X270.014 Y88.337
X270.04 Y87.714
X270.056 Y87.09
X270.066 Y86.466
X270.072 Y85.842
X270.076 Y85.218
X270.078 Y84.594
X270.081 Y82.722
X270.082 Y73.987
X270.083 Y34.055
Y4.729
X270.018 Y4.424
X269.862 Y4.154
X269.435 Y3.699
X268.884 Y3.406
X268.288 Y3.221
X267.675 Y3.106
X267.055 Y3.034
X266.433 Y2.99
X265.81 Y2.962
X265.186 Y2.945
X264.562 Y2.934
X263.938 Y2.928
X263.314 Y2.924
X262.066 Y2.92
X259.571 Y2.918
X249.587 Y2.917
X199.048
X148.508
X97.969 Y2.916
X47.429
X6.249
X5.942 Y2.972
X5.67 Y3.124
X5.209 Y3.545
X4.913 Y4.095
X4.727 Y4.69
X4.61 Y5.303
X4.537 Y5.923
X4.492 Y6.545
X4.464 Y7.168
X4.446 Y7.792
X4.436 Y8.416
X4.429 Y9.04
X4.425 Y9.664
X4.421 Y10.912
X4.42 Y11.536
X4.418 Y15.279
X4.417 Y62.075
Y88.593
X4.432 Y88.904
X4.549 Y89.194
X4.737 Y89.443
X5.201 Y89.86
X5.765 Y90.128
X6.365 Y90.298
X6.98 Y90.405
X7.6 Y90.472
X8.223 Y90.514
X8.846 Y90.54
X9.47 Y90.556
X10.094 Y90.566
X10.717 Y90.572
X11.341 Y90.576
X12.589 Y90.58
X15.085 Y90.582
X27.564 Y90.583
X78.104
X128.643
X179.183 Y90.584
X229.722
X266.535
X266.847 Y90.579
X267.142 Y90.477
X267.398 Y90.3
X267.83 Y89.849
X268.108 Y89.29
X268.285 Y88.692
X268.396 Y88.078
X268.466 Y87.458
X268.509 Y86.836
X268.537 Y86.212
X268.554 Y85.589
X268.564 Y84.965
X268.571 Y84.341
X268.575 Y83.717
X268.579 Y82.469
X268.581 Y79.973
X268.582 Y78.101
X268.583 Y27.562
Y6.348
X268.549 Y6.038
X268.417 Y5.755
X268.22 Y5.513
X267.743 Y5.111
X267.175 Y4.852
X266.573 Y4.689
X265.957 Y4.587
X265.336 Y4.523
X264.714 Y4.483
X264.09 Y4.458
X263.467 Y4.443
X262.843 Y4.433
X262.219 Y4.427
X261.595 Y4.423
X260.347 Y4.42
X257.851 Y4.418
X240.381 Y4.417
X189.841
X139.302 Y4.416
X88.762
X38.222
X7.649
X7.354 Y4.517
X7.098 Y4.696
X6.668 Y5.148
X6.39 Y5.706
X6.214 Y6.305
X6.103 Y6.919
X6.033 Y7.539
X5.99 Y8.161
X5.963 Y8.785
X5.946 Y9.408
X5.936 Y10.032
X5.929 Y10.656
X5.925 Y11.28
X5.921 Y12.528
X5.919 Y15.024
X5.918 Y23.759
X5.917 Y74.298
Y87.089
X5.94 Y87.4
X6.061 Y87.688
X6.25 Y87.936
X6.714 Y88.353
X7.277 Y88.622
X7.877 Y88.793
X8.492 Y88.901
X9.112 Y88.969
X9.734 Y89.012
X10.358 Y89.038
X10.981 Y89.055
X11.605 Y89.065
X12.229 Y89.072
X12.853 Y89.076
X14.101 Y89.08
X16.597 Y89.082
X42.803 Y89.083
X93.342
X143.882 Y89.084
X194.421
X244.961
X265.239
X265.543 Y89.015
X265.813 Y88.858
X266.271 Y88.434
X266.568 Y87.885
X266.758 Y87.291
X266.878 Y86.679
X266.954 Y86.059
X267.002 Y85.437
X267.031 Y84.814
X267.05 Y84.19
X267.062 Y83.567
X267.069 Y82.943
X267.074 Y82.319
X267.077 Y81.695
X267.08 Y80.447
X267.082 Y77.327
Y59.857
X267.083 Y9.317
Y7.757
X267.01 Y7.454
X266.853 Y7.184
X266.428 Y6.728
X265.88 Y6.43
X265.285 Y6.24
X264.673 Y6.12
X264.054 Y6.045
X263.432 Y5.997
X262.808 Y5.967
X262.185 Y5.949
X261.561 Y5.937
X260.937 Y5.93
X260.313 Y5.925
X259.689 Y5.922
X258.441 Y5.919
X255.321 Y5.917
X219.133
X168.593
X118.053 Y5.916
X67.514
X16.974
X9.487
X9.175 Y5.92
X8.879 Y6.018
X8.621 Y6.194
X8.185 Y6.64
X7.903 Y7.197
X7.723 Y7.794
X7.61 Y8.408
X7.538 Y9.028
X7.493 Y9.65
X7.465 Y10.273
X7.448 Y10.897
X7.437 Y11.521
X7.43 Y12.145
X7.425 Y12.769
X7.423 Y13.393
X7.42 Y14.64
X7.418 Y17.76
Y47.71
X7.417 Y85.77
X7.5 Y86.071
X7.665 Y86.336
X8.098 Y86.785
X8.65 Y87.077
X9.245 Y87.263
X9.858 Y87.381
X10.477 Y87.456
X11.099 Y87.503
X11.723 Y87.533
X12.346 Y87.551
X12.97 Y87.563
X13.594 Y87.57
X14.218 Y87.575
X14.842 Y87.578
X16.09 Y87.581
X19.209 Y87.583
X69.749
X120.289
X170.828 Y87.584
X221.368
X263.796
X264.094 Y87.493
X264.356 Y87.323
X264.797 Y86.882
X265.085 Y86.328
X265.268 Y85.732
X265.384 Y85.119
X265.458 Y84.499
X265.504 Y83.877
X265.533 Y83.254
X265.551 Y82.63
X265.562 Y82.006
X265.57 Y81.382
X265.574 Y80.758
X265.577 Y80.134
X265.58 Y78.886
X265.582 Y75.767
X265.583 Y29.595
Y9.317
X265.53 Y9.009
X265.386 Y8.733
X264.977 Y8.261
X264.435 Y7.953
X263.843 Y7.756
X263.231 Y7.631
X262.613 Y7.552
X261.991 Y7.502
X261.367 Y7.47
X260.744 Y7.451
X260.12 Y7.438
X259.496 Y7.43
X258.872 Y7.425
X258.248 Y7.422
X257 Y7.419
X253.881 Y7.417
X236.41
X185.871
X135.331 Y7.416
X84.791
X34.252
X10.854
X10.545 Y7.459
X10.264 Y7.594
X9.783 Y7.992
X9.467 Y8.53
X9.265 Y9.121
X9.137 Y9.731
X9.056 Y10.35
X9.005 Y10.972
X8.973 Y11.595
X8.952 Y12.219
X8.94 Y12.842
X8.932 Y13.466
X8.927 Y14.09
X8.924 Y14.714
X8.92 Y15.962
X8.919 Y18.458
X8.918 Y33.432
X8.917 Y83.972
Y84.284
X9.006 Y84.583
X9.174 Y84.846
X9.612 Y85.29
X10.164 Y85.58
X10.76 Y85.765
X11.373 Y85.883
X11.993 Y85.957
X12.615 Y86.003
X13.238 Y86.033
X13.862 Y86.051
X14.485 Y86.063
X15.109 Y86.07
X15.733 Y86.075
X16.357 Y86.078
X17.605 Y86.081
X20.725 Y86.083
X58.162
X108.701
X159.241 Y86.084
X209.78
X260.32
X262.192
X262.498 Y86.027
X262.773 Y85.879
X263.242 Y85.468
X263.549 Y84.924
X263.745 Y84.332
X263.869 Y83.72
X263.948 Y83.101
X263.997 Y82.479
X264.029 Y81.856
X264.048 Y81.233
X264.061 Y80.609
X264.069 Y79.985
X264.073 Y79.361
X264.077 Y78.737
X264.08 Y77.489
X264.082 Y74.993
X264.083 Y38.181
Y10.727
X263.999 Y10.427
X263.833 Y10.162
X263.399 Y9.715
X262.847 Y9.423
X262.252 Y9.236
X261.639 Y9.118
X261.02 Y9.044
X260.397 Y8.997
X259.774 Y8.967
X259.151 Y8.949
X258.527 Y8.937
X257.903 Y8.93
X257.279 Y8.925
X256.655 Y8.922
X255.407 Y8.919
X252.287 Y8.917
X241.68
X191.141
X140.601 Y8.916
X90.062
X39.522
X12.38
X12.07 Y8.948
X11.786 Y9.077
X11.542 Y9.272
X11.134 Y9.744
X10.87 Y10.309
X10.703 Y10.91
X10.598 Y11.525
X10.531 Y12.146
X10.489 Y12.768
X10.463 Y13.392
X10.446 Y14.015
X10.436 Y14.639
X10.429 Y15.263
X10.425 Y15.887
X10.421 Y17.135
X10.419 Y19.007
X10.418 Y31.486
X10.417 Y82.025
Y82.649
X10.462 Y82.958
X10.599 Y83.238
X10.998 Y83.718
X11.537 Y84.033
X12.127 Y84.235
X12.738 Y84.363
X13.357 Y84.444
X13.978 Y84.495
X14.602 Y84.528
X15.225 Y84.548
X15.849 Y84.561
X16.473 Y84.569
X17.097 Y84.574
X17.721 Y84.577
X18.969 Y84.581
X21.464 Y84.582
X59.525 Y84.583
X110.065
X160.604 Y84.584
X211.144
X260.747
X261.05 Y84.508
X261.317 Y84.347
X261.771 Y83.919
X262.067 Y83.37
X262.257 Y82.775
X262.377 Y82.163
X262.453 Y81.544
X262.5 Y80.922
X262.531 Y80.299
X262.55 Y79.675
X262.562 Y79.051
X262.569 Y78.427
X262.574 Y77.803
X262.577 Y77.179
X262.58 Y75.931
X262.582 Y72.812
X262.583 Y34.127
Y12.289
X262.52 Y11.983
X262.368 Y11.711
X261.95 Y11.247
X261.405 Y10.944
X260.812 Y10.751
X260.2 Y10.628
X259.581 Y10.55
X258.959 Y10.501
X258.336 Y10.47
X257.712 Y10.45
X257.088 Y10.438
X256.464 Y10.43
X255.841 Y10.425
X255.217 Y10.422
X253.969 Y10.419
X251.473 Y10.418
X234.626 Y10.417
X184.087
X133.547 Y10.416
X83.008
X32.468
X13.75
X13.448 Y10.495
X13.181 Y10.656
X12.728 Y11.085
X12.432 Y11.634
X12.243 Y12.229
X12.123 Y12.841
X12.048 Y13.461
X12 Y14.083
X11.97 Y14.706
X11.951 Y15.33
X11.939 Y15.953
X11.931 Y16.577
X11.926 Y17.201
X11.923 Y17.825
X11.92 Y19.073
X11.918 Y22.193
Y41.535
X11.917 Y81.156
X11.961 Y81.465
X12.1 Y81.744
X12.501 Y82.222
X13.041 Y82.535
X13.631 Y82.736
X14.242 Y82.864
X14.861 Y82.945
X15.483 Y82.996
X16.106 Y83.028
X16.729 Y83.048
X17.353 Y83.061
X17.977 Y83.069
X18.601 Y83.074
X19.225 Y83.077
X20.473 Y83.081
X21.721 Y83.082
X31.08 Y83.083
X72.26
X122.8
X173.339 Y83.084
X223.879
X259.132
X259.441 Y83.045
X259.724 Y82.912
X259.966 Y82.715
X260.37 Y82.24
X260.632 Y81.674
X260.798 Y81.072
X260.903 Y80.457
X260.97 Y79.837
X261.011 Y79.214
X261.037 Y78.591
X261.054 Y77.967
X261.064 Y77.343
X261.071 Y76.719
X261.075 Y76.096
X261.079 Y74.848
X261.081 Y72.976
X261.082 Y68.608
X261.083 Y18.069
Y13.701
X260.989 Y13.403
X260.818 Y13.143
X260.376 Y12.702
X259.822 Y12.415
X259.226 Y12.232
X258.613 Y12.116
X257.993 Y12.042
X257.371 Y11.996
X256.747 Y11.967
X256.124 Y11.948
X255.5 Y11.937
X254.876 Y11.93
X254.252 Y11.925
X253.628 Y11.922
X252.38 Y11.919
X249.261 Y11.917
X215.568
X165.028
X114.488 Y11.916
X63.949
X15.281
X14.976 Y11.982
X14.705 Y12.137
X14.244 Y12.557
X13.943 Y13.104
X13.751 Y13.697
X13.628 Y14.309
X13.551 Y14.928
X13.502 Y15.55
X13.471 Y16.173
X13.451 Y16.797
X13.439 Y17.421
X13.431 Y18.045
X13.426 Y18.669
X13.423 Y19.293
X13.42 Y20.54
X13.418 Y23.036
X13.417 Y63.593
Y79.815
X13.515 Y80.111
X13.69 Y80.37
X14.136 Y80.806
X14.691 Y81.091
X15.288 Y81.272
X15.901 Y81.387
X16.521 Y81.46
X17.143 Y81.505
X17.767 Y81.534
X18.39 Y81.552
X19.014 Y81.563
X19.638 Y81.571
X20.262 Y81.575
X20.886 Y81.578
X22.134 Y81.581
X25.253 Y81.583
X47.092
X97.631
X148.171 Y81.584
X198.71
X249.25
X257.673
X257.98 Y81.527
X258.256 Y81.382
X258.728 Y80.974
X259.04 Y80.434
X259.239 Y79.843
X259.365 Y79.231
X259.445 Y78.613
X259.496 Y77.991
X259.527 Y77.368
X259.548 Y76.744
X259.56 Y76.12
X259.568 Y75.496
X259.573 Y74.872
X259.576 Y74.248
X259.58 Y73.001
X259.582 Y70.505
Y40.555
X259.583 Y15.286
X259.518 Y14.981
X259.365 Y14.709
X258.946 Y14.246
X258.4 Y13.944
X257.807 Y13.75
X257.195 Y13.628
X256.576 Y13.55
X255.954 Y13.501
X255.331 Y13.47
X254.707 Y13.45
X254.084 Y13.438
X253.46 Y13.43
X252.836 Y13.426
X252.212 Y13.422
X250.964 Y13.419
X248.468 Y13.418
X235.365 Y13.417
X184.826
X134.286 Y13.416
X83.747
X33.207
X16.984
X16.673 Y13.424
X16.378 Y13.527
X16.121 Y13.704
X15.688 Y14.153
X15.407 Y14.71
X15.227 Y15.307
X15.113 Y15.921
X15.041 Y16.541
X14.995 Y17.163
X14.967 Y17.786
X14.949 Y18.41
X14.937 Y19.034
X14.93 Y19.658
X14.926 Y20.282
X14.923 Y20.906
X14.92 Y22.153
X14.918 Y25.273
Y46.487
X14.917 Y78.309
X15.014 Y78.605
X15.188 Y78.864
X15.632 Y79.303
X16.187 Y79.588
X16.784 Y79.77
X17.397 Y79.885
X18.016 Y79.958
X18.639 Y80.004
X19.262 Y80.033
X19.886 Y80.052
X20.509 Y80.063
X21.133 Y80.07
X21.757 Y80.075
X22.381 Y80.078
X23.629 Y80.081
X26.749 Y80.083
X32.988
X83.528
X134.067 Y80.084
X184.607
X235.147
X256.049
X256.36 Y80.069
X256.652 Y79.958
X256.904 Y79.774
X257.329 Y79.317
X257.605 Y78.757
X257.781 Y78.159
X257.892 Y77.545
X257.962 Y76.925
X258.007 Y76.303
X258.034 Y75.679
X258.052 Y75.056
X258.063 Y74.432
X258.07 Y73.808
X258.074 Y73.184
X258.077 Y72.56
X258.08 Y71.312
X258.082 Y68.192
Y51.346
X258.083 Y16.717
X257.994 Y16.418
X257.826 Y16.155
X257.388 Y15.711
X256.835 Y15.421
X256.24 Y15.236
X255.627 Y15.118
X255.007 Y15.044
X254.385 Y14.997
X253.762 Y14.967
X253.138 Y14.949
X252.514 Y14.937
X251.89 Y14.93
X251.267 Y14.925
X250.643 Y14.922
X249.395 Y14.919
X246.275 Y14.917
X243.155
X192.616
X142.076 Y14.916
X91.537
X40.997
X18.223
X17.924 Y15.004
X17.661 Y15.172
X17.214 Y15.608
X16.924 Y16.16
X16.738 Y16.756
X16.62 Y17.368
X16.546 Y17.988
X16.498 Y18.61
X16.469 Y19.233
X16.45 Y19.857
X16.438 Y20.481
X16.431 Y21.105
X16.426 Y21.729
X16.423 Y22.353
X16.42 Y23.6
X16.418 Y26.72
Y41.695
X16.417 Y76.636
X16.459 Y76.945
X16.593 Y77.227
X16.791 Y77.468
X17.266 Y77.872
X17.833 Y78.133
X18.434 Y78.299
X19.049 Y78.404
X19.67 Y78.47
X20.292 Y78.512
X20.916 Y78.538
X21.539 Y78.555
X22.163 Y78.565
X22.787 Y78.572
X23.411 Y78.576
X24.659 Y78.58
X26.531 Y78.582
X30.898 Y78.583
X81.438
X131.978 Y78.584
X182.517
X233.057
X254.583
X254.894 Y78.558
X255.181 Y78.436
X255.428 Y78.246
X255.845 Y77.782
X256.115 Y77.219
X256.287 Y76.619
X256.396 Y76.005
X256.465 Y75.385
X256.508 Y74.762
X256.535 Y74.139
X256.553 Y73.515
X256.564 Y72.891
X256.57 Y72.268
X256.575 Y71.644
X256.579 Y70.396
X256.581 Y68.524
X256.582 Y53.549
Y50.429
X256.583 Y18.296
X256.521 Y17.991
X256.37 Y17.717
X255.955 Y17.252
X255.41 Y16.948
X254.817 Y16.753
X254.206 Y16.629
X253.587 Y16.551
X252.965 Y16.502
X252.341 Y16.47
X251.718 Y16.451
X251.094 Y16.438
X250.47 Y16.431
X249.846 Y16.426
X249.222 Y16.422
X247.974 Y16.419
X245.479 Y16.418
X239.239 Y16.417
X188.7
X138.16 Y16.416
X87.62
X37.081
X19.922
X19.611 Y16.439
X19.323 Y16.559
X19.075 Y16.748
X18.658 Y17.211
X18.387 Y17.774
X18.214 Y18.373
X18.104 Y18.987
X18.035 Y19.608
X17.992 Y20.23
X17.965 Y20.853
X17.947 Y21.477
X17.936 Y22.101
X17.93 Y22.725
X17.925 Y23.349
X17.923 Y23.973
X17.92 Y25.221
X17.918 Y28.34
Y48.93
X17.917 Y75.136
X17.962 Y75.445
X18.099 Y75.725
X18.496 Y76.207
X19.032 Y76.526
X19.621 Y76.73
X20.232 Y76.86
X20.85 Y76.942
X21.472 Y76.994
X22.095 Y77.027
X22.719 Y77.048
X23.342 Y77.061
X23.966 Y77.069
X24.59 Y77.074
X25.214 Y77.077
X26.462 Y77.081
X28.958 Y77.082
X41.437 Y77.083
X91.976
X142.516 Y77.084
X193.055
X243.595
X253.266
X253.566 Y77
X253.831 Y76.834
X254.28 Y76.401
X254.572 Y75.85
X254.759 Y75.254
X254.878 Y74.642
X254.953 Y74.022
X255.001 Y73.4
X255.031 Y72.777
X255.05 Y72.153
X255.062 Y71.529
X255.069 Y70.906
X255.074 Y70.282
X255.077 Y69.658
X255.08 Y68.41
X255.082 Y65.29
X255.083 Y37.213
Y19.742
X255.003 Y19.441
X254.839 Y19.175
X254.408 Y18.724
X253.858 Y18.429
X253.263 Y18.241
X252.651 Y18.122
X252.032 Y18.046
X251.409 Y17.998
X250.786 Y17.968
X250.163 Y17.949
X249.539 Y17.937
X248.915 Y17.93
X248.291 Y17.925
X247.667 Y17.922
X246.419 Y17.919
X243.299 Y17.917
X222.709
X172.17
X121.63 Y17.916
X71.09
X21.175
X20.881 Y18.02
X20.625 Y18.198
X20.191 Y18.647
X19.909 Y19.203
X19.728 Y19.8
X19.614 Y20.414
X19.542 Y21.034
X19.496 Y21.656
X19.467 Y22.279
X19.449 Y22.903
X19.438 Y23.527
X19.43 Y24.151
X19.426 Y24.774
X19.423 Y25.398
X19.42 Y26.646
X19.418 Y29.766
X19.417 Y67.827
Y73.754
X19.497 Y74.056
X19.659 Y74.322
X20.089 Y74.774
X20.639 Y75.069
X21.234 Y75.258
X21.846 Y75.378
X22.465 Y75.454
X23.087 Y75.502
X23.711 Y75.532
X24.334 Y75.551
X24.958 Y75.563
X25.582 Y75.57
X26.206 Y75.575
X26.83 Y75.578
X28.078 Y75.581
X31.198 Y75.583
X63.019
X113.558
X164.098 Y75.584
X214.637
X251.762
X252.063 Y75.501
X252.328 Y75.337
X252.778 Y74.904
X253.071 Y74.353
X253.258 Y73.758
X253.378 Y73.146
X253.453 Y72.526
X253.501 Y71.904
X253.531 Y71.281
X253.55 Y70.657
X253.562 Y70.034
X253.569 Y69.41
X253.574 Y68.786
X253.577 Y68.162
X253.58 Y66.914
X253.582 Y63.794
Y63.17
X253.583 Y21.366
X253.542 Y21.057
X253.409 Y20.775
X253.212 Y20.533
X252.736 Y20.129
X252.17 Y19.867
X251.569 Y19.701
X250.953 Y19.596
X250.333 Y19.53
X249.71 Y19.488
X249.087 Y19.462
X248.463 Y19.445
X247.84 Y19.435
X247.216 Y19.428
X246.592 Y19.424
X245.968 Y19.422
X244.72 Y19.419
X241.6 Y19.417
X195.428
X144.889
X94.349 Y19.416
X43.809
X22.907
X22.597 Y19.444
X22.311 Y19.569
X22.064 Y19.76
X21.65 Y20.227
X21.382 Y20.791
X21.211 Y21.391
X21.103 Y22.005
X21.034 Y22.625
X20.991 Y23.248
X20.964 Y23.871
X20.947 Y24.495
X20.936 Y25.119
X20.93 Y25.742
X20.925 Y26.366
X20.921 Y27.614
X20.919 Y29.486
X20.918 Y45.085
Y48.205
X20.917 Y72.226
X20.986 Y72.531
X21.143 Y72.801
X21.565 Y73.26
X22.112 Y73.56
X22.706 Y73.752
X23.317 Y73.874
X23.937 Y73.951
X24.559 Y74
X25.182 Y74.03
X25.806 Y74.05
X26.429 Y74.062
X27.053 Y74.07
X27.677 Y74.075
X28.301 Y74.078
X29.549 Y74.081
X32.669 Y74.083
X46.396
X96.935
X147.475 Y74.084
X198.014
X248.554
X250.114
X250.424 Y74.049
X250.708 Y73.92
X250.952 Y73.726
X251.36 Y73.254
X251.625 Y72.689
X251.794 Y72.089
X251.9 Y71.474
X251.968 Y70.854
X252.01 Y70.231
X252.037 Y69.608
X252.053 Y68.984
X252.064 Y68.36
X252.071 Y67.736
X252.075 Y67.112
X252.079 Y65.864
X252.081 Y63.993
X252.082 Y47.77
X252.083 Y25.932
Y22.812
X252.021 Y22.506
X251.873 Y22.232
X251.461 Y21.763
X250.919 Y21.455
X250.327 Y21.257
X249.716 Y21.132
X249.097 Y21.053
X248.475 Y21.003
X247.852 Y20.971
X247.228 Y20.951
X246.604 Y20.939
X245.98 Y20.931
X245.356 Y20.926
X244.732 Y20.923
X243.484 Y20.919
X240.989 Y20.917
X205.424
X154.884
X104.345 Y20.916
X53.805
X24.48
X24.168 Y20.931
X23.875 Y21.036
X23.619 Y21.215
X23.187 Y21.665
X22.906 Y22.222
X22.727 Y22.82
X22.613 Y23.433
X22.541 Y24.053
X22.495 Y24.675
X22.467 Y25.299
X22.449 Y25.922
X22.437 Y26.546
X22.43 Y27.17
X22.426 Y27.794
X22.423 Y28.418
X22.42 Y29.666
X22.418 Y32.786
Y40.897
X22.417 Y70.534
X22.429 Y70.846
X22.537 Y71.139
X22.718 Y71.393
X23.171 Y71.822
X23.729 Y72.1
X24.327 Y72.278
X24.941 Y72.391
X25.561 Y72.462
X26.183 Y72.507
X26.807 Y72.535
X27.43 Y72.553
X28.054 Y72.564
X28.678 Y72.571
X29.302 Y72.575
X29.926 Y72.578
X31.174 Y72.581
X34.294 Y72.583
X42.405
X92.944
X143.484 Y72.584
X194.024
X244.563
X248.619
X248.928 Y72.545
X249.211 Y72.412
X249.454 Y72.217
X249.862 Y71.744
X250.125 Y71.179
X250.294 Y70.578
X250.4 Y69.963
X250.467 Y69.343
X250.51 Y68.721
X250.537 Y68.097
X250.553 Y67.474
X250.564 Y66.85
X250.571 Y66.226
X250.575 Y65.602
X250.579 Y64.354
X250.581 Y62.482
X250.582 Y46.26
X250.583 Y26.917
Y24.421
X250.56 Y24.11
X250.44 Y23.822
X250.252 Y23.573
X249.788 Y23.156
X249.226 Y22.885
X248.626 Y22.712
X248.012 Y22.603
X247.392 Y22.534
X246.77 Y22.491
X246.146 Y22.464
X245.522 Y22.446
X244.899 Y22.436
X244.275 Y22.429
X243.651 Y22.424
X243.027 Y22.422
X241.779 Y22.419
X238.659 Y22.417
X203.718
X153.179
X102.639 Y22.416
X52.1
X25.894
X25.584 Y22.451
X25.3 Y22.579
X25.055 Y22.773
X24.645 Y23.243
X24.379 Y23.808
X24.209 Y24.408
X24.101 Y25.023
X24.034 Y25.643
X23.991 Y26.265
X23.964 Y26.889
X23.947 Y27.512
X23.936 Y28.136
X23.929 Y28.76
X23.925 Y29.384
X23.921 Y30.632
X23.919 Y32.504
X23.918 Y45.607
X23.917 Y69.317
X24.018 Y69.612
X24.194 Y69.87
X24.64 Y70.306
X25.196 Y70.59
X25.793 Y70.771
X26.406 Y70.886
X27.026 Y70.959
X27.648 Y71.005
X28.271 Y71.034
X28.895 Y71.052
X29.519 Y71.063
X30.143 Y71.071
X30.766 Y71.075
X31.39 Y71.078
X32.638 Y71.081
X35.758 Y71.083
X50.109
X100.648
X151.188 Y71.084
X201.727
X247.275
X247.575 Y70.996
X247.838 Y70.828
X248.284 Y70.391
X248.575 Y69.839
X248.761 Y69.244
X248.879 Y68.631
X248.954 Y68.012
X249.001 Y67.39
X249.031 Y66.766
X249.05 Y66.143
X249.062 Y65.519
X249.069 Y64.895
X249.074 Y64.271
X249.077 Y63.647
X249.08 Y62.399
X249.082 Y59.28
X249.083 Y25.898
X249.051 Y25.588
X248.923 Y25.303
X248.73 Y25.058
X248.262 Y24.646
X247.698 Y24.379
X247.098 Y24.209
X246.483 Y24.101
X245.863 Y24.033
X245.24 Y23.99
X244.617 Y23.963
X243.993 Y23.946
X243.37 Y23.935
X242.746 Y23.929
X242.122 Y23.924
X240.874 Y23.92
X240.25 Y23.919
X237.13 Y23.917
X189.71
X139.171 Y23.916
X88.631
X38.092
X27.484
X27.173 Y23.931
X26.879 Y24.035
X26.623 Y24.213
X26.189 Y24.662
X25.908 Y25.219
X25.728 Y25.817
X25.614 Y26.43
X25.541 Y27.05
X25.496 Y27.672
X25.467 Y28.295
X25.449 Y28.919
X25.437 Y29.543
X25.43 Y30.167
X25.426 Y30.791
X25.423 Y31.415
X25.42 Y32.662
X25.418 Y35.782
X25.417 Y62.612
Y67.603
X25.449 Y67.914
X25.576 Y68.199
X25.768 Y68.444
X26.237 Y68.855
X26.802 Y69.122
X27.402 Y69.292
X28.017 Y69.4
X28.637 Y69.468
X29.259 Y69.51
X29.883 Y69.537
X30.506 Y69.554
X31.13 Y69.565
X31.754 Y69.571
X32.378 Y69.576
X33.626 Y69.58
X35.498 Y69.582
X51.72 Y69.583
X69.815
X120.354
X170.894 Y69.584
X221.433
X245.767
X246.067 Y69.499
X246.332 Y69.333
X246.78 Y68.899
X247.072 Y68.348
X247.259 Y67.753
X247.378 Y67.14
X247.453 Y66.521
X247.501 Y65.899
X247.531 Y65.275
X247.55 Y64.652
X247.562 Y64.028
X247.569 Y63.404
X247.574 Y62.78
X247.577 Y62.156
X247.58 Y60.908
X247.582 Y57.789
Y44.062
X247.583 Y27.215
X247.491 Y26.917
X247.322 Y26.655
X246.884 Y26.211
X246.331 Y25.921
X245.735 Y25.736
X245.123 Y25.619
X244.503 Y25.545
X243.881 Y25.498
X243.258 Y25.468
X242.634 Y25.449
X242.01 Y25.437
X241.386 Y25.43
X240.762 Y25.425
X240.138 Y25.422
X238.89 Y25.419
X235.771 Y25.417
X214.557
X164.017
X113.477 Y25.416
X62.938
X28.933
X28.622 Y25.439
X28.333 Y25.559
X28.084 Y25.746
X27.664 Y26.207
X27.391 Y26.769
X27.217 Y27.368
X27.107 Y27.982
X27.037 Y28.602
X26.993 Y29.224
X26.965 Y29.848
X26.948 Y30.471
X26.937 Y31.095
X26.93 Y31.719
X26.925 Y32.343
X26.923 Y32.967
X26.92 Y34.215
X26.918 Y37.334
Y41.078
X26.917 Y66.036
X26.936 Y66.347
X27.046 Y66.639
X27.227 Y66.893
X27.68 Y67.322
X28.239 Y67.6
X28.837 Y67.778
X29.451 Y67.89
X30.071 Y67.961
X30.693 Y68.006
X31.316 Y68.035
X31.94 Y68.052
X32.564 Y68.064
X33.188 Y68.071
X33.812 Y68.075
X34.436 Y68.078
X35.683 Y68.081
X38.803 Y68.083
X51.282
X101.822
X152.361 Y68.084
X202.901
X244.081
X244.392 Y68.06
X244.68 Y67.938
X244.928 Y67.749
X245.344 Y67.284
X245.614 Y66.722
X245.787 Y66.122
X245.896 Y65.508
X245.965 Y64.888
X246.008 Y64.266
X246.036 Y63.642
X246.053 Y63.019
X246.064 Y62.395
X246.071 Y61.771
X246.075 Y61.147
X246.079 Y59.899
X246.081 Y58.027
X246.082 Y43.052
X246.083 Y28.702
X245.988 Y28.405
X245.816 Y28.144
X245.374 Y27.704
X244.82 Y27.417
X244.223 Y27.233
X243.61 Y27.117
X242.991 Y27.043
X242.369 Y26.997
X241.745 Y26.967
X241.122 Y26.949
X240.498 Y26.937
X239.874 Y26.93
X239.25 Y26.925
X238.626 Y26.922
X237.378 Y26.919
X234.258 Y26.917
X227.395
X176.855
X126.316 Y26.916
X75.776
X30.228
X29.929 Y27.003
X29.665 Y27.17
X29.218 Y27.605
X28.927 Y28.157
X28.74 Y28.752
X28.622 Y29.365
X28.547 Y29.984
X28.499 Y30.606
X28.469 Y31.23
X28.45 Y31.853
X28.438 Y32.477
X28.431 Y33.101
X28.426 Y33.725
X28.423 Y34.349
X28.42 Y35.597
X28.418 Y38.717
X28.417 Y64.61
X28.454 Y64.92
X28.583 Y65.204
X28.778 Y65.448
X29.248 Y65.858
X29.813 Y66.123
X30.413 Y66.293
X31.028 Y66.4
X31.648 Y66.468
X32.271 Y66.51
X32.894 Y66.537
X33.518 Y66.554
X34.142 Y66.565
X34.766 Y66.571
X35.39 Y66.576
X36.638 Y66.58
X38.509 Y66.582
X44.749 Y66.583
X95.288
X145.828 Y66.584
X196.368
X242.539
X242.851 Y66.566
X243.142 Y66.455
X243.396 Y66.272
X243.823 Y65.818
X244.101 Y65.259
X244.278 Y64.661
X244.39 Y64.047
X244.461 Y63.427
X244.506 Y62.805
X244.534 Y62.181
X244.552 Y61.558
X244.563 Y60.934
X244.57 Y60.31
X244.575 Y59.686
X244.577 Y59.062
X244.58 Y57.814
X244.582 Y54.694
X244.583 Y30.361
X244.539 Y30.052
X244.404 Y29.771
X244.007 Y29.289
X243.47 Y28.972
X242.88 Y28.769
X242.269 Y28.639
X241.651 Y28.558
X241.029 Y28.506
X240.406 Y28.473
X239.782 Y28.452
X239.159 Y28.439
X238.535 Y28.431
X237.911 Y28.426
X237.287 Y28.423
X236.039 Y28.419
X233.543 Y28.417
X227.928
X177.388
X126.849 Y28.416
X76.309
X32.009
X31.697 Y28.421
X31.4 Y28.518
X31.141 Y28.691
X30.702 Y29.134
X30.416 Y29.689
X30.233 Y30.285
X30.117 Y30.898
X30.043 Y31.518
X29.997 Y32.14
X29.968 Y32.763
X29.949 Y33.387
X29.938 Y34.011
X29.93 Y34.635
X29.926 Y35.259
X29.923 Y35.883
X29.92 Y37.131
X29.918 Y40.25
X29.917 Y63.024
X29.934 Y63.336
X30.041 Y63.629
X30.221 Y63.884
X30.672 Y64.315
X31.229 Y64.596
X31.827 Y64.775
X32.44 Y64.888
X33.06 Y64.96
X33.682 Y65.005
X34.306 Y65.034
X34.929 Y65.052
X35.553 Y65.064
X36.177 Y65.071
X36.801 Y65.075
X37.425 Y65.078
X38.673 Y65.081
X41.793 Y65.083
X49.904
X100.444
X150.983 Y65.084
X201.523
X241.143
X241.452 Y65.037
X241.732 Y64.899
X242.211 Y64.5
X242.528 Y63.963
X242.731 Y63.373
X242.86 Y62.762
X242.942 Y62.144
X242.994 Y61.522
X243.026 Y60.899
X243.047 Y60.275
X243.06 Y59.651
X243.068 Y59.027
X243.073 Y58.404
X243.077 Y57.78
X243.08 Y56.532
X243.081 Y55.284
X243.082 Y46.549
X243.083 Y31.886
X243.05 Y31.576
X242.922 Y31.291
X242.729 Y31.047
X242.257 Y30.638
X241.692 Y30.373
X241.092 Y30.205
X240.477 Y30.098
X239.856 Y30.031
X239.234 Y29.989
X238.61 Y29.962
X237.987 Y29.946
X237.363 Y29.935
X236.739 Y29.928
X236.115 Y29.924
X234.867 Y29.92
X232.995 Y29.918
X217.397 Y29.917
X216.773
X166.233
X115.694 Y29.916
X65.154
X33.333
X33.025 Y29.969
X32.748 Y30.111
X32.274 Y30.516
X31.962 Y31.057
X31.763 Y31.648
X31.636 Y32.259
X31.556 Y32.878
X31.505 Y33.5
X31.473 Y34.123
X31.452 Y34.747
X31.44 Y35.371
X31.432 Y35.994
X31.427 Y36.618
X31.423 Y37.242
X31.42 Y38.49
X31.418 Y40.986
Y47.849
X31.417 Y61.576
X31.443 Y61.887
X31.565 Y62.174
X31.753 Y62.423
X32.217 Y62.841
X32.778 Y63.112
X33.378 Y63.285
X33.992 Y63.395
X34.612 Y63.465
X35.235 Y63.508
X35.858 Y63.536
X36.482 Y63.553
X37.105 Y63.564
X37.729 Y63.571
X38.353 Y63.576
X38.977 Y63.578
X40.225 Y63.581
X43.345 Y63.583
X67.055
X117.594
X168.134 Y63.584
X218.674
X239.576
X239.887 Y63.562
X240.176 Y63.444
X240.425 Y63.256
X240.842 Y62.793
X241.114 Y62.231
X241.287 Y61.632
X241.396 Y61.017
X241.465 Y60.397
X241.508 Y59.775
X241.536 Y59.151
X241.553 Y58.528
X241.564 Y57.904
X241.571 Y57.28
X241.575 Y56.656
X241.578 Y56.032
X241.58 Y54.784
X241.582 Y51.664
X241.583 Y34.818
Y33.258
X241.506 Y32.956
X241.346 Y32.687
X240.919 Y32.232
X240.371 Y31.935
X239.777 Y31.745
X239.164 Y31.624
X238.545 Y31.548
X237.923 Y31.5
X237.3 Y31.469
X236.676 Y31.45
X236.052 Y31.438
X235.428 Y31.43
X234.805 Y31.425
X234.181 Y31.422
X232.933 Y31.419
X229.813 Y31.417
X193.624
X143.085 Y31.416
X92.545
X42.005
X34.83
X34.522 Y31.465
X34.245 Y31.609
X33.771 Y32.015
X33.461 Y32.556
X33.262 Y33.147
X33.135 Y33.758
X33.055 Y34.377
X33.004 Y34.999
X32.972 Y35.622
X32.952 Y36.246
X32.94 Y36.87
X32.932 Y37.494
X32.926 Y38.118
X32.923 Y38.741
X32.92 Y39.989
X32.918 Y42.485
X32.917 Y59.956
X32.918 Y60.268
X33.004 Y60.568
X33.17 Y60.832
X33.603 Y61.28
X34.155 Y61.573
X34.75 Y61.76
X35.362 Y61.879
X35.982 Y61.954
X36.604 Y62.001
X37.227 Y62.032
X37.851 Y62.05
X38.475 Y62.062
X39.098 Y62.07
X39.722 Y62.075
X40.346 Y62.078
X41.594 Y62.081
X44.714 Y62.083
X45.962
X96.501
X147.041 Y62.084
X197.581
X238.137
X238.446 Y62.04
X238.727 Y61.904
X239.208 Y61.507
X239.527 Y60.971
X239.73 Y60.381
X239.86 Y59.771
X239.942 Y59.152
X239.994 Y58.53
X240.026 Y57.907
X240.047 Y57.284
X240.06 Y56.66
X240.068 Y56.036
X240.073 Y55.412
X240.077 Y54.788
X240.08 Y53.54
X240.081 Y52.916
X240.082 Y48.549
X240.083 Y34.822
X240.029 Y34.515
X239.884 Y34.238
X239.476 Y33.766
X238.934 Y33.457
X238.342 Y33.259
X237.731 Y33.133
X237.112 Y33.054
X236.49 Y33.003
X235.867 Y32.972
X235.243 Y32.951
X234.619 Y32.939
X233.996 Y32.931
X233.372 Y32.926
X232.748 Y32.923
X231.5 Y32.919
X229.004 Y32.917
X208.414
X157.874
X107.335 Y32.916
X56.795
X36.205
X35.907 Y33.008
X35.646 Y33.179
X35.205 Y33.62
X34.917 Y34.174
X34.733 Y34.77
X34.617 Y35.383
X34.543 Y36.003
X34.497 Y36.625
X34.468 Y37.248
X34.449 Y37.872
X34.438 Y38.496
X34.43 Y39.12
X34.426 Y39.744
X34.423 Y40.368
X34.42 Y41.616
X34.418 Y44.735
X34.417 Y58.774
X34.504 Y59.074
X34.672 Y59.337
X35.107 Y59.784
X35.659 Y60.075
X36.255 Y60.261
X36.867 Y60.38
X37.487 Y60.455
X38.109 Y60.502
X38.732 Y60.532
X39.356 Y60.551
X39.979 Y60.563
X40.603 Y60.57
X41.227 Y60.575
X41.851 Y60.578
X43.099 Y60.581
X46.219 Y60.583
X87.399
X137.939 Y60.584
X188.478
X236.522
X236.834 Y60.575
X237.128 Y60.472
X237.384 Y60.293
X237.816 Y59.842
X238.096 Y59.285
X238.276 Y58.688
X238.389 Y58.074
X238.46 Y57.454
X238.505 Y56.832
X238.534 Y56.209
X238.552 Y55.585
X238.563 Y54.961
X238.57 Y54.337
X238.575 Y53.713
X238.577 Y53.089
X238.58 Y51.841
X238.582 Y48.722
X238.583 Y36.243
X238.503 Y35.941
X238.34 Y35.675
X237.908 Y35.224
X237.358 Y34.93
X236.764 Y34.741
X236.151 Y34.622
X235.532 Y34.546
X234.91 Y34.498
X234.287 Y34.468
X233.663 Y34.449
X233.039 Y34.437
X232.415 Y34.43
X231.791 Y34.425
X231.167 Y34.422
X229.919 Y34.419
X226.8 Y34.417
X211.825
X161.285
X110.746 Y34.416
X60.206
X37.744
X37.443 Y34.496
X37.177 Y34.659
X36.725 Y35.089
X36.43 Y35.639
X36.242 Y36.234
X36.122 Y36.846
X36.047 Y37.466
X35.999 Y38.088
X35.969 Y38.711
X35.95 Y39.335
X35.938 Y39.958
X35.931 Y40.582
X35.926 Y41.206
X35.923 Y41.83
X35.92 Y43.078
X35.918 Y46.198
X35.917 Y57.117
X35.954 Y57.427
X36.083 Y57.71
X36.278 Y57.954
X36.75 Y58.362
X37.315 Y58.626
X37.916 Y58.795
X38.531 Y58.902
X39.151 Y58.969
X39.774 Y59.011
X40.397 Y59.038
X41.021 Y59.054
X41.645 Y59.065
X42.269 Y59.072
X42.893 Y59.076
X44.14 Y59.08
X46.012 Y59.082
X62.235 Y59.083
X90.312
X140.852 Y59.084
X191.391
X235.068
X235.379 Y59.063
X235.668 Y58.945
X235.917 Y58.758
X236.338 Y58.297
X236.61 Y57.735
X236.784 Y57.136
X236.894 Y56.522
X236.964 Y55.902
X237.008 Y55.28
X237.035 Y54.656
X237.053 Y54.032
X237.064 Y53.409
X237.071 Y52.785
X237.075 Y52.161
X237.078 Y51.537
X237.08 Y50.289
X237.082 Y47.169
X237.083 Y37.81
X237.025 Y37.503
X236.878 Y37.229
X236.466 Y36.759
X235.923 Y36.453
X235.331 Y36.256
X234.719 Y36.131
X234.1 Y36.052
X233.479 Y36.002
X232.855 Y35.971
X232.232 Y35.951
X231.608 Y35.938
X230.984 Y35.931
X230.36 Y35.926
X229.736 Y35.922
X228.488 Y35.919
X225.992 Y35.917
X202.906
X152.367
X101.827 Y35.916
X51.288
X39.433
X39.121 Y35.935
X38.832 Y36.052
X38.582 Y36.239
X38.162 Y36.7
X37.889 Y37.261
X37.716 Y37.86
X37.605 Y38.475
X37.536 Y39.095
X37.492 Y39.717
X37.465 Y40.34
X37.447 Y40.964
X37.436 Y41.588
X37.429 Y42.212
X37.425 Y42.836
X37.422 Y43.46
X37.42 Y44.708
X37.418 Y47.827
X37.417 Y55.627
X37.46 Y55.936
X37.594 Y56.217
X37.988 Y56.701
X38.523 Y57.022
X39.112 Y57.228
X39.722 Y57.359
X40.34 Y57.441
X40.962 Y57.494
X41.585 Y57.527
X42.209 Y57.547
X42.833 Y57.561
X43.456 Y57.569
X44.08 Y57.574
X44.704 Y57.577
X45.952 Y57.581
X48.448 Y57.583
X54.687
X105.227
X155.767 Y57.584
X206.306
X233.76
X234.061 Y57.502
X234.326 Y57.338
X234.777 Y56.907
X235.07 Y56.356
X235.258 Y55.761
X235.378 Y55.149
X235.453 Y54.529
X235.501 Y53.907
X235.531 Y53.284
X235.55 Y52.66
X235.562 Y52.036
X235.569 Y51.413
X235.574 Y50.789
X235.577 Y50.165
X235.58 Y48.917
X235.582 Y45.797
X235.583 Y39.246
X235.504 Y38.944
X235.341 Y38.677
X234.911 Y38.225
X234.361 Y37.93
X233.767 Y37.742
X233.154 Y37.622
X232.535 Y37.546
X231.913 Y37.498
X231.29 Y37.468
X230.666 Y37.449
X230.042 Y37.437
X229.418 Y37.43
X228.794 Y37.425
X228.17 Y37.422
X226.922 Y37.419
X223.803 Y37.417
X181.998
X131.459 Y37.416
X80.919
X40.987
X40.675 Y37.428
X40.381 Y37.531
X40.124 Y37.708
X39.69 Y38.156
X39.408 Y38.712
X39.227 Y39.31
X39.113 Y39.923
X39.041 Y40.543
X38.995 Y41.165
X38.967 Y41.789
X38.949 Y42.412
X38.937 Y43.036
X38.93 Y43.66
X38.925 Y44.284
X38.923 Y44.908
X38.92 Y46.156
X38.919 Y46.78
X38.918 Y51.771
Y54.267
X39.001 Y54.568
X39.166 Y54.832
X39.6 Y55.281
X40.151 Y55.574
X40.746 Y55.761
X41.359 Y55.88
X41.978 Y55.955
X42.6 Y56.002
X43.223 Y56.032
X43.847 Y56.051
X44.471 Y56.063
X45.095 Y56.07
X45.719 Y56.075
X46.343 Y56.078
X47.591 Y56.081
X50.71 Y56.083
X81.284
X131.823 Y56.084
X182.363
X232.278
X232.578 Y55.996
X232.841 Y55.828
X233.286 Y55.391
X233.577 Y54.839
X233.762 Y54.243
X233.88 Y53.631
X233.955 Y53.011
X234.002 Y52.389
X234.032 Y51.766
X234.05 Y51.142
X234.062 Y50.518
X234.07 Y49.894
X234.074 Y49.27
X234.077 Y48.646
X234.08 Y47.399
X234.082 Y44.279
Y40.847
X234.036 Y40.539
X233.898 Y40.259
X233.498 Y39.78
X232.959 Y39.466
X232.368 Y39.265
X231.758 Y39.137
X231.139 Y39.056
X230.517 Y39.005
X229.894 Y38.972
X229.271 Y38.952
X228.647 Y38.939
X228.023 Y38.931
X227.399 Y38.926
X226.775 Y38.923
X225.527 Y38.919
X223.031 Y38.917
X199.945
X149.406
X98.866 Y38.916
X48.327
X42.399
X42.089 Y38.948
X41.804 Y39.075
X41.559 Y39.268
X41.147 Y39.737
X40.88 Y40.301
X40.709 Y40.901
X40.602 Y41.515
X40.533 Y42.136
X40.491 Y42.758
X40.464 Y43.381
X40.447 Y44.005
X40.436 Y44.629
X40.429 Y45.253
X40.425 Y45.877
X40.42 Y47.125
X40.418 Y48.997
Y52.74
X40.492 Y53.043
X40.651 Y53.311
X41.077 Y53.767
X41.626 Y54.065
X42.22 Y54.255
X42.832 Y54.376
X43.451 Y54.452
X44.073 Y54.501
X44.696 Y54.531
X45.32 Y54.55
X45.944 Y54.562
X46.568 Y54.57
X47.192 Y54.575
X47.816 Y54.578
X49.064 Y54.581
X52.183 Y54.583
X69.654
X120.193
X170.733 Y54.584
X221.272
X230.632
X230.941 Y54.543
X231.223 Y54.41
X231.465 Y54.213
X231.869 Y53.738
X232.131 Y53.171
X232.298 Y52.57
X232.403 Y51.955
X232.469 Y51.335
X232.511 Y50.712
X232.538 Y50.089
X232.554 Y49.465
X232.565 Y48.841
X232.571 Y48.217
X232.575 Y47.593
X232.58 Y46.346
X232.582 Y44.474
Y42.29
X232.52 Y41.984
X232.368 Y41.712
X231.95 Y41.249
X231.404 Y40.945
X230.811 Y40.751
X230.2 Y40.628
X229.581 Y40.55
X228.959 Y40.501
X228.336 Y40.47
X227.712 Y40.45
X227.088 Y40.438
X226.464 Y40.43
X225.84 Y40.425
X225.216 Y40.422
X223.968 Y40.419
X221.473 Y40.417
X205.25
X154.711
X104.171 Y40.416
X53.631
X43.96
X43.649 Y40.436
X43.358 Y40.547
X43.104 Y40.73
X42.677 Y41.184
X42.4 Y41.743
X42.222 Y42.341
X42.11 Y42.955
X42.039 Y43.575
X41.994 Y44.197
X41.966 Y44.821
X41.948 Y45.444
X41.937 Y46.068
X41.93 Y46.692
X41.925 Y47.316
X41.922 Y47.94
X41.919 Y49.188
X41.918 Y51.06
X41.935 Y51.371
X42.05 Y51.661
X42.235 Y51.912
X42.694 Y52.334
X43.255 Y52.609
X43.854 Y52.784
X44.468 Y52.894
X45.088 Y52.964
X45.71 Y53.008
X46.334 Y53.036
X46.957 Y53.053
X47.581 Y53.064
X48.205 Y53.071
X48.829 Y53.076
X49.453 Y53.078
X50.701 Y53.081
X53.82 Y53.083
X70.043
X120.583
X171.122 Y53.084
X221.662
X229.149
X229.457 Y53.034
X229.736 Y52.895
X230.214 Y52.494
X230.531 Y51.956
X230.733 Y51.366
X230.862 Y50.755
X230.943 Y50.137
X230.994 Y49.515
X231.027 Y48.892
X231.047 Y48.268
X231.06 Y47.644
X231.068 Y47.02
X231.074 Y46.396
X231.077 Y45.773
X231.08 Y44.525
X231.081 Y43.901
X231.053 Y43.59
X230.929 Y43.304
X230.737 Y43.057
X230.269 Y42.645
X229.706 Y42.378
X229.105 Y42.207
X228.491 Y42.1
X227.87 Y42.032
X227.248 Y41.989
X226.625 Y41.963
X226.001 Y41.946
X225.377 Y41.935
X224.753 Y41.928
X224.129 Y41.924
X222.881 Y41.92
X221.009 Y41.918
X205.411 Y41.917
X199.171
X148.632
X98.092 Y41.916
X47.553
X45.369
X45.06 Y41.96
X44.779 Y42.095
X44.296 Y42.49
X43.977 Y43.026
X43.772 Y43.616
X43.642 Y44.226
X43.559 Y44.844
X43.507 Y45.466
X43.474 Y46.089
X43.453 Y46.713
X43.44 Y47.336
X43.432 Y47.96
X43.427 Y48.584
X43.422 Y49.52
X43.434 Y49.832
X43.539 Y50.126
X43.717 Y50.382
X44.166 Y50.815
X44.724 Y51.096
X45.321 Y51.275
X45.935 Y51.389
X46.554 Y51.46
X47.177 Y51.506
X47.8 Y51.534
X48.424 Y51.552
X49.048 Y51.564
X49.672 Y51.571
X50.295 Y51.575
X50.919 Y51.578
X52.167 Y51.581
X55.287 Y51.583
X82.117
X132.656 Y51.584
X183.196
X227.496
X227.808 Y51.579
X228.104 Y51.482
X228.364 Y51.309
X228.802 Y50.864
X229.087 Y50.309
X229.27 Y49.713
X229.385 Y49.099
X229.458 Y48.48
X229.504 Y47.858
X229.533 Y47.234
X229.551 Y46.611
X229.563 Y45.987
X229.57 Y45.363
X229.528 Y45.054
X229.393 Y44.773
X228.996 Y44.291
X228.46 Y43.972
X227.87 Y43.768
X227.26 Y43.639
X226.641 Y43.557
X226.019 Y43.505
X225.396 Y43.473
X224.773 Y43.452
X224.149 Y43.439
X223.525 Y43.431
X222.901 Y43.426
X222.277 Y43.423
X221.029 Y43.419
X218.534 Y43.417
X181.097
X130.557 Y43.416
X80.018
X46.949
X46.637 Y43.43
X46.346 Y43.542
X46.094 Y43.726
X45.67 Y44.184
X45.394 Y44.743
X45.218 Y45.342
X45.107 Y45.956
X45.037 Y46.576
X44.993 Y47.198
X44.965 Y47.822
X44.956 Y48.134
X44.993 Y48.443
X45.126 Y48.726
X45.323 Y48.968
X45.798 Y49.372
X46.365 Y49.634
X46.966 Y49.8
X47.581 Y49.905
X48.201 Y49.971
X48.824 Y50.013
X49.447 Y50.039
X50.071 Y50.055
X50.695 Y50.066
X51.319 Y50.072
X51.943 Y50.076
X53.191 Y50.08
X55.686 Y50.083
X106.226
X156.766 Y50.084
X207.305
X226.024
X226.335 Y50.072
X226.629 Y49.966
X226.884 Y49.787
X227.316 Y49.337
X227.596 Y48.779
X227.775 Y48.181
X227.889 Y47.568
X227.96 Y46.948
X227.965 Y46.792
X227.918 Y46.484
X227.771 Y46.209
X227.356 Y45.742
X226.811 Y45.439
X226.218 Y45.246
X225.606 Y45.123
X224.987 Y45.047
X224.365 Y44.998
X223.741 Y44.968
X223.118 Y44.949
X222.494 Y44.937
X221.87 Y44.93
X221.246 Y44.925
X220.622 Y44.922
X219.374 Y44.919
X216.254 Y44.917
X201.28
X150.74
X100.201 Y44.916
X49.661
X48.413
X48.102 Y44.942
X47.816 Y45.066
X47.569 Y45.256
X47.153 Y45.722
X46.884 Y46.284
X46.798 Y46.584
X46.775 Y46.739
X46.791 Y46.894
X46.886 Y47.191
X47.067 Y47.445
X47.527 Y47.867
X48.09 Y48.136
X48.69 Y48.304
X49.305 Y48.409
X49.926 Y48.475
X50.549 Y48.515
X51.172 Y48.541
X51.796 Y48.557
X52.42 Y48.567
X53.044 Y48.573
X53.667 Y48.577
X54.915 Y48.58
X57.411 Y48.583
X92.352
X142.892 Y48.584
X193.431
X194.055
X194.21 Y48.57
X194.38 Y48.556
X194.571 Y48.542
X194.79 Y48.529
X195.047 Y48.515
X195.356 Y48.501
X195.746 Y48.488
X196.274 Y48.474
X196.898 Y48.464
X197.522 Y48.457
X198.146 Y48.454
X199.394 Y48.451
X202.513 Y48.449
X224.664
X224.97 Y48.391
X225.24 Y48.234
X225.296 Y48.18
X225.349 Y48.123
X225.452 Y48.006
X225.514 Y47.862
X225.528 Y47.707
X225.494 Y47.555
X225.414 Y47.421
X225.18 Y47.214
X224.612 Y46.957
X224.007 Y46.801
X223.391 Y46.705
X222.77 Y46.647
X222.147 Y46.611
X221.523 Y46.588
X220.9 Y46.574
X220.276 Y46.566
X219.652 Y46.561
X219.028 Y46.557
X217.78 Y46.554
X215.284 Y46.552
X207.797
X157.257
X106.718 Y46.551
X56.178
X49.939
X49.861 Y46.557
G3 X49.686 Y46.004 I-0.013 J-0.3
G1 X49.743 Y45.968 Z-3.99
X49.796 Y45.934 Z-3.968
X49.844 Y45.904 Z-3.933
X49.884 Y45.878 Z-3.885
X49.914 Y45.859 Z-3.828
X49.933 Y45.847 Z-3.765
X49.939 Y45.843 Z-3.698
G0 Z2
G28 G91 Z0
G90
G28 G91 X0 Y0
G90
M5
M30
