(1001)
(Machine)
(  vendor: Autodesk)
(  description: Generic 3-axis)
(T1  D=3 CR=0 - ZMIN=-28.2 - flat end mill)
G90 G94
G17
G21
G28 G91 Z0
G90

(Adaptive4)
T1
S15000 M3
G54
G0 X231.063 Y38.575
Z2.503
Z2
G3 X228.217 Y38.425 Z1.844 I-1.423 J-0.075 F333.3
X231.063 Y38.575 Z1.687 I1.423 J0.075
X228.217 Y38.425 Z1.531 I-1.423 J-0.075
X231.063 Y38.575 Z1.375 I1.423 J0.075
X228.217 Y38.425 Z1.218 I-1.423 J-0.075
X231.063 Y38.575 Z1.062 I1.423 J0.075
X228.217 Y38.425 Z0.906 I-1.423 J-0.075
X231.063 Y38.575 Z0.749 I1.423 J0.075
X228.217 Y38.425 Z0.593 I-1.423 J-0.075
X231.063 Y38.575 Z0.437 I1.423 J0.075
X228.217 Y38.425 Z0.28 I-1.423 J-0.075
X231.063 Y38.575 Z0.124 I1.423 J0.075
X228.217 Y38.425 Z-0.032 I-1.423 J-0.075
X231.063 Y38.575 Z-0.189 I1.423 J0.075
X228.217 Y38.425 Z-0.345 I-1.423 J-0.075
X231.063 Y38.575 Z-0.501 I1.423 J0.075
X228.217 Y38.425 Z-0.658 I-1.423 J-0.075
X231.063 Y38.575 Z-0.814 I1.423 J0.075
X228.217 Y38.425 Z-0.97 I-1.423 J-0.075
X231.063 Y38.575 Z-1.127 I1.423 J0.075
X228.217 Y38.425 Z-1.283 I-1.423 J-0.075
X231.063 Y38.575 Z-1.439 I1.423 J0.075
X228.217 Y38.425 Z-1.596 I-1.423 J-0.075
X231.063 Y38.575 Z-1.752 I1.423 J0.075
X228.217 Y38.425 Z-1.908 I-1.423 J-0.075
X231.063 Y38.575 Z-2.065 I1.423 J0.075
X228.217 Y38.425 Z-2.221 I-1.423 J-0.075
X231.063 Y38.575 Z-2.377 I1.423 J0.075
X228.217 Y38.425 Z-2.534 I-1.423 J-0.075
X231.063 Y38.575 Z-2.69 I1.423 J0.075
X228.217 Y38.425 Z-2.846 I-1.423 J-0.075
X231.065 Y38.5 Z-3 I1.423 J0.075
X228.215 Y38.5 I-1.425 J0
X231.065 Y38.5 I1.425 J0
G1 X231.067 Y38.539 F1000
X231.078 Y38.576
X231.099 Y38.609
X231.56 Y39.03
X231.759 Y39.2
X231.933 Y39.449
X232.054 Y39.773
X232.094 Y40.162
X232.029 Y40.598
X231.835 Y41.055
X231.494 Y41.501
X231.002 Y41.886
X230.432 Y42.138
X229.821 Y42.263
X229.197 Y42.266
X228.582 Y42.157
X227.996 Y41.942
X227.455 Y41.632
X226.972 Y41.237
X226.562 Y40.767
X226.233 Y40.236
X225.996 Y39.659
X225.855 Y39.051
X225.816 Y38.429
X225.878 Y37.808
X226.041 Y37.206
X226.299 Y36.638
X226.647 Y36.119
X227.074 Y35.664
X227.569 Y35.285
X228.119 Y34.991
X228.71 Y34.79
X229.326 Y34.688
X229.95
X230.565 Y34.789
X231.156 Y34.989
X231.707 Y35.282
X232.203 Y35.661
X232.63 Y36.116
X232.978 Y36.634
X233.337 Y37.144
X233.707 Y37.647
X234.022 Y38.185
X234.268 Y38.758
X234.43 Y39.361
X234.494 Y39.982
X234.472 Y40.605
X234.35 Y41.217
X234.147 Y41.807
X233.858 Y42.36
X233.499 Y42.871
X233.074 Y43.327
X232.594 Y43.726
G3 X230.298 Y44.647 I-3.023 J-4.215
X227.239 Y44.266 I-0.843 J-5.708
X223.38 Y38.373 I2.35 J-5.749
X227.465 Y32.626 I6.255 J0.121
X234.702 Y34.81 I2.175 J5.877
X236.111 Y36.866 I-11.262 J9.229
X236.872 Y41.094 I-6.004 J3.262
X234.478 Y45.355 I-6.894 J-1.07
X228.668 Y47.122 I-4.977 J-5.928
X221.175 Y40.579 I0.863 J-8.55
X227.588 Y30.024 I8.453 J-2.09
X236.514 Y33.126 I2.054 J8.484
X238.559 Y36.248 I-10.401 J9.044
X236.249 Y47.071 I-8.434 J3.858
X229.394 Y49.625 I-6.697 J-7.496
X219.484 Y43.183 I0.1 J-10.998
X218.451 Y38.342 I9.957 J-4.654
X237.98 Y31.038 I11.189 J0.156
X241.027 Y35.721 I-11.687 J10.935
X241.112 Y44.259 I-10.933 J4.379
X234.864 Y50.914 I-11.298 J-4.346
X223.416 Y50.643 I-5.447 J-11.846
X223.94 Y26.086 I6.195 J-12.152
X231.859 Y25.016 I5.693 J12.307
X239.893 Y29.456 I-2.229 J13.523
X243.498 Y35.247 I-13.064 J12.15
X238.702 Y51.46 I-13.419 J4.846
X228.165 Y54.523 I-9.187 J-11.948
X223.337 Y53.344 I1.189 J-15.339
X235.784 Y23.577 I6.29 J-14.856
X242.231 Y28.361 I-6.227 J15.127
X246.155 Y35.393 I-14.52 J12.711
X239.889 Y53.67 I-16.088 J4.697
X228.761 Y57.046 I-10.362 J-14.123
G1 X228.137 Y57.016
X227.516 Y56.961
X226.897 Y56.885
G3 X212.904 Y30.338 I2.679 J-18.373
X224.499 Y20.598 I16.69 J8.097
X243.334 Y25.867 I5.146 J17.905
X248.237 Y33.76 I-16.187 J15.524
X244.338 Y52.989 I-18.137 J6.333
X227.491 Y59.445 I-14.809 J-13.436
X213.493 Y52.087 I1.947 J-20.7
X208.546 Y37.669 I16.053 J-13.565
X244.834 Y23.841 I21.094 J0.828
G1 X245.273 Y24.285
X245.693 Y24.746
G3 X250.503 Y32.712 I-18.707 J16.731
X242.778 Y57.712 I-20.437 J7.379
X230.596 Y62.002 I-13.213 J-18.077
X208.108 Y48.133 I-1.114 J-23.358
X209.296 Y26.548 I21.458 J-9.645
X246.316 Y21.803 I20.346 J11.947
X250.888 Y27.704 I-19.532 J19.853
X254.076 Y43.31 I-21.132 J12.446
X239.092 Y62.606 I-24.208 J-3.333
X230.61 Y64.495 I-9.545 J-22.876
X204.851 Y46.595 I-1.113 J-25.884
X204.966 Y30.043 I24.643 J-8.105
X246.381 Y18.496 I24.674 J8.45
X255.222 Y31.133 I-19.307 J22.918
X256.503 Y36.372 I-25.484 J9.009
G1 X256.5 Y42.824
G3 X255.824 Y47.126 I-16.795 J-0.435
X238.912 Y65.344 I-25.981 J-7.16
G1 X221.135 Y65.334
G3 X218.702 Y64.849 I0.021 J-6.449
X212.227 Y61.14 I9.776 J-24.576
X204.623 Y24.696 I17.377 J-22.641
X219.841 Y11.661 I24.977 J13.758
G1 X219.879 Y11.666
X238.286 Y11.664
X238.909 Y11.696
X239.524 Y11.802
G3 X242.418 Y12.95 I-3.91 J14.071
X251.66 Y20.242 I-12.985 J25.959
X256.492 Y27.692 I-24.256 J21.023
G1 X256.497 Y27.736
X256.5 Y27.779
Y36.373
G3 X256.341 Y36.627 I-0.3 J-0.01
X255.921 Y36.606 I-0.193 J-0.362
G1 X255.896 Y36.59
G3 X255.936 Y28.274 I2.797 J-4.145 F1500
X256.341 Y28.033 I2.757 J4.171 F1000
G2 X256.5 Y27.779 I-0.141 J-0.265
G1 Y23.828
X256.469 Y23.204
X256.3 Y22.604
X256.041 Y22.036
G2 X254.265 Y19.476 I-15.126 J8.6
X245.312 Y11.675 I-25.462 J20.183
G1 X245.258 Y11.668
X245.207 Y11.664
X238.286
G2 X238.032 Y11.823 I0.01 J0.3
X238.041 Y12.079 I0.225 J0.12
G1 X238.154 Y12.248
G2 X244.707 Y12.225 I3.268 J-2.307 F1500
X244.952 Y11.823 I-3.284 J-2.283 F1000
G3 X245.207 Y11.664 I0.265 J0.141
G1 X248.35
X248.973 Y11.695
X249.578 Y11.848
X250.144 Y12.11
G3 X252.135 Y13.609 I-6.164 J10.262
X256.476 Y18.256 I-22.79 J25.636
G1 X256.493 Y18.321
X256.5 Y18.386
Y23.828
G3 X256.341 Y24.082 I-0.3 J-0.01
X255.896 Y24.229 I-0.648 J-1.215
G1 X255.795 Y24.24 F1500
X255.694 Y24.244
G3 X254.367 Y23.233 I0 J-1.377
X255.939 Y18.886 I3.856 J-1.062
X256.341 Y18.641 I2.284 J3.284 F1000
G2 X256.5 Y18.386 I-0.141 J-0.265
G1 Y15.889
X256.469 Y15.266
X256.292 Y14.667
X255.997 Y14.118
G2 X254.342 Y12.257 I-8.956 J6.303
G1 X253.884 Y11.834
X253.773 Y11.737
X253.714 Y11.697
X253.647 Y11.672
X253.576 Y11.664
X248.35
G2 X248.156 Y12.183 I0.01 J0.3
G1 X248.214 Y12.236
G2 X249.659 Y12.953 I2.05 J-2.313 F1500
X252.966 Y12.134 I0.782 J-3.923
X253.367 Y11.759 I-2.524 J-3.103 F1000
G1 X253.411 Y11.72
X253.462 Y11.69
X253.518 Y11.671
X253.576 Y11.664
X255.721
X256.146
X256.217 Y11.665
X256.253 Y11.671
X256.288 Y11.681
X256.323 Y11.696
X256.358 Y11.717
X256.393 Y11.744
X256.43 Y11.781
X256.455 Y11.815
X256.473 Y11.85
X256.487 Y11.885
X256.495 Y11.92
X256.499 Y11.955
X256.5 Y12.203
Y15.889
G0 Z2.503
X220.89 Y12.04
Z-2.4
G1 Z-2.7 F1000
X220.884 Y12.036 Z-2.767
X220.865 Y12.025 Z-2.83
X220.834 Y12.007 Z-2.887
X220.793 Y11.982 Z-2.935
X220.744 Y11.953 Z-2.97
X220.69 Y11.921 Z-2.992
X220.633 Y11.887 Z-3
G2 X219.879 Y11.666 I-0.809 J1.36
G1 X215.323
X214.7 Y11.697
X214.092 Y11.835
G2 X211.901 Y13.015 I3.177 J8.52
X198.88 Y34.19 I17.615 J25.424
X203.058 Y54.568 I30.691 J4.326
X213.99 Y65.319 I26.473 J-15.987
G1 X214.044 Y65.329
X214.097 Y65.334
X221.135
G2 X221.329 Y64.815 I-0.01 J-0.3
G1 X221.271 Y64.762
G2 X215.429 Y64.297 I-3.224 J3.572 F1500
X214.699 Y64.854 I3.265 J5.034
X214.306 Y65.239 I3.995 J4.477 F1000
G1 X214.262 Y65.278
X214.211 Y65.307
X214.155 Y65.326
X214.097 Y65.334
X210.929
X210.306 Y65.303
X209.702 Y65.148
X209.136 Y64.885
G3 X207.149 Y63.382 I6.124 J-10.161
X200.867 Y21.243 I22.442 J-24.884
X209.471 Y11.689 I28.552 J17.061
G1 X209.536 Y11.673
X209.6 Y11.666
X215.323
G3 X215.578 Y11.825 I-0.01 J0.3
X215.72 Y12.272 I-1.144 J0.61
X214.937 Y13.629 I-1.286 J0.163 F1500
X210.1 Y12.227 I-1.553 J-3.686
X209.854 Y11.825 I3.284 J-2.284 F1000
G2 X209.6 Y11.666 I-0.265 J0.141
G1 X206.96
X206.373 Y11.696
X205.778 Y11.882
X205.23 Y12.181
G2 X203.368 Y13.835 I6.515 J9.214
X198.49 Y56.629 I26.225 J24.664
X205.561 Y65.305 I30.637 J-17.752
G1 X205.635 Y65.325
X205.708 Y65.333
X210.929 Y65.334
G2 X211.219 Y65.024 I-0.01 J-0.3
X211.122 Y64.729 I-0.555 J0.019
G1 X211.074 Y64.669 F1500
X211.019 Y64.616
X210.957 Y64.571
G2 X206.318 Y64.863 I-2.115 J3.395
X205.917 Y65.238 I2.524 J3.103 F1000
G1 X205.873 Y65.277
X205.822 Y65.307
X205.766 Y65.326
X205.708 Y65.333
X203.417
X202.875 Y65.306
X202.279 Y65.12
X201.738 Y64.809
G3 X199.965 Y63.062 I6.093 J-7.959
X191.307 Y34.578 I29.519 J-24.531
X195.945 Y19.798 I38.159 J3.858
X201.918 Y11.748 I32.873 J18.151
G1 X201.984 Y11.706
X202.055 Y11.677
X202.132 Y11.667
X206.96 Y11.666
G3 X207.215 Y11.825 I-0.01 J0.3
X207.272 Y12.283 I-0.571 J0.304
X207.086 Y12.601 I-0.629 J-0.153 F1500
X202.64 Y12.222 I-2.053 J-2.187
X202.386 Y11.825 I2.394 J-1.808 F1000
G2 X202.132 Y11.667 I-0.265 J0.141
G1 X200.157
X199.555 Y11.697
X198.96 Y11.883
X198.425 Y12.204
X197.948 Y12.606
G2 X195.992 Y15.031 I12.039 J11.708
X193.362 Y57.659 I33.604 J23.469
X198.551 Y65.239 I34.539 J-18.08
G1 X198.622 Y65.287
X198.698 Y65.321
X198.781 Y65.333
X203.417
G2 X203.671 Y65.175 I-0.01 J-0.3
X203.761 Y64.719 I-0.706 J-0.376
X203.431 Y64.148 I-0.796 J0.08 F1500
X199.289 Y64.777 I-1.749 J2.438
X199.035 Y65.174 I2.394 J1.808 F1000
G3 X198.781 Y65.333 I-0.265 J-0.141
G1 X196.896
X196.393 Y65.308
X195.797 Y65.122
X195.266 Y64.793
X194.8 Y64.379
G3 X193.28 Y62.403 I10.073 J-9.318
X190.74 Y18.985 I36.304 J-23.908
X195.042 Y12.125 I36.769 J18.278
G1 X195.344 Y11.775
X195.409 Y11.717
X195.488 Y11.68
X195.574 Y11.667
X200.157
G3 X200.411 Y11.826 I-0.01 J0.3
X200.507 Y12.281 I-0.736 J0.392
X200.137 Y12.913 I-0.832 J-0.063 F1500
X196.082 Y12.223 I-1.661 J-2.498
X195.828 Y11.826 I2.394 J-1.808 F1000
G2 X195.574 Y11.667 I-0.265 J0.141
G1 X193.778
X193.323 Y11.69
X192.749 Y11.869
X192.218 Y12.199
X191.759 Y12.62
G2 X190.303 Y14.642 I9.622 J8.465
X188.103 Y58.292 I39.266 J23.859
X191.875 Y64.749 I38.043 J-17.896
G1 X192.245 Y65.216
X192.311 Y65.279
X192.393 Y65.319
X192.482 Y65.333
X196.896
G2 X197.151 Y65.174 I-0.01 J-0.3
X197.259 Y64.72 I-0.815 J-0.434
X196.759 Y63.919 I-0.923 J0.019 F1500
X192.99 Y64.777 I-1.375 J2.666
X192.737 Y65.174 I2.394 J1.808 F1000
G3 X192.482 Y65.333 I-0.265 J-0.141
G1 X190.801 Y65.332
X190.335 Y65.309
X189.784 Y65.137
X189.254 Y64.808
X188.799 Y64.381
G3 X187.396 Y62.322 I9.024 J-7.653
X185.459 Y18.478 I42.16 J-23.828
X188.741 Y12.459 I39.415 J17.591
G1 X189.106 Y11.952
X189.239 Y11.783
X189.304 Y11.721
X189.385 Y11.681
X189.475 Y11.668
X193.778 Y11.667
G3 X194.032 Y11.826 I-0.01 J0.3
X194.146 Y12.279 I-0.855 J0.456
X193.56 Y13.172 I-0.969 J0.003 F1500
X189.983 Y12.223 I-1.183 J-2.757
X189.729 Y11.826 I2.394 J-1.808 F1000
G2 X189.475 Y11.668 I-0.265 J0.141
G1 X187.825
X187.411 Y11.688
X186.873 Y11.857
X186.343 Y12.186
X185.892 Y12.617
G2 X184.538 Y14.708 I8.744 J7.145
X182.82 Y58.718 I45.003 J23.796
X185.651 Y64.272 I42.026 J-17.924
G1 X185.996 Y64.792
X186.294 Y65.207
X186.361 Y65.274
X186.445 Y65.317
X186.538 Y65.332
X190.801
G2 X191.056 Y65.174 I-0.01 J-0.3
X191.171 Y64.721 I-0.867 J-0.462
X190.554 Y63.799 I-0.982 J-0.01 F1500
X187.046 Y64.776 I-1.114 J2.785
X186.792 Y65.173 I2.394 J1.808 F1000
G3 X186.538 Y65.332 I-0.265 J-0.141
G1 X184.99
X184.536 Y65.309
X184.014 Y65.146
X183.484 Y64.817
X183.036 Y64.382
G3 X181.728 Y62.264 I8.361 J-6.63
X180.184 Y18.114 I47.774 J-23.772
X182.92 Y12.512 I39.814 J15.974
G1 X183.264 Y11.992
X183.408 Y11.793
X183.474 Y11.726
X183.558 Y11.683
X183.651 Y11.668
X187.825
G3 X188.079 Y11.826 I-0.01 J0.3
X188.197 Y12.278 I-0.891 J0.475
X187.51 Y13.258 I-1.01 J0.023 F1500
X184.159 Y12.224 I-0.957 J-2.843
X183.905 Y11.827 I2.394 J-1.808 F1000
G2 X183.651 Y11.668 I-0.265 J0.141
G1 X182.155
X181.702 Y11.691
X181.191 Y11.851
X180.661 Y12.18
X180.217 Y12.618
G2 X178.945 Y14.758 I8.037 J6.225
X175.135 Y51.298 I50.5 J23.733
X177.552 Y59.033 I52.764 J-12.238
X179.892 Y64.134 I44.49 J-17.325
G1 X180.212 Y64.67
X180.555 Y65.191
X180.569 Y65.211
X180.636 Y65.276
X180.718 Y65.317
X180.81 Y65.332
X184.99
G2 X185.244 Y65.173 I-0.01 J-0.3
X185.362 Y64.721 I-0.89 J-0.474
X184.68 Y63.745 I-1.008 J-0.022 F1500
X181.318 Y64.776 I-0.968 J2.839
X181.064 Y65.173 I2.394 J1.808 F1000
G3 X180.81 Y65.332 I-0.265 J-0.141
G1 X179.32
X178.91 Y65.311
X178.407 Y65.154
X177.876 Y64.825
X177.436 Y64.383
X177.068 Y63.879
G3 X175.697 Y61.08 I16.638 J-9.885
X174.926 Y17.842 I53.847 J-22.587
X177.19 Y12.708 I42.038 J15.473
G1 X177.51 Y12.171
X177.754 Y11.803
X177.821 Y11.731
X177.907 Y11.684
X178.004 Y11.668
X182.155
G3 X182.409 Y11.827 I-0.01 J0.3
X182.528 Y12.279 I-0.896 J0.478
X181.824 Y13.272 I-1.016 J0.026 F1500
X178.512 Y12.224 I-0.918 J-2.856
X178.258 Y11.827 I2.394 J-1.808 F1000
G2 X178.004 Y11.668 I-0.265 J0.141
G1 X176.627
X176.138 Y11.693
X175.643 Y11.848
X175.113 Y12.177
X174.674 Y12.62
X174.312 Y13.128
G2 X172.989 Y15.949 I16.289 J9.359
X172.309 Y59.273 I56.558 J22.555
X174.511 Y64.435 I40.506 J-14.227
G1 X174.835 Y64.969
X174.987 Y65.197
X175.054 Y65.269
X175.14 Y65.315
X175.237 Y65.331
X179.32 Y65.332
G2 X179.574 Y65.173 I-0.01 J-0.3
X179.695 Y64.721 I-0.911 J-0.486
G1 Y64.688 F1500
Y64.687
G2 X178.939 Y63.693 I-1.032 J0
X175.745 Y64.776 I-0.8 J2.891
X175.491 Y65.173 I2.394 J1.808 F1000
G3 X175.237 Y65.331 I-0.265 J-0.141
G1 X173.792
X173.401 Y65.312
X172.914 Y65.16
X172.384 Y64.831
X171.947 Y64.385
X171.589 Y63.874
G3 X170.307 Y61.034 I16.036 J-8.948
X169.693 Y17.636 I59.218 J-22.541
X171.548 Y13.004 I44.392 J15.087
X172.3 Y11.725 I7.685 J3.656
G1 X172.392 Y11.684
X172.487 Y11.669
X176.627 Y11.668
G3 X176.881 Y11.827 I-0.01 J0.3
X177 Y12.279 I-0.899 J0.479
X176.287 Y13.279 I-1.018 J0.027 F1500
X172.995 Y12.224 I-0.898 J-2.862
X172.742 Y11.827 I2.394 J-1.808 F1000
G2 X172.487 Y11.669 I-0.265 J0.141
G1 X171.099
X170.677 Y11.69
X170.198 Y11.84
X169.668 Y12.169
X169.233 Y12.616
X168.88 Y13.13
G2 X167.854 Y15.403 I13.174 J7.313
X167.088 Y59.453 I61.646 J23.104
X168.893 Y64.104 I42.085 J-13.662
G1 X169.184 Y64.656
X169.505 Y65.191
X169.514 Y65.204
X169.58 Y65.272
X169.665 Y65.316
X169.759 Y65.331
X173.792
G2 X174.046 Y65.173 I-0.01 J-0.3
X174.168 Y64.721 I-0.92 J-0.49
X173.374 Y63.67 I-1.042 J-0.039 F1500
X170.267 Y64.775 I-0.714 J2.914
X170.013 Y65.172 I2.394 J1.808 F1000
G3 X169.759 Y65.331 I-0.265 J-0.141
G1 X168.405
X167.981 Y65.31
X167.505 Y65.161
X166.975 Y64.832
X166.542 Y64.383
X166.192 Y63.866
G3 X165.192 Y61.582 I12.872 J-6.992
X164.486 Y17.47 I64.293 J-23.092
X166.244 Y12.801 I40.335 J12.525
G1 X166.537 Y12.25
X166.798 Y11.815
X166.865 Y11.737
X166.954 Y11.687
X167.055 Y11.669
X171.099
G3 X171.353 Y11.828 I-0.01 J0.3
X171.474 Y12.279 I-0.918 J0.489
X170.689 Y13.326 I-1.04 J0.038 F1500
X167.563 Y12.225 I-0.732 J-2.909
X167.31 Y11.828 I2.394 J-1.808 F1000
G2 X167.055 Y11.669 I-0.265 J0.141
G1 X165.712
X165.296 Y11.69
X164.823 Y11.838
X164.294 Y12.166
X163.863 Y12.618
X163.516 Y13.137
G2 X162.543 Y15.431 I12.568 J6.684
X161.891 Y59.6 I66.915 J23.077
X163.606 Y64.284 I37.849 J-11.204
G1 X163.903 Y64.833
X164.115 Y65.185
X164.182 Y65.263
X164.271 Y65.313
X164.372 Y65.331
X168.405
G2 X168.66 Y65.172 I-0.01 J-0.3
X168.782 Y64.721 I-0.92 J-0.49
X167.988 Y63.67 I-1.042 J-0.039 F1500
X164.88 Y64.775 I-0.714 J2.914
X164.627 Y65.172 I2.394 J1.808 F1000
G3 X164.372 Y65.331 I-0.265 J-0.141
G1 X163.019
X162.628 Y65.311
X162.157 Y65.164
X161.635 Y64.84
X161.204 Y64.389
X160.86 Y63.869
G3 X159.908 Y61.565 I12.256 J-6.411
X159.297 Y17.346 I69.547 J-23.075
X160.717 Y13.218 I43.726 J12.737
X161.505 Y11.733 I8.141 J3.369
G1 X161.6 Y11.687
X161.701 Y11.669
X165.712
G3 X165.967 Y11.828 I-0.01 J0.3
X166.089 Y12.279 I-0.923 J0.492
X165.279 Y13.339 I-1.046 J0.041 F1500
X162.209 Y12.225 I-0.677 J-2.923
X161.955 Y11.828 I2.394 J-1.808 F1000
G2 X161.701 Y11.669 I-0.265 J0.141
G1 X160.326 Y11.67
X159.97 Y11.687
X159.504 Y11.833
X158.988 Y12.153
X158.557 Y12.604
X158.215 Y13.126
G2 X157.284 Y15.438 I12.001 J6.176
X156.71 Y59.701 I72.119 J23.072
X158.094 Y63.842 I41.419 J-11.545
X158.848 Y65.268 I7.407 J-3.005
G1 X158.943 Y65.313
X159.043 Y65.33
X163.019 Y65.331
G2 X163.273 Y65.172 I-0.01 J-0.3
X163.396 Y64.721 I-0.929 J-0.495
X162.561 Y63.647 I-1.051 J-0.044 F1500
X159.551 Y64.775 I-0.616 J2.936
X159.297 Y65.172 I2.394 J1.808 F1000
G3 X159.043 Y65.33 I-0.265 J-0.141
G1 X157.774
X157.324 Y65.308
X156.862 Y65.163
X156.35 Y64.846
X155.919 Y64.395
X155.579 Y63.872
G3 X154.666 Y61.553 I11.749 J-5.963
X154.127 Y17.248 I74.738 J-23.065
X155.482 Y13.098 I40.549 J10.942
X156.202 Y11.731 I6.801 J2.71
G1 X156.297 Y11.687
X156.396 Y11.67
X160.326
G3 X160.58 Y11.828 I-0.01 J0.3
X160.704 Y12.279 I-0.935 J0.498
X159.836 Y13.368 I-1.058 J0.047 F1500
X156.904 Y12.225 I-0.538 J-2.951
X156.65 Y11.828 I2.394 J-1.808 F1000
G2 X156.396 Y11.67 I-0.265 J0.141
G1 X155.081
X154.691 Y11.689
X154.233 Y11.833
X153.724 Y12.148
X153.293 Y12.599
X152.955 Y13.123
G2 X152.059 Y15.449 I11.526 J5.773
X151.549 Y59.791 I77.282 J23.063
X152.874 Y63.95 I37.615 J-9.694
X153.567 Y65.27 I6.343 J-2.485
G1 X153.662 Y65.313
X153.76 Y65.33
X157.774
G2 X158.029 Y65.172 I-0.01 J-0.3
X158.151 Y64.72 I-0.923 J-0.492
X157.344 Y63.661 I-1.045 J-0.041 F1500
X154.268 Y64.774 I-0.682 J2.921
X154.014 Y65.171 I2.394 J1.808 F1000
G3 X153.76 Y65.33 I-0.265 J-0.141
G1 X152.53
X152.065 Y65.307
X151.61 Y65.164
X151.104 Y64.85
X150.673 Y64.399
X150.336 Y63.874
G3 X149.457 Y61.543 I11.293 J-5.59
X148.372 Y19.588 I79.853 J-23.055
X148.972 Y17.166 I62.022 J14.063
X150.279 Y13.001 I34.419 J8.518
G1 X150.534 Y12.432
X150.83 Y11.882
X150.88 Y11.807
X150.947 Y11.734
X151.034 Y11.686
X151.131 Y11.67
X155.081
G3 X155.336 Y11.829 I-0.01 J0.3
X155.459 Y12.28 I-0.932 J0.497
X154.605 Y13.362 I-1.055 J0.046 F1500
X151.639 Y12.226 I-0.572 J-2.945
X151.386 Y11.829 I2.394 J-1.808 F1000
G2 X151.131 Y11.67 I-0.265 J0.141
G1 X149.837
X149.45 Y11.69
X148.998 Y11.831
X148.494 Y12.143
X148.063 Y12.595
X147.727 Y13.12
G2 X146.863 Y15.457 I11.109 J5.438
X143.776 Y41.996 I81.848 J22.968
X146.401 Y59.865 I85.285 J-3.402
X147.457 Y63.456 I42.196 J-10.453
X148.26 Y65.196 I9.716 J-3.426
G1 X148.328 Y65.267
X148.415 Y65.314
X148.512 Y65.33
X152.53
G2 X152.784 Y65.171 I-0.01 J-0.3
X152.906 Y64.72 I-0.922 J-0.492
X152.102 Y63.662 I-1.044 J-0.04 F1500
X149.02 Y64.774 I-0.689 J2.92
X148.766 Y65.171 I2.394 J1.808 F1000
G3 X148.512 Y65.33 I-0.265 J-0.141
G1 X147.285
X146.839 Y65.307
X146.39 Y65.167
X145.888 Y64.856
X145.457 Y64.405
X145.123 Y63.878
G3 X144.273 Y61.536 I10.921 J-5.288
X141.305 Y34.357 I84.439 J-22.971
X143.833 Y17.099 I87.875 J4.057
X144.869 Y13.503 I41.814 J10.094
G1 X145.098 Y12.922
X145.352 Y12.352
X145.635 Y11.828
X145.702 Y11.744
X145.794 Y11.69
X145.899 Y11.67
X149.837
G3 X150.091 Y11.829 I-0.01 J0.3
X150.214 Y12.28 I-0.934 J0.498
X149.352 Y13.367 I-1.057 J0.047 F1500
X146.407 Y12.226 I-0.551 J-2.949
X146.153 Y11.829 I2.394 J-1.808 F1000
G2 X145.899 Y11.67 I-0.265 J0.141
G1 X144.592 Y11.671
X144.237 Y11.688
X143.791 Y11.828
X143.292 Y12.138
X142.861 Y12.589
X142.527 Y13.116
G2 X141.69 Y15.462 I10.762 J5.162
X138.725 Y37.043 I86.302 J22.853
X141.271 Y59.925 I90.355 J1.527
X142.283 Y63.528 I39.359 J-9.11
G1 X142.511 Y64.109
X142.766 Y64.678
X143.033 Y65.172
X143.1 Y65.255
X143.191 Y65.31
X143.297 Y65.329
X147.285 Y65.33
G2 X147.54 Y65.171 I-0.01 J-0.3
X147.662 Y64.72 I-0.927 J-0.494
X146.836 Y63.651 I-1.049 J-0.043 F1500
X143.805 Y64.774 I-0.638 J2.931
X143.551 Y65.171 I2.394 J1.808 F1000
G3 X143.297 Y65.329 I-0.265 J-0.141
G1 X142.041
X141.64 Y65.309
X141.195 Y65.17
X140.699 Y64.862
X140.268 Y64.411
X139.935 Y63.883
G3 X139.112 Y61.532 I10.586 J-5.029
X136.226 Y39.938 I88.9 J-22.871
X138.708 Y17.045 I93.175 J-1.476
X139.703 Y13.437 I39.736 J9.011
G1 X139.931 Y12.856
X140.187 Y12.288
X140.435 Y11.828
X140.502 Y11.745
X140.594 Y11.69
X140.699 Y11.671
X144.592
G3 X144.846 Y11.829 I-0.01 J0.3
X144.97 Y12.28 I-0.939 J0.501
X144.076 Y13.38 I-1.063 J0.05 F1500
X141.207 Y12.227 I-0.476 J-2.962
X140.953 Y11.83 I2.394 J-1.808 F1000
G2 X140.699 Y11.671 I-0.265 J0.141
G1 X139.489
X139.047 Y11.693
X138.604 Y11.831
X138.111 Y12.138
X137.68 Y12.589
X137.349 Y13.117
G2 X136.536 Y15.472 I10.463 J4.927
X133.828 Y33.961 I90.417 J22.688
X136.154 Y59.981 I95.212 J4.6
X137.128 Y63.594 I37.819 J-8.254
X137.906 Y65.259 I8.05 J-2.745
G1 X138.004 Y65.31
X138.109 Y65.329
X142.041
G2 X142.295 Y65.171 I-0.01 J-0.3
X142.418 Y64.719 I-0.934 J-0.498
X141.552 Y63.631 I-1.058 J-0.047 F1500
X138.617 Y64.773 I-0.541 J2.951
X138.363 Y65.17 I2.394 J1.808 F1000
G3 X138.109 Y65.329 I-0.265 J-0.141
G1 X136.796
X136.464 Y65.312
X136.022 Y65.174
X135.532 Y64.87
X135.101 Y64.419
X134.77 Y63.89
G3 X133.969 Y61.531 I10.334 J-4.826
X131.357 Y43.654 I92.763 J-22.682
X133.596 Y17.002 I97.947 J-5.193
X134.554 Y13.384 I37.893 J8.102
X135.32 Y11.741 I7.852 J2.662
G1 X135.418 Y11.69
X135.523 Y11.671
X139.489
G3 X139.743 Y11.83 I-0.01 J0.3
X139.866 Y12.281 I-0.93 J0.496
X139.024 Y13.358 I-1.053 J0.045 F1500
X136.031 Y12.227 I-0.599 J-2.94
X135.778 Y11.83 I2.394 J-1.808 F1000
G2 X135.523 Y11.671 I-0.265 J0.141
G1 X134.245
X133.883 Y11.689
X133.442 Y11.827
X132.954 Y12.13
X132.523 Y12.581
X132.193 Y13.111
G2 X131.402 Y15.472 I10.206 J4.735
X128.971 Y31.492 I93.966 J22.453
X131.046 Y60.02 I100.062 J7.06
X131.987 Y63.642 I36.49 J-7.548
X132.739 Y65.259 I7.597 J-2.55
G1 X132.837 Y65.31
X132.942 Y65.329
X136.796
G2 X137.085 Y65.019 I-0.01 J-0.3
X136.948 Y64.747 I-0.363 J0.013
G1 X136.912 Y64.721 F1500
G2 X133.561 Y64.868 I-1.567 J2.558
X133.151 Y65.233 I1.784 J2.412 F1000
G1 X133.107 Y65.272
X133.056 Y65.302
X133 Y65.321
X132.942 Y65.329
X131.693
X131.307 Y65.309
X130.868 Y65.172
X130.383 Y64.871
X129.952 Y64.42
X129.623 Y63.89
G3 X128.84 Y61.525 I10.073 J-4.644
X126.51 Y46.118 I96.052 J-22.408
X128.494 Y16.959 I102.732 J-7.657
X129.422 Y13.334 I36.068 J7.304
X130.164 Y11.741 I7.188 J2.378
G1 X130.262 Y11.69
X130.366 Y11.672
X134.245 Y11.671
G3 X134.499 Y11.83 I-0.01 J0.3
X134.623 Y12.281 I-0.94 J0.501
X133.719 Y13.385 I-1.064 J0.05 F1500
X130.874 Y12.227 I-0.451 J-2.966
X130.621 Y11.83 I2.394 J-1.808 F1000
G2 X130.366 Y11.672 I-0.265 J0.141
G1 X129.142
X128.735 Y11.692
X128.297 Y11.829
X127.814 Y12.129
X127.383 Y12.58
X127.054 Y13.11
G2 X126.28 Y15.477 I9.947 J4.563
X124.104 Y29.649 I96.976 J22.144
X125.948 Y60.059 I104.946 J8.895
X126.863 Y63.688 I34.975 J-6.885
X127.594 Y65.259 I7.131 J-2.362
G1 X127.692 Y65.309
X127.796 Y65.328
X131.693 Y65.329
G2 X131.947 Y65.17 I-0.01 J-0.3
X132.071 Y64.719 I-0.938 J-0.5
X131.18 Y63.62 I-1.062 J-0.049 F1500
X128.304 Y64.773 I-0.482 J2.961
X128.051 Y65.17 I2.394 J1.808 F1000
G3 X127.796 Y65.328 I-0.265 J-0.141
G1 X126.59
X126.168 Y65.307
X125.731 Y65.171
X125.25 Y64.872
X124.819 Y64.421
X124.491 Y63.89
G3 X123.725 Y61.521 I9.828 J-4.485
X121.649 Y47.963 I98.676 J-22.047
X123.401 Y16.923 I107.575 J-9.498
X124.304 Y13.292 I34.248 J6.591
X125.026 Y11.741 I6.924 J2.28
G1 X125.124 Y11.691
X125.228 Y11.672
X129.142
G3 X129.396 Y11.83 I-0.01 J0.3
X129.52 Y12.281 I-0.937 J0.499
X128.64 Y13.375 I-1.06 J0.048 F1500
X125.736 Y12.228 I-0.51 J-2.956
X125.483 Y11.831 I2.394 J-1.808 F1000
G2 X125.228 Y11.672 I-0.265 J0.141
G1 X124.039
X123.603 Y11.694
X123.167 Y11.83
X122.687 Y12.128
X122.256 Y12.579
X121.928 Y13.109
G2 X121.17 Y15.481 I9.719 J4.416
X119.255 Y27.804 I98.895 J21.673
X120.858 Y60.093 I109.856 J10.73
X121.75 Y63.727 I33.395 J-6.272
X122.464 Y65.26 I6.72 J-2.196
G1 X122.562 Y65.309
X122.666 Y65.328
X126.59
G2 X126.845 Y65.17 I-0.01 J-0.3
X126.968 Y64.718 I-0.935 J-0.499
X126.096 Y63.628 I-1.059 J-0.048 F1500
X123.174 Y64.772 I-0.529 J2.953
X122.92 Y65.169 I2.394 J1.808 F1000
G3 X122.666 Y65.328 I-0.265 J-0.141
G1 X121.487
X121.044 Y65.306
X120.608 Y65.169
X120.13 Y64.873
X119.699 Y64.422
X119.372 Y63.891
G3 X118.62 Y61.517 I9.618 J-4.35
X116.745 Y49.188 I100.925 J-21.655
X118.315 Y16.892 I112.488 J-10.719
X119.197 Y13.256 I32.524 J5.965
X119.903 Y11.74 I6.537 J2.122
G1 X120 Y11.691
X120.104 Y11.672
X124.039
G3 X124.293 Y11.831 I-0.01 J0.3
X124.417 Y12.282 I-0.934 J0.498
X123.552 Y13.369 I-1.057 J0.047 F1500
X120.612 Y12.228 I-0.546 J-2.95
X120.358 Y11.831 I2.394 J-1.808 F1000
G2 X120.104 Y11.672 I-0.265 J0.141
G1 X118.936
X118.485 Y11.695
X118.05 Y11.831
X117.573 Y12.127
X117.142 Y12.578
X116.815 Y13.109
G2 X116.07 Y15.485 I9.522 J4.289
X114.296 Y27.2 I101.465 J21.359
X115.776 Y60.122 I114.832 J11.333
X116.649 Y63.761 I31.839 J-5.714
X117.347 Y65.26 I6.367 J-2.052
G1 X117.444 Y65.309
X117.548 Y65.328
X121.487
G2 X121.742 Y65.169 I-0.01 J-0.3
X121.865 Y64.718 I-0.933 J-0.498
X121.004 Y63.632 I-1.057 J-0.047 F1500
X118.055 Y64.772 I-0.555 J2.948
X117.802 Y65.169 I2.394 J1.808 F1000
G3 X117.548 Y65.328 I-0.265 J-0.141
G1 X116.243
X115.934 Y65.312
X115.499 Y65.176
X115.023 Y64.881
X114.592 Y64.43
X114.265 Y63.898
G3 X113.527 Y61.521 I9.434 J-4.235
X111.847 Y50.422 I102.125 J-21.128
X113.351 Y16.259 I117.382 J-11.948
X114.099 Y13.232 I27.502 J5.192
G1 X114.32 Y12.648
X114.584 Y12.083
X114.73 Y11.825
X114.797 Y11.744
X114.887 Y11.691
X114.991 Y11.673
X118.936 Y11.672
G3 X119.19 Y11.831 I-0.01 J0.3
X119.314 Y12.282 I-0.933 J0.497
X118.456 Y13.366 I-1.056 J0.046 F1500
X115.499 Y12.228 I-0.564 J-2.947
X115.245 Y11.831 I2.394 J-1.808 F1000
G2 X114.991 Y11.673 I-0.265 J0.141
G1 X113.691
X113.381 Y11.688
X112.945 Y11.824
X112.471 Y12.119
X112.04 Y12.57
X111.713 Y13.101
G2 X110.981 Y15.481 I9.351 J4.182
X109.4 Y25.965 I102.063 J20.75
X110.813 Y60.754 I119.755 J12.561
X111.554 Y63.783 I27.258 J-5.07
G1 X111.774 Y64.367
X112.039 Y64.932
X112.176 Y65.175
X112.243 Y65.256
X112.334 Y65.309
X112.438 Y65.327
X116.243 Y65.328
G2 X116.497 Y65.169 I-0.01 J-0.3
X116.622 Y64.718 I-0.947 J-0.505
X115.668 Y63.598 I-1.071 J-0.054 F1500
X112.945 Y64.772 I-0.329 J2.982
X112.692 Y65.169 I2.394 J1.808 F1000
G3 X112.438 Y65.327 I-0.265 J-0.141
G1 X111.14
X110.832 Y65.312
X110.397 Y65.176
X109.924 Y64.882
X109.493 Y64.431
X109.166 Y63.899
G3 X108.44 Y61.518 I9.277 J-4.133
X106.888 Y51.03 I103.627 J-20.687
X108.274 Y16.234 I122.349 J-12.555
X109.009 Y13.204 I26.567 J4.843
G1 X109.229 Y12.62
X109.494 Y12.055
X109.625 Y11.825
X109.692 Y11.744
X109.782 Y11.691
X109.886 Y11.673
X113.691
G3 X113.946 Y11.831 I-0.01 J0.3
X114.07 Y12.282 I-0.946 J0.505
X113.117 Y13.402 I-1.071 J0.054 F1500
X110.394 Y12.229 I-0.33 J-2.982
X110.14 Y11.832 I2.394 J-1.808 F1000
G2 X109.886 Y11.673 I-0.265 J0.141
G1 X108.589
X108.283 Y11.688
X107.848 Y11.824
X107.376 Y12.117
X106.945 Y12.568
X106.619 Y13.1
G2 X105.898 Y15.483 I9.2 J4.086
X104.441 Y25.355 I103.079 J20.25
X105.738 Y60.777 I124.734 J13.169
X106.468 Y63.809 I26.302 J-4.731
G1 X106.688 Y64.393
X106.953 Y64.957
X107.078 Y65.176
X107.145 Y65.256
X107.235 Y65.309
X107.339 Y65.327
X111.14
G2 X111.394 Y65.169 I-0.01 J-0.3
X111.519 Y64.718 I-0.947 J-0.505
X110.563 Y63.597 I-1.072 J-0.054 F1500
X107.846 Y64.771 I-0.323 J2.983
X107.593 Y65.168 I2.394 J1.808 F1000
G3 X107.339 Y65.327 I-0.265 J-0.141
G1 X106.179
X105.736 Y65.305
X105.302 Y65.169
X104.831 Y64.877
X104.4 Y64.426
X104.074 Y63.894
G3 X103.359 Y61.509 I9.13 J-4.04
X101.929 Y51.633 I104.475 J-20.168
X103.095 Y16.82 I127.37 J-13.158
X103.926 Y13.172 I28.779 J4.636
G1 X104.148 Y12.589
X104.415 Y12.025
X104.531 Y11.824
X104.598 Y11.744
X104.688 Y11.691
X104.791 Y11.673
X108.589
G3 X108.878 Y11.983 I-0.01 J0.3
X108.757 Y12.265 I-0.424 J-0.015
G1 X108.712 Y12.305 F1500
X108.661 Y12.339
G3 X105.409 Y12.134 I-1.468 J-2.616
X105 Y11.768 I1.784 J-2.412 F1000
G1 X104.956 Y11.73
X104.905 Y11.7
X104.849 Y11.681
X104.791 Y11.673
X103.627
X103.191 Y11.695
X102.756 Y11.831
X102.287 Y12.122
X101.856 Y12.573
X101.531 Y13.106
G2 X100.82 Y15.491 I9.053 J3.996
X99.418 Y25.372 I105.515 J20.009
X100.564 Y60.189 I129.778 J13.156
X101.389 Y63.838 I28.299 J-4.48
G1 X101.612 Y64.422
X101.879 Y64.985
X101.99 Y65.177
X102.057 Y65.257
X102.147 Y65.309
X102.25 Y65.327
X106.179
G2 X106.433 Y65.168 I-0.01 J-0.3
X106.557 Y64.717 I-0.935 J-0.498
X105.688 Y63.628 I-1.058 J-0.047 F1500
X102.758 Y64.771 I-0.536 J2.952
X102.504 Y65.168 I2.394 J1.808 F1000
G3 X102.25 Y65.327 I-0.265 J-0.141
G1 X101.076
X100.651 Y65.305
X100.216 Y65.169
X99.748 Y64.879
X99.317 Y64.428
X98.992 Y63.895
G3 X98.286 Y61.508 I8.986 J-3.958
X96.97 Y52.245 I104.555 J-19.572
X98.033 Y16.802 I132.327 J-13.769
X98.85 Y13.152 I27.604 J4.264
G1 X99.073 Y12.568
X99.341 Y12.005
X99.447 Y11.823
X99.514 Y11.743
X99.604 Y11.691
X99.706 Y11.674
X103.627 Y11.673
G3 X103.882 Y11.832 I-0.01 J0.3
X104.005 Y12.283 I-0.936 J0.499
X103.131 Y13.375 I-1.059 J0.048 F1500
X100.214 Y12.229 I-0.524 J-2.954
X99.96 Y11.832 I2.394 J-1.808 F1000
G2 X99.706 Y11.674 I-0.265 J0.141
G1 X98.525
X98.109 Y11.694
X97.675 Y11.83
X97.207 Y12.12
X96.776 Y12.571
X96.452 Y13.104
G2 X95.75 Y15.492 I8.922 J3.919
X94.459 Y24.759 I105.532 J19.419
X95.504 Y60.206 I134.744 J13.768
X96.316 Y63.858 I27.306 J-4.152
G1 X96.538 Y64.441
X96.806 Y65.005
X96.907 Y65.178
X96.974 Y65.257
X97.064 Y65.308
X97.166 Y65.326
X101.076 Y65.327
G2 X101.33 Y65.168 I-0.01 J-0.3
X101.454 Y64.717 I-0.937 J-0.5
X100.572 Y63.622 I-1.061 J-0.049 F1500
X100.069 Y63.579 I-0.504 J2.957
G1 X100.068
G2 X97.674 Y64.771 I0 J3
X97.421 Y65.168 I2.394 J1.808 F1000
G3 X97.166 Y65.326 I-0.265 J-0.141
G1 X95.973
X95.572 Y65.306
X95.138 Y65.17
X94.671 Y64.881
X94.24 Y64.43
X93.916 Y63.897
X93.675 Y63.321
G3 X92.997 Y60.279 I18.253 J-5.663
X92.608 Y19.255 I135.772 J-21.803
X92.979 Y16.787 I79.505 J10.685
X93.78 Y13.133 I25.65 J3.71
G1 X94.002 Y12.55
X94.27 Y11.987
X94.367 Y11.822
X94.434 Y11.743
X94.524 Y11.692
X94.626 Y11.674
X98.525
G3 X98.814 Y11.984 I-0.01 J0.3
X98.675 Y12.231 I-0.308 J-0.011
G1 X98.658 Y12.242
G3 X95.244 Y12.135 I-1.63 J-2.519 F1500
X94.835 Y11.769 I1.784 J-2.412 F1000
G1 X94.79 Y11.73
X94.74 Y11.701
X94.684 Y11.682
X94.626 Y11.674
X93.422
X93.034 Y11.693
X92.599 Y11.829
X92.134 Y12.118
X91.703 Y12.569
X91.379 Y13.102
X91.139 Y13.678
G2 X90.468 Y16.721 I18.1 J5.584
X89.843 Y55.896 I138.279 J21.798
X90.453 Y60.22 I108.821 J-13.134
X91.248 Y63.875 I25.268 J-3.584
G1 X91.47 Y64.459
X91.738 Y65.022
X91.83 Y65.178
X91.897 Y65.257
X91.987 Y65.308
X92.089 Y65.326
X95.973
G2 X96.263 Y65.016 I-0.01 J-0.3
X96.112 Y64.752 I-0.327 J0.011
X92.708 Y64.865 I-1.621 J2.525 F1500
X92.298 Y65.231 I1.784 J2.412 F1000
G1 X92.254 Y65.27
X92.203 Y65.299
X92.147 Y65.318
X92.089 Y65.326
X90.87
X90.499 Y65.307
X90.065 Y65.172
X89.6 Y64.883
X89.169 Y64.432
X88.845 Y63.899
X88.606 Y63.322
G3 X87.941 Y60.278 I17.976 J-5.518
X86.984 Y24.2 I140.362 J-21.777
X87.925 Y16.773 I125.163 J12.09
X88.714 Y13.117 I24.936 J3.467
G1 X88.936 Y12.534
X89.205 Y11.971
X89.293 Y11.822
X89.36 Y11.743
X89.449 Y11.692
X89.551 Y11.674
X93.422
G3 X93.711 Y11.984 I-0.01 J0.3
X93.568 Y12.252 I-0.343 J-0.012
G1 X93.551 Y12.263 F1500
G3 X90.17 Y12.135 I-1.597 J-2.54
X89.76 Y11.769 I1.784 J-2.412 F1000
G1 X89.716 Y11.731
X89.665 Y11.701
X89.609 Y11.682
X89.551 Y11.674
X88.319
X87.964 Y11.692
X87.529 Y11.828
X87.065 Y12.116
X86.634 Y12.567
X86.311 Y13.1
X86.072 Y13.677
G2 X85.414 Y16.722 I17.849 J5.449
X84.25 Y50.319 I142.768 J21.765
X85.4 Y60.233 I134.882 J-10.621
X86.184 Y63.89 I24.783 J-3.399
G1 X86.406 Y64.474
X86.675 Y65.037
X86.759 Y65.178
X86.826 Y65.257
X86.915 Y65.308
X87.017 Y65.326
X90.87
G2 X91.125 Y65.167 I-0.01 J-0.3
X91.249 Y64.716 I-0.943 J-0.503
X90.328 Y63.606 I-1.067 J-0.052 F1500
X87.525 Y64.77 I-0.409 J2.972
X87.271 Y65.167 I2.394 J1.808 F1000
G3 X87.017 Y65.326 I-0.265 J-0.141
G1 X85.767
X85.432 Y65.309
X84.998 Y65.173
X84.534 Y64.886
X84.103 Y64.434
X83.78 Y63.901
X83.542 Y63.324
G3 X82.889 Y60.277 I17.749 J-5.392
X81.609 Y28.545 I144.684 J-21.731
X82.874 Y16.761 I139.409 J9.013
X83.652 Y13.103 I24.525 J3.303
G1 X83.875 Y12.519
X84.144 Y11.957
X84.224 Y11.821
X84.291 Y11.743
X84.38 Y11.692
X84.482 Y11.675
X88.319 Y11.674
G3 X88.608 Y11.985 I-0.01 J0.3
X88.477 Y12.26 I-0.383 J-0.013
G1 X88.422 Y12.3 F1500
G3 X85.1 Y12.135 I-1.537 J-2.576
X84.691 Y11.77 I1.784 J-2.412 F1000
G1 X84.647 Y11.731
X84.596 Y11.701
X84.54 Y11.682
X84.482 Y11.675
X83.216
X82.899 Y11.691
X82.465 Y11.826
X82.002 Y12.113
X81.571 Y12.564
X81.248 Y13.098
X81.01 Y13.675
G2 X80.364 Y16.723 I17.644 J5.332
X78.961 Y45.967 I146.944 J21.708
X80.445 Y60.861 I143.597 J-6.791
X81.127 Y63.903 I21.196 J-3.153
G1 X81.347 Y64.487
X81.616 Y65.05
X81.692 Y65.179
X81.759 Y65.257
X81.849 Y65.308
X81.95 Y65.325
X85.767 Y65.326
G2 X86.022 Y65.167 I-0.01 J-0.3
X86.146 Y64.716 I-0.946 J-0.504
X85.201 Y63.598 I-1.07 J-0.053 F1500
X82.458 Y64.77 I-0.349 J2.98
X82.204 Y65.167 I2.394 J1.808 F1000
G3 X81.95 Y65.325 I-0.265 J-0.141
X80.523 Y65.244 I-0.167 J-9.595
G1 X80.182 Y65.192
X79.739 Y65.005
X79.265 Y64.641
X78.88 Y64.15
X78.597 Y63.594
G3 X77.986 Y61.179 I10.697 J-3.992
X76.711 Y50.024 I126.919 J-20.15
X77.873 Y16.42 I152.218 J-11.56
X78.507 Y13.367 I27.692 J4.155
G1 X78.712 Y12.777
X78.941 Y12.244
X78.986 Y12.17
X79.051 Y12.112
X79.129 Y12.076
X79.956 Y11.825
X80.027 Y11.807
X80.098 Y11.799
X81.232 Y11.687
G3 X83.216 Y11.675 I1.261 J43.377
X83.47 Y11.833 I-0.01 J0.3
X83.468 Y12.286 I-0.42 J0.224
G1 X83.431 Y12.343 F1500
X83.386 Y12.395
X83.335 Y12.439
G3 X79.777 Y12.46 I-1.793 J-2.405
X79.419 Y12.154 I1.765 J-2.426 F1000
G2 X79.129 Y12.076 I-0.212 J0.212
G1 X78.822 Y12.169
X78.746 Y12.203
X77.687 Y12.77
G2 X76.66 Y13.62 I8.783 J11.673
G1 X76.431 Y13.904
X76.063 Y14.408
X75.782 Y14.965
G2 X75.226 Y17.393 I10.569 J3.696
X73.792 Y36.668 I147.454 J20.664
X75.402 Y60.923 I153.21 J2.009
G1 X75.514 Y61.537
X75.591 Y61.949
X75.601 Y61.988
X75.616 Y62.025
X75.636 Y62.06
X75.76 Y62.245
X75.845 Y62.372
X76.661 Y63.379
G2 X77.689 Y64.229 I10.089 J-11.151
G1 X78.746 Y64.797
X78.822 Y64.831
X79.956 Y65.175
X80.027 Y65.193
X80.098 Y65.201
X80.523 Y65.243
G2 X80.791 Y65.11 I0.019 J-0.299
X80.806 Y64.809 I-0.245 J-0.163
G1 X80.732 Y64.673
G2 X76.38 Y62.161 I-4.337 J2.487 F1500
X75.909 Y62.184 I0.014 J5 F1000
G3 X75.636 Y62.06 I-0.029 J-0.299
G1 X74.711 Y60.667
G2 X73.506 Y59.127 I-20.261 J14.615
G1 X73.436 Y59.06
X73.11 Y58.738
X72.791 Y58.202
X72.575 Y57.617
G3 X72.163 Y55.158 I14.979 J-3.772
X72.514 Y18.764 I156.549 J-16.69
G1 X72.558 Y18.7
X72.61 Y18.645
X73.152 Y18.194
X73.436 Y17.94
X73.507 Y17.874
G2 X74.712 Y16.334 I-20.715 J-17.445
G1 X75.76 Y14.755
X75.845 Y14.628
X76.431 Y13.904
G3 X76.854 Y13.875 I0.226 J0.197
X77.066 Y14.106 I-0.892 J1.026
X77.314 Y15.047 I-1.103 J0.795 F1500
X73.379 Y18.617 I-3.977 J-0.431
X72.831 Y18.585 I-0.042 J-4 F1000
G1 X72.772 Y18.583
X72.714 Y18.593
X72.659 Y18.614
X72.61 Y18.645
G3 X71.209 Y19.57 I-3.574 J-3.885
G1 X70.762 Y19.848
X70.343 Y20.278
X70.034 Y20.819
X69.828 Y21.408
G2 X69.453 Y23.873 I15.184 J3.568
X69.698 Y55.641 I158.869 J14.66
G1 X69.783 Y56.259
X69.84 Y56.63
X69.877 Y56.735
X69.949 Y56.819
X70.047 Y56.871
X70.317 Y56.956
G3 X72.164 Y57.974 I-8.352 J17.34
G1 X73.152 Y58.806
X73.436 Y59.06
G2 X73.731 Y59.112 I0.192 J-0.23
X74.142 Y58.885 I-0.524 J-1.434
X74.002 Y56.374 I-0.935 J-1.207 F1500
X70.698 Y56.493 I-1.562 J2.561
X70.337 Y56.796 I1.742 J2.442 F1000
G3 X70.047 Y56.871 I-0.21 J-0.214
G1 X69.75 Y56.779
X68.9 Y56.517
X68.527 Y56.397
X68.12 Y56.14
X67.703 Y55.695
X67.404 Y55.148
X67.206 Y54.556
G3 X66.855 Y52.088 I15.629 J-3.485
X66.982 Y23.424 I161.1 J-13.616
X67.42 Y20.87 I16.43 J1.502
G1 X67.48 Y20.766
X67.572 Y20.692
X67.686 Y20.658
X68.191 Y20.615
X68.474 Y20.59
X68.758 Y20.521
X68.9 Y20.483
X69.892 Y20.178
X70.317 Y20.044
X70.601 Y19.901
X70.742 Y19.829
X71.211 Y19.575
G3 X71.511 Y19.593 I0.133 J0.269
X71.629 Y19.831 I-0.147 J0.222
G1 X71.621 Y19.927
X71.608 Y20.023
G3 X68.252 Y21.158 I-1.975 J-0.313 F1500
X67.952 Y20.795 I1.38 J-1.447 F1000
G2 X67.686 Y20.658 I-0.252 J0.163
G1 X67.34 Y20.689
X67.057 Y20.715
X66.632 Y20.747
X66.381 Y20.765
X65.993 Y20.897
X65.575 Y21.171
X65.155 Y21.633
X64.863 Y22.184
X64.669 Y22.777
G2 X64.322 Y25.246 I15.702 J3.468
X64.394 Y52.667 I163.029 J13.282
X64.805 Y55.127 I16.388 J-1.472
G1 X64.997 Y55.721
X65.146 Y56.07
X65.211 Y56.166
X65.308 Y56.23
X65.422 Y56.253
G3 X68.19 Y56.39 I0.49 J18.086
G1 X68.474 Y56.41
X68.758 Y56.479
X68.9 Y56.517
G2 X69.186 Y56.43 I0.068 J-0.292
X69.229 Y56.137 I-0.189 J-0.177
G1 X69.153 Y56
G2 X65.945 Y55.708 I-1.712 J1.035 F1500
X65.676 Y56.094 I1.496 J1.327 F1000
G3 X65.422 Y56.253 I-0.265 J-0.141
G1 X64.364
X63.99 Y56.234
X63.587 Y56.108
X63.156 Y55.841
X62.724 Y55.389
X62.416 Y54.847
X62.205 Y54.26
G3 X61.825 Y51.797 I13.581 J-3.358
X61.833 Y24.997 I164.242 J-13.348
X62.344 Y21.924 I16.724 J1.204
G1 X62.566 Y21.34
X62.761 Y20.921
X62.827 Y20.829
X62.922 Y20.769
X63.033 Y20.747
X66.568
X66.632
G3 X66.923 Y21.055 I-0.009 J0.3
X66.832 Y21.352 I-0.582 J-0.017
X66.559 Y21.579 I-0.491 J-0.313 F1500
X63.651 Y21.208 I-1.123 J-2.782
X63.242 Y20.843 I1.784 J-2.412 F1000
G1 X63.197 Y20.804
X63.147 Y20.774
X63.091 Y20.755
X63.033 Y20.747
X61.954
X61.532 Y20.769
X61.121 Y20.897
X60.681 Y21.17
X60.25 Y21.621
X59.938 Y22.161
X59.721 Y22.746
G2 X59.322 Y25.206 I12.84 J3.341
X58.829 Y42.037 I159.525 J13.098
X59.331 Y52.006 I151.379 J-2.628
X59.706 Y54.472 I20.03 J-1.783
X60.364 Y56.175 I6.235 J-1.43
G1 X60.465 Y56.232
X60.575 Y56.253
X64.364
G2 X64.618 Y56.094 I-0.01 J-0.3
X64.743 Y55.643 I-0.948 J-0.505
X63.779 Y54.52 I-1.072 J-0.054 F1500
X61.082 Y55.697 I-0.302 J2.985
X60.829 Y56.094 I2.394 J1.808 F1000
G3 X60.575 Y56.253 I-0.265 J-0.141
G1 X59.403
X59.053 Y56.235
X58.639 Y56.106
X58.196 Y55.831
X57.765 Y55.38
X57.452 Y54.84
X57.231 Y54.256
G3 X56.822 Y51.798 I12.592 J-3.362
X56.297 Y39.334 I149.939 J-12.557
X56.826 Y24.998 I162.464 J-1.186
X57.217 Y22.534 I20.697 J2.026
X57.891 Y20.824 I6.407 J1.536
G1 X57.991 Y20.768
X58.101 Y20.747
X61.954
G3 X62.148 Y21.267 I-0.01 J0.3
G1 X62.089 Y21.318
G3 X61.819 Y21.493 I-0.863 J-1.041 F1500
X58.719 Y21.208 I-1.315 J-2.696
X58.31 Y20.843 I1.784 J-2.412 F1000
G1 X58.266 Y20.804
X58.215 Y20.774
X58.159 Y20.755
X58.101 Y20.747
X56.993
X56.565 Y20.769
X56.15 Y20.899
X55.704 Y21.175
X55.273 Y21.626
X54.959 Y22.165
X54.737 Y22.749
G2 X54.32 Y25.205 I12.432 J3.377
X53.817 Y35.798 I141.325 J12.009
X54.27 Y51.384 I168.081 J2.917
X54.724 Y54.468 I22.356 J-1.711
X55.403 Y56.176 I6.577 J-1.629
G1 X55.504 Y56.232
X55.613 Y56.253
X59.403
G2 X59.657 Y56.094 I-0.01 J-0.3
X59.782 Y55.643 I-0.948 J-0.505
X58.818 Y54.52 I-1.072 J-0.054 F1500
X56.121 Y55.697 I-0.303 J2.985
X55.868 Y56.094 I2.394 J1.808 F1000
G3 X55.613 Y56.253 I-0.265 J-0.141
G1 X54.442
X54.074 Y56.234
X53.658 Y56.104
X53.21 Y55.827
X52.779 Y55.376
X52.465 Y54.837
X52.242 Y54.254
G3 X51.819 Y51.798 I12.365 J-3.395
X51.33 Y41.83 I136.003 J-11.668
X51.766 Y25.619 I170.054 J-3.531
X52.228 Y22.536 I22.426 J1.78
X52.914 Y20.823 I6.646 J1.669
G1 X53.014 Y20.768
X53.123 Y20.747
X56.993
G3 X57.187 Y21.267 I-0.01 J0.3
G1 X57.128 Y21.318
X57.04 Y21.383 F1500
X56.946 Y21.439
G3 X53.742 Y21.208 I-1.42 J-2.643
X53.332 Y20.843 I1.784 J-2.412 F1000
G1 X53.288 Y20.804
X53.237 Y20.774
X53.182 Y20.755
X53.123 Y20.747
X51.89
X51.58 Y20.763
X51.163 Y20.893
X50.715 Y21.171
X50.284 Y21.623
X49.969 Y22.161
X49.745 Y22.744
G2 X49.317 Y25.198 I12.316 J3.41
X48.844 Y34.544 I130.301 J11.288
X49.263 Y51.378 I172.055 J4.136
X49.73 Y54.46 I22.763 J-1.868
X50.418 Y56.177 I6.71 J-1.696
G1 X50.519 Y56.232
X50.628 Y56.253
X54.442
G2 X54.696 Y56.094 I-0.01 J-0.3
X54.82 Y55.643 I-0.946 J-0.504
X53.872 Y54.525 I-1.071 J-0.053 F1500
X51.136 Y55.697 I-0.343 J2.98
X50.882 Y56.094 I2.394 J1.808 F1000
G3 X50.628 Y56.253 I-0.265 J-0.141
G1 X49.48
X49.082 Y56.233
X48.665 Y56.102
X48.216 Y55.824
X47.785 Y55.373
X47.47 Y54.834
X47.246 Y54.252
G3 X46.816 Y51.797 I12.308 J-3.421
X46.359 Y43.076 I124.243 J-10.875
X46.76 Y25.617 I174.38 J-4.73
X47.232 Y22.536 I23.034 J1.95
X47.921 Y20.823 I6.728 J1.713
G1 X48.021 Y20.768
X48.131 Y20.747
X51.89
G3 X52.179 Y21.058 I-0.01 J0.3
X52.067 Y21.344 I-0.461 J-0.016
G1 X52.005 Y21.403 F1500
X51.934 Y21.45
G3 X48.749 Y21.208 I-1.4 J-2.653
X48.339 Y20.843 I1.784 J-2.412 F1000
G1 X48.295 Y20.804
X48.244 Y20.774
X48.189 Y20.755
X48.131 Y20.747
X46.929
X46.584 Y20.765
X46.167 Y20.895
X45.717 Y21.174
X45.286 Y21.625
X44.971 Y22.164
X44.746 Y22.746
G2 X44.314 Y25.2 I12.286 J3.429
X43.86 Y33.921 I122.605 J10.749
X44.21 Y50.758 I177.359 J4.737
X44.73 Y54.462 I24.982 J-1.618
X45.424 Y56.177 I6.899 J-1.794
G1 X45.525 Y56.232
X45.634 Y56.253
X49.48
G2 X49.735 Y56.094 I-0.01 J-0.3
X49.859 Y55.643 I-0.943 J-0.503
X48.933 Y54.532 I-1.068 J-0.052 F1500
X46.142 Y55.697 I-0.398 J2.974
X45.888 Y56.094 I2.394 J1.808 F1000
G3 X45.634 Y56.253 I-0.265 J-0.141
G1 X44.519
X44.085 Y56.231
X43.667 Y56.1
X43.217 Y55.821
X42.786 Y55.37
X42.471 Y54.832
X42.246 Y54.25
G3 X41.812 Y51.796 I12.277 J-3.435
X41.377 Y43.698 I116.27 J-10.309
X41.707 Y26.238 I180.012 J-5.327
X42.096 Y23.143 I30.254 J2.226
X42.923 Y20.822 I7.452 J1.348
G1 X43.025 Y20.768
X43.134 Y20.747
X46.929
G3 X47.218 Y21.058 I-0.01 J0.3
X47.098 Y21.34 I-0.427 J-0.015
G1 X47.052 Y21.382 F1500
X47 Y21.416
G3 X43.752 Y21.208 I-1.463 J-2.619
X43.343 Y20.843 I1.784 J-2.412 F1000
G1 X43.299 Y20.804
X43.248 Y20.774
X43.192 Y20.755
X43.134 Y20.747
X41.968
X41.585 Y20.767
X41.167 Y20.897
X40.717 Y21.176
X40.286 Y21.628
X39.97 Y22.166
X39.745 Y22.748
G2 X39.31 Y25.201 I12.265 J3.439
X38.878 Y33.299 I115.01 J10.204
X39.205 Y50.76 I181.566 J5.333
X39.595 Y53.854 I30.427 J-2.266
X40.425 Y56.178 I7.465 J-1.357
G1 X40.527 Y56.232
X40.636 Y56.253
X44.519
G2 X44.774 Y56.094 I-0.01 J-0.3
X44.898 Y55.643 I-0.94 J-0.501
X43.997 Y54.54 I-1.064 J-0.05 F1500
X41.144 Y55.697 I-0.459 J2.965
X40.89 Y56.094 I2.394 J1.808 F1000
G3 X40.636 Y56.253 I-0.265 J-0.141
G1 X39.416
X39.086 Y56.236
X38.668 Y56.105
X38.218 Y55.826
X37.786 Y55.375
X37.471 Y54.837
X37.245 Y54.255
G3 X36.809 Y51.801 I12.256 J-3.444
X36.379 Y43.703 I113.806 J-10.11
X36.702 Y26.243 I183.2 J-5.342
X37.093 Y23.149 I30.701 J2.308
X37.923 Y20.822 I7.49 J1.362
G1 X38.025 Y20.768
X38.134 Y20.747
X41.968
G3 X42.162 Y21.267 I-0.01 J0.3
G1 X42.103 Y21.319
G3 X41.731 Y21.549 I-0.975 J-1.161 F1500
X38.753 Y21.208 I-1.194 J-2.752
X38.343 Y20.843 I1.784 J-2.412 F1000
G1 X38.299 Y20.804
X38.248 Y20.774
X38.193 Y20.755
X38.134 Y20.747
X37.007
X36.584 Y20.769
X36.166 Y20.899
X35.715 Y21.179
X35.284 Y21.63
X34.968 Y22.168
X34.743 Y22.75
G2 X34.307 Y25.203 I12.259 J3.445
X33.88 Y33.301 I113.067 J10.028
X34.2 Y50.762 I184.724 J5.339
X34.593 Y53.856 I30.849 J-2.345
X35.423 Y56.178 I7.486 J-1.367
G1 X35.525 Y56.232
X35.634 Y56.253
X39.416
G2 X39.671 Y56.094 I-0.01 J-0.3
X39.796 Y55.643 I-0.948 J-0.505
X38.827 Y54.519 I-1.073 J-0.055 F1500
X36.141 Y55.697 I-0.292 J2.986
X35.888 Y56.094 I2.394 J1.808 F1000
G3 X35.634 Y56.253 I-0.265 J-0.141
G1 X34.455
X34.084 Y56.234
X33.665 Y56.103
X33.215 Y55.824
X32.784 Y55.373
X32.468 Y54.834
X32.243 Y54.253
G3 X31.806 Y51.799 I12.249 J-3.447
X31.502 Y47.251 I76.241 J-7.375
G1 X31.5 Y30.774
X31.531 Y30.151
G3 X31.952 Y23.93 I50.708 J0.303
X32.574 Y21.518 I10.683 J1.471
G1 X32.84 Y20.953
X32.877 Y20.892
X32.944 Y20.815
X33.033 Y20.765
X33.134 Y20.747
X37.007
G3 X37.296 Y21.058 I-0.01 J0.3
X37.152 Y21.324 I-0.341 J-0.012
G1 X37.137 Y21.334 F1500
G3 X33.753 Y21.208 I-1.6 J-2.538
X33.343 Y20.843 I1.784 J-2.412 F1000
G1 X33.299 Y20.804
X33.248 Y20.774
X33.192 Y20.755
X33.134 Y20.747
X32.187
G2 X31.761 Y20.856 I0.021 J0.97
X31.53 Y21.276 I0.319 J0.449
G1 X31.503 Y21.418
X31.5 Y21.559
Y30.774
X31.506 Y30.826
X31.522 Y30.876
X31.545 Y30.922
X31.581 Y30.979 Z-2.992
X31.614 Y31.033 Z-2.97
X31.645 Y31.081 Z-2.935
X31.67 Y31.121 Z-2.887
X31.689 Y31.152 Z-2.83
X31.7 Y31.171 Z-2.767
X31.704 Y31.177 Z-2.7
G0 Z2.503
X35.467 Y55.878
Z-2.4
G1 Z-2.7 F1000
X35.46 Y55.882 Z-2.767
X35.441 Y55.893 Z-2.83
X35.411 Y55.911 Z-2.887
X35.37 Y55.936 Z-2.935
X35.321 Y55.965 Z-2.97
X35.266 Y55.997 Z-2.992
X35.209 Y56.031 Z-3
G3 X34.455 Y56.253 I-0.809 J-1.36
G1 X32.187
G3 X31.773 Y56.152 I0.037 J-1.054
X31.53 Y55.724 I0.307 J-0.457
G1 X31.503 Y55.582
X31.5 Y55.441
Y47.251
G0 Z2.503
X237.897 Y64.961
Z-2.4
G1 Z-2.7 F1000
X237.904 Y64.965 Z-2.767
X237.923 Y64.976 Z-2.83
X237.954 Y64.994 Z-2.887
X237.995 Y65.019 Z-2.935
X238.043 Y65.048 Z-2.97
X238.098 Y65.08 Z-2.992
X238.155 Y65.114 Z-3
G2 X238.909 Y65.336 I0.809 J-1.36
G1 X243.531
X244.154 Y65.305
X244.757 Y65.146
G2 X246.924 Y63.921 I-3.637 J-8.963
X256.49 Y52.488 I-16.847 J-23.814
G1 X256.497 Y52.445
X256.5 Y52.402
Y42.824
G2 X256.341 Y42.569 I-0.3 J0.01
X255.895 Y42.423 I-0.642 J1.205
X254.678 Y42.868 I-0.196 J1.351 F1500
X255.934 Y51.909 I4.485 J3.985
G1 X256.341 Y52.147 F1000
G3 X256.5 Y52.402 I-0.141 J0.265
G1 Y56.149
X256.469 Y56.773
X256.327 Y57.38
X256.083 Y57.954
G3 X254.286 Y60.497 I-12.692 J-7.064
X249.239 Y65.313 I-23.57 J-19.647
G1 X249.176 Y65.329
X249.112 Y65.336
X243.531
G3 X243.277 Y65.177 I0.01 J-0.3
X243.132 Y64.731 I1.184 J-0.631
X244.023 Y63.278 I1.329 J-0.185 F1500
X248.612 Y64.775 I1.304 J3.781
X248.857 Y65.178 I-3.284 J2.283 F1000
G2 X249.112 Y65.336 I0.265 J-0.141
G1 X251.61
X252.234 Y65.305
X252.833 Y65.134
X253.385 Y64.841
G2 X255.239 Y63.18 I-5.858 J-8.401
X256.471 Y61.757 I-15.348 J-14.541
G1 X256.492 Y61.69
X256.5 Y61.622
Y56.149
G2 X256.341 Y55.895 I-0.3 J0.01
X255.896 Y55.749 I-0.644 J1.209
X254.382 Y56.722 I-0.199 J1.355 F1500
X255.939 Y61.121 I3.841 J1.116
X256.341 Y61.367 I2.284 J-3.284 F1000
G3 X256.5 Y61.622 I-0.141 J0.265
G1 Y63.946
X256.469 Y64.569
X256.284 Y65.165
X256.27 Y65.188
X256.203 Y65.267
X256.113 Y65.319
X256.011 Y65.336
G3 X255.726 Y64.988 I0.01 J-0.3
G1 X255.771 Y64.716
X255.904 Y63.908 F1500
X255.916 Y63.861
X255.935 Y63.816
G3 X256.5 Y63.946 I0.265 J0.141 F1000
G1 Y65.009
X256.499 Y65.045
X256.495 Y65.08
X256.487 Y65.115
X256.473 Y65.15
X256.455 Y65.185
X256.427 Y65.222
X256.393 Y65.256
X256.358 Y65.283
X256.323 Y65.304
X256.288 Y65.319
X256.253 Y65.329
X256.217 Y65.335
X256.146 Y65.336
X251.61
G3 X251.321 Y65.037 I0.01 J-0.3
G1 Y65.024
X251.322 Y65.012
X251.339 Y64.962 Z-2.995
X251.356 Y64.914 Z-2.981
X251.372 Y64.869 Z-2.958
X251.409 Y64.836 Z-2.921
X251.439 Y64.809 Z-2.874
X251.461 Y64.788 Z-2.82
X251.475 Y64.776 Z-2.762
X251.48 Y64.772 Z-2.7
G0 Z2.503
X255.911 Y63.2
Z-2.1
G1 Z-2.4 F1000
X255.915 Y63.207 Z-2.467
X255.926 Y63.226 Z-2.53
X255.944 Y63.257 Z-2.587
X255.968 Y63.298 Z-2.635
X255.996 Y63.348 Z-2.67
X256.027 Y63.403 Z-2.692
X256.06 Y63.461 Z-2.7
G3 X256.498 Y65.052 I-2.887 J1.65
G1 Y65.08
X256.491 Y65.116
X256.479 Y65.151
X256.463 Y65.187
X256.44 Y65.222
X256.43 Y65.235
X256.394 Y65.271
X256.359 Y65.299
X256.323 Y65.32
X256.288 Y65.335
X256.253 Y65.346
X256.217 Y65.351
X256.146 Y65.353
X223.403 Y65.352
X81.799 Y65.343
X81.515 Y65.338
X81.373 Y65.336
X81.232 Y65.331
X80.098 Y65.219
X80.027 Y65.211
X79.956 Y65.193
X78.822 Y64.848
G3 X77.661 Y64.23 I9.42 J-19.085
X76.643 Y63.382 I11.494 J-14.836
G1 X75.842 Y62.387
X75.558 Y61.962
X74.711 Y60.686
G2 X73.459 Y59.123 I-42.028 J32.381
X72.02 Y57.921 I-24.676 J28.075
X70.178 Y56.95 I-9.759 J16.289
G1 X68.758 Y56.522
X68.616 Y56.486
G2 X66.206 Y56.307 I-2.605 J18.716
G1 X32.187
G3 X31.798 Y56.224 I0.093 J-1.396
X31.559 Y55.937 I0.248 J-0.449
X31.499 Y55.504 I1.52 J-0.432
G0 X31.5 Z2.503
X32.118 Y23.358
Z-2.1
G1 Z-2.4 F1000
X32.114 Y23.351 Z-2.467
X32.103 Y23.332 Z-2.53
X32.085 Y23.301 Z-2.587
X32.061 Y23.26 Z-2.635
X32.031 Y23.212 Z-2.67
X31.999 Y23.157 Z-2.692
X31.965 Y23.1 Z-2.7
G3 X31.5 Y21.517 I2.858 J-1.699
X31.615 Y20.936 I1.165 J-0.07
G1 X31.65 Y20.894
X31.691 Y20.851
X31.762 Y20.797
G3 X32.187 Y20.693 I0.446 J0.903
G1 X66.49
G2 X68.617 Y20.518 I-0.968 J-24.799
G1 X68.758 Y20.478
X70.175 Y20.043
X70.303 Y20
G2 X72.019 Y19.079 I-10.914 J-22.379
X73.455 Y17.873 I-15.934 J-20.445
X74.714 Y16.316 I-30.6 J-26.018
G1 X75.703 Y14.82
X75.845 Y14.609
X76.645 Y13.621
G3 X77.688 Y12.753 I8.555 J9.214
G1 X78.255 Y12.448
X78.713 Y12.203
X78.822 Y12.152
X79.956 Y11.807
X80.027 Y11.789
X80.132 Y11.778
X81.232 Y11.669
X81.373 Y11.664
X81.657 Y11.659
X81.799 Y11.657
X243.247 Y11.647
X256.146
X256.217 Y11.649
X256.253 Y11.654
X256.288 Y11.665
X256.323 Y11.68
X256.359 Y11.701
X256.394 Y11.729
X256.43 Y11.765
X256.44 Y11.778
X256.463 Y11.813
X256.479 Y11.849
X256.491 Y11.884
X256.498 Y11.92
Y11.963
G3 X256.179 Y12.257 I-0.3 J-0.005
G1 X256.129 Y12.24 Z-2.695
X256.08 Y12.224 Z-2.681
X256.035 Y12.209 Z-2.658
X256.001 Y12.173 Z-2.621
X255.974 Y12.143 Z-2.574
X255.953 Y12.121 Z-2.52
X255.94 Y12.107 Z-2.462
X255.936 Y12.103 Z-2.4
G0 Z2.503
X255.892 Y63.172
Z-1.8
G1 Z-2.1 F1000
X255.896 Y63.178 Z-2.167
X255.907 Y63.198 Z-2.23
X255.925 Y63.228 Z-2.287
X255.949 Y63.269 Z-2.335
X255.978 Y63.318 Z-2.37
X256.01 Y63.373 Z-2.392
X256.044 Y63.431 Z-2.4
G3 X256.5 Y65.017 I-2.868 J1.682
G1 X256.499 Y65.08
X256.494 Y65.116
X256.485 Y65.151
X256.471 Y65.187
X256.451 Y65.222
X256.43 Y65.251
X256.394 Y65.287
X256.359 Y65.315
X256.323 Y65.337
X256.288 Y65.352
X256.244 Y65.364
X256.195 Y65.369
X209.087
X81.799 Y65.36
X81.515 Y65.356
X81.373 Y65.353
X81.232 Y65.348
X80.098 Y65.236
X79.996 Y65.222
X78.822 Y64.866
X78.68 Y64.797
X77.688 Y64.265
X77.638 Y64.23
X76.776 Y63.521
X76.696 Y63.453
X76.631 Y63.379
X75.845 Y62.41
G2 X74.594 Y60.544 I-605.973 J404.9
X73.436 Y59.152 I-38.043 J30.5
G1 X73.294 Y59.02
X73.253 Y58.985
X72.16 Y58.077
X72.044 Y57.992
X71.876 Y57.88
X70.742 Y57.267
X70.317 Y57.054
G2 X68.475 Y56.503 I-7.218 J20.785
G3 X67.057 Y56.359 I2.016 J-26.899
G1 X66.632 Y56.329
X66.348 Y56.328
X32.187
G3 X31.798 Y56.245 I0.083 J-1.339
G1 X31.762 Y56.225
X31.714 Y56.192
X31.666 Y56.149
X31.641 Y56.12
X31.62 Y56.091
G3 X31.5 Y55.582 I0.843 J-0.468
G0 Z2.503
X32.118 Y23.259
Z-1.8
G1 Z-2.1 F1000
X32.114 Y23.252 Z-2.167
X32.103 Y23.233 Z-2.23
X32.085 Y23.202 Z-2.287
X32.061 Y23.162 Z-2.335
X32.031 Y23.113 Z-2.37
X31.999 Y23.058 Z-2.392
X31.965 Y23.001 Z-2.4
G3 X31.5 Y21.418 I2.858 J-1.699
X31.617 Y20.907 I1.027 J-0.035
X32.046 Y20.693 I0.44 J0.344
G1 X32.117 Y20.678
X32.152 Y20.673
X32.187 Y20.672
X66.49
G2 X68.049 Y20.531 I-1.811 J-28.884
G1 X68.474 Y20.495
G2 X70.317 Y19.944 I-4.65 J-18.909
G1 X70.742 Y19.733
X71.876 Y19.12
X72.044 Y19.008
X72.16 Y18.923
X73.253 Y18.015
G2 X73.896 Y17.307 I-2.617 J-3.023
G1 X74.428 Y16.674
X74.594 Y16.456
X75.845 Y14.59
X76.631 Y13.621
X76.696 Y13.547
X76.776 Y13.479
X77.638 Y12.77
X77.688 Y12.735
X78.681 Y12.203
X78.822 Y12.134
X79.996 Y11.778
X80.098 Y11.764
X81.232 Y11.652
X81.373 Y11.647
X81.657 Y11.642
X81.799 Y11.64
X226.238 Y11.631
X256.195
X256.244 Y11.636
X256.288 Y11.648
X256.323 Y11.663
X256.359 Y11.685
X256.394 Y11.713
X256.43 Y11.749
X256.451 Y11.778
X256.471 Y11.813
X256.485 Y11.849
X256.494 Y11.884
X256.499 Y11.92
Y11.963
G3 X256.177 Y12.253 I-0.3 J-0.009
G1 X256.127 Y12.236 Z-2.395
X256.078 Y12.219 Z-2.381
X256.033 Y12.203 Z-2.358
X256 Y12.167 Z-2.321
X255.973 Y12.137 Z-2.274
X255.952 Y12.115 Z-2.22
X255.94 Y12.101 Z-2.162
X255.935 Y12.096 Z-2.1
G0 Z2.503
X255.883 Y63.208
Z-1.498
G1 Z-1.798 F1000
X255.886 Y63.215 Z-1.865
X255.898 Y63.234 Z-1.928
X255.916 Y63.264 Z-1.985
X255.94 Y63.305 Z-2.033
X255.969 Y63.354 Z-2.068
X256.002 Y63.409 Z-2.091
X256.036 Y63.466 Z-2.098
G3 X256.5 Y65.049 I-2.859 J1.698
G1 Y65.08
X256.497 Y65.116
X256.49 Y65.151
X256.478 Y65.187
X256.461 Y65.222
X256.447 Y65.245
X256.43 Y65.267
X256.397 Y65.3
X256.365 Y65.328
X256.332 Y65.348
X256.3 Y65.364
X256.288 Y65.368
X256.253 Y65.378
X256.217 Y65.384
X256.146 Y65.386
X192.219 Y65.385
X81.799 Y65.378
X81.515 Y65.373
X81.373 Y65.371
X81.232 Y65.366
X80.098 Y65.254
X80.027 Y65.246
X79.956 Y65.228
X78.822 Y64.884
X78.68 Y64.814
X77.83 Y64.359
X77.688 Y64.282
X77.617 Y64.23
X76.755 Y63.521
G3 X75.816 Y62.387 I9.972 J-9.213
G1 X75.42 Y61.793
X74.685 Y60.686
X74.57 Y60.53
X74.428 Y60.346
X73.577 Y59.333
G2 X73.152 Y58.931 I-2.265 J1.971
G1 X72.16 Y58.115
X71.995 Y57.992
G2 X70.317 Y57.102 I-12.307 J21.167
X68.475 Y56.552 I-7.424 J21.525
X66.632 Y56.347 I-4.768 J34.497
G1 X66.348 Y56.35
X32.187
G3 X31.762 Y56.246 I0.04 J-1.087
G1 X31.705 Y56.206
X31.676 Y56.18
X31.647 Y56.149
X31.62 Y56.113
X31.587 Y56.06
G3 X31.504 Y55.681 I1.663 J-0.561
X32.063 Y55.528 I0.3 J-0.001
G1 X32.097 Y55.586 Z-2.091
X32.129 Y55.641 Z-2.068
X32.157 Y55.69 Z-2.033
X32.181 Y55.731 Z-1.985
X32.199 Y55.762 Z-1.928
X32.21 Y55.781 Z-1.865
X32.214 Y55.788 Z-1.798
G0 Z2.503
X32.048 Y23.204
Z-1.498
G1 Z-1.798 F1000
X32.044 Y23.197 Z-1.865
X32.034 Y23.178 Z-1.928
X32.017 Y23.146 Z-1.985
X31.994 Y23.105 Z-2.033
X31.967 Y23.055 Z-2.068
X31.937 Y22.999 Z-2.091
X31.905 Y22.94 Z-2.098
G3 X31.503 Y21.34 I2.923 J-1.584
X31.643 Y20.848 I0.879 J-0.016
X31.904 Y20.697 I0.387 J0.367
G1 X32.117 Y20.656
X32.152 Y20.652
X32.187 Y20.65
X66.49
G2 X68.474 Y20.442 I-0.991 J-19.04
X70.317 Y19.897 I-5.359 J-21.5
X71.995 Y19.008 I-10.492 J-21.851
G1 X72.16 Y18.885
X73.218 Y18.015
X73.294 Y17.952
X73.436 Y17.819
G2 X74.687 Y16.316 I-17.694 J-15.999
G1 X75.626 Y14.897
X75.816 Y14.613
G3 X76.696 Y13.529 I19.075 J14.578
G1 X76.755 Y13.479
X77.617 Y12.77
G3 X78.822 Y12.116 I9.099 J15.323
G1 X79.956 Y11.772
X80.027 Y11.754
X80.098 Y11.746
X81.232 Y11.634
X81.373 Y11.629
X81.657 Y11.624
X81.799 Y11.622
X209.087 Y11.614
X256.146
X256.217 Y11.616
X256.253 Y11.622
X256.288 Y11.632
X256.3 Y11.636
X256.332 Y11.652
X256.365 Y11.672
X256.397 Y11.7
X256.43 Y11.733
X256.447 Y11.755
X256.461 Y11.778
X256.478 Y11.813
X256.49 Y11.849
X256.497 Y11.884
X256.5 Y11.92
Y11.963
G3 X256.201 Y12.252 I-0.3 J-0.01
G1 X256.2
X256.188
X256.176 Y12.251
X256.126 Y12.234 Z-2.093
X256.077 Y12.217 Z-2.079
X256.032 Y12.201 Z-2.056
X255.999 Y12.164 Z-2.019
X255.972 Y12.134 Z-1.972
X255.952 Y12.112 Z-1.919
X255.94 Y12.098 Z-1.86
X255.935 Y12.093 Z-1.798
G0 Z2.503
X255.882 Y63.17
Z-1.2
G1 Z-1.5 F1000
X255.886 Y63.177 Z-1.567
X255.897 Y63.196 Z-1.63
X255.915 Y63.227 Z-1.687
X255.939 Y63.267 Z-1.735
X255.969 Y63.316 Z-1.77
X256.001 Y63.371 Z-1.792
X256.035 Y63.428 Z-1.8
G3 X256.5 Y65.011 I-2.858 J1.699
G1 Y65.08
X256.499 Y65.116
X256.494 Y65.151
X256.484 Y65.187
X256.469 Y65.222
X256.452 Y65.252
X256.43 Y65.283
X256.382 Y65.331
X256.358 Y65.349
X256.334 Y65.364
X256.288 Y65.385
X256.253 Y65.395
X256.217 Y65.4
X256.146 Y65.402
X175.493 Y65.401
X81.799 Y65.395
X81.515 Y65.391
X81.373 Y65.388
X81.232 Y65.383
X80.098 Y65.271
X80.027 Y65.263
X79.956 Y65.245
X78.822 Y64.901
X78.68 Y64.832
X77.688 Y64.3
X77.596 Y64.23
X76.734 Y63.521
G3 X75.804 Y62.387 I19.551 J-16.98
G1 X75.278 Y61.599
X74.672 Y60.686
G2 X73.436 Y59.196 I-28.657 J22.518
G1 X73.294 Y59.064
G2 X71.973 Y57.991 I-16.476 J18.932
X70.318 Y57.116 I-20.003 J35.816
X68.475 Y56.571 I-8.741 J26.192
X66.632 Y56.367 I-6.433 J49.779
G1 X66.348 Y56.371
X32.187
G3 X31.761 Y56.27 I0.033 J-1.085
X31.529 Y55.866 I0.275 J-0.426
G1 X31.502 Y55.724
Y55.681
G3 X32.064 Y55.541 I0.3 J0.005
G1 X32.096 Y55.599 Z-1.792
X32.127 Y55.655 Z-1.77
X32.155 Y55.705 Z-1.735
X32.178 Y55.746 Z-1.687
X32.195 Y55.777 Z-1.63
X32.206 Y55.797 Z-1.567
X32.209 Y55.803 Z-1.5
G0 Z2.503
X32.088 Y23.191
Z-1.2
G1 Z-1.5 F1000
X32.084 Y23.185 Z-1.567
X32.073 Y23.165 Z-1.63
X32.055 Y23.134 Z-1.687
X32.032 Y23.093 Z-1.735
X32.003 Y23.044 Z-1.77
X31.972 Y22.989 Z-1.792
X31.939 Y22.931 Z-1.8
G3 X31.501 Y21.34 I2.887 J-1.649
X31.628 Y20.849 I0.995 J-0.005
G1 X31.661 Y20.815
X31.697 Y20.779
X31.762 Y20.733
G3 X32.187 Y20.629 I0.44 J0.881
G1 X66.49
G2 X68.474 Y20.422 I-1.017 J-19.384
X70.317 Y19.882 I-5.269 J-21.376
X72.019 Y18.977 I-8.754 J-18.528
G1 X72.164 Y18.866
X73.199 Y18.015
X73.294 Y17.936
X73.436 Y17.804
G2 X74.674 Y16.316 I-20.664 J-18.455
G1 X75.519 Y15.038
X75.804 Y14.613
G3 X76.731 Y13.477 I15.084 J11.364
G1 X77.596 Y12.77
X77.688 Y12.7
X78.68 Y12.168
X78.822 Y12.099
X79.956 Y11.755
X80.027 Y11.737
X80.098 Y11.729
X81.232 Y11.617
X81.373 Y11.612
X81.657 Y11.607
X81.799 Y11.605
X192.219 Y11.598
X256.146
X256.217 Y11.6
X256.253 Y11.605
X256.288 Y11.615
X256.334 Y11.636
X256.358 Y11.651
X256.382 Y11.669
X256.43 Y11.717
X256.452 Y11.748
X256.469 Y11.778
X256.484 Y11.813
X256.494 Y11.849
X256.499 Y11.884
X256.5 Y11.92
G3 X256.201 Y12.209 I-0.3 J-0.01
G1 X256.2
X256.188
X256.176 Y12.208
X256.126 Y12.191 Z-1.795
X256.077 Y12.174 Z-1.781
X256.032 Y12.158 Z-1.758
X255.999 Y12.121 Z-1.721
X255.972 Y12.091 Z-1.674
X255.952 Y12.069 Z-1.62
X255.94 Y12.055 Z-1.562
X255.935 Y12.05 Z-1.5
G0 Z2.503
X255.971 Y63.25
Z-0.9
G1 Z-1.2 F1000
X255.975 Y63.257 Z-1.267
X255.985 Y63.276 Z-1.33
X256.002 Y63.308 Z-1.387
X256.024 Y63.35 Z-1.435
X256.051 Y63.4 Z-1.47
X256.08 Y63.456 Z-1.492
X256.112 Y63.515 Z-1.5
G3 X256.498 Y65.119 I-2.938 J1.556
G1 X256.497 Y65.151
X256.489 Y65.187
X256.476 Y65.222
X256.457 Y65.26
X256.43 Y65.299
X256.395 Y65.335
X256.36 Y65.364
X256.324 Y65.385
X256.288 Y65.401
X256.253 Y65.411
X256.217 Y65.417
X256.146 Y65.418
X158.625
X81.799 Y65.413
X81.515 Y65.408
X81.373 Y65.406
X81.232 Y65.4
X80.098 Y65.289
X80.027 Y65.281
X79.956 Y65.263
X78.822 Y64.918
X78.68 Y64.849
X77.688 Y64.318
X77.575 Y64.23
X76.713 Y63.521
G3 X75.791 Y62.387 I22.049 J-18.859
G1 X75.223 Y61.536
X74.659 Y60.686
G2 X73.439 Y59.21 I-32.152 J25.327
X71.949 Y57.991 I-16.291 J18.385
G1 X71.735 Y57.875
X70.742 Y57.344
X70.317 Y57.133
G2 X68.475 Y56.587 I-8.448 J25.103
X66.632 Y56.387 I-15.432 J133.982
G1 X66.348 Y56.393
X32.187
G3 X31.761 Y56.292 I0.035 J-1.097
X31.526 Y55.866 I0.289 J-0.437
G1 X31.5 Y55.724
Y55.582
G0 Z2.503
X32.114 Y23.217
Z-0.9
G1 Z-1.2 F1000
X32.11 Y23.211 Z-1.267
X32.099 Y23.192 Z-1.33
X32.081 Y23.161 Z-1.387
X32.057 Y23.12 Z-1.435
X32.028 Y23.071 Z-1.47
X31.995 Y23.016 Z-1.492
X31.961 Y22.959 Z-1.5
G3 X31.5 Y21.375 I2.862 J-1.693
X31.646 Y20.801 I0.96 J-0.061
G1 X31.691 Y20.763
X31.765 Y20.709
G3 X32.187 Y20.607 I0.44 J0.9
G1 X66.49
G2 X68.338 Y20.418 I-0.884 J-17.725
G1 X68.474 Y20.411
G2 X70.317 Y19.866 I-5.481 J-21.907
X72.02 Y18.961 I-9.788 J-20.483
X73.497 Y17.732 I-18.04 J-23.178
X74.66 Y16.316 I-31.352 J-26.95
G1 X75.42 Y15.169
X75.791 Y14.613
G3 X76.711 Y13.478 I19.806 J15.12
G1 X77.575 Y12.77
X77.688 Y12.682
X78.68 Y12.151
X78.822 Y12.082
X79.956 Y11.737
X80.027 Y11.719
X80.098 Y11.711
X81.232 Y11.6
X81.373 Y11.594
X81.657 Y11.589
X81.799 Y11.587
X175.209 Y11.582
X256.146
X256.217 Y11.583
X256.253 Y11.589
X256.288 Y11.599
X256.324 Y11.615
X256.36 Y11.636
X256.395 Y11.665
X256.43 Y11.701
X256.457 Y11.74
X256.476 Y11.778
X256.489 Y11.813
X256.497 Y11.849
X256.498 Y11.888
G3 X256.189 Y12.192 I-0.3 J0.004
G1 X256.138 Y12.177 Z-1.495
X256.089 Y12.162 Z-1.481
X256.043 Y12.149 Z-1.458
X256.008 Y12.114 Z-1.421
X255.98 Y12.085 Z-1.374
X255.958 Y12.063 Z-1.32
X255.945 Y12.05 Z-1.262
X255.941 Y12.046 Z-1.2
G0 Z2.503
X255.882 Y63.239
Z-0.6
G1 Z-0.9 F1000
X255.886 Y63.246 Z-0.967
X255.897 Y63.265 Z-1.03
X255.915 Y63.296 Z-1.087
X255.939 Y63.336 Z-1.135
X255.969 Y63.385 Z-1.17
X256.001 Y63.44 Z-1.192
X256.035 Y63.497 Z-1.2
G3 X256.5 Y65.08 I-2.858 J1.699
G1 X256.499 Y65.151
X256.493 Y65.187
X256.483 Y65.222
X256.462 Y65.268
X256.447 Y65.291
X256.43 Y65.314
X256.381 Y65.364
X256.358 Y65.382
X256.334 Y65.396
X256.288 Y65.417
X256.253 Y65.427
X256.217 Y65.433
X256.146 Y65.435
X141.615 Y65.434
X81.799 Y65.43
X81.515 Y65.426
X81.373 Y65.423
X81.232 Y65.418
X80.098 Y65.306
X80.027 Y65.298
X79.956 Y65.28
X78.822 Y64.936
X78.68 Y64.866
X77.688 Y64.335
X77.546 Y64.224
X76.837 Y63.641
X76.694 Y63.521
X76.554 Y63.355
X76.226 Y62.954
X75.845 Y62.485
G2 X74.572 Y60.581 I-285.039 J189.322
X73.437 Y59.225 I-29.998 J23.918
X71.923 Y57.99 I-13.899 J15.499
G1 X71.735 Y57.89
X70.742 Y57.36
X70.303 Y57.142
X69.85 Y57
X68.916 Y56.716
X68.474 Y56.605
G2 X66.632 Y56.411 I-8.045 J67.796
G1 X66.348 Y56.414
X32.187
G3 X31.761 Y56.313 I0.034 J-1.091
G1 X31.733 Y56.291
X31.7 Y56.266
X31.666 Y56.234
X31.641 Y56.205
G3 X31.5 Y55.646 I0.814 J-0.502
G0 Z2.503
X32.118 Y23.216
Z-0.6
G1 Z-0.9 F1000
X32.114 Y23.209 Z-0.967
X32.103 Y23.19 Z-1.03
X32.085 Y23.16 Z-1.087
X32.061 Y23.119 Z-1.135
X32.031 Y23.07 Z-1.17
X31.999 Y23.015 Z-1.192
X31.965 Y22.958 Z-1.2
G3 X31.5 Y21.375 I2.858 J-1.699
X31.635 Y20.791 I1.02 J-0.071
X31.904 Y20.634 I0.385 J0.349
G1 X32.117 Y20.592
X32.152 Y20.588
X32.187 Y20.586
X66.49
G2 X68.474 Y20.39 I-1.668 J-27.107
G1 X68.916 Y20.284
X69.892 Y19.987
X70.303 Y19.858
G2 X72.02 Y18.945 I-10.146 J-21.143
X73.482 Y17.732 I-19.945 J-25.532
X74.647 Y16.316 I-41.437 J-35.266
G1 X75.494 Y15.038
X75.778 Y14.613
G3 X76.696 Y13.478 I19.965 J15.195
G1 X76.864 Y13.337
X77.553 Y12.77
X77.688 Y12.665
X78.68 Y12.134
X78.822 Y12.064
X79.956 Y11.72
X80.027 Y11.702
X80.098 Y11.694
X81.232 Y11.582
X81.373 Y11.577
X81.657 Y11.572
X81.799 Y11.57
X158.341 Y11.565
X256.146
X256.217 Y11.567
X256.253 Y11.573
X256.288 Y11.583
X256.334 Y11.604
X256.358 Y11.618
X256.381 Y11.636
X256.43 Y11.686
X256.447 Y11.709
X256.462 Y11.732
X256.483 Y11.778
X256.493 Y11.813
X256.499 Y11.849
X256.5 Y11.92
G3 X256.201 Y12.209 I-0.3 J-0.01
G1 X256.2
X256.188
X256.176 Y12.208
X256.126 Y12.191 Z-1.195
X256.077 Y12.174 Z-1.181
X256.032 Y12.158 Z-1.158
X255.999 Y12.121 Z-1.121
X255.972 Y12.091 Z-1.074
X255.952 Y12.069 Z-1.02
X255.94 Y12.055 Z-0.962
X255.935 Y12.05 Z-0.9
G0 Z2.503
X255.89 Y63.276
Z-0.3
G1 Z-0.6 F1000
X255.894 Y63.282 Z-0.667
X255.905 Y63.301 Z-0.73
X255.923 Y63.332 Z-0.787
X255.947 Y63.373 Z-0.835
X255.976 Y63.422 Z-0.87
X256.008 Y63.477 Z-0.892
X256.042 Y63.534 Z-0.9
G3 X256.5 Y65.119 I-2.866 J1.686
G1 Y65.151
X256.496 Y65.187
X256.488 Y65.222
X256.478 Y65.249
X256.466 Y65.276
X256.45 Y65.303
X256.43 Y65.33
X256.399 Y65.364
X256.371 Y65.388
X256.343 Y65.407
X256.316 Y65.422
X256.288 Y65.434
X256.253 Y65.444
X256.217 Y65.449
X256.146 Y65.451
X124.606 Y65.45
X81.799 Y65.448
X81.515 Y65.443
X81.373 Y65.44
X81.232 Y65.435
X80.098 Y65.324
X80.027 Y65.316
X79.956 Y65.298
X78.822 Y64.953
X78.785 Y64.939
X78.68 Y64.884
X77.688 Y64.353
G3 X76.675 Y63.522 I19.519 J-24.813
G1 X76.27 Y63.027
X75.845 Y62.504
X75.671 Y62.245
X74.632 Y60.686
G2 X73.439 Y59.237 I-47.018 J37.5
X71.898 Y57.986 I-15.669 J17.737
X70.256 Y57.138 I-18.898 J34.551
X68.475 Y56.618 I-10.342 J32.099
G3 X67.057 Y56.467 I3.364 J-38.35
G1 X66.632 Y56.436
X66.348
X32.187
G3 X31.762 Y56.332 I0.04 J-1.085
X31.52 Y55.866 I0.296 J-0.45
G1 X31.503 Y55.795
X31.5 Y55.724
G0 Z2.503
X32.118 Y23.117
Z-0.3
G1 Z-0.6 F1000
X32.114 Y23.11 Z-0.667
X32.103 Y23.091 Z-0.73
X32.085 Y23.061 Z-0.787
X32.061 Y23.02 Z-0.835
X32.031 Y22.971 Z-0.87
X31.999 Y22.916 Z-0.892
X31.965 Y22.859 Z-0.9
G3 X31.5 Y21.276 I2.858 J-1.699
X31.65 Y20.752 I0.928 J-0.017
X32.046 Y20.585 I0.414 J0.426
G1 X32.142 Y20.567
X32.187 Y20.564
X66.49
G2 X68.474 Y20.377 I-2.152 J-33.424
X70.317 Y19.835 I-6.099 J-24.15
G1 X70.742 Y19.625
X71.735 Y19.094
G2 X72.16 Y18.822 I-1.089 J-2.172
X73.468 Y17.732 I-27.726 J-34.609
X74.633 Y16.315 I-43.125 J-36.657
G1 X75.703 Y14.706
X75.845 Y14.496
X76.327 Y13.904
X76.676 Y13.479
G3 X77.688 Y12.647 I17.603 J20.381
G1 X78.68 Y12.116
X78.785 Y12.061
X78.822 Y12.047
X79.956 Y11.702
X80.027 Y11.684
X80.098 Y11.676
X81.232 Y11.565
X81.373 Y11.56
X81.657 Y11.554
X81.799 Y11.552
X141.615 Y11.549
X256.146
X256.217 Y11.551
X256.253 Y11.556
X256.288 Y11.566
X256.316 Y11.578
X256.343 Y11.593
X256.371 Y11.612
X256.399 Y11.636
X256.43 Y11.67
X256.45 Y11.697
X256.466 Y11.724
X256.478 Y11.751
X256.488 Y11.778
X256.496 Y11.813
X256.5 Y11.849
Y11.92
G3 X256.201 Y12.209 I-0.3 J-0.01
G1 X256.2
X256.188
X256.176 Y12.208
X256.126 Y12.191 Z-0.895
X256.077 Y12.174 Z-0.881
X256.032 Y12.158 Z-0.858
X255.999 Y12.121 Z-0.821
X255.972 Y12.091 Z-0.774
X255.952 Y12.069 Z-0.72
X255.94 Y12.055 Z-0.662
X255.935 Y12.05 Z-0.6
G0 Z2.503
X255.882 Y63.278
Z0
G1 Z-0.3 F1000
X255.886 Y63.285 Z-0.367
X255.897 Y63.304 Z-0.43
X255.915 Y63.335 Z-0.487
X255.939 Y63.375 Z-0.535
X255.969 Y63.424 Z-0.57
X256.001 Y63.479 Z-0.592
X256.035 Y63.536 Z-0.6
G3 X256.5 Y65.119 I-2.858 J1.699
G1 Y65.151
X256.498 Y65.187
X256.492 Y65.222
X256.483 Y65.253
X256.47 Y65.284
X256.453 Y65.315
X256.43 Y65.346
X256.414 Y65.364
X256.383 Y65.395
X256.351 Y65.419
X256.319 Y65.437
X256.288 Y65.45
X256.253 Y65.46
X256.217 Y65.466
X256.146 Y65.467
X107.455
X81.799 Y65.465
X81.515 Y65.461
X81.373 Y65.458
X81.232 Y65.453
X80.098 Y65.341
X80.027 Y65.333
X79.956 Y65.315
X78.822 Y64.971
X78.75 Y64.939
X77.688 Y64.37
G3 X76.659 Y63.523 I13.408 J-17.323
G1 X75.965 Y62.67
X75.845 Y62.523
X75.658 Y62.245
X74.618 Y60.686
G2 X73.436 Y59.252 I-31.068 J24.398
X71.881 Y57.992 I-14.512 J16.321
X70.207 Y57.136 I-12.021 J21.458
X68.475 Y56.634 I-10.259 J32.106
X66.632 Y56.455 I-10.909 J102.995
G1 X66.348 Y56.457
X32.187
G3 X31.761 Y56.356 I0.033 J-1.09
G1 X31.72 Y56.325
X31.699 Y56.31
X31.679 Y56.291
X31.646 Y56.255
X31.62 Y56.22
X31.577 Y56.149
G3 X31.499 Y55.724 I1.228 J-0.444
G0 X31.5 Z2.503
X32.118 Y23.117
Z0
G1 Z-0.3 F1000
X32.114 Y23.11 Z-0.367
X32.103 Y23.091 Z-0.43
X32.085 Y23.061 Z-0.487
X32.061 Y23.02 Z-0.535
X32.031 Y22.971 Z-0.57
X31.999 Y22.916 Z-0.592
X31.965 Y22.859 Z-0.6
G3 X31.5 Y21.276 I2.858 J-1.699
X31.577 Y20.85 I1.315 J0.017
G1 X31.62 Y20.78
X31.646 Y20.745
X31.679 Y20.709
X31.699 Y20.69
X31.72 Y20.675
G3 X32.187 Y20.543 I0.463 J0.749
G1 X66.49
G2 X68.474 Y20.362 I-1.795 J-30.636
X70.317 Y19.819 I-6.056 J-23.966
X72.02 Y18.912 I-9.088 J-19.11
X73.452 Y17.732 I-23.109 J-29.505
X74.618 Y16.314 I-70.602 J-59.239
G1 X75.753 Y14.613
G3 X76.696 Y13.442 I16.844 J12.588
G1 X76.837 Y13.324
X77.546 Y12.741
X77.69 Y12.628
X78.75 Y12.061
X78.822 Y12.029
X79.956 Y11.685
X80.027 Y11.667
X80.098 Y11.659
X81.232 Y11.547
X81.373 Y11.542
X81.657 Y11.537
X81.799 Y11.535
X125.456 Y11.533
X256.146
X256.217 Y11.534
X256.253 Y11.54
X256.288 Y11.55
X256.319 Y11.563
X256.351 Y11.581
X256.383 Y11.605
X256.414 Y11.636
X256.43 Y11.654
X256.453 Y11.685
X256.47 Y11.716
X256.483 Y11.747
X256.492 Y11.778
X256.498 Y11.813
X256.5 Y11.849
Y11.888
G3 X256.201 Y12.177 I-0.3 J-0.01
G1 X256.2
X256.188
X256.176 Y12.176
X256.126 Y12.159 Z-0.595
X256.077 Y12.142 Z-0.581
X256.032 Y12.126 Z-0.558
X255.999 Y12.089 Z-0.521
X255.972 Y12.059 Z-0.474
X255.952 Y12.037 Z-0.42
X255.94 Y12.023 Z-0.362
X255.935 Y12.018 Z-0.3
G0 Z2.503
X255.882 Y63.31
Z0.3
G1 Z0 F1000
X255.886 Y63.317 Z-0.067
X255.897 Y63.336 Z-0.13
X255.915 Y63.367 Z-0.187
X255.939 Y63.407 Z-0.235
X255.969 Y63.456 Z-0.27
X256.001 Y63.511 Z-0.292
X256.035 Y63.568 Z-0.3
G3 X256.5 Y65.151 I-2.858 J1.699
G1 X256.499 Y65.187
X256.495 Y65.222
X256.487 Y65.257
X256.474 Y65.292
X256.455 Y65.327
X256.428 Y65.364
X256.393 Y65.402
X256.358 Y65.43
X256.323 Y65.451
X256.288 Y65.466
X256.253 Y65.476
X256.217 Y65.482
X256.146 Y65.484
X90.445 Y65.483
X81.799
X81.515 Y65.478
X81.373 Y65.475
X81.232 Y65.47
X80.098 Y65.359
X80.027 Y65.35
X79.956 Y65.333
X78.822 Y64.988
X78.717 Y64.939
X77.688 Y64.388
G3 X76.644 Y63.524 I11.813 J-15.337
G1 X75.835 Y62.529
X74.853 Y61.057
X74.603 Y60.686
G2 X73.436 Y59.267 I-26.333 J20.477
X71.881 Y58.008 I-15.145 J17.12
G1 X70.884 Y57.482
G2 X69.75 Y57.017 I-2.135 J3.587
G1 X69.041 Y56.802
X68.9 Y56.759
X68.474 Y56.652
X68.049 Y56.608
X67.057 Y56.51
X66.632 Y56.479
X66.348
X32.187
G3 X31.761 Y56.378 I0.034 J-1.096
G1 X31.71 Y56.34
X31.684 Y56.318
X31.658 Y56.291
G3 X31.501 Y55.724 I0.76 J-0.516
G0 X31.5 Z2.503
X32.118 Y23.078
Z0.3
G1 Z0 F1000
X32.114 Y23.072 Z-0.067
X32.103 Y23.052 Z-0.13
X32.085 Y23.022 Z-0.187
X32.06 Y22.981 Z-0.235
X32.031 Y22.932 Z-0.27
X31.999 Y22.877 Z-0.292
X31.965 Y22.82 Z-0.3
G3 X31.5 Y21.237 I2.858 J-1.699
X31.617 Y20.757 I0.973 J-0.017
G1 X31.658 Y20.709
X31.684 Y20.682
X31.71 Y20.66
X31.762 Y20.625
G3 X32.187 Y20.521 I0.437 J0.868
G1 X66.49
X66.632
X67.057 Y20.49
X68.333 Y20.363
X68.474 Y20.348
G2 X70.317 Y19.803 I-6.549 J-25.548
X72.02 Y18.897 I-8.709 J-18.417
X73.436 Y17.731 I-26.326 J-33.428
G1 X73.562 Y17.59
X73.912 Y17.165
X74.57 Y16.363
X74.699 Y16.172
X74.995 Y15.731
X75.835 Y14.471
X76.647 Y13.479
G3 X77.688 Y12.612 I9.274 J10.082
G1 X78.717 Y12.061
X78.822 Y12.012
X79.956 Y11.667
X80.027 Y11.65
X80.152 Y11.636
X81.232 Y11.53
X81.373 Y11.525
X81.657 Y11.519
X81.799 Y11.517
X112.699 Y11.516
X256.146
X256.217 Y11.518
X256.253 Y11.524
X256.288 Y11.534
X256.323 Y11.549
X256.358 Y11.57
X256.393 Y11.598
X256.43 Y11.638
X256.455 Y11.673
X256.474 Y11.708
X256.487 Y11.743
X256.495 Y11.778
X256.499 Y11.813
X256.5 Y11.849
G3 X256.201 Y12.138 I-0.3 J-0.01
G1 X256.2
X256.188
X256.176 Y12.137
X256.126 Y12.12 Z-0.295
X256.077 Y12.103 Z-0.281
X256.032 Y12.087 Z-0.258
X255.999 Y12.05 Z-0.221
X255.972 Y12.02 Z-0.174
X255.952 Y11.998 Z-0.12
X255.94 Y11.984 Z-0.062
X255.935 Y11.979 Z0
G0 Z2.503
X228.865 Y39.269
Z-0.5
G3 X231.265 Y37.731 Z-0.656 I1.2 J-0.769 F333.3
X228.865 Y39.269 Z-0.813 I-1.2 J0.769
X231.265 Y37.731 Z-0.969 I1.2 J-0.769
X228.865 Y39.269 Z-1.125 I-1.2 J0.769
X231.265 Y37.731 Z-1.282 I1.2 J-0.769
X228.865 Y39.269 Z-1.438 I-1.2 J0.769
X231.265 Y37.731 Z-1.594 I1.2 J-0.769
X228.865 Y39.269 Z-1.751 I-1.2 J0.769
X231.265 Y37.731 Z-1.907 I1.2 J-0.769
X228.865 Y39.269 Z-2.063 I-1.2 J0.769
X231.265 Y37.731 Z-2.22 I1.2 J-0.769
X228.865 Y39.269 Z-2.376 I-1.2 J0.769
X231.265 Y37.731 Z-2.532 I1.2 J-0.769
X228.865 Y39.269 Z-2.689 I-1.2 J0.769
X231.265 Y37.731 Z-2.845 I1.2 J-0.769
X228.865 Y39.269 Z-3.001 I-1.2 J0.769
X231.265 Y37.731 Z-3.158 I1.2 J-0.769
X228.865 Y39.269 Z-3.314 I-1.2 J0.769
X231.265 Y37.731 Z-3.47 I1.2 J-0.769
X228.865 Y39.269 Z-3.627 I-1.2 J0.769
X231.265 Y37.731 Z-3.783 I1.2 J-0.769
X228.865 Y39.269 Z-3.939 I-1.2 J0.769
X231.265 Y37.731 Z-4.096 I1.2 J-0.769
X228.865 Y39.269 Z-4.252 I-1.2 J0.769
X231.265 Y37.731 Z-4.408 I1.2 J-0.769
X228.865 Y39.269 Z-4.565 I-1.2 J0.769
X231.265 Y37.731 Z-4.721 I1.2 J-0.769
X228.865 Y39.269 Z-4.877 I-1.2 J0.769
X231.265 Y37.731 Z-5.034 I1.2 J-0.769
X228.865 Y39.269 Z-5.19 I-1.2 J0.769
X231.265 Y37.731 Z-5.346 I1.2 J-0.769
X228.865 Y39.269 Z-5.503 I-1.2 J0.769
X231.265 Y37.731 Z-5.659 I1.2 J-0.769
X228.865 Y39.269 Z-5.815 I-1.2 J0.769
X231.265 Y37.731 Z-5.972 I1.2 J-0.769
X231.49 Y38.5 Z-6 I-1.2 J0.769
X228.64 Y38.5 I-1.425 J0
X231.49 Y38.5 I1.425 J0
G1 X231.492 Y38.539 F1000
X231.504 Y38.576
X231.525 Y38.609
X231.985 Y39.03
X232.184 Y39.2
X232.358 Y39.449
X232.479 Y39.773
X232.52 Y40.162
X232.454 Y40.598
X232.26 Y41.055
X231.919 Y41.501
X231.428 Y41.886
X230.857 Y42.138
X230.246 Y42.263
X229.622 Y42.266
X229.008 Y42.157
X228.422 Y41.942
X227.88 Y41.632
X227.398 Y41.237
X226.987 Y40.767
X226.658 Y40.236
X226.421 Y39.659
X226.281 Y39.051
X226.241 Y38.429
X226.304 Y37.808
X226.466 Y37.206
X226.725 Y36.638
X227.072 Y36.119
X227.499 Y35.664
X227.994 Y35.285
X228.544 Y34.991
X229.135 Y34.79
X229.751 Y34.688
X230.375
X230.991 Y34.789
X231.582 Y34.989
X232.132 Y35.282
X232.628 Y35.661
X233.055 Y36.116
X233.403 Y36.634
X233.762 Y37.144
X234.132 Y37.647
X234.448 Y38.185
X234.694 Y38.758
X234.856 Y39.361
X234.919 Y39.982
X234.897 Y40.605
X234.775 Y41.217
X234.572 Y41.807
X234.284 Y42.36
X233.924 Y42.871
X233.499 Y43.327
X233.019 Y43.726
G3 X230.724 Y44.647 I-3.023 J-4.215
X227.664 Y44.266 I-0.843 J-5.708
X223.805 Y38.373 I2.35 J-5.749
X227.89 Y32.626 I6.255 J0.121
X235.127 Y34.81 I2.175 J5.877
X236.536 Y36.866 I-11.262 J9.229
X237.297 Y41.094 I-6.004 J3.262
X234.903 Y45.355 I-6.894 J-1.07
X229.093 Y47.122 I-4.977 J-5.928
X221.6 Y40.579 I0.863 J-8.55
X228.013 Y30.024 I8.453 J-2.09
X236.939 Y33.126 I2.054 J8.484
X238.984 Y36.248 I-10.401 J9.044
X236.674 Y47.071 I-8.434 J3.858
X229.819 Y49.625 I-6.697 J-7.496
X219.909 Y43.183 I0.1 J-10.998
X218.877 Y38.342 I9.957 J-4.654
X238.406 Y31.038 I11.189 J0.156
X241.452 Y35.721 I-11.687 J10.935
X241.538 Y44.259 I-10.933 J4.379
X235.289 Y50.914 I-11.298 J-4.346
X223.842 Y50.643 I-5.447 J-11.846
X224.365 Y26.086 I6.195 J-12.152
X232.284 Y25.016 I5.693 J12.307
X240.318 Y29.456 I-2.229 J13.523
X243.923 Y35.247 I-13.064 J12.15
X239.127 Y51.46 I-13.419 J4.846
X228.59 Y54.523 I-9.187 J-11.948
X223.763 Y53.344 I1.189 J-15.339
X236.21 Y23.577 I6.29 J-14.856
X242.657 Y28.361 I-6.227 J15.127
X246.58 Y35.393 I-14.52 J12.711
X240.315 Y53.67 I-16.088 J4.697
X229.186 Y57.046 I-10.362 J-14.123
G1 X228.563 Y57.016
X227.941 Y56.961
X227.322 Y56.885
G3 X213.329 Y30.338 I2.679 J-18.373
X224.924 Y20.598 I16.69 J8.097
X243.759 Y25.867 I5.146 J17.905
X248.662 Y33.76 I-16.187 J15.524
X244.764 Y52.989 I-18.137 J6.333
X227.916 Y59.445 I-14.809 J-13.436
X213.918 Y52.087 I1.947 J-20.7
X208.972 Y37.669 I16.053 J-13.565
X245.259 Y23.841 I21.094 J0.828
G1 X245.698 Y24.285
X246.118 Y24.746
G3 X250.928 Y32.712 I-18.707 J16.73
X243.204 Y57.712 I-20.437 J7.379
X231.021 Y62.002 I-13.213 J-18.077
X208.533 Y48.133 I-1.114 J-23.358
X209.721 Y26.548 I21.458 J-9.645
X246.741 Y21.803 I20.346 J11.947
X251.313 Y27.704 I-19.531 J19.852
X254.501 Y43.31 I-21.132 J12.446
X239.518 Y62.606 I-24.208 J-3.333
X231.035 Y64.495 I-9.545 J-22.876
X205.276 Y46.595 I-1.113 J-25.884
X205.391 Y30.043 I24.643 J-8.105
X246.806 Y18.496 I24.674 J8.45
X255.647 Y31.133 I-19.307 J22.918
X256.505 Y34.092 I-26.748 J9.363
G1 X256.5 Y45.092
G3 X256.118 Y47.551 I-9.102 J-0.154
X241.468 Y64.468 I-25.751 J-7.498
G1 X240.902 Y64.731
X240.671 Y64.829
X240.633 Y64.842
X240.594 Y64.85
X240.554 Y64.852
X220.284 Y64.85
X219.661 Y64.819
X219.047 Y64.708
G3 X216.746 Y63.757 I3.084 J-10.72
X205.744 Y23.51 I13.271 J-25.255
X219.03 Y12.145 I24.252 J14.901
G1 X219.072 Y12.15
X239.845 Y12.148
X240.469 Y12.179
X241.083 Y12.285
G3 X243.387 Y13.232 I-3.083 J10.776
X252.479 Y20.712 I-13.601 J25.795
X256.488 Y26.808 I-24.386 J20.408
G1 X256.496 Y26.855
X256.5 Y26.902
Y34.093
G3 X256.341 Y34.348 I-0.3 J-0.01
X255.899 Y34.506 I-0.756 J-1.418
X255.586 Y34.537 I-0.313 J-1.576 F1500
G1 X255.585
G3 X254.113 Y33.574 I0 J-1.607
X255.936 Y27.397 I4.58 J-2.006
X256.341 Y27.156 I2.757 J4.171 F1000
G2 X256.5 Y26.902 I-0.141 J-0.265
G1 Y23.261
X256.469 Y22.637
X256.311 Y22.034
X256.055 Y21.465
G2 X254.242 Y18.932 I-13.844 J7.99
X246.539 Y12.162 I-24.93 J20.602
G1 X246.482 Y12.152
X246.426 Y12.147
X239.845 Y12.148
G2 X239.591 Y12.306 I0.01 J0.3
X239.517 Y12.763 I0.634 J0.338
X239.696 Y13.13 I0.708 J-0.119 F1500
X245.926 Y12.708 I2.946 J-2.706
X246.172 Y12.306 I-3.284 J-2.283 F1000
G3 X246.426 Y12.147 I0.265 J0.141
G1 X249.484
X250.107 Y12.178
X250.704 Y12.36
X251.259 Y12.645
G3 X253.205 Y14.202 I-6.895 J10.614
X256.473 Y17.725 I-21.895 J23.59
G1 X256.492 Y17.792
X256.5 Y17.86
Y23.261
G3 X256.341 Y23.515 I-0.3 J-0.01
X255.896 Y23.662 I-0.652 J-1.222
X254.348 Y22.636 I-0.206 J-1.37 F1500
X255.939 Y18.36 I3.875 J-0.993
X256.341 Y18.114 I2.284 J3.284 F1000
G2 X256.5 Y17.86 I-0.141 J-0.265
G1 Y15.464
X256.469 Y14.841
X256.296 Y14.241
X256 Y13.692
G2 X254.712 Y12.226 I-7.495 J5.285
G1 X254.652 Y12.183
X254.583 Y12.156
X254.509 Y12.147
X249.484
G2 X249.354 Y12.711 I0.01 J0.3
G1 X249.372 Y12.72 F1500
X255.897 Y15.646
X256.077 Y15.727 F1000
G2 X256.5 Y15.464 I0.123 J-0.274
G1 Y12.487
X256.496 Y12.416
X256.487 Y12.38
X256.474 Y12.345
X256.454 Y12.308
X256.43 Y12.27
X256.396 Y12.231
X256.362 Y12.203
X256.325 Y12.181
X256.288 Y12.164
X256.253 Y12.154
X256.217 Y12.149
X256.146 Y12.147
X254.509
X254.457 Y12.153
X254.407 Y12.169
X254.36 Y12.192
X254.304 Y12.228 Z-5.992
X254.25 Y12.261 Z-5.97
X254.202 Y12.291 Z-5.935
X254.162 Y12.317 Z-5.887
X254.131 Y12.336 Z-5.83
X254.112 Y12.347 Z-5.767
X254.106 Y12.351 Z-5.7
G0 Z2.503
X256.125 Y44.08
Z-5.4
G1 Z-5.7 F1000
X256.129 Y44.087 Z-5.767
X256.141 Y44.106 Z-5.83
X256.159 Y44.137 Z-5.887
X256.183 Y44.178 Z-5.935
X256.212 Y44.226 Z-5.97
X256.245 Y44.281 Z-5.992
X256.279 Y44.338 Z-6
G3 X256.5 Y45.092 I-1.36 J0.809
G1 Y52.038
X256.469 Y52.661
X256.345 Y53.273
G3 X255.259 Y55.512 I-9.389 J-3.172
X246.009 Y64.835 I-24.821 J-15.378
G1 X245.954 Y64.848
X245.899 Y64.853
X240.554 Y64.852
G3 X240.3 Y64.694 I0.01 J-0.3
X240.152 Y64.248 I1.232 J-0.656
X241.219 Y62.677 I1.38 J-0.211 F1500
X245.399 Y64.292 I0.895 J3.899
X245.644 Y64.694 I-3.284 J2.283 F1000
G2 X245.899 Y64.853 I0.265 J-0.141
G1 X248.917
X249.53 Y64.823
X250.126 Y64.637
X250.678 Y64.347
G2 X252.603 Y62.765 I-6.686 J-10.099
X256.479 Y58.192 I-20.629 J-21.407
G1 X256.494 Y58.132
X256.5 Y58.071
Y52.038
G2 X256.341 Y51.784 I-0.3 J0.01
X255.892 Y51.652 I-0.544 J1.021
X254.809 Y52.202 I-0.095 J1.153 F1500
X255.939 Y57.571 I3.414 J2.085
X256.341 Y57.817 I2.284 J-3.284 F1000
G3 X256.5 Y58.071 I-0.141 J0.265
G1 Y60.828
X256.469 Y61.451
X256.292 Y62.049
X256.003 Y62.602
G3 X254.096 Y64.767 I-9.644 J-6.569
G1 X254.038 Y64.815
X253.967 Y64.843
X253.892 Y64.853
G3 X253.648 Y64.395 I0.01 J-0.3
G1 X253.731 Y64.261
X255.935 Y60.697 F1500
X255.945 Y60.68 F1000
G3 X256.5 Y60.828 I0.255 J0.158
G1 Y64.513
X256.496 Y64.584
X256.487 Y64.62
X256.474 Y64.655
X256.454 Y64.692
X256.43 Y64.73
X256.396 Y64.769
X256.362 Y64.797
X256.325 Y64.819
X256.288 Y64.836
X256.253 Y64.846
X256.217 Y64.851
X256.146 Y64.853
X248.917
G0 Z2.503
X221.296 Y64.475
Z-5.4
G1 Z-5.7 F1000
X221.289 Y64.479 Z-5.767
X221.27 Y64.491 Z-5.83
X221.24 Y64.509 Z-5.887
X221.199 Y64.533 Z-5.935
X221.15 Y64.562 Z-5.97
X221.095 Y64.595 Z-5.992
X221.038 Y64.629 Z-6
G3 X220.284 Y64.85 I-0.809 J-1.36
G1 X214.898 Y64.849
X214.275 Y64.818
X213.673 Y64.654
G3 X211.523 Y63.4 I3.656 J-8.74
X199.854 Y31.289 I18.462 J-24.885
X204.01 Y21.587 I29.957 J7.092
X213.59 Y12.168 I25.958 J16.821
G1 X213.646 Y12.156
X213.702 Y12.151
X219.072 Y12.15
G3 X219.362 Y12.46 I-0.01 J0.3
X219.22 Y12.73 I-0.35 J-0.012
X214.313 Y12.621 I-2.384 J-3.212 F1500
X213.911 Y12.246 I2.524 J-3.103 F1000
G1 X213.867 Y12.207
X213.816 Y12.178
X213.761 Y12.159
X213.702 Y12.151
X210.646
X210.023 Y12.183
X209.425 Y12.362
X208.87 Y12.647
G2 X206.928 Y14.208 I6.675 J10.292
X201.752 Y56.5 I23.105 J24.291
X209.274 Y64.823 I28.036 J-17.78
G1 X209.341 Y64.841
X209.408 Y64.849
X214.898
G2 X215.152 Y64.691 I-0.01 J-0.3
X215.299 Y64.245 I-1.205 J-0.642
X214.339 Y62.74 I-1.351 J-0.197 F1500
X209.908 Y64.288 I-1.147 J3.832
X209.662 Y64.69 I3.284 J2.284 F1000
G3 X209.408 Y64.849 I-0.265 J-0.141
G1 X206.96 Y64.848
X206.337 Y64.817
X205.738 Y64.641
X205.19 Y64.345
G3 X203.346 Y62.672 I6.04 J-8.509
X197.754 Y22.531 I26.651 J-24.173
X199.252 Y19.795 I30.448 J14.897
X205.452 Y12.181 I30.213 J18.271
G1 X205.528 Y12.161
X205.602 Y12.152
X210.646 Y12.151
G3 X210.9 Y12.31 I-0.01 J0.3
X210.861 Y12.755 I-0.361 J0.192
X206.11 Y12.708 I-2.357 J-1.856 F1500
X205.856 Y12.311 I2.394 J-1.809 F1000
G2 X205.602 Y12.152 I-0.265 J0.141
G1 X203.417
X202.852 Y12.18
X202.257 Y12.367
X201.717 Y12.681
G2 X199.969 Y14.451 I5.949 J7.624
X191.589 Y40.596 I29.926 J24.007
X196.7 Y57.779 I38.334 J-2.05
X201.884 Y64.759 I32.156 J-18.467
G1 X201.952 Y64.805
X202.026 Y64.837
X202.106 Y64.848
X206.96
G2 X207.215 Y64.69 I-0.01 J-0.3
X207.266 Y64.232 I-0.55 J-0.293
X207.099 Y63.95 I-0.601 J0.164 F1500
X202.614 Y64.292 I-2.091 J2.151
X202.361 Y64.689 I2.394 J1.809 F1000
G3 X202.106 Y64.848 I-0.265 J-0.141
G1 X200.157 Y64.847
X199.59 Y64.819
X198.995 Y64.633
X198.461 Y64.31
X197.988 Y63.903
G3 X196.066 Y61.451 I11.94 J-11.336
X194.082 Y18.79 I33.947 J-22.956
X198.565 Y12.249 I33.246 J17.98
G1 X198.636 Y12.2
X198.713 Y12.165
X198.797 Y12.153
X203.417 Y12.152
G3 X203.671 Y12.311 I-0.01 J0.3
X203.763 Y12.767 I-0.715 J0.381
X203.421 Y13.356 I-0.807 J-0.074 F1500
X199.305 Y12.708 I-1.723 J-2.456
X199.051 Y12.311 I2.394 J-1.809 F1000
G2 X198.797 Y12.153 I-0.265 J0.141
G1 X196.896
X196.457 Y12.175
X195.867 Y12.359
X195.337 Y12.688
X194.873 Y13.106
G2 X193.378 Y15.099 I9.879 J8.971
X191.439 Y58.548 I36.636 J23.403
X195.083 Y64.354 I35.577 J-18.286
G1 X195.402 Y64.737
X195.468 Y64.796
X195.547 Y64.834
X195.635 Y64.847
X200.157
G2 X200.411 Y64.689 I-0.01 J-0.3
X200.512 Y64.234 I-0.767 J-0.409
X200.095 Y63.537 I-0.868 J0.046 F1500
X196.143 Y64.291 I-1.559 J2.563
X195.889 Y64.688 I2.394 J1.809 F1000
G3 X195.635 Y64.847 I-0.265 J-0.141
G1 X193.92
X193.42 Y64.822
X192.854 Y64.645
X192.324 Y64.316
X191.866 Y63.892
G3 X190.43 Y61.856 I9.391 J-8.146
X188.781 Y18.182 I39.559 J-23.362
X191.924 Y12.799 I36.329 J17.604
G1 X192.303 Y12.303
X192.336 Y12.263
X192.401 Y12.204
X192.481 Y12.166
X192.568 Y12.153
X196.896
G3 X197.151 Y12.312 I-0.01 J0.3
X197.263 Y12.765 I-0.846 J0.451
X196.697 Y13.638 I-0.959 J-0.002 F1500
X193.076 Y12.709 I-1.228 J-2.737
X192.822 Y12.312 I2.394 J-1.809 F1000
G2 X192.568 Y12.153 I-0.265 J0.141
G1 X190.943 Y12.154
X190.452 Y12.178
X189.907 Y12.349
X189.377 Y12.678
X188.923 Y13.106
G2 X187.542 Y15.179 I8.879 J7.414
X186.125 Y59.043 I42.435 J23.325
X189.159 Y64.487 I35.516 J-16.227
G1 X189.354 Y64.728
X189.42 Y64.792
X189.502 Y64.832
X189.593 Y64.846
X193.92 Y64.847
G2 X194.174 Y64.688 I-0.01 J-0.3
X194.287 Y64.235 I-0.847 J-0.452
X193.719 Y63.36 I-0.96 J0.001 F1500
X190.101 Y64.29 I-1.224 J2.739
X189.847 Y64.687 I2.394 J1.809 F1000
G3 X189.593 Y64.846 I-0.265 J-0.141
G1 X187.966
X187.553 Y64.825
X187.022 Y64.659
X186.492 Y64.33
X186.043 Y63.897
G3 X184.707 Y61.795 I8.541 J-6.903
X183.469 Y17.77 I45.253 J-23.303
X186.06 Y12.794 I36.462 J15.827
G1 X186.422 Y12.285
X186.433 Y12.271
X186.499 Y12.208
X186.581 Y12.168
X186.67 Y12.154
X190.943
G3 X191.197 Y12.312 I-0.01 J0.3
X191.312 Y12.765 I-0.864 J0.461
X190.702 Y13.68 I-0.979 J0.008 F1500
X187.178 Y12.71 I-1.13 J-2.779
X186.925 Y12.313 I2.394 J-1.809 F1000
G2 X186.67 Y12.154 I-0.265 J0.141
G1 X185.131
X184.694 Y12.176
X184.175 Y12.338
X183.645 Y12.668
X183.199 Y13.104
G2 X181.908 Y15.233 I8.254 J6.463
X177.801 Y49.899 I47.949 J23.256
X180.821 Y59.398 I51.646 J-11.187
X183.012 Y63.88 I38.571 J-16.083
G1 X183.345 Y64.408
X183.562 Y64.718
X183.628 Y64.786
X183.713 Y64.83
X183.807 Y64.845
X187.966 Y64.846
G2 X188.221 Y64.687 I-0.01 J-0.3
X188.34 Y64.235 I-0.894 J-0.477
X187.641 Y63.247 I-1.013 J-0.025 F1500
X184.315 Y64.29 I-0.933 J2.851
X184.062 Y64.687 I2.394 J1.809 F1000
G3 X183.807 Y64.845 I-0.265 J-0.141
G1 X182.297
X181.879 Y64.824
X181.373 Y64.666
X180.843 Y64.337
X180.4 Y63.898
G3 X179.145 Y61.748 I7.936 J-6.073
X174.228 Y34.407 I50.536 J-23.202
X178.177 Y17.462 I55.554 J4.016
X180.3 Y12.948 I36.566 J14.441
G1 X180.638 Y12.423
X180.737 Y12.282
X180.804 Y12.214
X180.888 Y12.17
X180.982 Y12.155
X185.131 Y12.154
G3 X185.386 Y12.313 I-0.01 J0.3
X185.505 Y12.765 I-0.897 J0.478
X184.799 Y13.759 I-1.016 J0.026 F1500
X181.49 Y12.711 I-0.915 J-2.857
X181.237 Y12.314 I2.394 J-1.809 F1000
G2 X180.982 Y12.155 I-0.265 J0.141
G1 X179.462
X179.096 Y12.173
X178.598 Y12.329
X178.068 Y12.658
X177.628 Y13.1
X177.262 Y13.606
G2 X175.916 Y16.416 I16.342 J9.559
X175.544 Y59.66 I54.061 J22.088
X177.605 Y64.202 I34.759 J-13.035
G1 X177.936 Y64.706
X178.003 Y64.78
X178.091 Y64.828
X178.189 Y64.845
X182.297
G2 X182.551 Y64.687 I-0.01 J-0.3
X182.671 Y64.235 I-0.906 J-0.483
X181.933 Y63.218 I-1.026 J-0.031 F1500
X178.697 Y64.289 I-0.843 J2.879
X178.444 Y64.686 I2.394 J1.809 F1000
G3 X178.189 Y64.845 I-0.265 J-0.141
G1 X176.768
X176.343 Y64.823
X175.851 Y64.669
X175.321 Y64.34
X174.883 Y63.895
X174.523 Y63.386
G3 X173.221 Y60.555 I15.975 J-9.063
X172.917 Y17.227 I56.742 J-22.063
X174.63 Y13.212 I36.261 J13.098
G1 X174.937 Y12.669
X175.176 Y12.294
X175.243 Y12.22
X175.33 Y12.172
X175.429 Y12.156
X179.462 Y12.155
G3 X179.716 Y12.314 I-0.01 J0.3
X179.838 Y12.765 I-0.92 J0.49
X179.044 Y13.817 I-1.042 J0.039 F1500
X175.937 Y12.711 I-0.714 J-2.914
X175.683 Y12.314 I2.394 J-1.809 F1000
G2 X175.429 Y12.156 I-0.265 J0.141
G1 X174.075
X173.61 Y12.179
X173.124 Y12.331
X172.594 Y12.66
X172.158 Y13.107
X171.803 Y13.62
G2 X170.542 Y16.469 I15.794 J8.694
X170.298 Y59.872 I59.416 J22.036
X171.967 Y63.905 I33.805 J-11.626
G1 X172.279 Y64.446
X172.446 Y64.706
X172.513 Y64.78
X172.6 Y64.827
X172.698 Y64.844
X176.768 Y64.845
G2 X177.023 Y64.686 I-0.01 J-0.3
X177.144 Y64.234 I-0.913 J-0.487
X176.378 Y63.2 I-1.034 J-0.035 F1500
X175.601 Y63.097 I-0.778 J2.897
G1 X175.6
G2 X173.206 Y64.288 I0 J3
X172.953 Y64.685 I2.394 J1.809 F1000
G3 X172.698 Y64.844 I-0.265 J-0.141
G1 X171.382
X170.9 Y64.82
X170.421 Y64.67
X169.89 Y64.341
X169.457 Y63.892
X169.106 Y63.377
G3 X168.096 Y61.098 I13.018 J-7.133
X167.684 Y17.042 I61.825 J-22.607
X169.311 Y12.993 I31.9 J10.465
G1 X169.627 Y12.454
X169.734 Y12.292
X169.8 Y12.219
X169.887 Y12.172
X169.984 Y12.156
X174.075
G3 X174.33 Y12.314 I-0.01 J0.3
X174.45 Y12.766 I-0.909 J0.485
X173.7 Y13.791 I-1.03 J0.033 F1500
X170.492 Y12.712 I-0.814 J-2.887
X170.239 Y12.315 I2.394 J-1.809 F1000
G2 X169.984 Y12.156 I-0.265 J0.141
G1 X168.689
X168.206 Y12.181
X167.734 Y12.328
X167.204 Y12.657
X166.772 Y13.107
X166.424 Y13.625
G2 X165.441 Y15.916 I12.751 J6.831
X165.077 Y60.033 I64.466 J22.592
X166.668 Y64.096 I30.52 J-9.611
G1 X166.986 Y64.634
X167.039 Y64.711
X167.105 Y64.782
X167.191 Y64.828
X167.287 Y64.843
X171.382 Y64.844
G2 X171.636 Y64.685 I-0.01 J-0.3
X171.757 Y64.234 I-0.908 J-0.484
X171.01 Y63.211 I-1.029 J-0.033 F1500
X167.795 Y64.288 I-0.821 J2.885
X167.541 Y64.685 I2.394 J1.809 F1000
G3 X167.287 Y64.843 I-0.265 J-0.141
G1 X165.996
X165.532 Y64.82
X165.066 Y64.674
X164.537 Y64.346
X164.106 Y63.895
X163.761 Y63.375
G3 X162.802 Y61.075 I12.487 J-6.56
X162.473 Y16.903 I67.075 J-22.587
X164.033 Y12.828 I28.264 J8.487
G1 X164.355 Y12.286
X164.422 Y12.217
X164.507 Y12.172
X164.602 Y12.157
X168.689 Y12.156
G3 X168.943 Y12.315 I-0.01 J0.3
X169.064 Y12.767 I-0.91 J0.485
X168.311 Y13.793 I-1.031 J0.034 F1500
X165.11 Y12.713 I-0.807 J-2.889
X164.856 Y12.316 I2.394 J-1.809 F1000
G2 X164.602 Y12.157 I-0.265 J0.141
G1 X163.303
X162.871 Y12.179
X162.407 Y12.324
X161.885 Y12.648
X161.454 Y13.099
X161.111 Y13.62
G2 X160.172 Y15.929 I12.144 J6.28
X159.874 Y60.151 I69.687 J22.581
X161.408 Y64.235 I26.319 J-7.552
G1 X161.682 Y64.692
X161.749 Y64.772
X161.839 Y64.825
X161.942 Y64.843
X165.996
G2 X166.25 Y64.685 I-0.01 J-0.3
X166.371 Y64.233 I-0.916 J-0.489
X165.593 Y63.191 I-1.038 J-0.037 F1500
X162.45 Y64.287 I-0.75 J2.905
X162.196 Y64.684 I2.394 J1.809 F1000
G3 X161.942 Y64.843 I-0.265 J-0.141
G1 X160.609
X160.224 Y64.823
X159.763 Y64.679
X159.246 Y64.358
X158.815 Y63.907
X158.474 Y63.385
G3 X157.555 Y61.069 I11.85 J-6.041
X157.28 Y16.802 I72.278 J-22.582
X158.517 Y13.271 I29.052 J8.197
G1 X158.797 Y12.713
X159.031 Y12.308
X159.098 Y12.228
X159.188 Y12.176
X159.291 Y12.158
X163.303 Y12.157
G3 X163.557 Y12.316 I-0.01 J0.3
X163.679 Y12.767 I-0.923 J0.492
X162.87 Y13.827 I-1.045 J0.041 F1500
X159.799 Y12.713 I-0.678 J-2.922
X159.545 Y12.316 I2.394 J-1.809 F1000
G2 X159.291 Y12.158 I-0.265 J0.141
G1 X157.916
X157.585 Y12.174
X157.126 Y12.318
X156.615 Y12.635
X156.184 Y13.086
X155.844 Y13.609
G2 X154.944 Y15.933 I11.571 J5.819
X154.693 Y60.241 I74.861 J22.579
X155.905 Y63.78 I27.889 J-7.578
G1 X156.187 Y64.336
X156.393 Y64.692
X156.46 Y64.772
X156.55 Y64.824
X156.653 Y64.842
X160.609 Y64.843
G2 X160.864 Y64.684 I-0.01 J-0.3
X160.987 Y64.233 I-0.931 J-0.497
X160.138 Y63.152 I-1.054 J-0.045 F1500
X157.161 Y64.286 I-0.583 J2.943
X156.907 Y64.683 I2.394 J1.808 F1000
G3 X156.653 Y64.842 I-0.265 J-0.141
G1 X155.365
X154.956 Y64.821
X154.498 Y64.678
X153.993 Y64.365
X153.562 Y63.914
X153.224 Y63.389
G3 X152.341 Y61.059 I11.336 J-5.629
X151.627 Y18.523 I77.405 J-22.573
G1 X151.78 Y17.918
X151.941 Y17.316
X152.108 Y16.714
G3 X153.3 Y13.169 I27.641 J7.319
G1 X153.585 Y12.613
X153.763 Y12.307
X153.83 Y12.228
X153.92 Y12.176
X154.022 Y12.158
X157.916
G3 X158.11 Y12.677 I-0.01 J0.3
G1 X158.05 Y12.727
X158.008 Y12.755 F1500
G3 X154.641 Y12.619 I-1.584 J-2.548
X154.231 Y12.253 I1.784 J-2.412 F1000
G1 X154.187 Y12.215
X154.136 Y12.185
X154.08 Y12.166
X154.022 Y12.158
X152.672
X152.336 Y12.175
X151.881 Y12.317
X151.381 Y12.628
X150.95 Y13.079
X150.613 Y13.604
G2 X149.745 Y15.94 I11.095 J5.452
X147.594 Y51.167 I79.814 J22.552
X149.529 Y60.318 I79.913 J-12.119
X150.701 Y63.871 I26.546 J-6.786
G1 X150.987 Y64.426
X151.145 Y64.694
X151.212 Y64.772
X151.302 Y64.824
X151.404 Y64.841
X155.365 Y64.842
G2 X155.619 Y64.683 I-0.01 J-0.3
X155.742 Y64.232 I-0.931 J-0.496
X154.896 Y63.153 I-1.054 J-0.045 F1500
X151.912 Y64.286 I-0.591 J2.941
X151.658 Y64.683 I2.394 J1.809 F1000
G3 X151.404 Y64.841 I-0.265 J-0.141
G1 X150.12
X149.725 Y64.821
X149.272 Y64.68
X148.776 Y64.372
X148.344 Y63.921
X148.009 Y63.395
G3 X147.155 Y61.054 I10.863 J-5.289
X144.426 Y31.385 I82.079 J-22.509
X146.955 Y16.645 I84.265 J6.87
X148.109 Y13.087 I25.493 J6.303
G1 X148.397 Y12.533
X148.532 Y12.306
X148.599 Y12.227
X148.688 Y12.177
X148.79 Y12.159
X152.672 Y12.158
G3 X152.961 Y12.469 I-0.01 J0.3
X152.813 Y12.732 I-0.33 J-0.011
G1 X152.809 Y12.735 F1500
G3 X149.408 Y12.62 I-1.617 J-2.527
X148.999 Y12.254 I1.784 J-2.412 F1000
G1 X148.955 Y12.215
X148.904 Y12.186
X148.848 Y12.167
X148.79 Y12.159
X147.569
X147.119 Y12.182
X146.668 Y12.323
X146.175 Y12.629
X145.744 Y13.08
X145.41 Y13.606
G2 X144.569 Y15.952 I10.667 J5.145
X141.757 Y43.147 I84.399 J22.469
X144.386 Y60.389 I87.103 J-4.457
X145.526 Y63.951 I24.47 J-5.866
G1 X145.815 Y64.505
X145.93 Y64.696
X145.997 Y64.773
X146.086 Y64.823
X146.187 Y64.841
X150.12
G2 X150.374 Y64.683 I-0.01 J-0.3
X150.498 Y64.232 I-0.934 J-0.498
X149.632 Y63.143 I-1.058 J-0.047 F1500
X146.695 Y64.285 I-0.544 J2.95
X146.441 Y64.682 I2.394 J1.808 F1000
G3 X146.187 Y64.841 I-0.265 J-0.141
G1 X144.876
X144.526 Y64.823
X144.075 Y64.682
X143.585 Y64.378
X143.154 Y63.927
X142.82 Y63.399
G3 X141.992 Y61.05 I10.494 J-5.021
X139.152 Y36.958 I86.514 J-22.411
X141.817 Y16.587 I90 J1.413
X142.942 Y13.02 I23.655 J5.503
G1 X143.232 Y12.467
X143.332 Y12.303
X143.399 Y12.227
X143.488 Y12.177
X143.588 Y12.16
X147.569 Y12.159
G3 X147.823 Y12.318 I-0.01 J0.3
X147.946 Y12.769 I-0.928 J0.495
X147.114 Y13.841 I-1.051 J0.044 F1500
X144.096 Y12.715 I-0.625 J-2.934
X143.842 Y12.318 I2.394 J-1.809 F1000
G2 X143.588 Y12.16 I-0.265 J0.141
G1 X142.324
X141.933 Y12.179
X141.485 Y12.319
X140.996 Y12.623
X140.565 Y13.074
X140.232 Y13.602
G2 X139.416 Y15.955 I10.333 J4.904
X136.647 Y37.564 I88.594 J22.334
X139.254 Y60.443 I92.703 J1.024
X140.367 Y64.013 I22.924 J-5.19
G1 X140.658 Y64.566
X140.739 Y64.698
X140.806 Y64.774
X140.895 Y64.823
X140.995 Y64.84
X144.876 Y64.841
G2 X145.07 Y64.321 I-0.01 J-0.3
G1 X145.01 Y64.27
X144.952 Y64.228 F1500
X144.891 Y64.19
G2 X141.613 Y64.379 I-1.494 J2.602
X141.204 Y64.745 I1.784 J2.412 F1000
G1 X141.159 Y64.784
X141.109 Y64.813
X141.053 Y64.832
X140.995 Y64.84
X139.773
X139.347 Y64.819
X138.9 Y64.679
X138.413 Y64.377
X137.982 Y63.926
X137.651 Y63.397
G3 X136.845 Y61.04 I10.194 J-4.801
X134.206 Y41.914 I90.441 J-22.225
X136.693 Y16.531 I95.296 J-3.478
X137.561 Y13.536 I26.309 J6.006
G1 X137.802 Y12.96
X138.087 Y12.405
X138.152 Y12.301
X138.219 Y12.226
X138.307 Y12.177
X138.406 Y12.16
X142.324
G3 X142.578 Y12.318 I-0.01 J0.3
X142.702 Y12.769 I-0.936 J0.499
X141.825 Y13.862 I-1.06 J0.048 F1500
X138.914 Y12.716 I-0.517 J-2.955
X138.661 Y12.319 I2.394 J-1.809 F1000
G2 X138.406 Y12.16 I-0.265 J0.141
G1 X137.221
X136.764 Y12.183
X136.32 Y12.322
X135.834 Y12.624
X135.403 Y13.075
X135.072 Y13.604
G2 X134.277 Y15.964 I10.061 J4.704
X131.789 Y33.232 I92.248 J22.104
X134.135 Y60.494 I97.783 J5.317
X134.994 Y63.492 I25.277 J-5.619
G1 X135.236 Y64.067
X135.521 Y64.622
X135.571 Y64.7
X135.638 Y64.774
X135.726 Y64.823
X135.824 Y64.839
X139.773 Y64.84
G2 X140.027 Y64.681 I-0.01 J-0.3
X140.15 Y64.23 I-0.932 J-0.497
X139.295 Y63.147 I-1.056 J-0.046 F1500
X136.332 Y64.284 I-0.57 J2.945
X136.079 Y64.681 I2.394 J1.809 F1000
G3 X135.824 Y64.839 I-0.265 J-0.141
G1 X134.528
X134.19 Y64.822
X133.747 Y64.684
X133.262 Y64.383
X132.831 Y63.932
X132.501 Y63.402
G3 X131.715 Y61.039 I9.939 J-4.618
X129.361 Y45.008 I93.962 J-21.986
X131.579 Y16.49 I100.204 J-6.554
X132.426 Y13.49 I24.297 J5.245
G1 X132.668 Y12.914
X132.954 Y12.36
X132.993 Y12.3
X133.059 Y12.225
X133.147 Y12.177
X133.245 Y12.161
X137.221 Y12.16
G3 X137.476 Y12.319 I-0.01 J0.3
X137.598 Y12.77 I-0.929 J0.495
X136.763 Y13.844 I-1.051 J0.044 F1500
X133.753 Y12.716 I-0.616 J-2.936
X133.5 Y12.319 I2.394 J-1.809 F1000
G2 X133.245 Y12.161 I-0.265 J0.141
G1 X131.977
X131.616 Y12.179
X131.174 Y12.317
X130.691 Y12.617
X130.26 Y13.068
X129.931 Y13.598
G2 X129.155 Y15.964 I9.82 J4.533
X126.944 Y30.76 I95.554 J21.837
X129.027 Y60.531 I102.626 J7.779
X129.865 Y63.534 I23.524 J-4.946
G1 X130.107 Y64.109
X130.393 Y64.664
X130.417 Y64.701
X130.484 Y64.775
X130.571 Y64.822
X130.669 Y64.839
X134.528
G2 X134.722 Y64.32 I-0.01 J-0.3
G1 X134.663 Y64.268
G2 X134.422 Y64.111 I-0.824 J0.998 F1500
X131.288 Y64.378 I-1.35 J2.679
X130.878 Y64.744 I1.784 J2.412 F1000
G1 X130.834 Y64.783
X130.783 Y64.812
X130.728 Y64.831
X130.669 Y64.839
X129.425
X129.046 Y64.82
X128.607 Y64.682
X128.124 Y64.383
X127.693 Y63.932
X127.365 Y63.401
G3 X126.598 Y61.032 I9.72 J-4.457
X124.487 Y46.85 I97.209 J-21.714
X126.477 Y16.449 I105.03 J-8.392
X127.306 Y13.444 I22.701 J4.643
G1 X127.549 Y12.869
X127.835 Y12.315
X127.846 Y12.298
X127.913 Y12.225
X128 Y12.178
X128.098 Y12.161
X131.977
G3 X132.266 Y12.471 I-0.01 J0.3
X132.119 Y12.736 I-0.333 J-0.012
G1 X132.112 Y12.741 F1500
G3 X128.716 Y12.622 I-1.612 J-2.53
X128.307 Y12.257 I1.784 J-2.412 F1000
G1 X128.262 Y12.218
X128.212 Y12.188
X128.156 Y12.169
X128.098 Y12.161
X126.874 Y12.162
X126.48 Y12.181
X126.041 Y12.318
X125.56 Y12.617
X125.129 Y13.068
X124.802 Y13.599
G2 X124.043 Y15.971 I9.639 J4.39
X122.032 Y29.539 I98.812 J21.584
X123.93 Y60.569 I107.454 J9
X124.75 Y63.577 I22.158 J-4.428
G1 X124.995 Y64.151
X125.266 Y64.676
X125.332 Y64.762
X125.425 Y64.818
X125.532 Y64.838
X129.425 Y64.839
G2 X129.715 Y64.528 I-0.01 J-0.3
X129.571 Y64.275 I-0.316 J0.011
G1 X129.562 Y64.269
G2 X126.151 Y64.378 I-1.627 J2.521 F1500
X125.741 Y64.743 I1.784 J2.412 F1000
G1 X125.697 Y64.782
X125.646 Y64.811
X125.591 Y64.83
X125.532 Y64.838
X124.322
X123.917 Y64.818
X123.48 Y64.681
X123 Y64.383
X122.569 Y63.932
X122.243 Y63.401
G3 X121.492 Y61.027 I9.574 J-4.331
X119.578 Y48.073 I100.099 J-21.413
X121.384 Y16.414 I109.851 J-9.614
X122.196 Y13.405 I21.692 J4.239
G1 X122.442 Y12.831
X122.703 Y12.325
X122.77 Y12.239
X122.863 Y12.182
X122.97 Y12.162
X126.874
G3 X127.128 Y12.32 I-0.01 J0.3
X127.252 Y12.771 I-0.938 J0.5
X126.366 Y13.868 I-1.061 J0.049 F1500
X123.478 Y12.718 I-0.494 J-2.959
X123.224 Y12.321 I2.394 J-1.809 F1000
G2 X122.97 Y12.162 I-0.265 J0.141
G1 X121.771
X121.357 Y12.183
X120.922 Y12.319
X120.443 Y12.616
X120.012 Y13.067
X119.686 Y13.599
G2 X118.943 Y15.976 I9.513 J4.278
X117.125 Y28.314 I101.29 J21.229
X118.841 Y60.601 I112.272 J10.223
X119.645 Y63.613 I21.361 J-4.096
G1 X119.892 Y64.186
X120.145 Y64.675
X120.211 Y64.761
X120.304 Y64.818
X120.411 Y64.838
X124.322
G2 X124.577 Y64.679 I-0.01 J-0.3
X124.7 Y64.228 I-0.937 J-0.5
X123.819 Y63.133 I-1.061 J-0.048 F1500
X120.919 Y64.282 I-0.506 J2.957
X120.665 Y64.679 I2.394 J1.809 F1000
G3 X120.411 Y64.838 I-0.265 J-0.141
G1 X119.22 Y64.837
X118.8 Y64.816
X118.367 Y64.681
X117.889 Y64.384
X117.458 Y63.933
X117.133 Y63.401
G3 X116.397 Y61.022 I9.451 J-4.227
X114.674 Y49.3 I102.082 J-20.993
X116.298 Y16.384 I114.671 J-10.838
X117.096 Y13.371 I21.036 J3.959
G1 X117.344 Y12.798
X117.588 Y12.325
X117.655 Y12.239
X117.748 Y12.182
X117.855 Y12.163
X121.771 Y12.162
G3 X122.025 Y12.321 I-0.01 J0.3
X122.149 Y12.772 I-0.936 J0.499
X121.271 Y13.865 I-1.06 J0.048 F1500
X118.363 Y12.718 I-0.515 J-2.956
X118.109 Y12.321 I2.394 J-1.809 F1000
G2 X117.855 Y12.163 I-0.265 J0.141
G1 X116.668
X116.246 Y12.184
X115.814 Y12.319
X115.338 Y12.615
X114.906 Y13.066
X114.582 Y13.599
G2 X113.852 Y15.979 I9.383 J4.177
X112.224 Y27.086 I102.689 J20.732
X113.758 Y60.629 I117.093 J11.448
X114.55 Y63.643 I20.807 J-3.854
G1 X114.799 Y64.216
X115.036 Y64.675
X115.102 Y64.761
X115.195 Y64.817
X115.302 Y64.837
X119.22
G2 X119.474 Y64.679 I-0.01 J-0.3
X119.597 Y64.228 I-0.936 J-0.499
X118.72 Y63.135 I-1.06 J-0.048 F1500
X115.81 Y64.281 I-0.517 J2.955
X115.557 Y64.678 I2.394 J1.809 F1000
G3 X115.302 Y64.837 I-0.265 J-0.141
G1 X114.117
X113.696 Y64.816
X113.265 Y64.681
X112.789 Y64.386
X112.358 Y63.935
X112.034 Y63.402
G3 X111.311 Y61.02 I9.315 J-4.131
X109.775 Y50.529 I102.819 J-20.409
X111.219 Y16.359 I119.499 J-12.064
X112.006 Y13.343 I20.583 J3.755
G1 X112.255 Y12.771
X112.485 Y12.326
X112.552 Y12.24
X112.645 Y12.183
X112.752 Y12.163
X116.668
G3 X116.922 Y12.322 I-0.01 J0.3
X117.046 Y12.773 I-0.936 J0.499
X116.169 Y13.866 I-1.06 J0.048 F1500
X113.259 Y12.719 I-0.515 J-2.955
X113.006 Y12.322 I2.394 J-1.809 F1000
G2 X112.752 Y12.163 I-0.265 J0.141
G1 X111.565 Y12.164
X111.147 Y12.185
X110.718 Y12.319
X110.243 Y12.613
X109.812 Y13.064
X109.488 Y13.598
G2 X108.77 Y15.982 I9.244 J4.085
X107.265 Y26.477 I104.314 J20.318
X108.683 Y60.652 I121.944 J12.057
X109.464 Y63.669 I20.38 J-3.665
G1 X109.714 Y64.242
X109.938 Y64.674
X110.004 Y64.76
X110.097 Y64.817
X110.204 Y64.836
X114.117 Y64.837
G2 X114.371 Y64.678 I-0.01 J-0.3
X114.495 Y64.227 I-0.937 J-0.499
X113.614 Y63.133 I-1.06 J-0.048 F1500
X110.712 Y64.281 I-0.509 J2.957
X110.458 Y64.678 I2.394 J1.809 F1000
G3 X110.204 Y64.836 I-0.265 J-0.141
G1 X109.014
X108.601 Y64.815
X108.173 Y64.682
X107.699 Y64.388
X107.268 Y63.936
X106.945 Y63.403
G3 X106.232 Y61.018 I9.179 J-4.043
X104.816 Y51.139 I103.896 J-19.929
X106.147 Y16.337 I124.358 J-12.673
X106.923 Y13.319 I20.208 J3.587
G1 X107.174 Y12.747
X107.392 Y12.326
X107.458 Y12.24
X107.551 Y12.184
X107.658 Y12.164
X111.565
G3 X111.82 Y12.322 I-0.01 J0.3
X111.943 Y12.773 I-0.937 J0.5
X111.059 Y13.869 I-1.061 J0.049 F1500
X108.166 Y12.72 I-0.5 J-2.958
X107.912 Y12.323 I2.394 J-1.809 F1000
G2 X107.658 Y12.164 I-0.265 J0.141
G1 X106.462
X106.057 Y12.184
X105.63 Y12.318
X105.157 Y12.612
X104.726 Y13.063
X104.403 Y13.597
G2 X103.695 Y15.983 I9.116 J4.004
X102.306 Y25.865 I105.193 J19.824
X103.613 Y60.672 I126.805 J12.668
X104.384 Y63.692 I20.035 J-3.512
G1 X104.636 Y64.264
X104.849 Y64.674
X104.915 Y64.76
X105.008 Y64.816
X105.115 Y64.836
X109.014
G2 X109.208 Y64.317 I-0.01 J-0.3
G1 X109.147 Y64.268
X109.133 Y64.259 F1500
G2 X105.733 Y64.375 I-1.615 J2.528
X105.324 Y64.74 I1.784 J2.412 F1000
G1 X105.28 Y64.779
X105.229 Y64.809
X105.173 Y64.828
X105.115 Y64.836
X103.911
X103.516 Y64.816
X103.089 Y64.682
X102.617 Y64.389
X102.186 Y63.938
X101.864 Y63.404
G3 X101.16 Y61.016 I9.056 J-3.966
X99.858 Y51.751 I104.157 J-19.362
X101.079 Y16.319 I129.23 J-13.283
X101.847 Y13.298 I19.905 J3.451
G1 X102.099 Y12.726
X102.307 Y12.326
X102.373 Y12.241
X102.466 Y12.184
X102.573 Y12.165
X106.462 Y12.164
G3 X106.717 Y12.323 I-0.01 J0.3
X106.841 Y12.774 I-0.939 J0.501
X105.944 Y13.875 I-1.063 J0.05 F1500
X103.081 Y12.72 I-0.47 J-2.963
X102.827 Y12.323 I2.394 J-1.809 F1000
G2 X102.573 Y12.165 I-0.265 J0.141
G1 X101.36
X100.976 Y12.184
X100.55 Y12.317
X100.078 Y12.61
X99.647 Y13.061
X99.325 Y13.595
G2 X98.626 Y15.984 I8.997 J3.931
X97.347 Y25.252 I105.241 J19.243
X98.547 Y60.69 I131.679 J13.278
X99.311 Y63.712 I19.758 J-3.387
G1 X99.564 Y64.283
X99.767 Y64.674
X99.834 Y64.759
X99.927 Y64.815
X100.033 Y64.835
X103.911 Y64.836
G2 X104.165 Y64.677 I-0.01 J-0.3
X104.289 Y64.226 I-0.94 J-0.501
X103.385 Y63.122 I-1.064 J-0.05 F1500
X100.541 Y64.279 I-0.45 J2.966
X100.288 Y64.676 I2.394 J1.809 F1000
G3 X100.033 Y64.835 I-0.265 J-0.141
G1 X98.808
X98.438 Y64.816
X98.013 Y64.683
X97.542 Y64.391
X97.111 Y63.94
X96.789 Y63.405
G3 X96.094 Y61.016 I8.942 J-3.897
X94.837 Y51.744 I106.225 J-19.117
X96.016 Y16.302 I134.114 J-13.278
X96.577 Y13.871 I26.317 J4.782
G1 X96.783 Y13.282
X97.029 Y12.709
X97.229 Y12.326
X97.295 Y12.241
X97.388 Y12.185
X97.495 Y12.165
X101.36
G3 X101.554 Y12.684 I-0.01 J0.3
G1 X101.495 Y12.736
G3 X101.286 Y12.874 I-0.775 J-0.946 F1500
X98.113 Y12.626 I-1.388 J-2.66
X97.704 Y12.26 I1.784 J-2.412 F1000
G1 X97.66 Y12.222
X97.609 Y12.192
X97.553 Y12.173
X97.495 Y12.165
X96.257
X95.902 Y12.183
X95.477 Y12.316
X95.006 Y12.608
X94.575 Y13.059
X94.253 Y13.594
G2 X93.562 Y15.985 I8.888 J3.865
X92.388 Y24.638 I104.363 J18.567
X93.487 Y60.705 I136.57 J13.89
X94.045 Y63.137 I24.845 J-4.425
G1 X94.25 Y63.727
X94.497 Y64.3
X94.692 Y64.673
X94.759 Y64.759
X94.852 Y64.815
X94.958 Y64.834
X98.808 Y64.835
G2 X99.097 Y64.525 I-0.01 J-0.3
X98.962 Y64.252 I-0.368 J0.013
G1 X98.921 Y64.223 F1500
G2 X95.577 Y64.374 I-1.56 J2.563
X95.167 Y64.739 I1.784 J2.412 F1000
G1 X95.123 Y64.778
X95.072 Y64.808
X95.017 Y64.827
X94.958 Y64.834
X93.705
X93.367 Y64.817
X92.942 Y64.685
X92.473 Y64.393
X92.042 Y63.942
X91.72 Y63.407
G3 X91.033 Y61.015 I8.837 J-3.835
X89.878 Y52.359 I105.149 J-18.431
X90.958 Y16.288 I139.011 J-13.89
X91.514 Y13.855 I24.654 J4.352
G1 X91.718 Y13.266
X91.965 Y12.693
X92.157 Y12.327
X92.224 Y12.241
X92.316 Y12.185
X92.423 Y12.166
X96.257 Y12.165
G3 X96.511 Y12.324 I-0.01 J0.3
X96.635 Y12.775 I-0.944 J0.504
X95.701 Y13.889 I-1.069 J0.053 F1500
X92.931 Y12.722 I-0.377 J-2.976
X92.677 Y12.325 I2.394 J-1.809 F1000
G2 X92.423 Y12.166 I-0.265 J0.141
G1 X91.154
X90.834 Y12.182
X90.409 Y12.315
X89.94 Y12.606
X89.509 Y13.057
X89.188 Y13.592
G2 X88.503 Y15.985 I8.789 J3.807
X87.368 Y24.643 I105.928 J18.299
X88.333 Y60.103 I141.581 J13.888
G1 X88.441 Y60.717
X88.552 Y61.331
G2 X89.185 Y63.742 I14.711 J-2.573
G1 X89.435 Y64.314
X89.623 Y64.673
X89.69 Y64.758
X89.783 Y64.814
X89.889 Y64.834
X93.705
G2 X93.96 Y64.676 I-0.01 J-0.3
X94.084 Y64.225 I-0.946 J-0.504
X93.138 Y63.107 I-1.07 J-0.053 F1500
X90.397 Y64.278 I-0.347 J2.98
X90.143 Y64.675 I2.394 J1.808 F1000
G3 X89.889 Y64.834 I-0.265 J-0.141
G1 X88.744
X88.3 Y64.811
X87.876 Y64.679
X87.407 Y64.388
X86.976 Y63.937
X86.655 Y63.402
X86.418 Y62.825
G3 X85.767 Y59.778 I17.651 J-5.361
X85.906 Y16.268 I142.889 J-21.3
X86.456 Y13.835 I23.71 J4.084
X87.152 Y12.238 I6.394 J1.835
G1 X87.25 Y12.186
X87.356 Y12.167
X91.154 Y12.166
G3 X91.443 Y12.476 I-0.01 J0.3
