(1001)
(Machine)
(  vendor: Autodesk)
(  description: Generic 3-axis)
(T1  D=3 CR=0 - ZMIN=-20.098 - flat end mill)
G90 G94
G17
G21
G28 G91 Z0
G90

(Adaptive1)
T1
S15000 M3
G54
M8
G0 X-28.831 Y0.549
Z3.01
Z1
G3 X-26.201 Y-0.549 Z0.844 I1.315 J-0.549 F166.7
X-28.831 Y0.549 Z0.687 I-1.315 J0.549
X-26.201 Y-0.549 Z0.531 I1.315 J-0.549
X-28.831 Y0.549 Z0.375 I-1.315 J0.549
X-26.201 Y-0.549 Z0.218 I1.315 J-0.549
X-28.831 Y0.549 Z0.062 I-1.315 J0.549
X-26.201 Y-0.549 Z-0.094 I1.315 J-0.549
X-28.831 Y0.549 Z-0.251 I-1.315 J0.549
X-26.201 Y-0.549 Z-0.407 I1.315 J-0.549
X-28.831 Y0.549 Z-0.563 I-1.315 J0.549
X-26.201 Y-0.549 Z-0.72 I1.315 J-0.549
X-28.831 Y0.549 Z-0.876 I-1.315 J0.549
X-26.201 Y-0.549 Z-1.032 I1.315 J-0.549
X-28.831 Y0.549 Z-1.189 I-1.315 J0.549
X-26.201 Y-0.549 Z-1.345 I1.315 J-0.549
X-28.831 Y0.549 Z-1.501 I-1.315 J0.549
X-26.201 Y-0.549 Z-1.658 I1.315 J-0.549
X-28.831 Y0.549 Z-1.814 I-1.315 J0.549
X-26.201 Y-0.549 Z-1.97 I1.315 J-0.549
X-26.091 Y0 Z-1.99 I-1.315 J0.549
X-28.941 Y0 I-1.425 J0
X-26.091 Y0 I1.425 J0
X-26.163 Y1.625 I-1.932 J0.728 F500
X-29.827 Y-0.913 I-1.693 J-1.47
X-25.095 Y-0.808 I2.35 J0.79
X-30.06 Y2.719 I-2.699 J1.459
X-25.016 Y-2.94 I2.522 J-2.829
X-24.087 Y-1.678 I-2.522 J2.829
X-30.852 Y3.803 I-3.704 J2.344
G1 X-31.279 Y3.531
G3 X-23.72 Y-3.617 I3.78 J-3.574
X-22.647 Y-1.918 I-3.78 J3.574
X-32.079 Y4.565 I-5.172 J2.578
X-27.463 Y-6.587 I4.413 J-4.705
X-28.065 Y7.815 I-0.301 J7.201
X-31.694 Y6.655 I0.301 J-7.201
X-24.579 Y-7.444 I4.071 J-6.79
X-31.06 Y8.652 I-3.24 J8.048
X-33.912 Y6.78 I3.24 J-8.048
X-30.645 Y-8.927 I6.192 J-6.905
X-21.854 Y8.667 I3.057 J9.466
X-38.292 Y1.32 I-6.115 J-8.381
X-17.342 Y-4.12 I10.823 J-1.378
X-23.468 Y11.27 I-10.235 J4.841
X-39.247 Y3.971 I-4.33 J-11.343
X-31.552 Y-11.619 I11.448 J-4.043
X-20.748 Y-10.368 I4.208 J10.94
X-34.964 Y11.532 I-7.108 J10.95
X-38.084 Y8.695 I7.108 J-10.95
X-40.558 Y4.568 I8.159 J-7.695
X-32.006 Y-13.108 I13.092 J-4.573
X-14.351 Y-4.512 I4.54 J13.103
X-13.374 Y1.808 I-11.781 J5.056
X-41.982 Y4.609 I-14.575 J-1.368
X-41.996 Y-4.892 I13.053 J-4.77
X-12.325 Y-2.798 I14.56 J4.956
X-13.097 Y6.687 I-13.956 J3.637
X-44.074 Y1.831 I-14.877 J-6.333
X-43.418 Y-5.339 I14.902 J-2.252
X-10.844 Y-2.921 I15.974 J5.433
X-10.535 Y2.688 I-12.98 J3.526
X-44.464 Y6.396 I-17.41 J-2.225
X-45.422 Y3.32 I8.69 J-4.395
X-12.225 Y-10.009 I17.931 J-3.346
X-36.62 Y17.281 I-15.568 J10.633
X-29.714 Y-19.559 I8.957 J-17.388
X-13.606 Y15.094 I2.087 J20.1
X-48.556 Y-1.505 I-14.362 J-14.855
X-11.396 Y-13.747 I21.051 J1.379
X-27.961 Y22.386 I-16.346 J14.37
X-45.296 Y-13.998 I0.192 J-22.413
X-5.534 Y-6.01 I17.857 J14.068
X-34.503 Y22.875 I-22.206 J6.699
X-44.217 Y-17.386 I6.744 J-22.93
X-4.078 Y-6.32 I16.776 J17.478
X-31.955 Y24.982 I-23.644 J7.008
X-49.114 Y-13.717 I4.167 J-25.001
X-6.648 Y-14.921 I21.638 J13.688
X-20.179 Y25.693 I-21.093 J15.534
X-20.715 Y25.835 I-0.619 J-1.252
G1 X-33.761
G3 X-43.275 Y21.844 I2.213 J-18.604
X-51.039 Y-13.4 I15.445 J-21.88
X-35.639 Y-25.849 I23.34 J13.123
G1 X-20.72 Y-25.835
G3 X-12.682 Y-22.633 I-1.722 J16.007
X-1.49 Y-8.141 I-14.494 J22.762
G1 X-1.5 Y8.076
G3 X-4.737 Y15.887 I-15.864 J-1.998
X-16.442 Y25.859 I-22.341 J-14.367
G1 X-20.715 Y25.835
G3 X-20.969 Y25.677 I0.01 J-0.3
X-21.085 Y25.224 I0.867 J-0.462
X-20.466 Y24.301 I0.983 J-0.01 F1200
X-16.961 Y25.28 I1.111 J2.787
X-16.707 Y25.677 I-2.394 J1.808 F500
G2 X-16.453 Y25.835 I0.265 J-0.141
G1 X-14.475
G2 X-8.818 Y22.695 I-1.738 J-9.798
X-1.475 Y13.184 I-16.731 J-20.505
G1 X-1.5 Y8.076
G2 X-1.659 Y7.822 I-0.3 J0.01
X-2.015 Y7.847 I-0.158 J0.296
G1 X-2.091 Y7.904
G2 X-2.056 Y12.665 I1.843 J2.367 F1200
X-1.659 Y12.918 I1.808 J-2.394 F500
G3 X-1.5 Y13.173 I-0.141 J0.265
G1 Y15.051
G3 X-4.645 Y20.625 I-9.602 J-1.743
X-10.552 Y25.878 I-17.887 J-14.165
G1 X-14.475 Y25.835
G3 X-14.729 Y25.677 I0.01 J-0.3
X-14.853 Y25.226 I0.938 J-0.5
X-13.962 Y24.127 I1.062 J-0.049 F1200
X-11.086 Y25.28 I0.482 J2.961
X-10.832 Y25.677 I-2.394 J1.808 F500
G2 X-10.578 Y25.835 I0.265 J-0.141
G1 X-9.332
G2 X-4.054 Y22.153 I-1.71 J-8.074
X-1.467 Y18.91 I-8.21 J-9.203
G1 X-1.5 Y15.051
G2 X-1.659 Y14.797 I-0.3 J0.01
X-2.11 Y14.672 I-0.503 J0.944
X-3.222 Y15.602 I-0.052 J1.068 F1200
X-2.056 Y18.384 I2.975 J0.387
X-1.659 Y18.637 I1.808 J-2.394 F500
G3 X-1.5 Y18.891 I-0.141 J0.265
G1 Y20.19
G3 X-5.186 Y25.321 I-7.923 J-1.802
X-5.879 Y25.835 I-0.766 J-0.308
X-6.107 Y25.354 I0.01 J-0.3
G1 X-6.029 Y25.251
X-2.068 Y20.058 F1200
X-2.038 Y20.019 F500
G3 X-1.5 Y20.19 I0.239 J0.182
G1 Y22.393
G3 X-3.636 Y25.883 I-4.861 J-0.577
G1 X-3.691 Y25.877
X-3.741 Y25.858
X-3.783 Y25.829
X-3.817 Y25.79
X-3.838 Y25.746
X-3.848 Y25.699
X-3.846 Y25.652
X-3.833 Y25.609
X-3.81 Y25.571
X-3.59 Y25.21
X-1.999 Y22.599 F1200
X-1.822 Y22.308 F500
G3 X-1.5 Y22.393 I0.148 J0.09
G1 Y24.412
G3 X-2.199 Y25.835 I-1.099 J0.344
X-2.472 Y25.437 I0.01 J-0.3
G1 X-2.398 Y25.225
X-2.083 Y24.323 F1200
X-2.065 Y24.281
G3 X-1.5 Y24.412 I0.265 J0.141 F500
X-1.53 Y25.651 I-2.111 J0.569
G1 X-1.557 Y25.697
X-1.583 Y25.731
X-1.617 Y25.765
X-1.64 Y25.782
X-1.663 Y25.797
X-1.709 Y25.818
X-1.755 Y25.83
X-1.801 Y25.835
X-9.332
G0 Z-1.39
X-1.875 Y-7.127
G1 Z-1.69 F500
X-1.871 Y-7.133 Z-1.757
X-1.859 Y-7.152 Z-1.82
X-1.841 Y-7.183 Z-1.877
X-1.817 Y-7.224 Z-1.925
X-1.788 Y-7.273 Z-1.96
X-1.755 Y-7.327 Z-1.982
X-1.721 Y-7.385 Z-1.99
G2 X-1.5 Y-8.138 I-1.36 J-0.809
G1 Y-10.829
G2 X-4.573 Y-17.053 I-11.725 J1.919
X-15.383 Y-25.862 I-22.095 J16.077
G1 X-20.72 Y-25.835
G2 X-20.974 Y-25.677 I0.01 J0.3
X-21.122 Y-25.231 I1.235 J0.658
X-20.041 Y-23.652 I1.383 J0.213 F1200
X-15.895 Y-25.275 I0.862 J-3.906
X-15.649 Y-25.677 I-3.284 J-2.284 F500
G3 X-15.395 Y-25.835 I0.265 J0.141
G1 X-13.556
G3 X-7.865 Y-22.689 I-1.568 J9.556
X-1.463 Y-15.099 I-16.135 J20.107
G1 X-1.5 Y-10.829
G3 X-1.659 Y-10.575 I-0.3 J-0.01
X-2.111 Y-10.459 I-0.464 J-0.871
X-3.043 Y-11.088 I-0.012 J-0.987 F1200
X-2.056 Y-14.571 I2.795 J-1.089
X-1.659 Y-14.824 I1.808 J2.394 F500
G2 X-1.5 Y-15.078 I-0.141 J-0.265
G1 Y-16.519
X-1.57 Y-16.874
X-1.656 Y-17.225
X-1.758 Y-17.572
X-1.874 Y-17.914
X-2.005 Y-18.251
X-2.151 Y-18.582
X-2.311 Y-18.906
X-2.485 Y-19.223
X-2.673 Y-19.531
X-2.874 Y-19.832
X-3.089 Y-20.123
X-3.315 Y-20.404
X-3.554 Y-20.675
X-3.805 Y-20.936
X-4.066 Y-21.185
X-4.339 Y-21.423
X-4.621 Y-21.648
G2 X-9.594 Y-25.875 I-15.414 J13.098
G1 X-13.556 Y-25.835
G2 X-13.811 Y-25.677 I0.01 J0.3
X-13.934 Y-25.226 I0.934 J0.498
X-13.072 Y-24.139 I1.057 J0.047 F1200
X-10.125 Y-25.28 I0.554 J-2.948
X-9.871 Y-25.677 I-2.394 J-1.808 F500
G3 X-9.617 Y-25.835 I0.265 J0.141
G1 X-8.23
G3 X-3.096 Y-22.168 I-2.138 J8.42
X-1.511 Y-20.265 I-2.331 J3.553
G1 X-1.5 Y-20.16
Y-16.519
G3 X-1.659 Y-16.265 I-0.3 J-0.01
X-2.109 Y-16.14 I-0.508 J-0.953
X-3.247 Y-17.196 I-0.057 J-1.079 F1200
X-2.056 Y-19.652 I2.999 J-0.063
X-1.659 Y-19.906 I1.808 J2.394 F500
G2 X-1.5 Y-20.16 I-0.141 J-0.265
G1 Y-21.292
G2 X-4.913 Y-25.857 I-6.459 J1.27
G1 X-8.23 Y-25.835
G2 X-8.484 Y-25.677 I0.01 J0.3
X-8.438 Y-25.289 I0.302 J0.161
G1 X-8.4 Y-25.248
G2 X-5.447 Y-25.29 I1.457 J-1.37 F1200
X-5.178 Y-25.677 I-1.496 J-1.327 F500
G3 X-4.924 Y-25.835 I0.265 J0.141
G1 X-3.821
G3 X-1.459 Y-24.341 I-0.29 J3.073
G1 X-1.468 Y-24.268
X-1.492 Y-24.201
X-1.53 Y-24.14
X-1.579 Y-24.09
X-1.636 Y-24.051
X-1.7 Y-24.027
X-1.767 Y-24.017
X-1.834 Y-24.021
X-1.897 Y-24.039
X-1.954 Y-24.07
X-2.093 Y-24.154
X-3.952 Y-25.27 F1200
X-3.965 Y-25.278 F500
G3 X-3.821 Y-25.835 I0.155 J-0.257
G1 X-2.168
G3 X-1.5 Y-25.326 I0.117 J0.54
X-1.946 Y-25.074 I-0.3 J-0.01
G1 X-2.096 Y-25.158
X-2.299 Y-25.271 F1200
X-2.304 Y-25.273 F500
G3 X-2.168 Y-25.835 I0.146 J-0.262
G1 X-1.801
X-1.755 Y-25.83
X-1.709 Y-25.818
X-1.663 Y-25.797
X-1.64 Y-25.782
X-1.617 Y-25.765
X-1.583 Y-25.731
X-1.557 Y-25.697
X-1.53 Y-25.651
X-1.512 Y-25.605
X-1.503 Y-25.559
X-1.5 Y-25.513
Y-21.292
G0 Z3.01
X-34.624 Y-25.461
Z-1.39
G1 Z-1.69 F500
X-34.63 Y-25.465 Z-1.757
X-34.649 Y-25.476 Z-1.82
X-34.68 Y-25.494 Z-1.877
X-34.721 Y-25.518 Z-1.925
X-34.77 Y-25.548 Z-1.96
X-34.824 Y-25.58 Z-1.982
X-34.882 Y-25.614 Z-1.99
G2 X-35.635 Y-25.835 I-0.809 J1.36
G1 X-38.353
G2 X-44.693 Y-22.762 I1.713 J11.608
X-51.424 Y15.518 I16.926 J22.708
X-39.278 Y25.865 I23.282 J-15.028
G1 X-33.761 Y25.835
G2 X-33.507 Y25.677 I-0.01 J-0.3
X-33.361 Y25.231 I-1.202 J-0.641
X-34.311 Y23.733 I-1.348 J-0.195 F1200
X-38.765 Y25.275 I-1.171 J3.825
X-39.011 Y25.677 I3.284 J2.284 F500
G3 X-39.265 Y25.835 I-0.265 J-0.141
G1 X-41.292
G3 X-46.978 Y22.696 I1.797 J-9.972
X-52.438 Y-16.754 I19.125 J-22.75
X-42.729 Y-25.879 I23.701 J15.492
G1 X-38.353 Y-25.835
G3 X-38.099 Y-25.677 I-0.01 J0.3
X-37.987 Y-25.224 I-0.839 J0.447
X-38.537 Y-24.368 I-0.95 J-0.006 F1200
X-42.197 Y-25.28 I-1.266 J-2.72
X-42.45 Y-25.677 I2.394 J-1.808 F500
G2 X-42.704 Y-25.835 I-0.265 J0.141
G1 X-44.231
G2 X-49.862 Y-22.138 I2.052 J9.262
X-53.4 Y17.873 I21.976 J22.105
X-45.229 Y25.886 I23.56 J-15.852
G1 X-41.292 Y25.835
G2 X-41.003 Y25.525 I-0.01 J-0.3
X-41.138 Y25.284 I-0.301 J0.011
G1 X-41.161 Y25.269
G2 X-44.578 Y25.375 I-1.633 J2.517 F1200
X-44.987 Y25.74 I1.784 J2.412 F500
G1 X-45.032 Y25.779
X-45.082 Y25.809
X-45.138 Y25.828
X-45.196 Y25.835
X-46.619
G3 X-51.825 Y22.11 I2.267 J-8.668
X-55.018 Y-18.219 I23.868 J-22.181
X-47.847 Y-25.894 I23.348 J14.626
G1 X-44.231 Y-25.835
G3 X-44.037 Y-25.316 I-0.01 J0.3
G1 X-44.096 Y-25.264
G3 X-45.345 Y-24.787 I-1.287 J-1.495 F1200
X-47.186 Y-25.375 I-0.056 J-2.999
X-47.595 Y-25.74 I1.784 J-2.412 F500
G1 X-47.64 Y-25.779
X-47.69 Y-25.809
X-47.746 Y-25.828
X-47.804 Y-25.835
X-49.007
G2 X-53.788 Y-22.238 I1.863 J7.452
X-56.176 Y19.066 I25.856 J22.216
X-49.966 Y25.867 I19.61 J-11.669
G1 X-46.619 Y25.835
G2 X-46.365 Y25.677 I-0.01 J-0.3
X-46.404 Y25.318 I-0.283 J-0.151
G1 X-46.463 Y25.252
G2 X-49.42 Y25.29 I-1.461 J1.365 F1200
X-49.689 Y25.677 I1.496 J1.327 F500
G3 X-49.943 Y25.835 I-0.265 J-0.141
G1 X-51.027
X-51.345 Y25.748
X-51.658 Y25.646
X-51.967 Y25.53
X-52.269 Y25.399
X-52.565 Y25.255
X-52.854 Y25.097
X-53.135 Y24.925
X-53.409 Y24.741
X-53.673 Y24.544
X-53.927 Y24.335
X-54.172 Y24.115
X-54.406 Y23.883
X-54.629 Y23.64
X-54.841 Y23.388
X-55.04 Y23.126
X-55.228 Y22.855
X-55.402 Y22.575
X-55.563 Y22.288
G3 X-57.882 Y-19.25 I27.515 J-22.37
X-52.255 Y-25.903 I21.417 J12.409
G1 X-49.007 Y-25.835
G3 X-48.753 Y-25.677 I-0.01 J0.3
X-48.765 Y-25.226 I-0.402 J0.214
G1 X-48.805 Y-25.171 F1200
X-48.852 Y-25.122
G3 X-51.676 Y-25.29 I-1.328 J-1.496
X-51.945 Y-25.677 I1.496 J-1.327 F500
G2 X-52.199 Y-25.835 I-0.265 J0.141
G1 X-53.232
X-53.494 Y-25.781
X-53.752 Y-25.713
X-54.007 Y-25.631
X-54.256 Y-25.534
X-54.5 Y-25.424
X-54.738 Y-25.301
X-54.968 Y-25.165
X-55.191 Y-25.017
X-55.405 Y-24.856
X-55.61 Y-24.685
X-55.805 Y-24.502
X-55.99 Y-24.308
X-56.163 Y-24.105
X-56.326 Y-23.893
X-56.477 Y-23.672
G2 X-59.501 Y19.384 I28.584 J23.642
X-54.205 Y25.907 I21.867 J-12.344
G1 X-51.027 Y25.835
G2 X-50.773 Y25.677 I-0.01 J-0.3
X-50.758 Y25.222 I-0.456 J-0.243
X-50.918 Y25.021 I-0.471 J0.212 F1200
X-53.619 Y25.29 I-1.205 J1.596
X-53.888 Y25.677 I1.496 J1.327 F500
G3 X-54.142 Y25.835 I-0.265 J-0.141
G1 X-55.068
X-55.364 Y25.758
X-55.655 Y25.665
X-55.941 Y25.558
X-56.221 Y25.436
X-56.495 Y25.3
X-56.761 Y25.151
X-57.02 Y24.987
X-57.269 Y24.811
X-57.509 Y24.623
X-57.74 Y24.422
X-57.959 Y24.21
X-58.168 Y23.986
X-58.365 Y23.753
X-58.55 Y23.509
X-58.721 Y23.257
X-58.88 Y22.996
X-59.025 Y22.727
X-59.157 Y22.451
G3 X-60.784 Y-20.204 I31.041 J-22.543
X-56.289 Y-25.904 I18.306 J9.812
G1 X-53.232 Y-25.835
G3 X-52.977 Y-25.677 I-0.01 J0.3
X-52.936 Y-25.219 I-0.52 J0.277
X-53.2 Y-24.89 I-0.561 J-0.18 F1200
X-55.705 Y-25.29 I-1.008 J-1.727
X-55.974 Y-25.677 I1.496 J-1.327 F500
G2 X-56.228 Y-25.835 I-0.265 J0.141
G1 X-57.089
X-57.374 Y-25.763
X-57.654 Y-25.676
X-57.93 Y-25.574
X-58.2 Y-25.457
X-58.463 Y-25.326
X-58.719 Y-25.181
X-58.966 Y-25.023
X-59.205 Y-24.851
X-59.434 Y-24.667
X-59.653 Y-24.471
X-59.862 Y-24.264
X-60.059 Y-24.046
X-60.244 Y-23.818
X-60.416 Y-23.58
X-60.576 Y-23.333
X-60.722 Y-23.078
X-60.855 Y-22.816
X-60.973 Y-22.547
G2 X-62.402 Y20.302 I32.86 J22.545
X-58.121 Y25.907 I18.14 J-9.417
G1 X-55.068 Y25.835
G2 X-54.814 Y25.677 I-0.01 J-0.3
X-54.744 Y25.397 I-0.525 J-0.28
G1 X-54.747 Y25.337
X-54.756 Y25.278
X-54.771 Y25.219
G2 X-55.044 Y24.881 I-0.567 J0.178 F1200
X-57.532 Y25.29 I-0.992 J1.737
X-57.801 Y25.677 I1.496 J1.327 F500
G3 X-58.055 Y25.835 I-0.265 J-0.141
G1 X-58.926
X-59.171 Y25.789
X-59.412 Y25.727
X-59.649 Y25.65
X-59.881 Y25.559
X-60.107 Y25.453
X-60.326 Y25.333
X-60.536 Y25.2
X-60.738 Y25.054
X-60.931 Y24.896
X-61.113 Y24.726
X-61.285 Y24.545
X-61.444 Y24.353
X-61.592 Y24.152
X-61.726 Y23.942
G3 X-64.116 Y-20.378 I33.501 J-24.031
X-60.186 Y-25.863 I18.269 J8.939
G1 X-60.029 Y-25.835
X-57.089
G3 X-56.835 Y-25.677 I-0.01 J0.3
X-56.785 Y-25.219 I-0.544 J0.29
X-57.098 Y-24.837 I-0.594 J-0.167 F1200
X-59.506 Y-25.29 I-0.912 J-1.78
X-59.774 Y-25.677 I1.496 J-1.327 F500
G2 X-60.029 Y-25.835 I-0.265 J0.141
G1 X-60.864
G2 X-63.514 Y-24.04 I0.585 J3.719
X-65.72 Y20.446 I35.196 J24.042
X-61.847 Y25.906 I16.455 J-7.569
G1 X-58.926 Y25.835
G2 X-58.671 Y25.677 I-0.01 J-0.3
X-58.613 Y25.219 I-0.575 J-0.306
X-58.998 Y24.768 I-0.633 J0.151 F1200
X-61.256 Y25.29 I-0.762 J1.849
X-61.525 Y25.677 I1.496 J1.327 F500
G3 X-61.779 Y25.835 I-0.265 J-0.141
G1 X-62.599
G3 X-65.178 Y24.082 I0.569 J-3.61
X-68.77 Y-17.614 I36.565 J-24.153
X-67.429 Y-20.554 I21.266 J7.928
X-63.724 Y-25.902 I15.828 J7.008
G1 X-63.518 Y-25.835
X-60.864
G3 X-60.609 Y-25.677 I-0.01 J0.3
X-60.551 Y-25.219 I-0.572 J0.305
X-60.958 Y-24.763 I-0.63 J-0.152 F1200
X-63.127 Y-25.295 I-0.689 J-1.878
X-63.401 Y-25.678 I1.48 J-1.345 F500
G2 X-63.657 Y-25.834 I-0.263 J0.144
G1 X-64.252 Y-25.822
X-64.537 Y-25.813
X-64.77 Y-25.758
X-64.999 Y-25.688
X-65.224 Y-25.604
X-65.442 Y-25.505
X-65.654 Y-25.394
X-65.859 Y-25.269
X-66.055 Y-25.131
X-66.243 Y-24.982
X-66.42 Y-24.821
X-66.587 Y-24.649
X-66.743 Y-24.467
X-66.888 Y-24.276
X-67.02 Y-24.076
X-67.139 Y-23.868
G2 X-68.827 Y20.918 I38.685 J23.883
X-65.498 Y25.856 I14.344 J-6.078
G3 X-62.599 Y25.835 I2.151 J97.571
G2 X-62.345 Y25.677 I-0.01 J-0.3
X-62.289 Y25.219 I-0.567 J-0.302
X-62.665 Y24.782 I-0.623 J0.155 F1200
X-64.891 Y25.258 I-0.769 J1.846
X-65.171 Y25.636 I1.457 J1.37 F500
G3 X-65.43 Y25.788 I-0.261 J-0.149
G1 X-66.273 Y25.763
G3 X-68.801 Y23.86 I0.738 J-3.611
X-71.795 Y-18.094 I40.068 J-23.943
X-70.505 Y-21.057 I21.464 J7.583
X-67.445 Y-25.749 I15.571 J6.811
G1 X-67.275 Y-25.734
X-64.537 Y-25.813
G3 X-64.278 Y-25.662 I-0.002 J0.3
X-64.198 Y-25.207 I-0.594 J0.339
X-64.661 Y-24.673 I-0.674 J-0.116 F1200
X-66.737 Y-25.204 I-0.619 J-1.902
X-67.017 Y-25.583 I1.457 J-1.37 F500
G2 X-67.275 Y-25.734 I-0.261 J0.149
G1 X-68.11 Y-25.71
G2 X-70.576 Y-23.825 I0.743 J3.529
X-75.84 Y9.734 I41.018 J23.626
X-72.031 Y21.203 I43.402 J-8.044
X-69.045 Y25.75 I12.479 J-4.94
G1 X-66.273 Y25.763
G2 X-66.014 Y25.612 I-0.002 J-0.3
X-65.932 Y25.157 I-0.6 J-0.343
X-66.419 Y24.606 I-0.682 J0.113 F1200
X-68.441 Y25.155 I-0.565 J1.919
X-68.721 Y25.533 I1.457 J1.37 F500
G3 X-68.98 Y25.684 I-0.261 J-0.149
G1 X-69.763 Y25.662
G3 X-72.079 Y23.997 I0.578 J-3.248
X-78.194 Y3.283 I38.686 J-22.682
X-73.423 Y-21.836 I49.268 J-3.655
X-70.918 Y-25.601 I9.236 J3.432
G1 X-70.793 Y-25.623
X-70.314 Y-25.646
X-68.11 Y-25.71
G3 X-67.851 Y-25.558 I-0.002 J0.3
X-67.774 Y-25.103 I-0.581 J0.332
X-68.24 Y-24.585 I-0.658 J-0.124 F1200
X-68.814 Y-24.501 I-0.574 J-1.916
X-70.245 Y-25.104 I0 J-2
X-70.531 Y-25.476 I1.43 J-1.398 F500
G2 X-70.793 Y-25.623 I-0.258 J0.154
G1 X-70.865 Y-25.619
X-71.049 Y-25.606
X-71.6 Y-25.56
G2 X-74.044 Y-23.62 I0.743 J3.447
X-79.521 Y5.304 I43.392 J23.196
X-75.124 Y21.609 I48.687 J-4.385
X-72.721 Y25.483 I12.506 J-5.073
G1 X-72.564 Y25.478
G2 X-69.763 Y25.662 I3.535 J-32.327
X-69.504 Y25.51 I-0.002 J-0.3
X-69.434 Y25.055 I-0.56 J-0.319
X-69.8 Y24.603 I-0.63 J0.136 F1200
X-71.997 Y24.979 I-0.819 J1.825
X-72.297 Y25.341 I1.379 J1.449 F500
G3 X-72.564 Y25.478 I-0.252 J-0.163
G1 X-73.436 Y25.404
G3 X-75.868 Y23.238 I1.053 J-3.631
X-77.799 Y-19.1 I46.864 J-23.35
X-76.58 Y-22.092 I21.108 J6.857
G1 X-76.479 Y-22.398
X-76.363 Y-22.698
X-76.234 Y-22.992
X-76.092 Y-23.281
X-75.936 Y-23.562
X-75.768 Y-23.836
X-75.587 Y-24.101
X-75.394 Y-24.358
X-75.189 Y-24.606
X-74.973 Y-24.844
X-74.746 Y-25.072
X-74.509 Y-25.289
X-74.388 Y-25.323
X-71.6 Y-25.56
G3 X-71.333 Y-25.423 I0.015 J0.3
X-71.231 Y-24.973 I-0.561 J0.363
X-71.619 Y-24.45 I-0.663 J-0.087 F1200
X-73.821 Y-24.824 I-0.823 J-1.823
X-74.121 Y-25.186 I1.379 J-1.449 F500
G2 X-74.388 Y-25.323 I-0.252 J0.163
G1 X-75.191 Y-25.254
G2 X-77.467 Y-23.358 I0.839 J3.322
X-82.764 Y0.857 I44.803 J22.486
X-77.85 Y22.767 I52.528 J-0.273
X-76.323 Y25.094 I6.256 J-2.441
G1 X-76.209 Y25.152
X-76.085 Y25.179
X-73.436 Y25.404
G2 X-73.17 Y25.267 I0.015 J-0.3
X-73.061 Y24.817 I-0.588 J-0.381
X-73.552 Y24.217 I-0.697 J0.069 F1200
X-75.517 Y24.68 I-0.587 J1.912
X-75.818 Y25.042 I1.379 J1.449 F500
G3 X-76.085 Y25.179 I-0.252 J-0.163
G1 X-76.844 Y25.114
G3 X-78.992 Y23.409 I0.701 J-3.089
X-83.792 Y7.243 I39.817 J-20.618
X-79.527 Y-22.775 I54.826 J-7.522
X-78.112 Y-24.924 I5.213 J1.891
G1 X-78.01 Y-24.979
X-77.898 Y-25.009
X-77.661 Y-25.042
X-77.11 Y-25.091
X-75.191 Y-25.254
G3 X-74.924 Y-25.118 I0.015 J0.3
X-74.842 Y-24.666 I-0.501 J0.324
X-75.176 Y-24.251 I-0.583 J-0.128 F1200
X-77.303 Y-24.543 I-0.834 J-1.818
X-77.623 Y-24.888 I1.293 J-1.526 F500
G2 X-77.898 Y-25.009 I-0.242 J0.177
G1 X-78.763 Y-24.884
G2 X-81.059 Y-22.686 I1.161 J3.51
X-84.479 Y12.1 I50.962 J22.573
X-81.038 Y22.851 I46.214 J-8.866
X-79.867 Y24.66 I6.659 J-3.028
G1 X-79.756 Y24.725
X-79.632 Y24.759
G2 X-76.844 Y25.114 I4.995 J-28.144
X-76.577 Y24.977 I0.015 J-0.299
X-76.48 Y24.526 I-0.546 J-0.354
X-76.823 Y24.047 I-0.643 J0.097 F1200
X-79.037 Y24.294 I-0.922 J1.775
X-79.358 Y24.638 I1.292 J1.527 F500
G3 X-79.632 Y24.759 I-0.242 J-0.177
G1 X-80.416 Y24.646
G3 X-82.591 Y22.688 I0.947 J-3.239
X-87.244 Y-0.08 I48.144 J-21.698
X-82.338 Y-23.626 I55.686 J-0.683
X-81.445 Y-24.498 I1.303 J0.441
G1 X-78.763 Y-24.884
G3 X-78.489 Y-24.764 I0.032 J0.298
X-78.355 Y-24.356 I-0.557 J0.409
G1 X-78.356 Y-24.321
G3 X-78.776 Y-23.719 I-0.69 J-0.034 F1200
X-80.849 Y-24.033 I-0.781 J-1.841
X-81.17 Y-24.377 I1.292 J-1.527 F500
G2 X-81.445 Y-24.498 I-0.242 J0.177
G1 X-82.253 Y-24.382
G2 X-84.448 Y-22.224 I1.138 J3.354
X-88.411 Y6.274 I52.499 J21.824
X-83.977 Y23.403 I52.534 J-4.46
X-83.115 Y24.258 I1.246 J-0.394
G1 X-80.416 Y24.646
G2 X-80.142 Y24.525 I0.032 J-0.298
X-80.01 Y24.082 I-0.554 J-0.406
X-80.418 Y23.491 I-0.686 J0.037 F1200
X-82.52 Y23.793 I-0.81 J1.829
X-82.841 Y24.137 I1.292 J1.527 F500
G3 X-83.115 Y24.258 I-0.242 J-0.177
G1 X-83.906 Y24.144
G3 X-86.052 Y22.064 I1.073 J-3.254
X-90.18 Y-2.43 I51.917 J-21.344
X-85.87 Y-22.873 I56.92 J1.324
X-85.019 Y-23.936 I2.521 J1.147
G1 X-84.901 Y-23.975
X-84.457 Y-24.062
X-84.274 Y-24.091
X-82.253 Y-24.382
G3 X-81.979 Y-24.261 I0.032 J0.298
X-81.862 Y-23.815 I-0.504 J0.37
X-82.215 Y-23.326 I-0.62 J-0.076 F1200
X-84.283 Y-23.541 I-0.857 J-1.807
X-84.621 Y-23.868 I1.21 J-1.592 F500
G2 X-84.901 Y-23.975 I-0.232 J0.19
G1 X-85.743 Y-23.804
G2 X-87.9 Y-21.523 I1.315 J3.404
X-90.886 Y10.275 I56.521 J21.346
X-86.939 Y23.56 I41.612 J-5.133
G1 X-86.754 Y23.584
X-86.639 Y23.623
G2 X-83.907 Y24.147 I9.236 J-40.709
G1 X-83.843
X-83.782 Y24.133
X-83.724 Y24.107
X-83.674 Y24.07
X-83.632 Y24.023
G2 X-83.504 Y23.579 I-0.54 J-0.396
X-83.848 Y23.04 I-0.668 J0.048 F1200
X-86.018 Y23.193 I-0.967 J1.751
X-86.358 Y23.518 I1.202 J1.598 F500
G3 X-86.639 Y23.623 I-0.231 J-0.191
G1 X-87.396 Y23.469
G3 X-89.463 Y21.385 I1.123 J-3.181
X-93.202 Y-0.776 I53.131 J-20.36
X-89.34 Y-22.129 I59.954 J-0.18
X-88.521 Y-23.224 I2.476 J0.998
G1 X-88.399 Y-23.265
X-85.743 Y-23.804
G3 X-85.462 Y-23.699 I0.049 J0.296
X-85.304 Y-23.265 I-0.533 J0.44
X-85.689 Y-22.641 I-0.691 J0.005 F1200
X-87.778 Y-22.835 I-0.886 J-1.793
X-88.118 Y-23.16 I1.202 J-1.598 F500
G2 X-88.399 Y-23.265 I-0.231 J0.191
G1 X-89.233 Y-23.096
G2 X-91.336 Y-20.698 I1.437 J3.383
X-93.312 Y13.562 I60.263 J20.663
X-90.351 Y22.846 I30.491 J-4.61
G1 X-90.194 Y22.885
X-90.078 Y22.924
X-87.396 Y23.469
G2 X-87.115 Y23.364 I0.049 J-0.296
X-86.959 Y22.929 I-0.528 J-0.436
X-87.326 Y22.321 I-0.685 J-0.001 F1200
X-89.457 Y22.494 I-0.929 J1.771
X-89.797 Y22.82 I1.202 J1.598 F500
G3 X-90.078 Y22.924 I-0.231 J-0.191
G1 X-90.886 Y22.76
G3 X-92.94 Y20.442 I1.367 J-3.28
X-95.7 Y-8.259 I59.862 J-20.24
X-92.211 Y-22.391 I46.339 J3.943
G1 X-92.04 Y-22.444
X-91.939 Y-22.513
X-91.825 Y-22.555
X-91.254 Y-22.684
X-91.07 Y-22.723
X-89.233 Y-23.096
G3 X-88.952 Y-22.991 I0.049 J0.296
X-88.8 Y-22.555 I-0.514 J0.424
X-89.183 Y-21.963 I-0.667 J-0.011 F1200
X-91.192 Y-22.142 I-0.852 J-1.81
X-91.541 Y-22.458 I1.158 J-1.631 F500
G2 X-91.825 Y-22.555 I-0.226 J0.197
G1 X-92.539 Y-22.389
G2 X-94.528 Y-20.301 I1.113 J3.051
X-97.65 Y-2.07 I52.519 J18.378
X-94.404 Y21.008 I64.269 J2.726
X-93.615 Y22.122 I2.534 J-0.958
G1 X-93.494 Y22.168
G2 X-90.886 Y22.761 I22.618 J-93.272
G1 X-90.824 Y22.765
X-90.762 Y22.756
X-90.703 Y22.733
X-90.65 Y22.699
X-90.605 Y22.655
G2 X-90.446 Y22.221 I-0.539 J-0.445
X-90.844 Y21.58 I-0.699 J-0.011 F1200
X-92.861 Y21.755 I-0.859 J1.806
X-93.21 Y22.07 I1.158 J1.631 F500
G3 X-93.494 Y22.168 I-0.226 J-0.197
G1 X-94.293 Y21.982
G3 X-96.29 Y19.645 I1.42 J-3.235
X-98.786 Y-7.509 I61.983 J-19.389
X-95.599 Y-21.597 I46.587 J3.132
G1 X-95.432 Y-21.656
X-95.33 Y-21.726
X-95.214 Y-21.768
X-92.539 Y-22.389
G3 X-92.256 Y-22.292 I0.058 J0.294
X-92.088 Y-21.861 I-0.514 J0.449
X-92.431 Y-21.25 I-0.682 J0.018 F1200
X-94.582 Y-21.356 I-0.993 J-1.736
X-94.931 Y-21.671 I1.158 J-1.631 F500
G2 X-95.214 Y-21.768 I-0.226 J0.197
G1 X-95.947 Y-21.599
G2 X-97.818 Y-19.595 I1.138 J2.939
X-100.568 Y-3.739 I49.959 J16.831
X-97.76 Y20.209 I66.922 J4.292
X-96.971 Y21.343 I2.576 J-0.95
G1 X-96.848 Y21.389
X-94.293 Y21.982
G2 X-94.01 Y21.885 I0.058 J-0.294
X-93.837 Y21.456 I-0.532 J-0.464
X-94.26 Y20.773 I-0.705 J-0.035 F1200
X-96.215 Y20.977 I-0.798 J1.834
X-96.564 Y21.292 I1.158 J1.631 F500
G3 X-96.848 Y21.389 I-0.226 J-0.197
G1 X-97.6 Y21.215
G3 X-99.463 Y19.163 I1.188 J-2.95
X-102.081 Y3.281 I51.205 J-16.598
X-99.413 Y-19.883 I67.29 J-3.987
X-98.651 Y-20.954 I2.496 J0.97
G1 X-98.528 Y-21
X-95.947 Y-21.599
G3 X-95.663 Y-21.501 I0.058 J0.294
X-95.491 Y-21.072 I-0.529 J0.461
X-95.896 Y-20.404 I-0.701 J0.032 F1200
X-97.896 Y-20.587 I-0.842 J-1.814
X-98.245 Y-20.902 I1.158 J-1.631 F500
G2 X-98.528 Y-21 I-0.226 J0.197
G1 X-99.253 Y-20.832
G2 X-101.058 Y-18.909 I1.087 J2.829
X-103.454 Y-5.437 I44.846 J14.926
X-101.084 Y19.367 I69.506 J5.874
X-100.275 Y20.576 I2.663 J-0.908
G1 X-100.149 Y20.624
X-97.6 Y21.215
G2 X-97.316 Y21.118 I0.058 J-0.294
X-97.143 Y20.689 I-0.532 J-0.465
X-97.57 Y20.004 I-0.706 J-0.035 F1200
X-99.517 Y20.211 I-0.789 J1.838
X-99.866 Y20.527 I1.158 J1.631 F500
G3 X-100.149 Y20.624 I-0.226 J-0.197
G1 X-100.906 Y20.448
G3 X-102.731 Y18.377 I1.218 J-2.913
X-105.069 Y3.261 I50.708 J-15.582
X-102.922 Y-18.366 I70.123 J-3.96
X-102.035 Y-20.116 I6.017 J1.95
G1 X-101.928 Y-20.193
X-101.805 Y-20.24
X-99.253 Y-20.832
G3 X-98.969 Y-20.734 I0.058 J0.294
X-98.796 Y-20.305 I-0.532 J0.464
X-99.221 Y-19.622 I-0.705 J0.035 F1200
X-101.172 Y-19.827 I-0.793 J-1.836
X-101.521 Y-20.142 I1.158 J-1.631 F500
G2 X-101.805 Y-20.24 I-0.226 J0.197
G1 X-102.559 Y-20.065
G2 X-104.373 Y-17.985 I1.22 J2.896
X-106.581 Y-2.85 I50.993 J15.169
X-104.523 Y17.984 I70.631 J3.541
X-103.642 Y19.742 I6.06 J-1.937
G1 X-103.535 Y19.82
X-103.41 Y19.867
X-100.906 Y20.448
G2 X-100.622 Y20.351 I0.058 J-0.294
X-100.448 Y19.922 I-0.536 J-0.468
X-100.904 Y19.218 I-0.711 J-0.039 F1200
X-102.778 Y19.454 I-0.717 J1.867
X-103.127 Y19.77 I1.158 J1.631 F500
G3 X-103.41 Y19.867 I-0.226 J-0.197
G1 X-104.111 Y19.705
G3 X-105.846 Y17.879 I1.007 J-2.695
X-107.894 Y5.983 I39.538 J-12.931
X-106.028 Y-18.076 I72.248 J-6.497
X-105.182 Y-19.436 I2.842 J0.824
G1 X-105.052 Y-19.486
X-102.559 Y-20.065
G3 X-102.276 Y-19.968 I0.058 J0.294
X-102.101 Y-19.539 I-0.537 J0.469
X-102.564 Y-18.83 I-0.712 J0.04 F1200
X-104.42 Y-19.074 I-0.698 J-1.874
X-104.769 Y-19.389 I1.158 J-1.631 F500
G2 X-105.052 Y-19.486 I-0.226 J0.197
G1 X-105.764 Y-19.321
G2 X-107.479 Y-17.48 I1.03 J2.679
X-109.371 Y-6.373 I37.37 J12.079
X-107.624 Y17.699 I73.551 J6.761
X-106.774 Y19.067 I2.891 J-0.848
G1 X-106.643 Y19.117
X-104.111 Y19.705
G2 X-103.828 Y19.607 I0.058 J-0.294
X-103.654 Y19.178 I-0.534 J-0.466
X-104.092 Y18.486 I-0.708 J-0.037 F1200
X-106.01 Y18.705 I-0.761 J1.85
X-106.359 Y19.02 I1.158 J1.631 F500
G3 X-106.643 Y19.117 I-0.226 J-0.197
G1 X-107.335 Y18.957
G3 X-109.34 Y16.491 I1.135 J-2.97
X-109.278 Y-17.159 I73.989 J-16.69
X-108.496 Y-18.621 I3.971 J1.185
G1 X-108.391 Y-18.695
X-108.271 Y-18.74
X-105.764 Y-19.321
G3 X-105.481 Y-19.224 I0.058 J0.294
X-105.306 Y-18.795 I-0.536 J0.468
X-105.761 Y-18.092 I-0.711 J0.039 F1200
X-107.639 Y-18.327 I-0.72 J-1.866
X-107.987 Y-18.643 I1.158 J-1.631 F500
G2 X-108.271 Y-18.74 I-0.226 J0.197
G1 X-108.988 Y-18.573
G2 X-110.704 Y-16.662 I1.085 J2.7
X-112.47 Y-4.719 I40.92 J12.154
X-110.818 Y16.957 I73.319 J5.311
X-109.98 Y18.323 I2.857 J-0.812
G1 X-109.849 Y18.374
X-107.335 Y18.957
G2 X-107.051 Y18.86 I0.058 J-0.294
X-106.877 Y18.431 I-0.536 J-0.468
G1 X-106.876 Y18.393 F1200
Y18.392
G2 X-107.327 Y17.73 I-0.711 J0
X-109.216 Y17.961 I-0.732 J1.861
X-109.565 Y18.277 I1.158 J1.631 F500
G3 X-109.849 Y18.374 I-0.226 J-0.197
G1 X-110.54 Y18.212
G3 X-112.509 Y15.762 I1.14 J-2.933
X-113.332 Y-11.548 I74.662 J-15.917
X-111.693 Y-17.87 I15.013 J0.52
G1 X-111.587 Y-17.947
X-111.464 Y-17.993
X-110.356 Y-18.255
X-108.988 Y-18.573
G3 X-108.704 Y-18.476 I0.058 J0.294
X-108.53 Y-18.047 I-0.536 J0.468
X-108.998 Y-17.34 I-0.71 J0.039 F1200
X-110.83 Y-17.584 I-0.682 J-1.88
X-111.18 Y-17.898 I1.15 J-1.636 F500
G2 X-111.464 Y-17.993 I-0.225 J0.198
G1 X-112.193 Y-17.821
G2 X-113.892 Y-15.873 I1.124 J2.695
X-115.5 Y-3.906 I41.618 J11.684
X-114.001 Y16.177 I73.165 J4.637
X-113.172 Y17.568 I2.861 J-0.763
G1 X-113.039 Y17.62
X-110.54 Y18.212
G2 X-110.256 Y18.116 I0.058 J-0.294
X-110.08 Y17.687 I-0.535 J-0.47
X-110.535 Y16.981 I-0.711 J-0.042 F1200
X-112.405 Y17.211 I-0.719 J1.866
X-112.755 Y17.525 I1.15 J1.636 F500
G3 X-113.039 Y17.62 I-0.225 J-0.198
G1 X-113.479 Y17.519
X-113.663 Y17.477
X-113.762 Y17.455
G3 X-115.443 Y15.531 I1.093 J-2.652
X-116.971 Y4.367 I38.604 J-10.969
X-115.62 Y-15.73 I74.41 J-5.092
X-114.845 Y-17.164 I3.875 J1.167
G1 X-114.735 Y-17.239
X-114.609 Y-17.283
G2 X-112.193 Y-17.821 I-8.412 J-43.471
G3 X-111.909 Y-17.725 I0.059 J0.294
X-111.726 Y-17.299 I-0.558 J0.492
X-112.28 Y-16.513 I-0.741 J0.066 F1200
X-113.988 Y-16.852 I-0.503 J-1.936
X-114.328 Y-17.178 I1.205 J-1.596 F500
G2 X-114.609 Y-17.283 I-0.232 J0.191
G1 X-115.316 Y-17.141
G2 X-116.964 Y-15.337 I0.975 J2.546
X-118.436 Y-4.994 I33.707 J10.074
X-117.242 Y15.117 I76.173 J5.57
X-116.367 Y16.859 I6.513 J-2.184
G1 X-116.252 Y16.94
X-116.119 Y16.986
G3 X-113.762 Y17.455 I-20.746 J110.438
G2 X-113.479 Y17.355 I0.054 J-0.295
X-113.308 Y16.924 I-0.548 J-0.468
X-113.882 Y16.181 I-0.72 J-0.038 F1200
X-115.501 Y16.551 I-0.404 J1.959
X-115.839 Y16.879 I1.215 J1.588 F500
G3 X-116.119 Y16.986 I-0.233 J-0.189
G1 X-116.785 Y16.855
G3 X-118.689 Y14.637 I0.958 J-2.748
X-120.057 Y-1.411 I58.579 J-13.077
X-118.719 Y-15.055 I60.55 J-0.95
X-117.943 Y-16.539 I4.284 J1.293
G1 X-117.833 Y-16.615
X-117.706 Y-16.659
X-115.316 Y-17.141
G3 X-115.035 Y-17.035 I0.049 J0.296
X-114.872 Y-16.602 I-0.556 J0.457
X-115.428 Y-15.877 I-0.72 J0.024 F1200
X-117.086 Y-16.228 I-0.453 J-1.948
X-117.426 Y-16.554 I1.205 J-1.596 F500
G2 X-117.706 Y-16.659 I-0.232 J0.191
G1 X-118.399 Y-16.519
G2 X-120.313 Y-14.154 I1.07 J2.822
X-121.419 Y5.14 I67.84 J13.567
X-119.613 Y16.159 I29.517 J0.819
G1 X-119.473 Y16.242
X-119.363 Y16.318
X-119.237 Y16.362
X-117.336 Y16.745
X-116.785 Y16.855
G2 X-116.505 Y16.748 I0.048 J-0.296
X-116.344 Y16.314 I-0.556 J-0.454
X-116.864 Y15.605 I-0.717 J-0.019 F1200
X-118.616 Y15.931 I-0.548 J1.923
X-118.956 Y16.257 I1.204 J1.597 F500
G3 X-119.237 Y16.362 I-0.232 J-0.191
G1 X-119.908 Y16.226
G3 X-121.8 Y13.98 I0.98 J-2.746
X-123.031 Y-2.079 I58.89 J-12.591
X-121.673 Y-14.902 I51.988 J-0.978
X-120.912 Y-16.018 I2.29 J0.743
G1 X-120.772 Y-16.062
G2 X-118.399 Y-16.519 I-9.901 J-57.736
G3 X-118.107 Y-16.049 I0.049 J0.296
G1 X-118.156 Y-15.987
G3 X-118.367 Y-15.819 I-0.581 J-0.512 F1200
X-120.077 Y-15.726 I-0.953 J-1.759
X-120.551 Y-16.001 I0.757 J-1.851 F500
G1 X-120.6 Y-16.032
X-120.655 Y-16.053
X-120.713 Y-16.063
X-120.772 Y-16.062
X-121.01 Y-16.024
X-121.194 Y-15.996
X-121.377 Y-15.97
X-121.58 Y-15.888
X-121.777 Y-15.793
X-121.967 Y-15.683
X-122.148 Y-15.561
X-122.32 Y-15.426
X-122.483 Y-15.28
X-122.635 Y-15.123
X-122.775 Y-14.955
X-122.903 Y-14.778
X-123.019 Y-14.592
X-123.121 Y-14.398
X-123.209 Y-14.198
X-123.284 Y-13.993
X-123.343 Y-13.782
X-123.388 Y-13.568
X-123.417 Y-13.351
G2 X-124.551 Y0.303 I52.983 J11.275
X-123.403 Y13.966 I62.174 J1.657
X-122.511 Y15.721 I5.999 J-1.947
G1 X-122.388 Y15.802
X-122.248 Y15.844
G3 X-119.907 Y16.224 I-3.965 J31.825
G1 X-119.845 Y16.228
X-119.784 Y16.219
X-119.725 Y16.198
X-119.672 Y16.165
X-119.627 Y16.121
G2 X-119.46 Y15.689 I-0.568 J-0.468
X-120.098 Y14.924 I-0.735 J-0.035 F1200
X-121.653 Y15.379 I-0.263 J1.983
X-121.974 Y15.723 I1.291 J1.527 F500
G3 X-122.248 Y15.844 I-0.242 J-0.177
G1 X-122.948 Y15.743
X-123.153 Y15.646
X-123.351 Y15.536
X-123.541 Y15.414
X-123.723 Y15.279
X-123.896 Y15.133
X-124.059 Y14.975
X-124.211 Y14.808
X-124.353 Y14.631
X-124.482 Y14.445
X-124.599 Y14.251
X-124.703 Y14.049
X-124.793 Y13.842
X-124.87 Y13.629
X-124.933 Y13.411
X-124.982 Y13.19
X-125.016 Y12.966
X-125.035 Y12.74
G3 X-125.993 Y-3.355 I63.905 J-11.88
X-124.665 Y-14.551 I42.498 J-0.636
X-123.904 Y-15.584 I2.245 J0.857
G1 X-123.765 Y-15.625
X-121.377 Y-15.97
G3 X-121.103 Y-15.849 I0.032 J0.298
X-120.963 Y-15.407 I-0.581 J0.426
X-121.574 Y-14.711 I-0.72 J-0.016 F1200
X-123.17 Y-15.16 I-0.304 J-1.977
X-123.491 Y-15.504 I1.291 J-1.527 F500
G2 X-123.765 Y-15.625 I-0.242 J0.177
G1 X-124.417 Y-15.531
X-124.625 Y-15.445
X-124.826 Y-15.344
X-125.02 Y-15.23
X-125.206 Y-15.102
X-125.382 Y-14.962
X-125.548 Y-14.809
X-125.703 Y-14.646
X-125.846 Y-14.472
X-125.976 Y-14.289
X-126.093 Y-14.097
X-126.197 Y-13.897
X-126.287 Y-13.69
X-126.362 Y-13.478
X-126.422 Y-13.261
X-126.466 Y-13.041
X-126.495 Y-12.817
G2 X-127.536 Y0.845 I53.496 J10.944
X-126.401 Y13.696 I55.969 J1.536
X-125.533 Y15.29 I5.478 J-1.953
G1 X-125.413 Y15.367
X-125.276 Y15.407
X-122.948 Y15.743
G2 X-122.673 Y15.622 I0.032 J-0.298
X-122.534 Y15.181 I-0.58 J-0.426
X-123.177 Y14.481 I-0.72 J0.016 F1200
X-124.681 Y14.942 I-0.212 J1.989
X-125.002 Y15.286 I1.291 J1.527 F500
G3 X-125.276 Y15.407 I-0.242 J-0.177
G1 X-125.969 Y15.307
X-126.172 Y15.215
X-126.369 Y15.109
X-126.558 Y14.991
X-126.739 Y14.861
X-126.912 Y14.719
X-127.074 Y14.566
X-127.227 Y14.403
X-127.368 Y14.231
X-127.498 Y14.049
X-127.616 Y13.86
X-127.721 Y13.663
X-127.813 Y13.46
X-127.891 Y13.251
X-127.956 Y13.037
X-128.007 Y12.82
X-128.043 Y12.6
X-128.065 Y12.378
G3 X-128.993 Y-2.91 I60.547 J-11.347
X-127.725 Y-14.086 I41.524 J-0.949
X-126.947 Y-15.145 I2.293 J0.87
G1 X-126.809 Y-15.186
X-124.417 Y-15.531
G3 X-124.143 Y-15.41 I0.032 J0.298
X-124.003 Y-14.969 I-0.581 J0.426
X-124.612 Y-14.273 I-0.72 J-0.016 F1200
X-126.213 Y-14.721 I-0.31 J-1.976
X-126.534 Y-15.065 I1.291 J-1.527 F500
G2 X-126.809 Y-15.186 I-0.242 J0.177
G1 X-127.439 Y-15.095
X-127.639 Y-15.019
X-127.833 Y-14.929
X-128.021 Y-14.825
X-128.201 Y-14.709
X-128.372 Y-14.58
X-128.534 Y-14.44
X-128.686 Y-14.288
X-128.826 Y-14.126
X-128.955 Y-13.955
X-129.072 Y-13.776
X-129.176 Y-13.588
X-129.266 Y-13.394
X-129.343 Y-13.194
X-129.405 Y-12.989
X-129.453 Y-12.78
X-129.487 Y-12.568
G2 X-130.524 Y-0.528 I44.845 J9.928
X-129.493 Y13.141 I59.708 J2.371
X-128.554 Y14.885 I6.307 J-2.272
G1 X-128.423 Y14.965
X-128.274 Y15.002
X-127.806 Y15.043
X-126.888 Y15.174
X-125.969 Y15.307
G2 X-125.639 Y15.041 I0.032 J-0.298
X-125.713 Y14.743 I-0.441 J-0.048
G1 X-125.765 Y14.681 F1200
X-125.827 Y14.629
X-125.897 Y14.589
G2 X-127.604 Y14.618 I-0.823 J1.823
X-128.058 Y14.925 I0.884 J1.794 F500
G1 X-128.105 Y14.96
X-128.158 Y14.985
X-128.215 Y14.999
X-128.274 Y15.002
X-128.908 Y14.947
X-129.108 Y14.874
X-129.303 Y14.787
X-129.491 Y14.687
X-129.671 Y14.574
X-129.843 Y14.448
X-130.006 Y14.311
X-130.158 Y14.162
X-130.299 Y14.003
X-130.429 Y13.834
X-130.547 Y13.656
X-130.652 Y13.471
X-130.743 Y13.279
X-130.82 Y13.08
X-130.884 Y12.877
X-130.932 Y12.67
X-130.966 Y12.459
G3 X-132.011 Y1.231 I40.416 J-9.424
X-131.147 Y-12.457 I64.638 J-2.792
X-130.018 Y-14.766 I5.452 J1.236
G1 X-129.891 Y-14.84
X-129.748 Y-14.874
X-127.99 Y-15.027
X-127.806 Y-15.043
X-127.439 Y-15.095
G3 X-127.109 Y-14.829 I0.032 J0.298
X-127.217 Y-14.546 I-0.33 J0.035
G1 X-127.251 Y-14.519 F1200
X-127.289 Y-14.497
G3 X-129.078 Y-14.489 I-0.902 J-1.785
X-129.531 Y-14.797 I0.887 J-1.793 F500
G1 X-129.579 Y-14.832
X-129.632 Y-14.857
X-129.689 Y-14.872
X-129.748 Y-14.874
X-130.378 Y-14.82
G2 X-132.432 Y-12.47 I0.816 J2.787
X-133.492 Y-2.06 I34.905 J8.814
X-132.618 Y12.433 I65.425 J3.326
X-131.489 Y14.642 I5.156 J-1.241
G1 X-131.364 Y14.714
X-131.223 Y14.747
X-128.908 Y14.947
G2 X-128.67 Y14.446 I0.015 J-0.3
G1 X-128.698 Y14.418
X-128.728 Y14.394
X-128.784 Y14.36 F1200
G2 X-130.554 Y14.362 I-0.883 J1.795
X-131.007 Y14.67 I0.887 J1.793 F500
G1 X-131.054 Y14.705
X-131.107 Y14.73
X-131.164 Y14.744
X-131.223 Y14.747
X-131.847 Y14.693
G3 X-133.907 Y12.39 I0.782 J-2.772
X-134.984 Y1.985 I33.719 J-8.751
X-134.087 Y-12.502 I62.588 J-3.394
X-132.992 Y-14.518 I4.348 J1.057
G1 X-132.87 Y-14.586
X-132.734 Y-14.617
X-130.378 Y-14.82
G3 X-130.111 Y-14.684 I0.015 J0.3
X-129.997 Y-14.235 I-0.604 J0.392
X-130.673 Y-13.573 I-0.718 J-0.057 F1200
X-132.166 Y-14.119 I-0.116 J-1.997
X-132.467 Y-14.481 I1.377 J-1.451 F500
G2 X-132.734 Y-14.617 I-0.252 J0.163
G1 X-133.418 Y-14.558
X-133.623 Y-14.48
X-133.823 Y-14.387
X-134.016 Y-14.281
X-134.2 Y-14.161
X-134.376 Y-14.029
X-134.543 Y-13.885
X-134.698 Y-13.73
X-134.843 Y-13.564
X-134.975 Y-13.388
X-135.095 Y-13.204
X-135.202 Y-13.011
X-135.295 Y-12.812
X-135.374 Y-12.606
X-135.438 Y-12.396
X-135.487 Y-12.181
X-135.521 Y-11.964
G2 X-136.499 Y-0.73 I40.059 J9.147
X-135.628 Y12.146 I58.524 J2.509
X-134.483 Y14.384 I5.355 J-1.33
G1 X-134.357 Y14.456
X-134.216 Y14.489
X-131.847 Y14.693
G2 X-131.58 Y14.557 I0.015 J-0.3
X-131.466 Y14.108 I-0.604 J-0.392
X-132.135 Y13.446 I-0.718 J0.057 F1200
X-133.649 Y13.991 I-0.137 J1.995
X-133.949 Y14.353 I1.377 J1.451 F500
G3 X-134.216 Y14.489 I-0.252 J-0.163
G1 X-134.602 Y14.456
X-134.887 Y14.435
G3 X-136.996 Y11.907 I0.942 J-2.93
X-137.991 Y0.678 I38.879 J-9.106
X-137.097 Y-12.193 I55.607 J-2.605
X-135.954 Y-14.307 I4.814 J1.24
G1 X-135.82 Y-14.376
X-135.673 Y-14.403
G2 X-133.418 Y-14.559 I-0.863 J-28.807
G1 X-133.35 Y-14.555
X-133.286 Y-14.536
X-133.227 Y-14.503
X-133.177 Y-14.457
X-133.139 Y-14.402
X-133.113 Y-14.34
X-133.103 Y-14.274
G3 X-133.192 Y-13.979 I-0.453 J0.023
X-133.414 Y-13.819 I-0.364 J-0.271 F1200
X-135.026 Y-13.98 I-0.624 J-1.9
X-135.461 Y-14.314 I0.988 J-1.739 F500
G1 X-135.506 Y-14.351
X-135.558 Y-14.379
X-135.614 Y-14.397
X-135.673 Y-14.403
X-136.255 Y-14.385
G2 X-138.3 Y-12.359 I0.548 J2.599
X-139.429 Y-3.623 I23.75 J7.51
X-138.71 Y11.688 I69.471 J4.408
X-137.292 Y14.299 I5.07 J-1.062
G1 X-137.137 Y14.329
G3 X-134.887 Y14.435 I-2.27 J71.865
G2 X-134.621 Y14.296 I0.012 J-0.3
X-134.51 Y13.846 I-0.617 J-0.391
X-135.295 Y13.176 I-0.728 J0.059 F1200
X-136.598 Y13.799 I0.153 J1.994
X-136.878 Y14.178 I1.456 J1.371 F500
G3 X-137.137 Y14.329 I-0.26 J-0.149
G1 X-137.725 Y14.311
G3 X-139.771 Y12.323 I0.524 J-2.586
X-140.922 Y3.594 I23.266 J-7.508
X-140.19 Y-11.713 I67.517 J-4.441
X-138.746 Y-14.277 I5.023 J1.139
G1 X-138.595 Y-14.306
X-137.725 Y-14.336
X-136.255 Y-14.385
G3 X-135.996 Y-14.234 I-0.001 J0.3
X-135.908 Y-13.779 I-0.622 J0.357
X-136.626 Y-13.16 I-0.711 J-0.097 F1200
X-138.053 Y-13.78 I0.021 J-2
X-138.335 Y-14.157 I1.448 J-1.379 F500
G2 X-138.595 Y-14.306 I-0.26 J0.15
G1 X-139.011 Y-14.29
X-139.194 Y-14.283
G2 X-141.269 Y-12.264 I0.542 J2.632
X-142.422 Y-3.524 I22.985 J7.478
X-141.645 Y11.778 I65.55 J4.343
X-140.35 Y14.143 I6.272 J-1.897
G1 X-140.216 Y14.214
X-140.066 Y14.242
X-137.725 Y14.311
G2 X-137.466 Y14.16 I-0.002 J-0.3
X-137.378 Y13.705 I-0.625 J-0.357
X-138.102 Y13.084 I-0.713 J0.098 F1200
X-139.527 Y13.713 I0.031 J2
X-139.807 Y14.091 I1.456 J1.371 F500
G3 X-140.066 Y14.242 I-0.26 J-0.149
G1 X-140.664 Y14.224
G3 X-142.746 Y12.221 I0.52 J-2.625
X-143.915 Y3.488 I22.663 J-7.478
X-143.125 Y-11.811 I64.052 J-4.363
X-141.835 Y-14.103 I6.108 J1.927
G1 X-141.703 Y-14.173
X-141.556 Y-14.2
X-139.929 Y-14.255
X-139.231 Y-14.281
X-139.194 Y-14.283
G3 X-138.934 Y-14.135 I0.002 J0.3
X-138.84 Y-13.681 I-0.622 J0.365
X-139.55 Y-13.049 I-0.715 J-0.089 F1200
X-141.015 Y-13.673 I-0.013 J-2
X-141.296 Y-14.05 I1.451 J-1.376 F500
G2 X-141.556 Y-14.2 I-0.26 J0.15
G1 X-141.766 Y-14.193
X-141.95 Y-14.189
X-142.133 Y-14.186
G2 X-144.221 Y-12.226 I0.471 J2.594
X-145.409 Y-3.52 I21.867 J7.418
X-144.605 Y11.777 I63.16 J4.347
X-143.282 Y14.087 I6.177 J-2.003
G1 X-143.144 Y14.156
X-142.992 Y14.18
G3 X-140.664 Y14.224 I0.131 J54.419
G2 X-140.405 Y14.073 I-0.002 J-0.3
X-140.312 Y13.619 I-0.643 J-0.368
X-141.093 Y12.966 I-0.736 J0.087 F1200
X-142.469 Y13.635 I0.12 J1.996
X-142.737 Y14.022 I1.496 J1.327 F500
G3 X-142.992 Y14.18 I-0.265 J-0.141
G1 X-143.603
G3 X-145.715 Y12.169 I0.506 J-2.646
X-146.905 Y3.439 I22.104 J-7.459
X-146.256 Y-11.068 I66.439 J-4.295
X-144.739 Y-14.09 I7.08 J1.662
G1 X-144.603 Y-14.157
X-144.453 Y-14.18
X-142.501
X-142.133 Y-14.186
G3 X-141.876 Y-14.031 I-0.005 J0.3
X-141.794 Y-13.575 I-0.628 J0.348
X-142.544 Y-12.965 I-0.71 J-0.107 F1200
X-143.93 Y-13.635 I0.11 J-1.997
X-144.199 Y-14.022 I1.496 J-1.327 F500
G2 X-144.453 Y-14.18 I-0.265 J0.141
G1 X-145.072
G2 X-147.197 Y-12.179 I0.496 J2.656
X-148.4 Y-3.466 I21.631 J7.427
X-147.74 Y11.041 I65.921 J4.269
X-146.203 Y14.09 I7.178 J-1.707
G1 X-146.067 Y14.157
X-145.917 Y14.18
X-143.603
G2 X-143.348 Y14.022 I-0.01 J-0.3
X-143.274 Y13.564 I-0.634 J-0.338
X-144.03 Y12.967 I-0.708 J0.119 F1200
X-145.394 Y13.635 I0.132 J1.996
X-145.662 Y14.022 I1.496 J1.327 F500
G3 X-145.917 Y14.18 I-0.265 J-0.141
G1 X-146.542
G3 X-148.681 Y12.161 I0.507 J-2.681
X-149.894 Y3.441 I21.694 J-7.463
X-149.229 Y-11.065 I65.099 J-4.283
X-147.683 Y-14.091 I7.17 J1.754
G1 X-147.548 Y-14.158
X-147.399 Y-14.18
X-145.072
G3 X-144.878 Y-13.661 I-0.01 J0.3
G1 X-144.908 Y-13.636
X-144.941 Y-13.614
X-144.992 Y-13.589 F1200
G3 X-146.764 Y-13.739 I-0.735 J-1.86
X-147.19 Y-14.085 I1.038 J-1.71 F500
G1 X-147.234 Y-14.124
X-147.285 Y-14.153
X-147.34 Y-14.172
X-147.399 Y-14.18
X-148.011
G2 X-150.146 Y-12.217 I0.465 J2.649
X-151.387 Y-3.525 I20.977 J7.428
X-150.727 Y10.981 I65.103 J4.306
X-149.159 Y14.09 I7.334 J-1.748
G1 X-149.023 Y14.157
X-148.872 Y14.18
X-146.542
G2 X-146.287 Y14.022 I-0.01 J-0.3
X-146.213 Y13.564 I-0.635 J-0.338
X-146.96 Y12.965 I-0.709 J0.119 F1200
X-148.35 Y13.635 I0.107 J1.997
X-148.618 Y14.022 I1.496 J1.327 F500
G3 X-148.872 Y14.18 I-0.265 J-0.141
G1 X-149.48
G3 X-151.619 Y12.228 I0.456 J-2.646
X-152.879 Y3.536 I20.81 J-7.454
X-152.222 Y-10.97 I64.468 J-4.349
X-150.647 Y-14.09 I7.35 J1.752
G1 X-150.511 Y-14.157
X-150.361 Y-14.18
X-148.011
G3 X-147.757 Y-14.022 I-0.01 J0.3
X-147.682 Y-13.564 I-0.635 J0.339
X-148.42 Y-12.964 I-0.71 J-0.119 F1200
X-149.838 Y-13.635 I0.078 J-1.998
X-150.107 Y-14.022 I1.496 J-1.327 F500
G2 X-150.361 Y-14.18 I-0.265 J0.141
G1 X-151.005
G2 X-153.178 Y-12.078 I0.563 J2.756
X-154.386 Y-3.331 I22.068 J7.504
X-153.664 Y11.169 I62.978 J4.132
X-152.115 Y14.095 I7.084 J-1.878
G1 X-151.981 Y14.158
X-151.835 Y14.18
X-149.48
G2 X-149.226 Y14.022 I-0.01 J-0.3
X-149.151 Y13.564 I-0.635 J-0.339
X-149.887 Y12.964 I-0.71 J0.118 F1200
X-151.312 Y13.635 I0.071 J1.999
X-151.581 Y14.022 I1.496 J1.327 F500
G3 X-151.835 Y14.18 I-0.265 J-0.141
G1 X-152.52
G3 X-154.743 Y11.877 I0.697 J-2.897
X-155.89 Y3.114 I23.687 J-7.558
X-155.105 Y-11.379 I60.71 J-3.978
X-153.602 Y-14.1 I6.747 J1.95
G1 X-153.472 Y-14.16
X-153.331 Y-14.18
X-151.005
G3 X-150.716 Y-13.87 I-0.01 J0.3
X-150.872 Y-13.613 I-0.308 J-0.011
G1 X-150.908 Y-13.595 F1200
G3 X-152.697 Y-13.739 I-0.751 J-1.854
X-153.122 Y-14.085 I1.038 J-1.71 F500
G1 X-153.166 Y-14.124
X-153.217 Y-14.153
X-153.272 Y-14.172
X-153.331 Y-14.18
X-153.99
G2 X-156.174 Y-12.025 I0.602 J2.794
X-157.379 Y-3.275 I22.419 J7.545
X-156.627 Y11.221 I61.685 J4.067
X-155.089 Y14.096 I6.985 J-1.888
G1 X-154.956 Y14.159
X-154.812 Y14.18
X-152.52
G2 X-152.326 Y13.661 I-0.01 J-0.3
G1 X-152.388 Y13.612
X-152.45 Y13.576 F1200
X-152.516 Y13.549
G2 X-154.177 Y13.739 I-0.624 J1.9
X-154.603 Y14.085 I1.038 J1.71 F500
G1 X-154.647 Y14.124
X-154.698 Y14.153
X-154.753 Y14.172
X-154.812 Y14.18
X-155.459
G3 X-157.649 Y12.044 I0.577 J-2.783
X-158.869 Y3.298 I22.115 J-7.543
X-158.125 Y-11.199 I61.261 J-4.121
X-156.582 Y-14.096 I7.011 J1.873
G1 X-156.45 Y-14.159
X-156.304 Y-14.18
X-153.99
G3 X-153.7 Y-13.87 I-0.01 J0.3
X-153.854 Y-13.611 I-0.314 J-0.011
G1 X-153.9 Y-13.588 F1200
G3 X-155.67 Y-13.739 I-0.733 J-1.861
X-156.095 Y-14.085 I1.038 J-1.71 F500
G1 X-156.14 Y-14.124
X-156.19 Y-14.153
X-156.246 Y-14.172
X-156.304 Y-14.18
X-156.929
G2 X-159.088 Y-12.173 I0.49 J2.692
X-160.358 Y-3.466 I21.14 J7.531
X-159.65 Y11.035 I62.608 J4.212
X-158.07 Y14.092 I7.351 J-1.863
G1 X-157.935 Y14.158
X-157.786 Y14.18
X-155.459
G2 X-155.205 Y14.022 I-0.01 J-0.3
X-155.13 Y13.564 I-0.634 J-0.338
X-155.88 Y12.966 I-0.709 J0.119 F1200
X-157.263 Y13.635 I0.114 J1.997
X-157.532 Y14.022 I1.496 J1.327 F500
G3 X-157.786 Y14.18 I-0.265 J-0.141
G1 X-158.481
G3 X-160.727 Y11.811 I0.741 J-2.952
X-161.872 Y3.044 I24.099 J-7.606
X-161.043 Y-11.444 I59.068 J-3.89
X-159.552 Y-14.102 I6.673 J1.997
G1 X-159.423 Y-14.16
X-159.283 Y-14.18
X-156.929
G3 X-156.674 Y-14.022 I-0.01 J0.3
X-156.6 Y-13.564 I-0.635 J0.339
X-157.335 Y-12.964 I-0.71 J-0.118 F1200
X-158.76 Y-13.635 I0.072 J-1.999
X-159.029 Y-14.022 I1.496 J-1.327 F500
G2 X-159.283 Y-14.18 I-0.265 J0.141
G1 X-159.95
G2 X-162.141 Y-12 I0.623 J2.817
X-163.359 Y-3.25 I22.657 J7.611
X-162.583 Y11.243 I60.534 J4.029
X-161.043 Y14.097 I6.974 J-1.922
G1 X-160.911 Y14.159
X-160.767 Y14.18
X-158.481
G2 X-158.227 Y14.022 I-0.01 J-0.3
X-158.152 Y13.564 I-0.633 J-0.337
X-158.922 Y12.97 I-0.707 J0.12 F1200
X-160.244 Y13.635 I0.174 J1.992
X-160.513 Y14.022 I1.496 J1.327 F500
G3 X-160.767 Y14.18 I-0.265 J-0.141
G1 X-161.42
G3 X-163.621 Y12.017 I0.596 J-2.809
X-164.849 Y3.271 I22.226 J-7.58
X-164.076 Y-11.223 I60.037 J-4.063
X-162.537 Y-14.097 I6.969 J1.883
G1 X-162.405 Y-14.159
X-162.26 Y-14.18
X-159.95
G3 X-159.756 Y-13.661 I-0.01 J0.3
G1 X-159.818 Y-13.613
X-159.861 Y-13.588 F1200
X-159.907 Y-13.569
G3 X-161.626 Y-13.739 I-0.681 J-1.88
X-162.051 Y-14.085 I1.038 J-1.71 F500
G1 X-162.095 Y-14.124
X-162.146 Y-14.153
X-162.202 Y-14.172
X-162.26 Y-14.18
X-162.889
G2 X-165.06 Y-12.139 I0.51 J2.718
X-166.337 Y-3.416 I21.396 J7.587
X-165.604 Y11.083 I61.286 J4.169
X-164.026 Y14.093 I7.272 J-1.893
G1 X-163.892 Y14.158
X-163.744 Y14.18
X-161.42
G2 X-161.226 Y13.661 I-0.01 J-0.3
G1 X-161.256 Y13.636
X-161.288 Y13.614
X-161.344 Y13.587 F1200
G2 X-163.11 Y13.739 I-0.729 J1.862
X-163.536 Y14.085 I1.038 J1.71 F500
G1 X-163.58 Y14.124
X-163.631 Y14.153
X-163.686 Y14.172
X-163.744 Y14.18
X-164.359
G3 X-166.516 Y12.221 I0.458 J-2.673
X-167.825 Y3.532 I20.706 J-7.561
X-167.117 Y-10.968 I61.515 J-4.264
X-165.523 Y-14.09 I7.469 J1.844
G1 X-165.387 Y-14.157
X-165.237 Y-14.18
X-162.889
G3 X-162.635 Y-14.022 I-0.01 J0.3
X-162.56 Y-13.564 I-0.635 J0.339
X-163.299 Y-12.964 I-0.71 J-0.119 F1200
X-164.715 Y-13.635 I0.081 J-1.998
X-164.983 Y-14.022 I1.496 J-1.327 F500
G2 X-165.237 Y-14.18 I-0.265 J0.141
G1 X-165.929
G2 X-168.183 Y-11.798 I0.746 J2.965
X-169.345 Y-3.034 I24.022 J7.643
X-168.494 Y11.452 I58.284 J3.844
X-166.998 Y14.102 I6.684 J-2.026
G1 X-166.869 Y14.16
X-166.73 Y14.18
X-164.359
G2 X-164.104 Y14.022 I-0.01 J-0.3
X-164.029 Y13.564 I-0.635 J-0.339
X-164.756 Y12.963 I-0.71 J0.118 F1200
X-166.207 Y13.635 I0.046 J1.999
X-166.475 Y14.022 I1.496 J1.327 F500
G3 X-166.73 Y14.18 I-0.265 J-0.141
G1 X-167.399
G3 X-169.594 Y12.004 I0.619 J-2.821
X-170.829 Y3.256 I22.641 J-7.656
X-170.04 Y-11.235 I59.47 J-4.03
X-168.493 Y-14.097 I7.01 J1.939
G1 X-168.361 Y-14.159
X-168.217 Y-14.18
X-165.929
G3 X-165.735 Y-13.661 I-0.01 J0.3
G1 X-165.796 Y-13.612
X-165.861 Y-13.574 F1200
X-165.931 Y-13.546
G3 X-167.583 Y-13.739 I-0.614 J-1.903
X-168.008 Y-14.085 I1.038 J-1.71 F500
G1 X-168.052 Y-14.124
X-168.103 Y-14.153
X-168.159 Y-14.172
X-168.217 Y-14.18
X-168.868
G2 X-171.076 Y-12.018 I0.594 J2.814
X-172.321 Y-3.275 I22.142 J7.615
X-171.532 Y11.218 I59.396 J4.032
X-169.99 Y14.097 I6.971 J-1.882
G1 X-169.857 Y14.159
X-169.713 Y14.18
X-167.399
G2 X-167.109 Y13.87 I-0.01 J-0.3
X-167.262 Y13.611 I-0.315 J0.011
G1 X-167.308 Y13.588 F1200
G2 X-169.079 Y13.739 I-0.733 J1.861
X-169.504 Y14.085 I1.038 J1.71 F500
G1 X-169.548 Y14.124
X-169.599 Y14.153
X-169.654 Y14.172
X-169.713 Y14.18
X-170.337
G3 X-172.506 Y12.162 I0.494 J-2.705
X-173.805 Y3.449 I21.238 J-7.621
X-173.07 Y-11.048 I60.568 J-4.195
X-171.481 Y-14.092 I7.369 J1.91
G1 X-171.346 Y-14.158
X-171.197 Y-14.18
X-168.868
G3 X-168.579 Y-13.87 I-0.01 J0.3
X-168.736 Y-13.614 I-0.305 J-0.011
G1 X-168.768 Y-13.598 F1200
G3 X-170.563 Y-13.739 I-0.758 J-1.851
X-170.989 Y-14.085 I1.038 J-1.71 F500
G1 X-171.033 Y-14.124
X-171.084 Y-14.153
X-171.139 Y-14.172
X-171.197 Y-14.18
X-171.89
G2 X-174.141 Y-11.828 I0.726 J2.949
X-175.321 Y-3.067 I23.822 J7.668
X-174.465 Y11.419 I57.945 J3.845
X-172.965 Y14.101 I6.707 J-1.991
G1 X-172.835 Y14.16
X-172.695 Y14.18
X-170.337
G2 X-170.083 Y14.022 I-0.01 J-0.3
X-170.008 Y13.564 I-0.635 J-0.339
X-170.742 Y12.963 I-0.71 J0.118 F1200
X-172.172 Y13.635 I0.067 J1.999
X-172.441 Y14.022 I1.496 J1.327 F500
G3 X-172.695 Y14.18 I-0.265 J-0.141
G1 X-173.359
G3 X-175.557 Y12.006 I0.614 J-2.819
X-176.805 Y3.261 I22.608 J-7.688
X-176.009 Y-11.23 I58.983 J-4.028
X-174.461 Y-14.097 I6.992 J1.924
G1 X-174.329 Y-14.159
X-174.185 Y-14.18
X-171.89
G3 X-171.635 Y-14.022 I-0.01 J0.3
X-171.561 Y-13.564 I-0.633 J0.338
X-172.326 Y-12.969 I-0.708 J-0.12 F1200
X-173.662 Y-13.635 I0.16 J-1.994
X-173.931 Y-14.022 I1.496 J-1.327 F500
G2 X-174.185 Y-14.18 I-0.265 J0.141
G1 X-174.828
G2 X-177.029 Y-12.056 I0.566 J2.788
X-178.296 Y-3.318 I21.856 J7.63
X-177.507 Y11.175 I59.14 J4.051
X-175.955 Y14.096 I7.032 J-1.865
G1 X-175.822 Y14.159
X-175.677 Y14.18
X-173.359
G2 X-173.165 Y13.661 I-0.01 J-0.3
G1 X-173.227 Y13.613
X-173.299 Y13.578 F1200
G2 X-175.042 Y13.739 I-0.706 J1.871
X-175.468 Y14.085 I1.038 J1.71 F500
G1 X-175.512 Y14.124
X-175.563 Y14.153
X-175.618 Y14.172
X-175.677 Y14.18
X-176.298
G3 X-178.462 Y12.185 I0.48 J-2.692
X-179.81 Y4.282 I22.005 J-7.822
X-179.069 Y-11.023 I70.441 J-4.259
X-177.451 Y-14.092 I7.74 J2.121
G1 X-177.315 Y-14.158
X-177.166 Y-14.18
X-174.828
G3 X-174.574 Y-14.022 I-0.01 J0.3
X-174.499 Y-13.564 I-0.635 J0.338
X-175.244 Y-12.965 I-0.709 J-0.119 F1200
X-176.644 Y-13.635 I0.096 J-1.998
X-176.912 Y-14.022 I1.496 J-1.327 F500
G2 X-177.166 Y-14.18 I-0.265 J0.141
G1 X-177.767
G2 X-179.939 Y-12.228 I0.438 J2.671
X-181.304 Y-4.347 I21.388 J7.762
X-180.566 Y10.958 I70.581 J4.266
X-178.944 Y14.09 I7.786 J-2.046
G1 X-178.808 Y14.157
X-178.658 Y14.18
X-176.298
G2 X-176.044 Y14.022 I-0.01 J-0.3
X-175.969 Y13.564 I-0.635 J-0.339
X-176.702 Y12.963 I-0.71 J0.118 F1200
X-178.135 Y13.635 I0.063 J1.999
X-178.404 Y14.022 I1.496 J1.327 F500
G3 X-178.658 Y14.18 I-0.265 J-0.141
G1 X-179.338
G3 X-181.583 Y11.858 I0.702 J-2.926
X-182.788 Y3.101 I23.595 J-7.707
X-181.942 Y-11.385 I57.8 J-3.891
X-180.423 Y-14.101 I6.796 J2.019
G1 X-180.293 Y-14.16
X-180.153 Y-14.18
X-177.767
G3 X-177.513 Y-14.022 I-0.01 J0.3
X-177.438 Y-13.564 I-0.636 J0.339
X-178.157 Y-12.963 I-0.711 J-0.118 F1200
X-179.63 Y-13.635 I0.024 J-2
X-179.898 Y-14.022 I1.496 J-1.327 F500
G2 X-180.153 Y-14.18 I-0.265 J0.141
G1 X-180.807
G2 X-183.001 Y-12.061 I0.573 J2.788
X-184.273 Y-3.322 I22.114 J7.681
X-183.478 Y11.169 I58.894 J4.037
X-181.917 Y14.096 I7.087 J-1.9
G1 X-181.785 Y14.159
X-181.64 Y14.18
X-179.338
G2 X-179.144 Y13.661 I-0.01 J-0.3
G1 X-179.205 Y13.612
X-179.257 Y13.583 F1200
X-179.312 Y13.56
G2 X-181.005 Y13.739 I-0.656 J1.889
X-181.431 Y14.085 I1.038 J1.71 F500
G1 X-181.475 Y14.124
X-181.526 Y14.153
X-181.581 Y14.172
X-181.64 Y14.18
X-182.277
G3 X-184.474 Y12.083 I0.544 J-2.77
X-185.792 Y4.153 I22.744 J-7.855
X-185.007 Y-11.148 I68.657 J-4.15
X-183.42 Y-14.095 I7.377 J2.072
G1 X-183.286 Y-14.159
X-183.141 Y-14.18
X-180.807
G3 X-180.613 Y-13.661 I-0.01 J0.3
G1 X-180.643 Y-13.636
X-180.676 Y-13.615
X-180.711 Y-13.598 F1200
G3 X-182.507 Y-13.739 I-0.758 J-1.851
X-182.932 Y-14.085 I1.038 J-1.71 F500
G1 X-182.976 Y-14.124
X-183.027 Y-14.153
X-183.082 Y-14.172
X-183.141 Y-14.18
X-183.829
G2 X-186.067 Y-11.868 I0.699 J2.917
X-187.273 Y-3.111 I23.705 J7.726
X-186.413 Y11.374 I57.578 J3.851
X-184.895 Y14.101 I6.786 J-1.991
G1 X-184.766 Y14.16
X-184.625 Y14.18
X-182.277
G2 X-182.022 Y14.022 I-0.01 J-0.3
X-181.948 Y13.564 I-0.635 J-0.339
X-182.687 Y12.964 I-0.71 J0.119 F1200
X-184.102 Y13.635 I0.081 J1.998
X-184.37 Y14.022 I1.496 J1.327 F500
G3 X-184.625 Y14.18 I-0.265 J-0.141
G1 X-185.298
G3 X-187.517 Y11.948 I0.65 J-2.866
X-188.76 Y3.2 I23.007 J-7.73
X-187.933 Y-11.288 I57.837 J-3.966
X-186.402 Y-14.098 I6.875 J1.922
G1 X-186.271 Y-14.159
X-186.128 Y-14.18
X-183.829
G3 X-183.539 Y-13.87 I-0.01 J0.3
X-183.69 Y-13.608 I-0.323 J-0.011
G1 X-183.748 Y-13.579 F1200
G3 X-185.494 Y-13.739 I-0.708 J-1.87
X-185.919 Y-14.085 I1.038 J-1.71 F500
G1 X-185.963 Y-14.124
X-186.014 Y-14.153
X-186.07 Y-14.172
X-186.128 Y-14.18
X-186.768
G2 X-188.96 Y-12.077 I0.553 J2.772
X-190.277 Y-4.147 I22.72 J7.848
X-189.474 Y11.152 I68.064 J4.097
X-187.89 Y14.096 I7.355 J-2.061
G1 X-187.757 Y14.159
X-187.611 Y14.18
X-185.298
G2 X-185.104 Y13.661 I-0.01 J-0.3
G1 X-185.166 Y13.613
X-185.206 Y13.59 F1200
X-185.248 Y13.572
G2 X-186.977 Y13.739 I-0.691 J1.877
X-187.402 Y14.085 I1.038 J1.71 F500
G1 X-187.446 Y14.124
X-187.497 Y14.153
X-187.553 Y14.172
X-187.611 Y14.18
X-188.237
G3 X-190.411 Y12.16 I0.495 J-2.713
X-191.763 Y4.243 I22.239 J-7.87
X-191 Y-11.06 I68.968 J-4.233
X-189.39 Y-14.093 I7.65 J2.117
G1 X-189.255 Y-14.158
X-189.107 Y-14.18
X-186.768
G3 X-186.513 Y-14.022 I-0.01 J0.3
X-186.439 Y-13.564 I-0.635 J0.338
X-187.182 Y-12.965 I-0.71 J-0.119 F1200
X-188.584 Y-13.635 I0.094 J-1.998
X-188.853 Y-14.022 I1.496 J-1.327 F500
G2 X-189.107 Y-14.18 I-0.265 J0.141
G1 X-189.707
G2 X-191.882 Y-12.223 I0.436 J2.672
X-193.255 Y-4.342 I21.485 J7.803
X-192.506 Y10.962 I69.645 J4.26
X-190.881 Y14.091 I7.792 J-2.06
G1 X-190.745 Y14.157
X-190.595 Y14.18
X-188.237
G2 X-187.983 Y14.022 I-0.01 J-0.3
X-187.908 Y13.564 I-0.635 J-0.339
X-188.642 Y12.963 I-0.71 J0.118 F1200
X-190.072 Y13.635 I0.066 J1.999
X-190.341 Y14.022 I1.496 J1.327 F500
G3 X-190.595 Y14.18 I-0.265 J-0.141
G1 X-191.277
G3 X-193.53 Y11.845 I0.711 J-2.94
X-194.74 Y3.088 I23.683 J-7.736
X-193.879 Y-11.396 I57.111 J-3.873
X-192.364 Y-14.101 I6.765 J2.013
G1 X-192.235 Y-14.16
X-192.094 Y-14.18
X-189.707
G3 X-189.452 Y-14.022 I-0.01 J0.3
X-189.377 Y-13.564 I-0.636 J0.339
X-190.095 Y-12.962 I-0.711 J-0.118 F1200
X-191.571 Y-13.635 I0.02 J-2
X-191.84 Y-14.022 I1.496 J-1.327 F500
G2 X-192.094 Y-14.18 I-0.265 J0.141
G1 X-192.747
G2 X-194.939 Y-12.071 I0.566 J2.783
X-196.253 Y-4.139 I23.029 J7.889
X-195.445 Y11.159 I67.704 J4.096
X-193.857 Y14.096 I7.389 J-2.098
G1 X-193.724 Y14.159
X-193.579 Y14.18
X-191.277
G2 X-191.083 Y13.661 I-0.01 J-0.3
G1 X-191.145 Y13.612
X-191.196 Y13.583 F1200
X-191.25 Y13.56
G2 X-192.945 Y13.739 I-0.658 J1.889
X-193.37 Y14.085 I1.038 J1.71 F500
G1 X-193.414 Y14.124
X-193.465 Y14.153
X-193.521 Y14.172
X-193.579 Y14.18
X-194.216
G3 X-196.415 Y12.084 I0.542 J-2.771
X-197.742 Y4.156 I22.749 J-7.882
X-196.95 Y-11.144 I67.861 J-4.157
X-195.361 Y-14.095 I7.387 J2.074
G1 X-195.228 Y-14.159
X-195.082 Y-14.18
X-192.747
G3 X-192.457 Y-13.87 I-0.01 J0.3
X-192.616 Y-13.615 I-0.301 J-0.011
G1 X-192.643 Y-13.602 F1200
G3 X-194.448 Y-13.739 I-0.768 J-1.847
X-194.873 Y-14.085 I1.038 J-1.71 F500
G1 X-194.917 Y-14.124
X-194.968 Y-14.153
X-195.024 Y-14.172
X-195.082 Y-14.18
X-195.768
G2 X-198.007 Y-11.875 I0.694 J2.914
X-199.25 Y-3.925 I24.694 J7.932
X-198.38 Y11.367 I65.718 J3.931
X-196.837 Y14.101 I7.062 J-2.184
G1 X-196.707 Y14.16
X-196.566 Y14.18
X-194.216
G2 X-193.962 Y14.022 I-0.01 J-0.3
X-193.887 Y13.564 I-0.635 J-0.339
X-194.625 Y12.964 I-0.71 J0.119 F1200
X-196.043 Y13.635 I0.078 J1.998
X-196.312 Y14.022 I1.496 J1.327 F500
G3 X-196.566 Y14.18 I-0.265 J-0.141
G1 X-197.238
G3 X-199.456 Y11.959 I0.641 J-2.86
X-200.737 Y4.018 I23.935 J-7.932
X-199.901 Y-11.277 I66.169 J-4.056
X-198.345 Y-14.098 I7.157 J2.108
G1 X-198.213 Y-14.159
X-198.07 Y-14.18
X-195.768
G3 X-195.574 Y-13.661 I-0.01 J0.3
G1 X-195.636 Y-13.612
X-195.687 Y-13.583 F1200
X-195.741 Y-13.56
G3 X-197.436 Y-13.739 I-0.657 J-1.889
X-197.861 Y-14.085 I1.038 J-1.71 F500
G1 X-197.905 Y-14.124
X-197.956 Y-14.153
X-198.012 Y-14.172
X-198.07 Y-14.18
X-198.707
G2 X-200.899 Y-12.088 I0.544 J2.766
X-202.227 Y-4.16 I22.66 J7.871
X-201.421 Y11.138 I67.618 J4.107
X-199.833 Y14.095 I7.362 J-2.049
G1 X-199.7 Y14.159
X-199.554 Y14.18
X-197.238
G2 X-196.948 Y13.87 I-0.01 J-0.3
X-197.102 Y13.611 I-0.313 J0.011
G1 X-197.146 Y13.59 F1200
G2 X-198.92 Y13.739 I-0.737 J1.859
X-199.345 Y14.085 I1.038 J1.71 F500
G1 X-199.39 Y14.124
X-199.44 Y14.153
X-199.496 Y14.172
X-199.554 Y14.18
X-200.176
G3 X-202.345 Y12.183 I0.48 J-2.698
X-203.711 Y4.275 I22.073 J-7.884
X-202.952 Y-11.027 I68.613 J-4.264
X-201.334 Y-14.092 I7.709 J2.109
G1 X-201.199 Y-14.158
X-201.051 Y-14.18
X-198.707
G3 X-198.453 Y-14.022 I-0.01 J0.3
X-198.378 Y-13.564 I-0.635 J0.338
X-199.119 Y-12.964 I-0.71 J-0.119 F1200
X-200.528 Y-13.635 I0.088 J-1.998
X-200.796 Y-14.022 I1.496 J-1.327 F500
G2 X-201.051 Y-14.18 I-0.265 J0.141
G1 X-201.646
G2 X-203.828 Y-12.219 I0.432 J2.675
X-205.206 Y-4.333 I21.522 J7.825
X-204.447 Y10.97 I68.948 J4.252
X-202.825 Y14.091 I7.755 J-2.05
G1 X-202.689 Y14.157
X-202.539 Y14.18
X-200.176
G2 X-199.922 Y14.022 I-0.01 J-0.3
X-199.847 Y13.564 I-0.635 J-0.339
X-200.579 Y12.963 I-0.71 J0.118 F1200
X-202.016 Y13.635 I0.059 J1.999
X-202.285 Y14.022 I1.496 J1.327 F500
G3 X-202.539 Y14.18 I-0.265 J-0.141
G1 X-203.216
G3 X-205.464 Y11.87 I0.692 J-2.922
X-206.716 Y3.922 I24.573 J-7.942
X-205.853 Y-11.371 I65.478 J-3.978
X-204.308 Y-14.101 I7.078 J2.205
G1 X-204.178 Y-14.16
X-204.037 Y-14.18
X-201.646
G3 X-201.392 Y-14.022 I-0.01 J0.3
X-201.317 Y-13.564 I-0.636 J0.339
X-202.033 Y-12.962 I-0.711 J-0.118 F1200
X-203.514 Y-13.635 I0.015 J-2
X-203.783 Y-14.022 I1.496 J-1.327 F500
G2 X-204.037 Y-14.18 I-0.265 J0.141
G1 X-204.686
G2 X-206.879 Y-12.083 I0.555 J2.777
X-208.202 Y-4.153 I22.902 J7.897
X-207.393 Y11.145 I67.365 J4.106
X-205.802 Y14.096 I7.394 J-2.081
G1 X-205.67 Y14.159
X-205.524 Y14.18
X-203.216
G2 X-203.022 Y13.661 I-0.01 J-0.3
G1 X-203.084 Y13.613
X-203.129 Y13.587 F1200
X-203.177 Y13.566
G2 X-204.89 Y13.739 I-0.675 J1.883
X-205.315 Y14.085 I1.038 J1.71 F500
G1 X-205.359 Y14.124
X-205.41 Y14.153
X-205.466 Y14.172
X-205.524 Y14.18
X-206.155
G3 X-208.345 Y12.122 I0.518 J-2.745
X-209.69 Y4.197 I22.515 J-7.899
X-208.907 Y-11.103 I67.847 J-4.196
X-207.307 Y-14.094 I7.496 J2.086
G1 X-207.173 Y-14.158
X-207.026 Y-14.18
X-204.686
G3 X-204.432 Y-14.022 I-0.01 J0.3
X-204.357 Y-13.564 I-0.635 J0.338
X-205.1 Y-12.965 I-0.71 J-0.119 F1200
X-206.503 Y-13.635 I0.093 J-1.998
X-206.772 Y-14.022 I1.496 J-1.327 F500
G2 X-207.026 Y-14.18 I-0.265 J0.141
G1 X-207.707
G2 X-209.948 Y-11.889 I0.682 J2.908
X-211.2 Y-3.941 I24.516 J7.933
X-210.329 Y11.352 I65.517 J3.939
X-208.783 Y14.1 I7.072 J-2.167
G1 X-208.653 Y14.16
X-208.512 Y14.18
X-206.155
G2 X-205.901 Y14.022 I-0.01 J-0.3
X-205.826 Y13.564 I-0.635 J-0.339
X-206.561 Y12.964 I-0.71 J0.118 F1200
X-207.989 Y13.635 I0.068 J1.999
X-208.258 Y14.022 I1.496 J1.327 F500
G3 X-208.512 Y14.18 I-0.265 J-0.141
G1 X-209.177
G3 X-211.388 Y11.995 I0.615 J-2.834
X-212.685 Y4.057 I23.698 J-7.947
X-211.858 Y-11.239 I66.305 J-4.087
X-210.291 Y-14.098 I7.218 J2.098
G1 X-210.159 Y-14.159
X-210.015 Y-14.18
X-207.707
G3 X-207.513 Y-13.661 I-0.01 J0.3
G1 X-207.575 Y-13.613
X-207.62 Y-13.587 F1200
X-207.668 Y-13.567
G3 X-209.381 Y-13.739 I-0.676 J-1.882
X-209.806 Y-14.085 I1.038 J-1.71 F500
G1 X-209.851 Y-14.124
X-209.901 Y-14.153
X-209.957 Y-14.172
X-210.015 Y-14.18
X-210.646
G2 X-212.836 Y-12.114 I0.524 J2.749
X-214.176 Y-4.189 I22.494 J7.878
X-213.375 Y11.11 I67.571 J4.132
X-211.78 Y14.095 I7.423 J-2.047
G1 X-211.647 Y14.158
X-211.5 Y14.18
X-209.177
G2 X-208.983 Y13.661 I-0.01 J-0.3
G1 X-209.013 Y13.636
X-209.045 Y13.614
X-209.103 Y13.585 F1200
G2 X-210.866 Y13.739 I-0.725 J1.864
X-211.291 Y14.085 I1.038 J1.71 F500
G1 X-211.336 Y14.124
X-211.386 Y14.153
X-211.442 Y14.172
X-211.5 Y14.18
X-212.116
G3 X-214.277 Y12.217 I0.459 J-2.677
X-215.659 Y4.326 I21.81 J-7.885
X-214.911 Y-10.977 I68.763 J-4.308
X-213.284 Y-14.091 I7.788 J2.087
G1 X-213.148 Y-14.157
X-212.999 Y-14.18
X-210.646
G3 X-210.392 Y-14.022 I-0.01 J0.3
X-210.317 Y-13.564 I-0.635 J0.339
X-211.054 Y-12.964 I-0.71 J-0.119 F1200
X-212.476 Y-13.635 I0.074 J-1.999
X-212.744 Y-14.022 I1.496 J-1.327 F500
G2 X-212.999 Y-14.18 I-0.265 J0.141
G1 X-213.686
G2 X-215.949 Y-11.817 I0.73 J2.965
X-217.178 Y-3.863 I24.976 J7.931
X-216.282 Y11.426 I64.704 J3.877
X-214.758 Y14.102 I6.96 J-2.193
G1 X-214.629 Y14.16
X-214.488 Y14.18
X-212.116
G2 X-211.861 Y14.022 I-0.01 J-0.3
X-211.787 Y13.564 I-0.635 J-0.339
X-212.513 Y12.963 I-0.71 J0.118 F1200
X-213.966 Y13.635 I0.043 J2
X-214.234 Y14.022 I1.496 J1.327 F500
G3 X-214.488 Y14.18 I-0.265 J-0.141
G1 X-215.156
G3 X-217.361 Y11.998 I0.619 J-2.83
X-218.659 Y4.06 I23.799 J-7.969
X-217.835 Y-11.235 I66.245 J-4.1
X-216.261 Y-14.098 I7.261 J2.129
G1 X-216.129 Y-14.159
X-215.986 Y-14.18
X-213.686
G3 X-213.397 Y-13.87 I-0.01 J0.3
X-213.547 Y-13.608 I-0.323 J-0.011
G1 X-213.605 Y-13.579 F1200
G3 X-215.352 Y-13.739 I-0.709 J-1.87
X-215.777 Y-14.085 I1.038 J-1.71 F500
G1 X-215.821 Y-14.124
X-215.872 Y-14.153
X-215.927 Y-14.172
X-215.986 Y-14.18
X-216.625
G2 X-218.83 Y-12.07 I0.554 J2.786
X-220.154 Y-4.14 I22.748 J7.873
X-219.334 Y11.157 I66.969 J4.083
X-217.754 Y14.096 I7.309 J-2.037
G1 X-217.621 Y14.159
X-217.475 Y14.18
X-215.156
G2 X-214.866 Y13.87 I-0.01 J-0.3
X-215.021 Y13.612 I-0.311 J0.011
G1 X-215.062 Y13.592 F1200
G2 X-216.841 Y13.739 I-0.742 J1.857
X-217.266 Y14.085 I1.038 J1.71 F500
G1 X-217.31 Y14.124
X-217.361 Y14.153
X-217.417 Y14.172
X-217.475 Y14.18
X-218.177
G3 X-220.431 Y11.789 I0.754 J-2.969
X-221.657 Y3.833 I25.594 J-8.017
X-220.947 Y-10.669 I69.195 J-3.877
X-219.241 Y-14.103 I6.974 J1.323
G1 X-219.113 Y-14.16
X-218.974 Y-14.18
X-216.625
G3 X-216.371 Y-14.022 I-0.01 J0.3
X-216.296 Y-13.564 I-0.635 J0.339
X-217.035 Y-12.964 I-0.71 J-0.119 F1200
X-218.451 Y-13.635 I0.08 J-1.998
X-218.719 Y-14.022 I1.496 J-1.327 F500
G2 X-218.974 Y-14.18 I-0.265 J0.141
G1 X-219.647
G2 X-221.868 Y-11.951 I0.653 J2.873
X-223.148 Y-4.009 I23.888 J7.923
X-222.289 Y11.284 I65.565 J3.989
X-220.737 Y14.098 I7.138 J-2.101
G1 X-220.606 Y14.159
X-220.462 Y14.18
X-218.177
G2 X-217.888 Y13.87 I-0.01 J-0.3
X-218.035 Y13.606 I-0.331 J0.012
G1 X-218.069 Y13.586 F1200
X-218.105 Y13.57
G2 X-219.828 Y13.739 I-0.685 J1.879
X-220.254 Y14.085 I1.038 J1.71 F500
G1 X-220.298 Y14.124
X-220.349 Y14.153
X-220.404 Y14.172
X-220.462 Y14.18
X-221.116
G3 X-223.326 Y12.005 I0.604 J-2.824
X-224.635 Y4.07 I23.447 J-7.943
X-223.809 Y-11.225 I66.098 J-4.098
X-222.236 Y-14.097 I7.245 J2.101
G1 X-222.104 Y-14.159
X-221.96 Y-14.18
X-219.647
G3 X-219.452 Y-13.661 I-0.01 J0.3
G1 X-219.514 Y-13.613
X-219.554 Y-13.591 F1200
X-219.596 Y-13.573
G3 X-221.326 Y-13.739 I-0.692 J-1.876
X-221.751 Y-14.085 I1.038 J-1.71 F500
G1 X-221.795 Y-14.124
X-221.846 Y-14.153
X-221.902 Y-14.172
X-221.96 Y-14.18
X-222.586
G2 X-224.769 Y-12.146 I0.501 J2.728
X-225.5 Y-9.906 I4.799 J2.804
G1 Y8.627
G2 X-223.589 Y14.158 I7.31 J0.57
G1 X-223.44 Y14.18
X-221.116
G2 X-220.827 Y13.87 I-0.01 J-0.3
X-220.982 Y13.613 I-0.308 J0.011
G1 X-221.019 Y13.595 F1200
G2 X-222.806 Y13.739 I-0.749 J1.854
X-223.232 Y14.085 I1.038 J1.71 F500
G1 X-223.276 Y14.124
X-223.327 Y14.153
X-223.382 Y14.172
X-223.44 Y14.18
X-224.055
G3 X-225.531 Y13.199 I0.036 J-1.656
G1 X-225.522 Y13.129
X-225.498 Y13.064
X-225.461 Y13.006
X-225.413 Y12.958
X-225.357 Y12.921
X-225.294 Y12.897
X-225.229 Y12.887
X-225.164 Y12.891
X-225.102 Y12.908
X-225.045 Y12.938
X-224.907 Y13.022
X-223.924 Y13.615 F1200
X-223.91 Y13.624 F500
G3 X-224.055 Y14.18 I-0.155 J0.257
G1 X-225.203
X-225.249 Y14.174
X-225.295 Y14.16
X-225.341 Y14.137
X-225.372 Y14.116
X-225.396 Y14.095
X-225.422 Y14.068
X-225.444 Y14.041
X-225.459 Y14.018
X-225.471 Y13.996
X-225.488 Y13.95
X-225.498 Y13.904
X-225.5 Y13.858
Y8.627
X-225.123 Y7.938
X-224.422 Y6.658 F1200
X-220.709 Y-11.196
G2 X-221.454 Y-13.583 I-2.439 J-0.548
G1 X-221.832 Y-13.959
G2 X-222.586 Y-14.18 I-0.809 J1.36 F500
G1 X-223.871
G2 X-225.535 Y-13.111 I0.064 J1.929
G1 X-225.5 Y-9.906
G2 X-224.935 Y-9.775 I0.3 J-0.01
G1 X-224.916 Y-9.822 F1200
X-223.669 Y-13.569
X-223.597 Y-13.786 F500
G2 X-223.871 Y-14.18 I-0.285 J-0.095
G1 X-225.203
X-225.249 Y-14.174
X-225.295 Y-14.16
X-225.341 Y-14.137
X-225.372 Y-14.116
X-225.396 Y-14.095
X-225.422 Y-14.068
G2 X-225.5 Y-13.093 I0.864 J0.56
G1 X-225.488 Y-13.053 Z-1.984
X-225.477 Y-13.016 Z-1.967
X-225.468 Y-12.985 Z-1.94
X-225.461 Y-12.962 Z-1.905
X-225.456 Y-12.948 Z-1.866
X-225.455 Y-12.945 Z-1.833
G0 Z-0.99
X-28.464 Y0.549
G3 X-25.834 Y-0.549 Z-1.146 I1.315 J-0.549 F166.7
X-28.464 Y0.549 Z-1.303 I-1.315 J0.549
X-25.834 Y-0.549 Z-1.459 I1.315 J-0.549
X-28.464 Y0.549 Z-1.615 I-1.315 J0.549
X-25.834 Y-0.549 Z-1.772 I1.315 J-0.549
X-28.464 Y0.549 Z-1.928 I-1.315 J0.549
X-25.834 Y-0.549 Z-2.084 I1.315 J-0.549
X-28.464 Y0.549 Z-2.241 I-1.315 J0.549
X-25.834 Y-0.549 Z-2.397 I1.315 J-0.549
X-28.464 Y0.549 Z-2.553 I-1.315 J0.549
X-25.834 Y-0.549 Z-2.71 I1.315 J-0.549
X-28.464 Y0.549 Z-2.866 I-1.315 J0.549
X-25.834 Y-0.549 Z-3.022 I1.315 J-0.549
X-28.464 Y0.549 Z-3.179 I-1.315 J0.549
X-25.834 Y-0.549 Z-3.335 I1.315 J-0.549
X-28.464 Y0.549 Z-3.491 I-1.315 J0.549
X-25.834 Y-0.549 Z-3.648 I1.315 J-0.549
X-28.464 Y0.549 Z-3.804 I-1.315 J0.549
X-25.834 Y-0.549 Z-3.96 I1.315 J-0.549
X-25.724 Y0 Z-3.98 I-1.315 J0.549
X-28.574 Y0 I-1.425 J0
X-25.724 Y0 I1.425 J0
X-25.796 Y1.625 I-1.933 J0.728 F500
X-29.46 Y-0.913 I-1.693 J-1.47
X-24.728 Y-0.808 I2.35 J0.79
X-29.693 Y2.719 I-2.699 J1.459
X-24.649 Y-2.94 I2.522 J-2.829
X-23.72 Y-1.678 I-2.522 J2.829
X-30.485 Y3.803 I-3.704 J2.344
G1 X-30.912 Y3.531
G3 X-23.352 Y-3.617 I3.78 J-3.574
X-22.28 Y-1.918 I-3.78 J3.574
X-31.712 Y4.565 I-5.172 J2.578
X-27.096 Y-6.587 I4.413 J-4.705
X-27.697 Y7.815 I-0.301 J7.201
X-31.326 Y6.655 I0.301 J-7.201
X-24.212 Y-7.444 I4.071 J-6.79
X-30.692 Y8.652 I-3.24 J8.048
X-33.545 Y6.78 I3.24 J-8.048
X-30.278 Y-8.927 I6.192 J-6.905
X-21.487 Y8.667 I3.057 J9.466
X-37.925 Y1.32 I-6.115 J-8.381
X-16.975 Y-4.12 I10.823 J-1.378
X-23.101 Y11.27 I-10.235 J4.841
X-38.88 Y3.971 I-4.33 J-11.343
X-31.185 Y-11.619 I11.448 J-4.043
X-20.381 Y-10.368 I4.208 J10.94
X-34.597 Y11.532 I-7.108 J10.95
X-37.716 Y8.695 I7.108 J-10.95
X-40.19 Y4.568 I8.159 J-7.695
X-31.638 Y-13.108 I13.092 J-4.573
X-13.983 Y-4.512 I4.54 J13.103
X-13.007 Y1.808 I-11.781 J5.056
X-41.615 Y4.609 I-14.575 J-1.368
X-41.629 Y-4.892 I13.053 J-4.77
X-11.957 Y-2.798 I14.56 J4.956
X-12.729 Y6.687 I-13.956 J3.637
X-43.707 Y1.831 I-14.877 J-6.333
X-43.051 Y-5.339 I14.902 J-2.252
X-10.476 Y-2.921 I15.974 J5.433
X-10.168 Y2.688 I-12.98 J3.526
X-44.096 Y6.396 I-17.41 J-2.225
X-45.055 Y3.32 I8.69 J-4.395
X-11.858 Y-10.009 I17.931 J-3.346
X-36.253 Y17.281 I-15.568 J10.633
X-29.346 Y-19.559 I8.957 J-17.388
X-13.239 Y15.094 I2.087 J20.1
X-48.189 Y-1.505 I-14.362 J-14.855
X-11.029 Y-13.747 I21.051 J1.379
X-27.593 Y22.386 I-16.346 J14.37
X-44.929 Y-13.998 I0.192 J-22.413
X-5.166 Y-6.01 I17.857 J14.068
X-34.136 Y22.875 I-22.206 J6.699
X-43.85 Y-17.386 I6.744 J-22.93
X-3.711 Y-6.32 I16.776 J17.478
X-31.588 Y24.982 I-23.644 J7.008
X-48.746 Y-13.717 I4.167 J-25.001
X-29.592 Y-25.502 I21.489 J13.47
G1 X-25.863 Y-25.507
G3 X-1.526 Y-3.46 I-1.182 J25.761
G1 X-1.5 Y3.487
G3 X-19.28 Y25.497 I-25.406 J-2.337
G1 X-34.496 Y25.507
G3 X-43.605 Y21.32 I2.528 J-17.5
X-49.793 Y-14.834 I16.134 J-21.368
X-36.226 Y-25.525 I22.355 J14.414
G1 X-29.592 Y-25.507
G3 X-29.362 Y-25.4 I0 J0.3
G1 X-29.316 Y-25.356
X-29.262 Y-25.323
X-29.202 Y-25.301
X-29.139 Y-25.293
X-28.871 Y-25.288
X-26.776 Y-25.244 F1200
X-26.721 Y-25.248
X-26.667 Y-25.262
X-26.617 Y-25.286
G3 X-25.863 Y-25.507 I0.809 J1.36 F500
G1 X-19.251
G3 X-11.641 Y-22.175 I-2.13 J15.218
X-1.486 Y-9.159 I-14.953 J22.137
G1 X-1.5 Y-3.463
G3 X-1.659 Y-3.209 I-0.3 J-0.01
X-2.105 Y-3.066 I-0.615 J-1.154
X-3.487 Y-3.874 I-0.168 J-1.297 F1200
X-2.061 Y-8.654 I3.71 J-1.496
X-1.659 Y-8.9 I2.284 J3.284 F500
G2 X-1.5 Y-9.154 I-0.141 J-0.265
G1 Y-11.564
G2 X-4.611 Y-17.574 I-11.049 J1.909
X-14.356 Y-25.536 I-21.356 J16.195
G1 X-19.251 Y-25.507
G2 X-19.505 Y-25.349 I0.01 J0.3
X-19.548 Y-24.891 I0.527 J0.281
X-19.402 Y-24.647 I0.571 J-0.176 F1200
X-14.878 Y-24.952 I2.13 J-2.113
X-14.625 Y-25.349 I-2.394 J-1.808 F500
G3 X-14.37 Y-25.507 I0.265 J0.141
G1 X-12.638
G3 X-7.101 Y-22.339 I-1.579 J9.183
X-1.462 Y-15.684 I-15.425 J18.786
G1 X-1.5 Y-11.564
G3 X-1.659 Y-11.309 I-0.3 J-0.01
X-2.11 Y-11.189 I-0.484 J-0.908
X-3.132 Y-11.934 I-0.032 J-1.028 F1200
X-2.056 Y-15.154 I2.884 J-0.826
X-1.659 Y-15.407 I1.808 J2.394 F500
G2 X-1.5 Y-15.662 I-0.141 J-0.265
G1 Y-17.07
G2 X-5.193 Y-22.566 I-8.81 J1.931
X-8.777 Y-25.545 I-10.684 J9.211
G1 X-12.638 Y-25.507
G2 X-12.892 Y-25.349 I0.01 J0.3
X-13.017 Y-24.898 I0.944 J0.503
X-12.086 Y-23.785 I1.068 J0.052 F1200
X-9.307 Y-24.952 I0.385 J-2.975
X-9.053 Y-25.349 I-2.394 J-1.808 F500
G3 X-8.799 Y-25.507 I0.265 J0.141
G1 X-7.495
G3 X-2.468 Y-21.855 I-1.956 J7.978
X-1.513 Y-20.696 I-1.385 J2.113
G1 X-1.5 Y-20.592
G3 X-1.989 Y-20.369 I-0.3 J-0.01
G1 X-2.082 Y-20.445
X-7.629 Y-24.938 F1200
X-7.673 Y-24.974 F500
G3 X-7.495 Y-25.507 I0.189 J-0.233
G1 X-5.291
G3 X-1.465 Y-22.911 I-0.982 J5.565
G0 X-1.5 Y-22.889 Z-1.79
X-6.302 Y-25.133
Z-3.38
G1 Z-3.68 F500
X-6.296 Y-25.137 Z-3.747
X-6.277 Y-25.148 Z-3.81
X-6.246 Y-25.166 Z-3.867
X-6.205 Y-25.191 Z-3.915
X-6.156 Y-25.22 Z-3.95
X-6.102 Y-25.252 Z-3.972
X-6.044 Y-25.286 Z-3.98
G3 X-5.291 Y-25.507 I0.809 J1.36
G1 X-3.27
G3 X-1.5 Y-24.588 I0.272 J1.64
X-1.915 Y-24.321 I-0.3 J-0.01
G1 X-2.105 Y-24.401
X-3.375 Y-24.931 F1200
X-3.401 Y-24.943
G3 X-3.27 Y-25.507 I0.141 J-0.265 F500
G1 X-1.801
X-1.755 Y-25.502
X-1.709 Y-25.49
X-1.663 Y-25.469
X-1.64 Y-25.454
X-1.617 Y-25.437
X-1.589 Y-25.41
X-1.567 Y-25.383
X-1.535 Y-25.33
X-1.516 Y-25.284
X-1.504 Y-25.238
X-1.5 Y-25.146
Y-17.07
G0 Z-3.38
X-35.208 Y-25.133
G1 Z-3.68 F500
X-35.215 Y-25.137 Z-3.747
X-35.234 Y-25.148 Z-3.81
X-35.265 Y-25.166 Z-3.867
X-35.305 Y-25.191 Z-3.915
X-35.354 Y-25.22 Z-3.95
X-35.409 Y-25.252 Z-3.972
X-35.466 Y-25.286 Z-3.98
G2 X-36.22 Y-25.507 I-0.809 J1.36
G1 X-38.721
G2 X-44.805 Y-22.396 I1.876 J11.173
X-50.256 Y16.68 I17.419 J22.348
X-39.608 Y25.54 I22.341 J-16.022
G1 X-34.496 Y25.507
G2 X-34.242 Y25.349 I-0.01 J-0.3
X-34.267 Y24.992 I-0.297 J-0.158
G1 X-34.324 Y24.917
G2 X-39.085 Y24.952 I-2.367 J1.843 F1200
X-39.338 Y25.349 I2.394 J1.808 F500
G3 X-39.592 Y25.507 I-0.265 J-0.141
G1 X-41.476
G3 X-47.003 Y22.355 I1.779 J-9.54
X-51.776 Y-17.184 I19.516 J-22.414
X-42.895 Y-25.552 I23.075 J15.593
G1 X-38.721 Y-25.507
G3 X-38.466 Y-25.349 I-0.01 J0.3
X-38.347 Y-24.897 I-0.897 J0.478
X-39.055 Y-23.902 I-1.016 J0.026 F1200
X-42.361 Y-24.952 I-0.912 J-2.858
X-42.614 Y-25.349 I2.394 J-1.808 F500
G2 X-42.868 Y-25.507 I-0.265 J0.141
G1 X-44.415
G2 X-49.815 Y-21.817 I2.287 J9.142
X-52.771 Y18.244 I22.309 J21.786
X-45.315 Y25.56 I22.618 J-15.593
G1 X-41.476 Y25.507
G2 X-41.282 Y24.988 I-0.01 J-0.3
G1 X-41.341 Y24.936
G2 X-41.855 Y24.638 I-1.086 J1.28 F1200
X-44.661 Y25.047 I-1.022 J2.82
X-45.071 Y25.412 I1.784 J2.412 F500
G1 X-45.115 Y25.451
X-45.166 Y25.481
X-45.222 Y25.5
X-45.28 Y25.507
X-46.619
G3 X-51.685 Y21.858 I2.029 J-8.157
X-54.461 Y-18.502 I24.093 J-21.933
X-47.857 Y-25.543 I20.229 J12.357
G1 X-44.415 Y-25.507
G3 X-44.126 Y-25.197 I-0.01 J0.3
X-44.208 Y-24.897 I-0.676 J-0.024
X-44.618 Y-24.57 I-0.593 J-0.324 F1200
X-47.214 Y-25.047 I-0.811 J-2.888
X-47.623 Y-25.412 I1.784 J-2.412 F500
G1 X-47.667 Y-25.451
X-47.718 Y-25.481
X-47.774 Y-25.5
X-47.832 Y-25.507
X-49.007
X-49.331 Y-25.417
X-49.651 Y-25.312
X-49.966 Y-25.193
X-50.276 Y-25.06
X-50.578 Y-24.913
X-50.875 Y-24.753
X-51.163 Y-24.579
X-51.443 Y-24.393
X-51.715 Y-24.194
X-51.978 Y-23.983
X-52.23 Y-23.761
X-52.473 Y-23.527
X-52.705 Y-23.283
X-52.925 Y-23.029
X-53.134 Y-22.764
X-53.33 Y-22.491
X-53.514 Y-22.209
X-53.686 Y-21.92
G2 X-55.574 Y19.409 I26.112 J21.9
X-49.983 Y25.568 I21.336 J-13.753
G1 X-46.619 Y25.507
G2 X-46.365 Y25.349 I-0.01 J-0.3
X-46.407 Y24.976 I-0.292 J-0.155
G1 X-46.456 Y24.922
G2 X-49.412 Y24.962 I-1.46 J1.367 F1200
X-49.681 Y25.349 I1.496 J1.327 F500
G3 X-49.935 Y25.507 I-0.265 J-0.141
G1 X-51.027
G3 X-55.468 Y21.947 I1.792 J-6.785
X-57.279 Y-19.618 I27.801 J-22.033
X-52.175 Y-25.535 I15.709 J8.39
G1 X-49.007 Y-25.507
G3 X-48.753 Y-25.349 I-0.01 J0.3
X-48.748 Y-24.895 I-0.435 J0.232
G1 X-48.783 Y-24.835 F1200
X-48.827 Y-24.781
X-48.878 Y-24.734
G3 X-51.631 Y-24.962 I-1.257 J-1.555
X-51.9 Y-25.349 I1.496 J-1.327 F500
G2 X-52.154 Y-25.507 I-0.265 J0.141
G1 X-53.149
G2 X-56.342 Y-23.377 I0.787 J4.636
X-58.934 Y19.703 I28.79 J23.351
X-54.139 Y25.577 I19.962 J-11.404
G1 X-51.027 Y25.507
G2 X-50.773 Y25.349 I-0.01 J-0.3
X-50.742 Y24.892 I-0.494 J-0.263
X-50.959 Y24.618 I-0.525 J0.194 F1200
X-53.554 Y24.962 I-1.099 J1.671
X-53.823 Y25.349 I1.496 J1.327 F500
G3 X-54.077 Y25.507 I-0.265 J-0.141
G1 X-55.068
G3 X-58.194 Y23.353 I0.797 J-4.5
X-60.16 Y-20.654 I30.729 J-23.42
X-56.197 Y-25.575 I16.536 J9.262
G1 X-53.149 Y-25.507
G3 X-52.895 Y-25.349 I-0.01 J0.3
X-52.852 Y-24.891 I-0.524 J0.279
X-53.124 Y-24.554 I-0.567 J-0.178 F1200
X-55.614 Y-24.962 I-0.994 J-1.736
X-55.882 Y-25.349 I1.496 J-1.327 F500
G2 X-56.136 Y-25.507 I-0.265 J0.141
G1 X-57.089
X-57.336 Y-25.45
X-57.579 Y-25.379
X-57.817 Y-25.294
X-58.051 Y-25.196
X-58.278 Y-25.084
X-58.499 Y-24.96
X-58.712 Y-24.823
X-58.917 Y-24.674
X-59.113 Y-24.514
X-59.3 Y-24.342
X-59.476 Y-24.161
X-59.642 Y-23.969
X-59.797 Y-23.769
X-59.94 Y-23.56
X-60.07 Y-23.343
G2 X-61.709 Y20.855 I32.418 J23.331
X-58.013 Y25.576 I15.426 J-8.271
G1 X-55.068 Y25.507
G2 X-54.814 Y25.349 I-0.01 J-0.3
X-54.758 Y24.891 I-0.565 J-0.301
X-55.119 Y24.462 I-0.621 J0.156 F1200
X-57.429 Y24.962 I-0.813 J1.827
X-57.697 Y25.349 I1.496 J1.327 F500
G3 X-57.951 Y25.507 I-0.265 J-0.141
G1 X-58.843
X-59.09 Y25.455
X-59.333 Y25.388
X-59.572 Y25.305
X-59.804 Y25.208
X-60.031 Y25.097
X-60.25 Y24.971
X-60.461 Y24.833
X-60.663 Y24.681
X-60.855 Y24.518
X-61.037 Y24.343
X-61.207 Y24.156
X-61.365 Y23.96
X-61.512 Y23.754
X-61.645 Y23.54
G3 X-63.507 Y-20.809 I33.817 J-23.634
X-59.959 Y-25.573 I14.319 J6.964
G1 X-57.089 Y-25.507
G3 X-56.835 Y-25.349 I-0.01 J0.3
X-56.772 Y-24.891 I-0.587 J0.313
X-57.194 Y-24.411 I-0.649 J-0.145 F1200
X-59.376 Y-24.962 I-0.686 J-1.879
X-59.644 Y-25.349 I1.496 J-1.327 F500
G2 X-59.899 Y-25.507 I-0.265 J0.141
G1 X-60.762
G2 X-63.438 Y-23.612 I0.678 J3.795
X-65.106 Y20.902 I35.53 J23.619
X-61.797 Y25.524 I14.798 J-7.098
G1 X-61.634 Y25.507
X-58.843
G2 X-58.589 Y25.349 I-0.01 J-0.3
X-58.525 Y24.891 I-0.592 J-0.316
X-58.961 Y24.399 I-0.656 J0.142 F1200
X-61.111 Y24.962 I-0.654 J1.89
X-61.38 Y25.349 I1.496 J1.327 F500
G3 X-61.634 Y25.507 I-0.265 J-0.141
G1 X-62.416
G3 X-64.996 Y23.781 I0.483 J-3.514
X-70.804 Y-10.288 I36.222 J-23.705
X-66.892 Y-20.866 I39.568 J8.62
X-63.671 Y-25.526 I15.287 J7.125
G1 X-63.502 Y-25.507
X-60.762
G3 X-60.508 Y-25.349 I-0.01 J0.3
X-60.441 Y-24.891 I-0.604 J0.322
X-60.919 Y-24.371 I-0.67 J-0.136 F1200
X-62.979 Y-24.962 I-0.564 J-1.919
X-63.248 Y-25.349 I1.496 J-1.327 F500
G2 X-63.502 Y-25.507 I-0.265 J0.141
G1 X-63.701 Y-25.505
X-64.252 Y-25.494
X-64.353 Y-25.491
G2 X-66.871 Y-23.675 I0.668 J3.581
X-70.903 Y15.177 I38.397 J23.619
X-68.387 Y21.124 I33.329 J-10.593
X-65.315 Y25.534 I13.028 J-5.8
G3 X-62.416 Y25.505 I2.181 J74.759
G1 X-62.354 Y25.497
X-62.295 Y25.476
X-62.242 Y25.443
X-62.197 Y25.4
X-62.161 Y25.349
G2 X-62.106 Y24.891 I-0.563 J-0.3
X-62.476 Y24.462 I-0.618 J0.158 F1200
X-64.712 Y24.936 I-0.777 J1.843
X-64.991 Y25.315 I1.459 J1.368 F500
G3 X-65.25 Y25.466 I-0.261 J-0.148
G1 X-66.089 Y25.443
G3 X-68.592 Y23.576 I0.706 J-3.558
X-73.762 Y-10.713 I39.644 J-23.512
X-69.985 Y-21.345 I41.939 J8.911
X-67.26 Y-25.406 I11.051 J4.471
G1 X-67.112 Y-25.412
X-65.906 Y-25.448
X-64.353 Y-25.491
G3 X-64.095 Y-25.34 I-0.002 J0.3
X-64.017 Y-24.884 I-0.588 J0.335
X-64.461 Y-24.366 I-0.666 J-0.121 F1200
X-66.573 Y-24.883 I-0.657 J-1.889
X-66.854 Y-25.261 I1.456 J-1.372 F500
G2 X-67.112 Y-25.412 I-0.26 J0.149
G1 X-67.926 Y-25.388
G2 X-70.335 Y-23.57 I0.694 J3.427
X-76.074 Y6.03 I40.463 J23.201
X-71.542 Y21.46 I45.944 J-5.114
X-68.941 Y25.355 I10.046 J-3.892
G1 X-68.797 Y25.361
X-66.089 Y25.443
G2 X-65.831 Y25.291 I-0.002 J-0.3
X-65.749 Y24.836 I-0.601 J-0.342
X-66.235 Y24.286 I-0.682 J0.113 F1200
X-68.258 Y24.833 I-0.567 J1.918
X-68.538 Y25.21 I1.456 J1.372 F500
G3 X-68.797 Y25.361 I-0.26 J-0.149
G1 X-69.579 Y25.338
G3 X-71.861 Y23.701 I0.57 J-3.203
X-77.645 Y5.365 I37.364 J-21.868
X-72.906 Y-22.133 I49.167 J-5.684
G1 X-72.795 Y-22.436
X-72.67 Y-22.734
X-72.531 Y-23.025
X-72.379 Y-23.31
X-72.213 Y-23.587
X-72.035 Y-23.857
X-71.844 Y-24.117
X-71.642 Y-24.369
X-71.428 Y-24.611
X-71.203 Y-24.842
X-70.967 Y-25.063
X-70.722 Y-25.273
X-70.6 Y-25.302
X-70.314 Y-25.316
X-67.926 Y-25.388
G3 X-67.667 Y-25.237 I-0.001 J0.3
X-67.59 Y-24.781 I-0.58 J0.332
X-68.059 Y-24.264 I-0.656 J-0.124 F1200
X-70.051 Y-24.783 I-0.563 J-1.919
X-70.338 Y-25.156 I1.429 J-1.4 F500
G2 X-70.6 Y-25.302 I-0.257 J0.154
G1 X-70.865 Y-25.289
X-71.049 Y-25.276
X-71.416 Y-25.244
G2 X-73.822 Y-23.318 I0.778 J3.438
X-79.269 Y4.03 I43.113 J22.803
X-74.614 Y21.913 I49.329 J-3.292
X-72.486 Y25.134 I7.091 J-2.373
G1 X-72.363 Y25.162
G2 X-69.579 Y25.338 I3.362 J-31.168
X-69.32 Y25.187 I-0.001 J-0.3
X-69.25 Y24.731 I-0.556 J-0.318
X-69.621 Y24.281 I-0.626 J0.137 F1200
X-71.795 Y24.664 I-0.797 J1.834
X-72.096 Y25.026 I1.377 J1.45 F500
G3 X-72.363 Y25.162 I-0.252 J-0.163
G1 X-73.17 Y25.093
G3 X-75.446 Y23.258 I0.789 J-3.308
X-80.911 Y0.711 I42.744 J-22.296
X-75.881 Y-22.78 I51.594 J-1.237
X-74.42 Y-24.926 I5.016 J1.846
G1 X-74.31 Y-24.98
X-74.19 Y-25.005
X-71.416 Y-25.244
G3 X-71.149 Y-25.108 I0.015 J0.3
X-71.046 Y-24.657 I-0.564 J0.366
X-71.444 Y-24.125 I-0.667 J-0.084 F1200
X-73.622 Y-24.507 I-0.801 J-1.833
X-73.923 Y-24.869 I1.377 J-1.45 F500
G2 X-74.19 Y-25.005 I-0.252 J0.163
G1 X-75.007 Y-24.935
G2 X-77.314 Y-22.924 I0.925 J3.391
X-82.056 Y6.174 I46.61 J22.532
X-77.614 Y22.474 I50.602 J-5.036
X-76.105 Y24.776 I6.15 J-2.385
G1 X-75.991 Y24.834
X-75.866 Y24.861
X-73.17 Y25.093
G2 X-72.903 Y24.957 I0.015 J-0.3
X-72.796 Y24.507 I-0.58 J-0.376
X-73.252 Y23.929 I-0.688 J0.073 F1200
X-75.298 Y24.363 I-0.67 J1.885
X-75.599 Y24.725 I1.377 J1.45 F500
G3 X-75.866 Y24.861 I-0.252 J-0.163
G1 X-76.66 Y24.793
G3 X-78.895 Y22.889 I0.85 J-3.263
X-83.863 Y1.828 I44.677 J-21.654
X-78.886 Y-23.297 I53.844 J-2.389
X-77.794 Y-24.667 I2.98 J1.253
G1 X-77.668 Y-24.702
X-77.294 Y-24.738
X-75.007 Y-24.935
G3 X-74.74 Y-24.799 I0.015 J0.3
X-74.653 Y-24.347 I-0.512 J0.333
X-75.023 Y-23.9 I-0.599 J-0.119 F1200
X-77.075 Y-24.234 I-0.752 J-1.853
X-77.394 Y-24.58 I1.301 J-1.519 F500
G2 X-77.668 Y-24.702 I-0.243 J0.176
G1 X-77.845 Y-24.678
X-78.507 Y-24.583
G2 X-80.758 Y-22.481 I1.084 J3.42
X-84.99 Y6.734 I49.639 J22.105
X-80.575 Y23.042 I51.443 J-5.175
X-79.534 Y24.416 I2.857 J-1.084
G1 X-79.406 Y24.453
G2 X-76.66 Y24.793 I4.808 J-27.609
X-76.393 Y24.656 I0.015 J-0.3
X-76.294 Y24.206 I-0.55 J-0.357
X-76.662 Y23.708 I-0.648 J0.094 F1200
X-78.81 Y23.988 I-0.856 J1.807
X-79.131 Y24.332 I1.292 J1.527 F500
G3 X-79.406 Y24.453 I-0.242 J-0.177
G1 X-80.233 Y24.334
G3 X-82.446 Y22.209 I1.113 J-3.375
X-86.559 Y-6.253 I51.127 J-21.916
X-82.052 Y-23.359 I51.594 J4.448
X-81.199 Y-24.195 I1.229 J0.401
G1 X-78.507 Y-24.583
G3 X-78.232 Y-24.462 I0.032 J0.298
X-78.1 Y-24.019 I-0.555 J0.407
X-78.512 Y-23.423 I-0.688 J-0.036 F1200
X-80.603 Y-23.73 I-0.799 J-1.833
X-80.924 Y-24.074 I1.292 J-1.527 F500
G2 X-81.199 Y-24.195 I-0.242 J0.177
G1 X-81.987 Y-24.081
G2 X-84.13 Y-22.039 I1.041 J3.237
X-88.345 Y1.629 I50.187 J21.147
X-83.876 Y22.845 I56.254 J-0.769
X-82.992 Y23.919 I2.442 J-1.11
G1 X-82.866 Y23.955
X-80.233 Y24.334
G2 X-79.958 Y24.213 I0.032 J-0.298
X-79.823 Y23.771 I-0.564 J-0.414
X-80.277 Y23.144 I-0.699 J0.029 F1200
X-82.271 Y23.49 I-0.701 J1.873
X-82.592 Y23.834 I1.292 J1.527 F500
G3 X-82.866 Y23.955 I-0.242 J-0.177
G1 X-83.64 Y23.843
G3 X-85.713 Y21.915 I0.962 J-3.113
X-89.732 Y3.878 I46.914 J-19.918
X-85.759 Y-22.267 I59.148 J-4.386
X-84.768 Y-23.645 I2.992 J1.107
G1 X-84.644 Y-23.687
X-84.457 Y-23.723
X-84.274 Y-23.752
X-81.987 Y-24.081
G3 X-81.713 Y-23.96 I0.032 J0.298
X-81.6 Y-23.514 I-0.494 J0.362
X-81.938 Y-23.048 I-0.606 J-0.084 F1200
X-84.025 Y-23.253 I-0.877 J-1.797
X-84.364 Y-23.58 I1.21 J-1.592 F500
G2 X-84.644 Y-23.687 I-0.232 J0.19
G1 X-85.008 Y-23.614
X-85.477 Y-23.52
G2 X-87.601 Y-21.289 I1.288 J3.354
X-90.926 Y7.315 I55.373 J20.933
X-87.308 Y22.182 I53.113 J-5.052
X-86.485 Y23.299 I2.367 J-0.884
G1 X-86.365 Y23.339
G2 X-83.64 Y23.846 I7.429 J-32.392
G1 X-83.577 Y23.845
X-83.516 Y23.832
X-83.458 Y23.806
X-83.407 Y23.769
X-83.366 Y23.722
G2 X-83.24 Y23.278 I-0.532 J-0.39
X-83.58 Y22.754 I-0.657 J0.054 F1200
X-85.744 Y22.909 I-0.962 J1.754
X-86.085 Y23.234 I1.202 J1.598 F500
G3 X-86.365 Y23.339 I-0.231 J-0.191
G1 X-87.213 Y23.167
G3 X-89.347 Y20.759 I1.447 J-3.434
X-90.92 Y-15.837 I59.165 J-20.874
X-88.315 Y-22.978 I21.761 J3.89
G1 X-88.132 Y-22.981
X-85.477 Y-23.52
G3 X-85.196 Y-23.415 I0.049 J0.296
X-85.038 Y-22.98 I-0.533 J0.44
X-85.423 Y-22.356 I-0.691 J0.005 F1200
X-87.511 Y-22.551 I-0.886 J-1.793
X-87.851 Y-22.876 I1.202 J-1.598 F500
G2 X-88.132 Y-22.981 I-0.231 J0.191
G1 X-88.866 Y-22.832
G2 X-90.848 Y-20.856 I1.04 J3.026
X-94.242 Y-3.496 I49.036 J18.599
X-90.868 Y21.163 I62.9 J3.954
X-89.927 Y22.597 I2.952 J-0.912
G1 X-89.797 Y22.643
X-87.213 Y23.167
G2 X-86.932 Y23.062 I0.049 J-0.296
X-86.771 Y22.628 I-0.543 J-0.448
X-87.204 Y21.965 I-0.704 J-0.014 F1200
X-89.176 Y22.213 I-0.77 J1.846
X-89.516 Y22.538 I1.202 J1.598 F500
G3 X-89.797 Y22.643 I-0.231 J-0.191
G1 X-90.519 Y22.496
G3 X-92.463 Y20.563 I1.015 J-2.965
X-95.648 Y4.794 I47.042 J-17.71
X-92.615 Y-20.715 I64.3 J-5.29
X-91.749 Y-22.175 I3.88 J1.314
G1 X-91.649 Y-22.242
X-91.535 Y-22.283
G3 X-88.866 Y-22.832 I19.567 J88.375
X-88.585 Y-22.727 I0.049 J0.296
X-88.437 Y-22.29 I-0.501 J0.414
X-88.771 Y-21.744 I-0.65 J-0.023 F1200
X-90.904 Y-21.867 I-0.969 J-1.749
X-91.252 Y-22.184 I1.164 J-1.626 F500
G2 X-91.535 Y-22.283 I-0.227 J0.196
G1 X-92.356 Y-22.093
G2 X-94.379 Y-19.715 I1.46 J3.292
X-96.619 Y9.833 I61.686 J19.536
X-93.505 Y21.817 I39.05 J-3.749
G1 X-93.318 Y21.853
X-93.2 Y21.897
G2 X-90.519 Y22.497 I15.375 J-62.427
G1 X-90.456 Y22.5
X-90.394 Y22.491
X-90.336 Y22.469
X-90.283 Y22.435
X-90.238 Y22.391
G2 X-90.084 Y21.956 I-0.521 J-0.43
X-90.427 Y21.373 I-0.675 J0.005 F1200
X-92.567 Y21.484 I-0.982 J1.742
X-92.916 Y21.8 I1.158 J1.631 F500
G3 X-93.2 Y21.897 I-0.226 J-0.197
G1 X-94.009 Y21.709
G3 X-96.008 Y19.33 I1.459 J-3.257
X-98.293 Y-8.636 I62.32 J-19.167
X-95.24 Y-21.416 I41.719 J3.21
G1 X-95.044 Y-21.452
X-94.924 Y-21.496
X-92.356 Y-22.093
G3 X-92.072 Y-21.995 I0.058 J0.294
X-91.9 Y-21.566 I-0.528 J0.461
X-92.311 Y-20.896 I-0.7 J0.032 F1200
X-94.291 Y-21.085 I-0.826 J-1.822
X-94.641 Y-21.4 I1.155 J-1.633 F500
G2 X-94.924 Y-21.496 I-0.226 J0.198
G1 X-95.662 Y-21.322
G2 X-97.515 Y-19.333 I1.135 J2.916
X-100.215 Y-3.468 I49.777 J16.633
X-97.543 Y19.694 I66.686 J4.042
X-96.684 Y21.061 I2.85 J-0.837
G1 X-96.557 Y21.111
X-94.927 Y21.496
X-94.009 Y21.709
G2 X-93.725 Y21.612 I0.058 J-0.294
X-93.552 Y21.183 I-0.531 J-0.463
X-93.975 Y20.503 I-0.704 J-0.034 F1200
X-95.922 Y20.701 I-0.797 J1.834
X-96.273 Y21.015 I1.15 J1.636 F500
G3 X-96.557 Y21.111 I-0.225 J-0.198
G1 X-97.315 Y20.931
G3 X-99.179 Y18.841 I1.233 J-2.976
X-101.758 Y2.141 I52.648 J-16.681
X-99.174 Y-19.428 I66.685 J-2.949
X-98.37 Y-20.663 I2.613 J0.822
G1 X-98.245 Y-20.711
X-95.662 Y-21.322
G3 X-95.378 Y-21.227 I0.059 J0.294
X-95.204 Y-20.798 I-0.526 J0.463
X-95.603 Y-20.13 I-0.7 J0.035 F1200
X-97.611 Y-20.301 I-0.857 J-1.807
X-97.961 Y-20.615 I1.15 J-1.636 F500
G2 X-98.245 Y-20.711 I-0.225 J0.198
G1 X-98.968 Y-20.539
G2 X-100.756 Y-18.624 I1.085 J2.806
X-103.108 Y-5.145 I44.697 J14.742
X-100.852 Y18.872 I69.336 J5.602
X-99.995 Y20.277 I2.856 J-0.779
G1 X-99.866 Y20.327
X-97.315 Y20.931
G2 X-97.031 Y20.835 I0.059 J-0.294
X-96.856 Y20.407 I-0.53 J-0.467
G1 X-96.855 Y20.369 F1200
Y20.368
G2 X-97.277 Y19.722 I-0.706 J0
X-99.231 Y19.917 I-0.804 J1.831
X-99.582 Y20.231 I1.15 J1.636 F500
G3 X-99.866 Y20.327 I-0.225 J-0.198
G1 X-100.621 Y20.148
G3 X-102.437 Y18.066 I1.229 J-2.905
X-104.718 Y2.941 I50.683 J-15.377
X-102.442 Y-18.666 I68.499 J-3.711
X-101.646 Y-19.886 I2.636 J0.85
G1 X-101.52 Y-19.935
X-98.968 Y-20.539
G3 X-98.684 Y-20.444 I0.059 J0.294
X-98.509 Y-20.015 I-0.529 J0.467
G1 X-98.508 Y-19.977 F1200
G3 X-98.929 Y-19.331 I-0.706 J0
X-100.886 Y-19.525 I-0.807 J-1.83
X-101.236 Y-19.839 I1.15 J-1.636 F500
G2 X-101.52 Y-19.935 I-0.225 J0.198
G1 X-102.274 Y-19.756
G2 X-104.06 Y-17.709 I1.208 J2.856
X-106.196 Y-3.376 I48.869 J14.606
X-104.055 Y18.247 I69.237 J4.062
X-103.249 Y19.506 I2.684 J-0.83
G1 X-103.122 Y19.556
X-100.621 Y20.148
G2 X-100.337 Y20.052 I0.059 J-0.294
X-100.161 Y19.624 I-0.534 J-0.471
X-100.614 Y18.917 I-0.711 J-0.043 F1200
X-102.488 Y19.146 I-0.723 J1.865
X-102.838 Y19.46 I1.15 J1.636 F500
G3 X-103.122 Y19.556 I-0.225 J-0.198
G1 X-103.845 Y19.384
G3 X-105.59 Y17.466 I1.095 J-2.749
X-107.615 Y4.748 I43.058 J-13.374
X-105.742 Y-17.709 I71.354 J-5.355
X-104.898 Y-19.115 I2.848 J0.752
G1 X-104.767 Y-19.166
X-102.274 Y-19.756
G3 X-101.99 Y-19.661 I0.059 J0.294
X-101.814 Y-19.233 I-0.535 J0.471
X-102.272 Y-18.523 I-0.712 J0.043 F1200
X-104.133 Y-18.756 I-0.711 J-1.869
X-104.483 Y-19.07 I1.15 J-1.636 F500
G2 X-104.767 Y-19.166 I-0.225 J0.198
G1 X-105.498 Y-18.993
G2 X-107.231 Y-17.039 I1.126 J2.744
X-109.138 Y-4.301 I43.726 J13.058
X-107.321 Y17.358 I71.385 J4.919
X-106.485 Y18.739 I2.832 J-0.772
G1 X-106.354 Y18.79
X-103.845 Y19.384
G2 X-103.561 Y19.289 I0.059 J-0.294
X-103.385 Y18.861 I-0.534 J-0.47
X-103.832 Y18.157 I-0.71 J-0.042 F1200
X-105.72 Y18.38 I-0.737 J1.859
X-106.07 Y18.694 I1.15 J1.636 F500
G3 X-106.354 Y18.79 I-0.225 J-0.198
G1 X-107.05 Y18.625
G3 X-108.726 Y16.856 I0.977 J-2.603
X-110.539 Y5.741 I36.291 J-11.627
X-109.008 Y-16.749 I73.724 J-6.276
X-108.206 Y-18.283 I4.83 J1.547
G1 X-108.1 Y-18.359
X-107.978 Y-18.406
X-105.498 Y-18.993
G3 X-105.214 Y-18.897 I0.059 J0.294
X-105.037 Y-18.469 I-0.536 J0.472
X-105.503 Y-17.755 I-0.713 J0.044 F1200
X-107.344 Y-17.996 I-0.691 J-1.877
X-107.694 Y-18.31 I1.15 J-1.636 F500
G2 X-107.978 Y-18.406 I-0.225 J0.198
G1 X-108.703 Y-18.234
G2 X-110.418 Y-16.285 I1.122 J2.716
X-112.126 Y-4.332 I41.553 J12.037
X-110.534 Y16.546 I72.574 J4.964
X-109.69 Y17.979 I2.92 J-0.755
G1 X-109.557 Y18.032
X-107.05 Y18.625
G2 X-106.766 Y18.53 I0.059 J-0.294
X-106.59 Y18.102 I-0.534 J-0.47
X-107.039 Y17.397 I-0.71 J-0.042 F1200
X-108.923 Y17.622 I-0.734 J1.86
X-109.273 Y17.936 I1.15 J1.636 F500
G3 X-109.557 Y18.032 I-0.225 J-0.198
G1 X-110.274 Y17.862
G3 X-111.964 Y15.967 I1.08 J-2.664
X-113.592 Y4.818 I38.113 J-11.261
X-112.167 Y-16.076 I74.03 J-5.445
X-111.398 Y-17.529 I3.91 J1.139
G1 X-111.293 Y-17.603
X-111.173 Y-17.649
X-108.703 Y-18.234
G3 X-108.419 Y-18.138 I0.059 J0.294
X-108.242 Y-17.71 I-0.536 J0.473
X-108.715 Y-16.992 I-0.714 J0.045 F1200
X-110.539 Y-17.239 I-0.673 J-1.883
X-110.889 Y-17.553 I1.15 J-1.636 F500
G2 X-111.173 Y-17.649 I-0.225 J0.198
G1 X-111.826 Y-17.494
G2 X-113.753 Y-15.157 I1.049 J2.828
X-114.98 Y6.535 I69.197 J14.795
X-113.137 Y17.069 I33.776 J-0.481
G1 X-112.967 Y17.148
X-112.858 Y17.231
X-112.73 Y17.28
X-110.274 Y17.862
G2 X-109.99 Y17.766 I0.059 J-0.294
X-109.812 Y17.338 I-0.537 J-0.473
X-110.294 Y16.616 I-0.715 J-0.046 F1200
X-112.096 Y16.87 I-0.652 J1.891
X-112.446 Y17.184 I1.15 J1.636 F500
G3 X-112.73 Y17.28 I-0.225 J-0.198
G1 X-113.112 Y17.19
X-113.479 Y17.105
G3 X-115.174 Y15.077 I1.191 J-2.718
X-116.661 Y3.092 I42.639 J-11.374
X-115.298 Y-15.392 I71.428 J-4.024
X-114.54 Y-16.812 I3.562 J0.99
G1 X-114.429 Y-16.887
X-114.303 Y-16.931
G2 X-111.826 Y-17.495 I-10.778 J-53.088
G3 X-111.542 Y-17.399 I0.059 J0.295
X-111.358 Y-16.973 I-0.563 J0.496
X-111.881 Y-16.187 I-0.747 J0.07 F1200
X-113.683 Y-16.5 I-0.596 J-1.909
X-114.022 Y-16.826 I1.205 J-1.596 F500
G2 X-114.303 Y-16.931 I-0.232 J0.191
G1 X-114.948 Y-16.805
G2 X-116.842 Y-14.567 I0.972 J2.743
X-118.18 Y2.29 I60.3 J13.268
X-116.798 Y15.118 I56.388 J0.413
X-115.971 Y16.568 I2.676 J-0.565
G1 X-115.832 Y16.619
X-113.846 Y17.023
X-113.633 Y17.07
X-113.479 Y17.105
G2 X-113.196 Y17.007 I0.057 J-0.295
X-113.021 Y16.578 I-0.543 J-0.471
X-113.587 Y15.833 I-0.718 J-0.043 F1200
X-115.211 Y16.189 I-0.421 J1.955
X-115.551 Y16.514 I1.202 J1.599 F500
G3 X-115.832 Y16.619 I-0.231 J-0.191
G1 X-116.519 Y16.479
G3 X-118.428 Y14.121 I1.065 J-2.814
X-119.562 Y-5.169 I67.005 J-13.618
X-117.763 Y-16.097 I29.29 J-0.79
G1 X-117.632 Y-16.18
X-117.524 Y-16.255
X-117.399 Y-16.298
X-116.418 Y-16.503
X-115.132 Y-16.768
X-114.948 Y-16.805
G3 X-114.668 Y-16.698 I0.047 J0.296
X-114.508 Y-16.263 I-0.557 J0.452
X-115.025 Y-15.557 I-0.717 J0.018 F1200
X-116.776 Y-15.872 I-0.558 J-1.92
X-117.118 Y-16.195 I1.193 J-1.605 F500
G2 X-117.399 Y-16.298 I-0.23 J0.192
G1 X-118.071 Y-16.158
G2 X-119.961 Y-13.883 I1.016 J2.767
X-121.147 Y2.986 I60.907 J12.759
X-119.735 Y14.989 I46.943 J0.562
X-119.066 Y15.93 I2.108 J-0.79
G1 X-118.938 Y15.976
X-117.153 Y16.349
X-116.519 Y16.479
G2 X-116.238 Y16.375 I0.049 J-0.296
X-116.074 Y15.941 I-0.554 J-0.458
X-116.607 Y15.223 I-0.718 J-0.024 F1200
X-118.314 Y15.55 I-0.514 J1.933
X-118.656 Y15.873 I1.193 J1.605 F500
G3 X-118.938 Y15.976 I-0.23 J-0.192
G1 X-119.641 Y15.829
G3 X-121.56 Y13.381 I1.126 J-2.858
X-122.512 Y-5.922 I68.803 J-13.068
X-120.789 Y-15.55 I23.193 J-0.819
G1 X-120.622 Y-15.609
X-120.489 Y-15.653
X-120.459 Y-15.658
X-118.071 Y-16.158
G3 X-117.724 Y-15.913 I0.051 J0.296
X-117.824 Y-15.63 I-0.303 J0.052
G1 X-117.838 Y-15.618 F1200
G3 X-119.787 Y-15.33 I-1.228 J-1.578
X-120.266 Y-15.596 I0.72 J-1.866 F500
G1 X-120.317 Y-15.626
X-120.372 Y-15.646
X-120.43 Y-15.655
X-120.489 Y-15.653
G3 X-121.111 Y-15.549 I-3.532 J-19.203
G1 X-121.32 Y-15.457
X-121.522 Y-15.351
X-121.716 Y-15.231
X-121.901 Y-15.097
X-122.076 Y-14.952
X-122.241 Y-14.794
X-122.394 Y-14.625
X-122.535 Y-14.446
X-122.663 Y-14.257
X-122.778 Y-14.06
X-122.878 Y-13.855
X-122.964 Y-13.644
X-123.035 Y-13.427
X-123.091 Y-13.206
X-123.131 Y-12.982
X-123.155 Y-12.755
G2 X-124.155 Y2.528 I59.642 J11.576
X-123.022 Y13.761 I50.299 J0.599
X-122.217 Y15.304 I4.66 J-1.451
G1 X-122.097 Y15.382
X-121.96 Y15.423
G3 X-119.641 Y15.829 I-3.148 J24.823
G1 X-119.577 Y15.833
X-119.514 Y15.823
X-119.454 Y15.8
X-119.401 Y15.766
X-119.356 Y15.72
X-119.321 Y15.666
X-119.299 Y15.606
X-119.291 Y15.542
X-119.296 Y15.478
X-119.314 Y15.417
X-119.345 Y15.361
X-119.394 Y15.299
G2 X-119.635 Y15.116 I-0.562 J0.492 F1200
X-121.268 Y15.08 I-0.857 J1.807
X-121.739 Y15.359 I0.776 J1.844 F500
G1 X-121.789 Y15.391
X-121.843 Y15.413
X-121.901 Y15.424
X-121.96 Y15.423
X-122.58 Y15.331
X-122.785 Y15.248
X-122.983 Y15.15
X-123.173 Y15.039
X-123.356 Y14.915
X-123.529 Y14.779
X-123.693 Y14.63
X-123.845 Y14.471
X-123.986 Y14.301
X-124.115 Y14.122
X-124.231 Y13.934
X-124.333 Y13.739
X-124.422 Y13.537
X-124.496 Y13.329
X-124.556 Y13.117
X-124.601 Y12.901
X-124.63 Y12.682
G3 X-125.677 Y-0.979 I52.95 J-10.93
X-124.481 Y-13.819 I52.478 J-1.587
X-123.719 Y-15.089 I3.522 J1.249
G1 X-123.604 Y-15.161
X-123.473 Y-15.199
X-121.111 Y-15.549
G3 X-120.836 Y-15.429 I0.034 J0.298
X-120.695 Y-14.988 I-0.579 J0.428
X-121.316 Y-14.287 I-0.72 J-0.013 F1200
X-122.876 Y-14.736 I-0.274 J-1.981
X-123.199 Y-15.079 I1.285 J-1.532 F500
G2 X-123.473 Y-15.199 I-0.241 J0.178
G1 X-124.132 Y-15.101
X-124.341 Y-15.01
X-124.543 Y-14.905
X-124.738 Y-14.786
X-124.923 Y-14.654
X-125.099 Y-14.51
X-125.265 Y-14.353
X-125.419 Y-14.186
X-125.561 Y-14.008
X-125.691 Y-13.821
X-125.807 Y-13.625
X-125.91 Y-13.422
X-125.998 Y-13.212
X-126.071 Y-12.996
X-126.13 Y-12.776
X-126.172 Y-12.552
X-126.2 Y-12.326
G2 X-127.167 Y1.342 I54.04 J10.694
X-126.056 Y13.385 I51.622 J1.306
X-125.23 Y14.861 I4.75 J-1.689
G1 X-125.112 Y14.936
X-124.978 Y14.975
X-122.58 Y15.331
G2 X-122.306 Y15.211 I0.034 J-0.298
X-122.164 Y14.77 I-0.579 J-0.428
X-122.766 Y14.073 I-0.72 J0.013 F1200
X-124.381 Y14.513 I-0.33 J1.973
X-124.703 Y14.856 I1.285 J1.532 F500
G3 X-124.978 Y14.975 I-0.241 J-0.178
G1 X-125.602 Y14.883
X-125.801 Y14.806
X-125.994 Y14.716
X-126.181 Y14.613
X-126.36 Y14.496
X-126.53 Y14.368
X-126.691 Y14.228
X-126.842 Y14.076
X-126.981 Y13.915
X-127.109 Y13.745
X-127.225 Y13.565
X-127.328 Y13.379
X-127.418 Y13.185
X-127.494 Y12.986
X-127.555 Y12.781
X-127.603 Y12.573
X-127.635 Y12.363
G3 X-128.667 Y0.322 I44.905 J-9.915
X-127.756 Y-12.553 I60.328 J-2.2
X-126.756 Y-14.638 I4.167 J0.716
G1 X-126.641 Y-14.71
X-126.51 Y-14.748
X-124.132 Y-15.101
G3 X-123.858 Y-14.981 I0.034 J0.298
X-123.717 Y-14.54 I-0.579 J0.428
X-124.329 Y-13.84 I-0.72 J-0.013 F1200
X-125.913 Y-14.286 I-0.298 J-1.978
X-126.235 Y-14.629 I1.285 J-1.532 F500
G2 X-126.51 Y-14.748 I-0.241 J0.178
G1 X-127.172 Y-14.65
X-127.381 Y-14.56
X-127.583 Y-14.456
X-127.777 Y-14.338
X-127.962 Y-14.207
X-128.138 Y-14.064
X-128.304 Y-13.909
X-128.458 Y-13.742
X-128.601 Y-13.565
X-128.731 Y-13.379
X-128.847 Y-13.184
X-128.95 Y-12.982
X-129.039 Y-12.773
X-129.112 Y-12.558
X-129.171 Y-12.339
X-129.215 Y-12.116
X-129.242 Y-11.89
G2 X-130.146 Y1.781 I53.351 J10.393
X-129.07 Y13.015 I45.933 J1.266
X-128.256 Y14.431 I4.21 J-1.475
G1 X-128.13 Y14.506
X-127.987 Y14.541
X-127.806 Y14.558
X-126.888 Y14.692
X-125.602 Y14.883
G2 X-125.27 Y14.618 I0.034 J-0.298
X-125.348 Y14.321 I-0.423 J-0.048
G1 X-125.389 Y14.273 F1200
X-125.438 Y14.23
X-125.491 Y14.196
G2 X-127.315 Y14.16 I-0.947 J1.761
X-127.77 Y14.465 I0.877 J1.798 F500
G1 X-127.818 Y14.5
X-127.871 Y14.525
X-127.928 Y14.538
X-127.987 Y14.541
X-128.642 Y14.482
X-128.847 Y14.401
X-129.047 Y14.305
X-129.239 Y14.195
X-129.423 Y14.073
X-129.597 Y13.937
X-129.762 Y13.789
X-129.916 Y13.63
X-130.058 Y13.461
X-130.188 Y13.282
X-130.304 Y13.094
X-130.408 Y12.898
X-130.497 Y12.696
X-130.571 Y12.488
X-130.631 Y12.275
X-130.675 Y12.058
X-130.704 Y11.839
G3 X-131.657 Y-0.211 I45.607 J-9.67
X-130.76 Y-12.276 I55.038 J-1.974
X-129.716 Y-14.308 I4.213 J0.881
G1 X-129.593 Y-14.378
X-129.454 Y-14.41
X-127.99 Y-14.541
X-127.806 Y-14.558
X-127.172 Y-14.65
G3 X-126.841 Y-14.385 I0.033 J0.298
X-126.935 Y-14.096 I-0.365 J0.041
G1 X-126.988 Y-14.048 F1200
X-127.049 Y-14.012
G3 X-128.784 Y-14.027 I-0.852 J-1.809
X-129.238 Y-14.334 I0.883 J-1.795 F500
G1 X-129.285 Y-14.369
X-129.339 Y-14.394
X-129.396 Y-14.408
X-129.454 Y-14.41
X-130.111 Y-14.352
G2 X-132.177 Y-11.84 I0.959 J2.895
X-133.147 Y-0.607 I40.053 J9.117
X-132.224 Y12.263 I56.139 J2.441
X-131.287 Y14.083 I8.947 J-3.452
G1 X-131.189 Y14.181
X-131.068 Y14.248
X-130.933 Y14.279
X-128.642 Y14.482
G2 X-128.403 Y13.982 I0.016 J-0.3
G1 X-128.46 Y13.928
X-128.509 Y13.894 F1200
X-128.562 Y13.866
G2 X-130.262 Y13.896 I-0.818 J1.825
X-130.716 Y14.203 I0.882 J1.795 F500
G1 X-130.764 Y14.238
X-130.817 Y14.263
X-130.874 Y14.277
X-130.933 Y14.279
X-131.581 Y14.222
G3 X-133.641 Y11.791 I0.9 J-2.852
X-134.635 Y1.372 I35.635 J-8.655
X-133.702 Y-12.301 I57.046 J-2.978
X-132.706 Y-14.031 I7.285 J3.04
G1 X-132.577 Y-14.109
X-132.43 Y-14.145
X-130.378 Y-14.328
X-130.111 Y-14.352
G3 X-129.796 Y-14.069 I0.016 J0.3
X-129.93 Y-13.8 I-0.304 J0.016
G1 X-129.96 Y-13.782 F1200
G3 X-131.76 Y-13.763 I-0.919 J-1.776
X-132.214 Y-14.069 I0.881 J-1.796 F500
G1 X-132.261 Y-14.104
X-132.315 Y-14.129
X-132.372 Y-14.143
X-132.43 Y-14.145
X-133.05 Y-14.09
G2 X-135.095 Y-11.836 I0.759 J2.743
X-136.115 Y-2.236 I30.166 J8.059
X-135.373 Y11.459 I64.276 J3.385
X-134.062 Y13.977 I4.674 J-0.834
G1 X-133.917 Y14.012
X-131.581 Y14.222
G2 X-131.313 Y14.086 I0.016 J-0.3
X-131.198 Y13.638 I-0.602 J-0.394
X-131.882 Y12.974 I-0.717 J0.055 F1200
X-133.348 Y13.516 I-0.094 J1.998
X-133.65 Y13.877 I1.372 J1.455 F500
G3 X-133.917 Y14.012 I-0.251 J-0.164
G1 X-134.419 Y13.967
X-134.602 Y13.952
X-134.81 Y13.872
X-135.011 Y13.779
X-135.206 Y13.671
X-135.392 Y13.55
X-135.569 Y13.416
X-135.737 Y13.27
X-135.893 Y13.112
X-136.038 Y12.944
X-136.171 Y12.766
X-136.291 Y12.579
X-136.398 Y12.384
X-136.491 Y12.182
X-136.569 Y11.974
X-136.632 Y11.761
X-136.68 Y11.544
X-136.712 Y11.324
G3 X-137.633 Y0.085 I40.177 J-8.947
X-136.707 Y-11.972 I49.395 J-2.271
X-135.684 Y-13.794 I6.853 J2.649
G1 X-135.543 Y-13.874
X-135.385 Y-13.904
G2 X-133.05 Y-14.09 I-1.916 J-38.822
G3 X-132.783 Y-13.955 I0.016 J0.3
X-132.656 Y-13.508 I-0.653 J0.427
X-133.464 Y-12.749 I-0.779 J-0.02 F1200
X-134.846 Y-13.376 I0.073 J-1.999
X-135.126 Y-13.753 I1.456 J-1.372 F500
G2 X-135.385 Y-13.904 I-0.26 J0.149
G1 X-135.989 Y-13.886
G2 X-138.033 Y-11.755 I0.631 J2.651
X-139.088 Y-2.977 I24.992 J7.454
X-138.312 Y11.518 I63.01 J3.894
X-137.101 Y13.753 I5.576 J-1.577
G1 X-136.967 Y13.824
X-136.818 Y13.851
G3 X-134.602 Y13.95 I-0.516 J36.37
G1 X-134.538 Y13.946
X-134.477 Y13.929
X-134.421 Y13.899
X-134.372 Y13.857
X-134.333 Y13.806
X-134.306 Y13.748
X-134.292 Y13.686
X-134.291 Y13.622
X-134.304 Y13.559
X-134.33 Y13.501
X-134.368 Y13.449
X-134.424 Y13.394
G2 X-134.784 Y13.214 I-0.516 J0.58 F1200
X-136.17 Y13.431 I-0.404 J1.959
X-136.606 Y13.763 I0.983 J1.742 F500
G1 X-136.652 Y13.8
X-136.703 Y13.828
X-136.76 Y13.845
X-136.818 Y13.851
X-137.459 Y13.831
G3 X-139.557 Y11.571 I0.708 J-2.762
X-140.587 Y2.787 I25.706 J-7.467
X-139.749 Y-11.7 I59.793 J-3.81
X-138.554 Y-13.726 I4.968 J1.566
G1 X-138.424 Y-13.791
X-138.281 Y-13.817
X-135.989 Y-13.886
G3 X-135.73 Y-13.735 I-0.001 J0.3
X-135.642 Y-13.281 I-0.623 J0.356
X-136.39 Y-12.662 I-0.711 J-0.098 F1200
X-137.742 Y-13.288 I0.104 J-1.997
X-138.022 Y-13.666 I1.456 J-1.372 F500
G2 X-138.281 Y-13.817 I-0.26 J0.149
G1 X-138.928 Y-13.797
G2 X-141.027 Y-11.596 I0.671 J2.742
X-142.083 Y-2.818 I24.766 J7.43
X-141.41 Y10.881 I63.738 J3.737
X-140.022 Y13.669 I6.608 J-1.551
G1 X-139.893 Y13.733
X-139.751 Y13.759
X-137.459 Y13.831
G2 X-137.16 Y13.53 I-0.001 J-0.3
X-137.3 Y13.263 I-0.327 J0.001
G1 X-137.362 Y13.229 F1200
G2 X-139.104 Y13.338 I-0.758 J1.851
X-139.539 Y13.67 I0.983 J1.742 F500
G1 X-139.585 Y13.707
X-139.637 Y13.735
X-139.693 Y13.753
X-139.751 Y13.759
X-140.397 Y13.738
G3 X-142.51 Y11.53 I0.676 J-2.761
X-143.576 Y2.755 I24.485 J-7.429
X-142.884 Y-10.941 I61.664 J-3.75
X-141.516 Y-13.626 I6.505 J1.625
G1 X-141.389 Y-13.689
X-141.25 Y-13.714
G3 X-138.928 Y-13.797 I9.355 J227.914
X-138.718 Y-13.284 I-0.001 J0.3
G1 X-138.779 Y-13.234
X-138.85 Y-13.196 F1200
G3 X-140.6 Y-13.295 I-0.774 J-1.844
X-141.037 Y-13.626 I0.977 J-1.745 F500
G1 X-141.083 Y-13.663
X-141.135 Y-13.691
X-141.191 Y-13.708
X-141.25 Y-13.714
X-141.766 Y-13.696
X-141.867 Y-13.693
G2 X-143.954 Y-11.615 I0.584 J2.674
X-145.068 Y-2.853 I22.993 J7.374
X-144.378 Y10.844 I61.154 J3.785
X-142.964 Y13.597 I6.551 J-1.623
G1 X-142.831 Y13.661
X-142.685 Y13.683
G3 X-140.397 Y13.738 I-0.282 J58.745
G2 X-140.098 Y13.437 I-0.001 J-0.3
X-140.216 Y13.154 I-0.403 J0.001
G1 X-140.263 Y13.114 F1200
X-140.315 Y13.081
X-140.372 Y13.057
G2 X-142.051 Y13.242 I-0.641 J1.894
X-142.476 Y13.587 I1.038 J1.71 F500
G1 X-142.52 Y13.626
X-142.571 Y13.656
X-142.627 Y13.675
X-142.685 Y13.683
X-143.336
G3 X-145.471 Y11.486 I0.643 J-2.761
X-146.566 Y2.717 I23.719 J-7.414
X-145.836 Y-10.974 I58.964 J-3.722
X-144.419 Y-13.602 I6.391 J1.752
G1 X-144.288 Y-13.662
X-144.146 Y-13.683
X-142.501
X-142.133 Y-13.688
X-141.867 Y-13.693
G3 X-141.57 Y-13.39 I-0.003 J0.3
X-141.706 Y-13.119 I-0.345 J-0.003
G1 X-141.75 Y-13.091 F1200
X-141.798 Y-13.069
G3 X-143.512 Y-13.242 I-0.676 J-1.882
X-143.937 Y-13.587 I1.038 J-1.71 F500
G1 X-143.981 Y-13.626
X-144.032 Y-13.656
X-144.087 Y-13.675
X-144.146 Y-13.683
X-144.806
G2 X-146.948 Y-11.509 I0.632 J2.766
X-148.062 Y-2.745 I23.165 J7.396
X-147.318 Y10.945 I58.365 J3.694
X-145.876 Y13.602 I6.482 J-1.798
G1 X-145.745 Y13.662
X-145.603 Y13.683
X-143.336
G2 X-143.047 Y13.372 I-0.01 J-0.3
X-143.191 Y13.106 I-0.341 J0.012
G1 X-143.232 Y13.081 F1200
X-143.276 Y13.062
G2 X-144.969 Y13.242 I-0.655 J1.89
X-145.394 Y13.587 I1.038 J1.71 F500
G1 X-145.438 Y13.626
X-145.489 Y13.656
X-145.545 Y13.675
X-145.603 Y13.683
X-146.275
G3 X-148.442 Y11.456 I0.665 J-2.815
X-149.557 Y2.691 I23.378 J-7.427
X-148.796 Y-10.996 I57.115 J-3.689
X-147.355 Y-13.603 I6.451 J1.863
G1 X-147.225 Y-13.662
X-147.085 Y-13.683
X-144.806
G3 X-144.612 Y-13.163 I-0.01 J0.3
G1 X-144.673 Y-13.114
X-144.746 Y-13.071 F1200
X-144.826 Y-13.039
G3 X-146.451 Y-13.242 I-0.587 J-1.912
X-146.876 Y-13.587 I1.038 J-1.71 F500
G1 X-146.92 Y-13.626
X-146.971 Y-13.656
X-147.026 Y-13.675
X-147.085 Y-13.683
X-147.745
G2 X-149.904 Y-11.523 I0.62 J2.779
X-151.05 Y-2.765 I22.565 J7.406
X-150.29 Y10.922 I57.088 J3.699
X-148.824 Y13.602 I6.563 J-1.85
G1 X-148.694 Y13.662
X-148.552 Y13.683
X-146.275
G2 X-146.081 Y13.163 I-0.01 J-0.3
G1 X-146.142 Y13.114
X-146.218 Y13.07 F1200
X-146.299 Y13.038
G2 X-147.918 Y13.242 I-0.581 J1.914
X-148.343 Y13.587 I1.038 J1.71 F500
G1 X-148.387 Y13.626
X-148.438 Y13.656
X-148.494 Y13.675
X-148.552 Y13.683
X-149.214
G3 X-151.388 Y11.502 I0.627 J-2.799
X-152.543 Y2.745 I22.607 J-7.437
X-151.778 Y-10.941 I56.294 J-3.714
X-150.309 Y-13.603 I6.552 J1.877
G1 X-150.179 Y-13.662
X-150.038 Y-13.683
X-147.745
G3 X-147.551 Y-13.163 I-0.01 J0.3
G1 X-147.612 Y-13.114
X-147.672 Y-13.08 F1200
X-147.735 Y-13.054
G3 X-149.404 Y-13.242 I-0.631 J-1.898
X-149.829 Y-13.587 I1.038 J-1.71 F500
G1 X-149.873 Y-13.626
X-149.924 Y-13.656
X-149.98 Y-13.675
X-150.038 Y-13.683
X-150.684
G2 X-152.845 Y-11.583 I0.569 J2.749
X-154.036 Y-2.835 I21.788 J7.42
X-153.278 Y10.852 I56.554 J3.734
X-151.785 Y13.601 I6.677 J-1.847
G1 X-151.654 Y13.662
X-151.511 Y13.683
X-149.214
G2 X-148.925 Y13.372 I-0.01 J-0.3
X-149.074 Y13.11 I-0.325 J0.011
G1 X-149.135 Y13.08 F1200
G2 X-150.877 Y13.242 I-0.705 J1.872
X-151.302 Y13.587 I1.038 J1.71 F500
G1 X-151.347 Y13.626
X-151.397 Y13.656
X-151.453 Y13.675
X-151.511 Y13.683
X-152.153
G3 X-154.322 Y11.59 I0.556 J-2.747
X-155.528 Y2.845 I21.661 J-7.442
X-154.774 Y-10.843 I56.12 J-3.776
X-153.275 Y-13.601 I6.704 J1.858
G1 X-153.144 Y-13.662
X-153.001 Y-13.683
X-150.684
G3 X-150.489 Y-13.163 I-0.01 J0.3
G1 X-150.552 Y-13.116
X-150.623 Y-13.08 F1200
G3 X-152.367 Y-13.242 I-0.706 J-1.871
X-152.792 Y-13.587 I1.038 J-1.71 F500
G1 X-152.836 Y-13.626
X-152.887 Y-13.656
X-152.943 Y-13.675
X-153.001 Y-13.683
X-153.622
G2 X-155.774 Y-11.687 I0.486 J2.681
X-157.018 Y-2.978 I20.796 J7.414
X-156.29 Y10.712 I57.021 J3.833
X-154.757 Y13.598 I6.909 J-1.82
G1 X-154.624 Y13.661
X-154.479 Y13.683
X-152.153
G2 X-151.899 Y13.524 I-0.01 J-0.3
X-151.824 Y13.067 I-0.634 J-0.338
X-152.574 Y12.468 I-0.709 J0.119 F1200
X-153.956 Y13.138 I0.114 J1.997
X-154.225 Y13.524 I1.496 J1.327 F500
G3 X-154.479 Y13.683 I-0.265 J-0.141
G1 X-155.175
G3 X-157.4 Y11.348 I0.724 J-2.919
X-158.53 Y2.58 I23.779 J-7.521
X-157.685 Y-11.096 I53.743 J-3.543
X-156.242 Y-13.607 I6.42 J2.02
G1 X-156.115 Y-13.663
X-155.977 Y-13.683
X-153.622
G3 X-153.368 Y-13.524 I-0.01 J0.3
X-153.293 Y-13.067 I-0.635 J0.339
X-154.029 Y-12.466 I-0.71 J-0.118 F1200
X-155.455 Y-13.138 I0.07 J-1.999
X-155.723 Y-13.524 I1.496 J-1.327 F500
G2 X-155.977 Y-13.683 I-0.265 J0.141
G1 X-156.644
G2 X-158.839 Y-11.48 I0.642 J2.836
X-160.019 Y-2.726 I22.583 J7.5
X-159.207 Y10.955 I54.717 J3.617
X-157.73 Y13.604 I6.608 J-1.95
G1 X-157.601 Y13.662
X-157.46 Y13.683
X-155.175
G2 X-154.98 Y13.163 I-0.01 J-0.3
G1 X-155.042 Y13.114
X-155.109 Y13.075 F1200
X-155.182 Y13.046
G2 X-156.826 Y13.242 I-0.606 J1.906
X-157.251 Y13.587 I1.038 J1.71 F500
G1 X-157.295 Y13.626
X-157.346 Y13.656
X-157.402 Y13.675
X-157.46 Y13.683
X-158.113
G3 X-160.295 Y11.547 I0.592 J-2.787
X-161.508 Y2.801 I21.959 J-7.503
X-160.716 Y-10.882 I54.599 J-3.706
X-159.219 Y-13.602 I6.651 J1.887
G1 X-159.089 Y-13.662
