(1001)
(Machine)
(  vendor: Autodesk)
(  description: Generic 3-axis)
(T1  D=3 CR=0 - ZMIN=-20.299 - flat end mill)
G90 G94
G17
G21
G28 G91 Z0
G90

(Adaptive1)
T1
S15000 M3
G54
M8
G0 X-67.314 Y-0.255
Z2.503
Z2
G3 X-64.51 Y0.255 Z1.844 I1.402 J0.255 F333.3
X-67.314 Y-0.255 Z1.687 I-1.402 J-0.255
X-64.51 Y0.255 Z1.531 I1.402 J0.255
X-67.314 Y-0.255 Z1.375 I-1.402 J-0.255
X-64.51 Y0.255 Z1.218 I1.402 J0.255
X-67.314 Y-0.255 Z1.062 I-1.402 J-0.255
X-64.51 Y0.255 Z0.906 I1.402 J0.255
X-67.314 Y-0.255 Z0.749 I-1.402 J-0.255
X-64.51 Y0.255 Z0.593 I1.402 J0.255
X-67.314 Y-0.255 Z0.437 I-1.402 J-0.255
X-64.51 Y0.255 Z0.28 I1.402 J0.255
X-67.314 Y-0.255 Z0.124 I-1.402 J-0.255
X-64.51 Y0.255 Z-0.032 I1.402 J0.255
X-67.314 Y-0.255 Z-0.189 I-1.402 J-0.255
X-64.51 Y0.255 Z-0.345 I1.402 J0.255
X-67.314 Y-0.255 Z-0.501 I-1.402 J-0.255
X-64.51 Y0.255 Z-0.658 I1.402 J0.255
X-67.314 Y-0.255 Z-0.814 I-1.402 J-0.255
X-64.51 Y0.255 Z-0.97 I1.402 J0.255
X-67.314 Y-0.255 Z-1.127 I-1.402 J-0.255
X-64.51 Y0.255 Z-1.283 I1.402 J0.255
X-67.314 Y-0.255 Z-1.439 I-1.402 J-0.255
X-64.51 Y0.255 Z-1.596 I1.402 J0.255
X-67.314 Y-0.255 Z-1.752 I-1.402 J-0.255
X-64.51 Y0.255 Z-1.908 I1.402 J0.255
X-67.314 Y-0.255 Z-2.065 I-1.402 J-0.255
X-64.51 Y0.255 Z-2.221 I1.402 J0.255
X-67.314 Y-0.255 Z-2.377 I-1.402 J-0.255
X-64.51 Y0.255 Z-2.534 I1.402 J0.255
X-67.314 Y-0.255 Z-2.69 I-1.402 J-0.255
X-64.51 Y0.255 Z-2.846 I1.402 J0.255
X-67.314 Y-0.255 Z-3.003 I-1.402 J-0.255
X-64.487 Y0 Z-3.15 I1.402 J0.255
X-67.337 Y0 I-1.425 J0
X-64.487 Y0 I1.425 J0
G1 X-64.485 Y0.039 F1000
X-64.473 Y0.076
X-64.452 Y0.109
X-63.992 Y0.53
X-63.793 Y0.7
X-63.619 Y0.949
X-63.498 Y1.273
X-63.457 Y1.662
X-63.522 Y2.098
X-63.716 Y2.555
X-64.058 Y3.001
X-64.549 Y3.386
X-65.12 Y3.638
X-65.731 Y3.763
X-66.355 Y3.766
X-66.969 Y3.657
X-67.555 Y3.442
X-68.097 Y3.132
X-68.579 Y2.737
X-68.99 Y2.267
X-69.318 Y1.736
X-69.556 Y1.159
X-69.696 Y0.551
X-69.736 Y-0.071
X-69.673 Y-0.692
X-69.511 Y-1.294
X-69.252 Y-1.862
X-68.905 Y-2.381
X-68.478 Y-2.836
X-67.983 Y-3.215
X-67.432 Y-3.509
X-66.842 Y-3.71
X-66.226 Y-3.812
X-65.602
X-64.986 Y-3.711
X-64.395 Y-3.511
X-63.845 Y-3.218
X-63.349 Y-2.839
X-62.921 Y-2.384
X-62.574 Y-1.866
X-62.215 Y-1.356
X-61.845 Y-0.853
X-61.529 Y-0.315
X-61.283 Y0.258
X-61.121 Y0.861
X-61.058 Y1.482
X-61.08 Y2.105
X-61.201 Y2.717
X-61.405 Y3.307
X-61.693 Y3.86
X-62.052 Y4.371
X-62.478 Y4.827
X-62.958 Y5.226
G3 X-65.253 Y6.147 I-3.023 J-4.215
X-68.313 Y5.766 I-0.843 J-5.708
X-72.172 Y-0.127 I2.35 J-5.749
X-68.087 Y-5.874 I6.255 J0.121
X-60.85 Y-3.69 I2.174 J5.878
X-59.441 Y-1.634 I-11.263 J9.229
X-58.68 Y2.594 I-6.004 J3.262
X-61.074 Y6.855 I-6.894 J-1.07
X-66.884 Y8.622 I-4.977 J-5.928
X-74.377 Y2.079 I0.863 J-8.55
X-67.964 Y-8.476 I8.453 J-2.09
X-59.038 Y-5.374 I2.054 J8.484
X-56.993 Y-2.252 I-10.401 J9.044
X-59.303 Y8.571 I-8.434 J3.858
X-66.158 Y11.125 I-6.697 J-7.496
X-76.068 Y4.683 I0.1 J-10.998
X-77.1 Y-0.158 I9.957 J-4.654
X-57.571 Y-7.462 I11.189 J0.156
X-54.525 Y-2.779 I-11.687 J10.935
X-54.439 Y5.759 I-10.933 J4.379
X-60.688 Y12.414 I-11.298 J-4.346
X-72.135 Y12.143 I-5.447 J-11.846
X-71.612 Y-12.414 I6.195 J-12.152
X-63.693 Y-13.484 I5.693 J12.307
X-55.659 Y-9.044 I-2.229 J13.523
X-52.054 Y-3.253 I-13.064 J12.15
X-56.85 Y12.96 I-13.419 J4.846
X-67.386 Y16.023 I-9.187 J-11.948
X-72.214 Y14.844 I1.189 J-15.339
X-59.767 Y-14.923 I6.29 J-14.856
X-53.32 Y-10.139 I-6.227 J15.127
X-49.397 Y-3.107 I-14.52 J12.711
X-55.662 Y15.17 I-16.088 J4.697
X-66.791 Y18.547 I-10.362 J-14.123
G1 X-67.414 Y18.516
X-68.036 Y18.461
X-68.655 Y18.385
G3 X-82.648 Y-8.162 I2.679 J-18.373
X-71.053 Y-17.902 I16.69 J8.097
X-52.217 Y-12.633 I5.146 J17.905
X-47.315 Y-4.74 I-16.187 J15.525
X-51.213 Y14.489 I-18.137 J6.333
X-68.061 Y20.945 I-14.809 J-13.436
X-82.059 Y13.587 I1.947 J-20.7
X-87.005 Y-0.831 I16.053 J-13.565
X-50.718 Y-14.659 I21.094 J0.828
G1 X-50.279 Y-14.215
X-49.859 Y-13.754
G3 X-45.049 Y-5.788 I-18.707 J16.73
X-52.773 Y19.212 I-20.437 J7.379
X-64.956 Y23.502 I-13.213 J-18.077
X-87.444 Y9.633 I-1.114 J-23.358
X-86.256 Y-11.952 I21.458 J-9.645
X-49.236 Y-16.697 I20.346 J11.947
X-44.664 Y-10.796 I-19.532 J19.852
X-41.476 Y4.81 I-21.132 J12.446
X-56.459 Y24.106 I-24.208 J-3.333
X-64.942 Y25.995 I-9.545 J-22.876
X-90.701 Y8.095 I-1.113 J-25.884
X-90.586 Y-8.457 I24.643 J-8.105
X-49.171 Y-20.004 I24.674 J8.45
X-40.33 Y-7.367 I-19.307 J22.918
X-49.804 Y23.204 I-25.159 J8.956
G1 X-50.306 Y23.575
G3 X-55.497 Y26.403 I-15.239 J-21.795
G1 X-57.974 Y26.605
X-58.116 Y26.616
X-58.541 Y26.634
X-60.809 Y26.7
X-65.203 Y26.822
X-74.558 Y26.823
X-75.182 Y26.791
X-75.796 Y26.682
G3 X-78.692 Y25.537 I3.863 J-14.011
X-90.858 Y-13.927 I12.739 J-25.535
X-76.302 Y-26.616 I24.896 J13.867
X-75.741 Y-26.828 I10.34 J26.556 F900
G1 X-75.703 Y-26.823 F1000
X-65.203 Y-26.822
X-60.1 Y-26.68
X-58.541 Y-26.634
X-58.116 Y-26.616
X-57.832 Y-26.593
X-56.028 Y-26.439
G3 X-53.635 Y-25.774 I-0.651 J6.978
X-46.432 Y-20.901 I-11.371 J24.569
X-37.528 Y-6.825 I-21.826 J23.66
X-39.553 Y14.995 I-27.986 J8.408
X-48.537 Y25.368 I-26.172 J-13.591
X-49.028 Y25.713 I-17.189 J-23.964 F900
G1 X-49.077 Y25.715 F1000
G3 X-51.454 Y26.047 I-9.829 J-61.577
G1 X-55.501 Y26.394
G3 X-55.679 Y25.843 I-0.015 J-0.3
G1 X-55.623 Y25.806 Z-3.142
X-55.57 Y25.772 Z-3.12
X-55.522 Y25.741 Z-3.085
X-55.482 Y25.715 Z-3.037
X-55.452 Y25.696 Z-2.98
X-55.433 Y25.684 Z-2.917
X-55.427 Y25.68 Z-2.85
G0 Z2.503
X-73.547 Y26.448
Z-2.55
G1 Z-2.85 F1000
X-73.553 Y26.452 Z-2.917
X-73.573 Y26.463 Z-2.98
X-73.603 Y26.481 Z-3.037
X-73.644 Y26.506 Z-3.085
X-73.693 Y26.535 Z-3.12
X-73.747 Y26.567 Z-3.142
X-73.805 Y26.601 Z-3.15
G3 X-74.558 Y26.823 I-0.809 J-1.36
G1 X-80.228
X-80.851 Y26.791
X-81.46 Y26.654
X-82.04 Y26.423
G3 X-84.666 Y24.749 I7.242 J-14.255
X-92.49 Y-16.076 I18.72 J-24.749
X-81.602 Y-26.807 I26.472 J15.97
G1 X-81.549 Y-26.818
X-81.496 Y-26.823
X-75.703
G0 Z2.503
X-57.067 Y-26.152
Z-2.55
G1 Z-2.85 F1000
X-57.061 Y-26.155 Z-2.917
X-57.041 Y-26.164 Z-2.98
X-57.008 Y-26.18 Z-3.037
X-56.966 Y-26.201 Z-3.085
X-56.914 Y-26.226 Z-3.12
X-56.857 Y-26.253 Z-3.142
X-56.797 Y-26.282 Z-3.15
G3 X-56.028 Y-26.439 I0.691 J1.424
G1 X-51.454 Y-26.046
G3 X-49.611 Y-25.79 I-4.539 J39.428
G1 X-48.999 Y-25.672
X-48.41 Y-25.465
G3 X-46.329 Y-24.099 I-4.492 J9.109
X-38.596 Y-15.193 I-21.487 J26.469
X-34.255 Y6.974 I-27.173 J16.83
X-38.393 Y18.012 I-31.524 J-5.524
X-44.104 Y24.969 I-27.389 J-16.661
G1 X-44.156 Y24.989
X-44.208 Y25.004
X-44.367 Y25.036
X-49.077 Y25.715
G3 X-49.287 Y25.174 I-0.032 J-0.298
G1 X-49.233 Y25.135 Z-3.142
X-49.182 Y25.098 Z-3.12
X-49.136 Y25.064 Z-3.085
X-49.098 Y25.036 Z-3.037
X-49.069 Y25.015 Z-2.98
X-49.051 Y25.002 Z-2.917
X-49.045 Y24.997 Z-2.85
G0 Z2.503
X-79.217 Y26.448
Z-2.55
G1 Z-2.85 F1000
X-79.223 Y26.452 Z-2.917
X-79.242 Y26.463 Z-2.98
X-79.273 Y26.481 Z-3.037
X-79.314 Y26.506 Z-3.085
X-79.363 Y26.535 Z-3.12
X-79.417 Y26.567 Z-3.142
X-79.475 Y26.601 Z-3.15
G3 X-80.228 Y26.823 I-0.809 J-1.36
G1 X-84.622
X-85.246 Y26.791
X-85.851 Y26.641
X-86.418 Y26.38
G3 X-88.406 Y24.88 I5.973 J-9.984
X-94.683 Y-17.261 I22.448 J-24.881
X-86.578 Y-26.434 I28.625 J17.122
X-86.102 Y-26.799 I20.521 J26.296 F900
G1 X-86.037 Y-26.816 F1000
X-85.973 Y-26.823
X-81.496
G0 Z2.503
X-50.666 Y-25.565
Z-2.55
G1 Z-2.85 F1000
X-50.659 Y-25.568 Z-2.917
X-50.638 Y-25.576 Z-2.98
X-50.605 Y-25.59 Z-3.037
X-50.561 Y-25.608 Z-3.085
X-50.509 Y-25.63 Z-3.12
X-50.45 Y-25.654 Z-3.142
X-50.389 Y-25.68 Z-3.15
G3 X-49.611 Y-25.792 I0.607 J1.462
G1 X-44.792 Y-25.097
X-44.179 Y-24.978
X-43.599 Y-24.749
X-43.066 Y-24.424
G3 X-40.8 Y-22.289 I-9.201 J12.037
X-32.44 Y-7.135 I-27.122 J24.845
X-34.774 Y16.576 I-33.088 J8.713
X-36.6 Y19.842 I-30.35 J-14.831
X-39.371 Y23.622 I-29.271 J-18.548
X-39.762 Y24.078 I-26.5 J-22.329 F900
G1 X-39.822 Y24.107 F1000
X-39.884 Y24.127
X-44.208 Y25.004
G0 Z2.503
X-83.611 Y26.448
Z-2.55
G1 Z-2.85 F1000
X-83.617 Y26.452 Z-2.917
X-83.637 Y26.463 Z-2.98
X-83.667 Y26.481 Z-3.037
X-83.708 Y26.506 Z-3.085
X-83.757 Y26.535 Z-3.12
X-83.811 Y26.567 Z-3.142
X-83.869 Y26.601 Z-3.15
G3 X-84.622 Y26.823 I-0.809 J-1.36
G1 X-88.591
X-89.179 Y26.793
X-89.775 Y26.607
X-90.322 Y26.308
G3 X-92.185 Y24.654 I6.506 J-9.207
X-100.319 Y-10.731 I26.182 J-24.645
X-97.058 Y-18.138 I33.614 J10.375
X-90.467 Y-26.386 I30.867 J17.91
X-90.024 Y-26.79 I24.275 J26.158 F900
G1 X-89.952 Y-26.813 F1000
X-89.878 Y-26.823
X-85.973
G0 Z2.503
X-45.846 Y-24.871
Z-2.55
G1 Z-2.85 F1000
X-45.839 Y-24.874 Z-2.917
X-45.819 Y-24.882 Z-2.98
X-45.786 Y-24.896 Z-3.037
X-45.742 Y-24.914 Z-3.085
X-45.689 Y-24.936 Z-3.12
X-45.631 Y-24.96 Z-3.142
X-45.569 Y-24.986 Z-3.15
G3 X-44.792 Y-25.097 I0.607 J1.462
G1 X-44.367 Y-25.036
X-42.895 Y-24.738
X-40.256 Y-24.202
X-39.651 Y-24.048
X-39.095 Y-23.765
X-38.597 Y-23.39
G3 X-36.928 Y-21.539 I-9.075 J9.863
X-29.459 Y-5.242 I-30.085 J23.646
X-30.715 Y13.233 I-36.124 J6.825
X-34.788 Y21.632 I-35.105 J-11.833
X-35.561 Y22.76 I-28.956 J-19.032
X-35.915 Y23.245 I-28.182 J-20.16 F900
G1 X-35.977 Y23.281 F1000
X-36.043 Y23.305
G3 X-39.884 Y24.127 I-18.539 J-77.279
G0 Z2.503
X-41.322 Y-24.037
Z-2.55
G1 Z-2.85 F1000
X-41.315 Y-24.039 Z-2.917
X-41.294 Y-24.046 Z-2.98
X-41.26 Y-24.058 Z-3.037
X-41.215 Y-24.074 Z-3.085
X-41.161 Y-24.093 Z-3.12
X-41.101 Y-24.113 Z-3.142
X-41.038 Y-24.135 Z-3.15
G3 X-40.256 Y-24.202 I0.522 J1.494
G1 X-37.704 Y-23.685
X-37.421 Y-23.623
X-37.279 Y-23.592
X-36.287 Y-23.362
X-35.687 Y-23.191
X-35.145 Y-22.881
X-34.669 Y-22.478
G3 X-33.128 Y-20.52 I-9.267 J8.875
X-26.375 Y3.699 I-32.938 J22.236
X-32.285 Y22.346 I-39.295 J-2.194
G1 X-32.338 Y22.405 F900
X-32.402 Y22.45 F1000
X-32.475 Y22.478
X-36.043 Y23.305
G3 X-36.298 Y22.785 I-0.058 J-0.294
G1 X-36.247 Y22.741 Z-3.142
X-36.199 Y22.699 Z-3.12
X-36.157 Y22.662 Z-3.085
X-36.121 Y22.631 Z-3.037
X-36.094 Y22.607 Z-2.98
X-36.077 Y22.593 Z-2.917
X-36.071 Y22.588 Z-2.85
G0 Z2.503
X-37.357 Y-23.226
Z-2.55
G1 Z-2.85 F1000
X-37.35 Y-23.228 Z-2.917
X-37.329 Y-23.235 Z-2.98
X-37.295 Y-23.245 Z-3.037
X-37.249 Y-23.26 Z-3.085
X-37.195 Y-23.277 Z-3.12
X-37.135 Y-23.296 Z-3.142
X-37.071 Y-23.317 Z-3.15
G3 X-36.287 Y-23.362 I0.48 J1.508
G1 X-32.602 Y-22.507
X-32.049 Y-22.349
X-31.511 Y-22.034
X-31.046 Y-21.617
G3 X-29.609 Y-19.583 I-8.612 J7.611
X-25.403 Y12.937 I-36.056 J21.195
X-28.931 Y21.553 I-41.506 J-11.966
G1 X-28.984 Y21.62 F900
X-29.052 Y21.671 F1000
X-29.131 Y21.702
X-32.475 Y22.478
G3 X-32.729 Y21.957 I-0.058 J-0.294
G1 X-32.679 Y21.913 Z-3.142
X-32.631 Y21.872 Z-3.12
X-32.588 Y21.834 Z-3.085
X-32.553 Y21.803 Z-3.037
X-32.526 Y21.779 Z-2.98
X-32.509 Y21.765 Z-2.917
X-32.503 Y21.76 Z-2.85
G0 Z2.503
X-33.672 Y-22.371
Z-2.55
G1 Z-2.85 F1000
X-33.664 Y-22.373 Z-2.917
X-33.643 Y-22.38 Z-2.98
X-33.609 Y-22.391 Z-3.037
X-33.564 Y-22.405 Z-3.085
X-33.51 Y-22.422 Z-3.12
X-33.449 Y-22.441 Z-3.142
X-33.386 Y-22.462 Z-3.15
G3 X-32.602 Y-22.507 I0.48 J1.508
G1 X-29.2 Y-21.718
X-28.648 Y-21.56
X-28.109 Y-21.245
X-27.652 Y-20.821
G3 X-26.305 Y-18.727 I-7.884 J6.553
X-25.745 Y20.802 I-39.153 J20.323
G1 X-25.797 Y20.875 F900
X-25.867 Y20.931
X-25.95 Y20.964 F1000
X-29.131 Y21.702
G3 X-29.385 Y21.181 I-0.058 J-0.294
G1 X-29.335 Y21.137 Z-3.142
X-29.287 Y21.096 Z-3.12
X-29.244 Y21.058 Z-3.085
X-29.208 Y21.027 Z-3.037
X-29.181 Y21.004 Z-2.98
X-29.165 Y20.989 Z-2.917
X-29.159 Y20.984 Z-2.85
G0 Z2.503
X-30.27 Y-21.582
Z-2.55
G1 Z-2.85 F1000
X-30.262 Y-21.584 Z-2.917
X-30.241 Y-21.591 Z-2.98
X-30.207 Y-21.601 Z-3.037
X-30.162 Y-21.616 Z-3.085
X-30.108 Y-21.633 Z-3.12
X-30.047 Y-21.652 Z-3.142
X-29.984 Y-21.673 Z-3.15
G3 X-29.2 Y-21.718 I0.481 J1.508
G1 X-25.94 Y-20.962
X-25.409 Y-20.81
X-24.871 Y-20.495
X-24.42 Y-20.063
X-24.042 Y-19.567
G3 X-22.636 Y-16.786 I-15.253 J9.457
X-22.675 Y20.079 I-42.759 J18.388
G1 X-22.726 Y20.158 F900
X-22.798 Y20.218
X-22.884 Y20.253 F1000
X-25.95 Y20.964
G3 X-26.204 Y20.443 I-0.058 J-0.294
G1 X-26.154 Y20.4 Z-3.142
X-26.106 Y20.358 Z-3.12
X-26.063 Y20.321 Z-3.085
X-26.027 Y20.289 Z-3.037
X-26 Y20.266 Z-2.98
X-25.984 Y20.251 Z-2.917
X-25.978 Y20.246 Z-2.85
G0 Z2.503
X-27.009 Y-20.825
Z-2.55
G1 Z-2.85 F1000
X-27.002 Y-20.828 Z-2.917
X-26.981 Y-20.834 Z-2.98
X-26.947 Y-20.845 Z-3.037
X-26.902 Y-20.86 Z-3.085
X-26.848 Y-20.877 Z-3.12
X-26.787 Y-20.896 Z-3.142
X-26.724 Y-20.916 Z-3.15
G3 X-25.94 Y-20.962 I0.481 J1.508
G1 X-22.821 Y-20.238
X-22.292 Y-20.087
X-21.754 Y-19.772
X-21.308 Y-19.335
X-20.941 Y-18.831
G3 X-19.632 Y-16.004 I-14.492 J8.426
X-19.694 Y19.38 I-45.709 J17.612
G1 X-19.743 Y19.463 F900
X-19.816 Y19.525
X-19.905 Y19.562 F1000
X-22.884 Y20.253
G3 X-23.139 Y19.732 I-0.058 J-0.294
G1 X-23.089 Y19.688 Z-3.142
X-23.041 Y19.647 Z-3.12
X-22.998 Y19.609 Z-3.085
X-22.962 Y19.578 Z-3.037
X-22.935 Y19.555 Z-2.98
X-22.918 Y19.54 Z-2.917
X-22.913 Y19.535 Z-2.85
G0 Z2.503
X-23.891 Y-20.102
Z-2.55
G1 Z-2.85 F1000
X-23.884 Y-20.104 Z-2.917
X-23.863 Y-20.111 Z-2.98
X-23.829 Y-20.122 Z-3.037
X-23.783 Y-20.136 Z-3.085
X-23.729 Y-20.153 Z-3.12
X-23.669 Y-20.173 Z-3.142
X-23.605 Y-20.193 Z-3.15
G3 X-22.821 Y-20.238 I0.481 J1.508
G1 X-19.703 Y-19.515
X-19.27 Y-19.392
X-18.732 Y-19.076
X-18.29 Y-18.636
X-17.931 Y-18.125
G3 X-16.917 Y-15.849 I-11.845 J6.643
X-16.779 Y18.688 I-48.373 J17.461
G1 X-16.827 Y18.775 F900
X-16.901 Y18.842
X-16.993 Y18.88 F1000
X-18.427 Y19.219
X-19.905 Y19.562
G3 X-20.16 Y19.041 I-0.058 J-0.294
G1 X-20.109 Y18.997 Z-3.142
X-20.062 Y18.956 Z-3.12
X-20.019 Y18.918 Z-3.085
X-19.983 Y18.887 Z-3.037
X-19.956 Y18.864 Z-2.98
X-19.939 Y18.849 Z-2.917
X-19.934 Y18.844 Z-2.85
G0 Z2.503
X-20.773 Y-19.379
Z-2.55
G1 Z-2.85 F1000
X-20.765 Y-19.381 Z-2.917
X-20.744 Y-19.388 Z-2.98
X-20.71 Y-19.398 Z-3.037
X-20.665 Y-19.413 Z-3.085
X-20.611 Y-19.43 Z-3.12
X-20.55 Y-19.449 Z-3.142
X-20.487 Y-19.47 Z-3.15
G3 X-19.703 Y-19.515 I0.481 J1.508
G1 X-18.285 Y-19.186
X-16.726 Y-18.817
X-16.307 Y-18.695
X-15.783 Y-18.385
X-15.343 Y-17.942
X-14.992 Y-17.427
G3 X-14.035 Y-15.126 I-11.302 J6.048
X-13.932 Y18.042 I-51.204 J16.743
G1 X-13.98 Y18.135
X-14.058 Y18.205
X-14.156 Y18.243
G2 X-16.993 Y18.88 I9.058 J46.992
G0 Z2.503
X-17.797 Y-18.685
Z-2.55
G1 Z-2.85 F1000
X-17.789 Y-18.688 Z-2.917
X-17.768 Y-18.694 Z-2.98
X-17.734 Y-18.705 Z-3.037
X-17.689 Y-18.719 Z-3.085
X-17.635 Y-18.736 Z-3.12
X-17.574 Y-18.755 Z-3.142
X-17.51 Y-18.775 Z-3.15
G3 X-16.726 Y-18.817 I0.474 J1.51
G1 X-15.309 Y-18.481
X-15.025 Y-18.418
X-14.033 Y-18.217
X-13.503 Y-18.085
X-12.999 Y-17.813
X-12.542 Y-17.388
X-12.182 Y-16.879
G3 X-11.251 Y-14.569 I-9.728 J5.263
X-10.492 Y15.018 I-53.865 J16.184
X-11.013 Y17 I-33.566 J-7.763
X-11.188 Y17.574 I-33.045 J-9.745 F900
G1 X-11.276 Y17.643 F1000
X-11.376 Y17.683
X-14.156 Y18.243
G0 Z2.503
X-15.098 Y-18.044
Z-2.55
G1 Z-2.85 F1000
X-15.09 Y-18.047 Z-2.917
X-15.07 Y-18.054 Z-2.98
X-15.036 Y-18.066 Z-3.037
X-14.991 Y-18.082 Z-3.085
X-14.938 Y-18.101 Z-3.12
X-14.878 Y-18.123 Z-3.142
X-14.815 Y-18.145 Z-3.15
G3 X-14.033 Y-18.217 I0.532 J1.491
X-11.198 Y-17.659 I-60.88 J316.681
G1 X-10.688 Y-17.529
X-10.191 Y-17.256
X-9.737 Y-16.829
X-9.381 Y-16.316
G3 X-8.492 Y-13.99 I-9.362 J4.911
X-7.002 Y10.122 I-56.381 J15.587
X-8.401 Y16.919 I-56.684 J-8.124
G1 X-8.449 Y17.019
X-8.531 Y17.094
X-8.634 Y17.135
X-8.93 Y17.191
X-11.376 Y17.683
G0 Z2.503
X-12.264 Y-17.492
Z-2.55
G1 Z-2.85 F1000
X-12.256 Y-17.494 Z-2.917
X-12.235 Y-17.502 Z-2.98
X-12.202 Y-17.513 Z-3.037
X-12.157 Y-17.529 Z-3.085
X-12.103 Y-17.548 Z-3.12
X-12.043 Y-17.569 Z-3.142
X-11.98 Y-17.591 Z-3.15
G3 X-11.198 Y-17.659 I0.523 J1.494
G1 X-8.363 Y-17.086
X-7.912 Y-16.971
X-7.425 Y-16.704
X-6.97 Y-16.276
X-6.617 Y-15.762
G3 X-5.765 Y-13.423 I-8.962 J4.59
X-3.988 Y5.136 I-58.715 J14.986
X-5.715 Y16.504 I-61.374 J-3.507
G1 X-5.766 Y16.61
X-5.853 Y16.689
X-5.964 Y16.728
X-7.938 Y17.013
X-8.221 Y17.057
X-8.634 Y17.135
G3 X-8.867 Y16.604 I-0.045 J-0.297
G1 X-8.815 Y16.562 Z-3.142
X-8.766 Y16.523 Z-3.12
X-8.721 Y16.487 Z-3.085
X-8.684 Y16.458 Z-3.037
X-8.656 Y16.435 Z-2.98
X-8.639 Y16.421 Z-2.917
X-8.633 Y16.417 Z-2.85
G0 Z2.503
X-9.429 Y-16.919
Z-2.55
G1 Z-2.85 F1000
X-9.422 Y-16.921 Z-2.917
X-9.401 Y-16.929 Z-2.98
X-9.367 Y-16.941 Z-3.037
X-9.322 Y-16.956 Z-3.085
X-9.268 Y-16.975 Z-3.12
X-9.208 Y-16.996 Z-3.142
X-9.145 Y-17.018 Z-3.15
G3 X-8.363 Y-17.086 I0.523 J1.494
G1 X-8.221 Y-17.058
X-7.938 Y-17.013
X-5.812 Y-16.706
X-5.323 Y-16.61
X-4.847 Y-16.383
X-4.37 Y-15.981
X-3.997 Y-15.481
X-3.711 Y-14.926
G3 X-2.848 Y-11.933 I-15.683 J6.146
X-3.058 Y16.115 I-62.255 J13.557
G1 X-3.105 Y16.224
X-3.193 Y16.304
X-3.305 Y16.344
X-5.964 Y16.728
G3 X-6.174 Y16.188 I-0.032 J-0.298
G1 X-6.12 Y16.148 Z-3.142
X-6.069 Y16.111 Z-3.12
X-6.023 Y16.077 Z-3.085
X-5.985 Y16.049 Z-3.037
X-5.956 Y16.028 Z-2.98
X-5.938 Y16.015 Z-2.917
X-5.932 Y16.01 Z-2.85
G0 Z2.503
X-6.866 Y-16.479
Z-2.55
G1 Z-2.85 F1000
X-6.859 Y-16.482 Z-2.917
X-6.839 Y-16.491 Z-2.98
X-6.806 Y-16.505 Z-3.037
X-6.762 Y-16.523 Z-3.085
X-6.709 Y-16.545 Z-3.12
X-6.651 Y-16.569 Z-3.142
X-6.589 Y-16.594 Z-3.15
G3 X-5.812 Y-16.706 I0.606 J1.462
G1 X-3.118 Y-16.317
X-2.646 Y-16.225
X-2.179 Y-16.001
X-1.701 Y-15.6
X-1.329 Y-15.098
X-1.046 Y-14.542
G3 X-0.346 Y-12.15 I-12.863 J5.063
X-0.421 Y15.756 I-64.59 J13.78
G1 X-0.47 Y15.87 F900
X-0.564 Y15.952 F1000
X-0.684 Y15.989
G2 X-1.417 Y16.072 I1.017 J12.227
G1 X-3.305 Y16.344
G3 X-3.515 Y15.804 I-0.032 J-0.298
G1 X-3.461 Y15.764 Z-3.142
X-3.41 Y15.727 Z-3.12
X-3.364 Y15.693 Z-3.085
X-3.326 Y15.665 Z-3.037
X-3.297 Y15.644 Z-2.98
X-3.279 Y15.631 Z-2.917
X-3.273 Y15.626 Z-2.85
G0 Z2.503
X-4.173 Y-16.091
Z-2.55
G1 Z-2.85 F1000
X-4.166 Y-16.094 Z-2.917
X-4.146 Y-16.102 Z-2.98
X-4.113 Y-16.116 Z-3.037
X-4.069 Y-16.134 Z-3.085
X-4.016 Y-16.156 Z-3.12
X-3.958 Y-16.18 Z-3.142
X-3.896 Y-16.206 Z-3.15
G3 X-3.118 Y-16.317 I0.606 J1.462
G2 X-0.851 Y-16.002 I7.973 J-49.137
G1 X-0.567 Y-15.979
X-0.107 Y-15.916
X0.355 Y-15.726
X0.854 Y-15.354
X1.245 Y-14.867
X1.541 Y-14.318
G3 X2.244 Y-11.928 I-11.231 J4.602
X2.177 Y15.528 I-66.973 J13.565
G1 X2.128 Y15.644 F900
X2.033 Y15.728 F1000
X1.912 Y15.765
X-0.684 Y15.989
G3 X-0.862 Y15.437 I-0.015 J-0.3
G1 X-0.806 Y15.401 Z-3.142
X-0.753 Y15.366 Z-3.12
X-0.705 Y15.336 Z-3.085
X-0.666 Y15.31 Z-3.037
X-0.636 Y15.29 Z-2.98
X-0.617 Y15.278 Z-2.917
X-0.611 Y15.274 Z-2.85
G0 Z2.503
X-1.607 Y-15.692
Z-2.55
G1 Z-2.85 F1000
X-1.6 Y-15.696 Z-2.917
X-1.58 Y-15.705 Z-2.98
X-1.548 Y-15.721 Z-3.037
X-1.505 Y-15.741 Z-3.085
X-1.454 Y-15.766 Z-3.12
X-1.397 Y-15.794 Z-3.142
X-1.337 Y-15.823 Z-3.15
G3 X-0.567 Y-15.979 I0.689 J1.425
G1 X2.126 Y-15.746
X2.485 Y-15.697
X2.949 Y-15.507
X3.449 Y-15.134
X3.84 Y-14.648
X4.135 Y-14.098
G3 X4.827 Y-11.705 I-10.813 J4.421
X5.791 Y8.17 I-68.8 J13.298
X4.771 Y15.3 I-69.705 J-6.327
G1 X4.72 Y15.418
X4.625 Y15.503
X4.503 Y15.541
X1.912 Y15.765
G3 X1.734 Y15.213 I-0.015 J-0.3
G1 X1.79 Y15.177 Z-3.142
X1.843 Y15.143 Z-3.12
X1.891 Y15.112 Z-3.085
X1.931 Y15.086 Z-3.037
X1.961 Y15.066 Z-2.98
X1.979 Y15.054 Z-2.917
X1.986 Y15.05 Z-2.85
G0 Z2.503
X1.086 Y-15.46
Z-2.55
G1 Z-2.85 F1000
X1.093 Y-15.463 Z-2.917
X1.113 Y-15.473 Z-2.98
X1.145 Y-15.488 Z-3.037
X1.188 Y-15.509 Z-3.085
X1.239 Y-15.534 Z-3.12
X1.296 Y-15.561 Z-3.142
X1.356 Y-15.591 Z-3.15
G3 X2.126 Y-15.746 I0.689 J1.425
G1 X4.678 Y-15.526
X5.081 Y-15.471
X5.544 Y-15.282
X6.042 Y-14.909
X6.433 Y-14.423
X6.728 Y-13.873
G3 X7.405 Y-11.476 I-10.559 J4.277
X8.549 Y4.049 I-70.362 J12.991
X7.343 Y15.133 I-73.038 J-2.342
G1 X7.291 Y15.257 F900
X7.188 Y15.345
X7.058 Y15.379 F1000
G2 X4.503 Y15.542 I0.423 J26.783
G1 X4.437 Y15.538
X4.375 Y15.52
X4.317 Y15.489
X4.267 Y15.446
X4.228 Y15.394
X4.202 Y15.334
X4.189 Y15.27
Y15.205
X4.205 Y15.141
X4.233 Y15.082
X4.274 Y15.031
X4.324 Y14.99
X4.38 Y14.954 Z-3.142
X4.434 Y14.919 Z-3.12
X4.481 Y14.888 Z-3.085
X4.521 Y14.862 Z-3.037
X4.551 Y14.843 Z-2.98
X4.57 Y14.831 Z-2.917
X4.576 Y14.827 Z-2.85
G0 Z2.503
X3.638 Y-15.24
Z-2.55
G1 Z-2.85 F1000
X3.645 Y-15.243 Z-2.917
X3.664 Y-15.253 Z-2.98
X3.697 Y-15.268 Z-3.037
X3.739 Y-15.289 Z-3.085
X3.791 Y-15.314 Z-3.12
X3.848 Y-15.341 Z-3.142
X3.908 Y-15.371 Z-3.15
G3 X4.678 Y-15.526 I0.689 J1.425
G2 X7.229 Y-15.352 I4.012 J-39.976
G1 X7.582 Y-15.318
X8.045 Y-15.148
X8.534 Y-14.812
X8.943 Y-14.341
X9.253 Y-13.799
G3 X9.945 Y-11.408 I-9.346 J4
X11.044 Y-0.868 I-68.814 J12.499
X9.893 Y15.051 I-75.332 J2.555
G1 X9.839 Y15.174 F900
X9.737 Y15.262
X9.607 Y15.296 F1000
X7.229 Y15.374
X7.058 Y15.379
G3 X6.911 Y14.819 I0.002 J-0.3
G1 X6.969 Y14.786 Z-3.142
X7.024 Y14.754 Z-3.12
X7.074 Y14.726 Z-3.085
X7.115 Y14.702 Z-3.037
X7.146 Y14.685 Z-2.98
X7.165 Y14.674 Z-2.917
X7.172 Y14.67 Z-2.85
G0 Z2.503
X6.201 Y-15.026
Z-2.55
G1 Z-2.85 F1000
X6.208 Y-15.03 Z-2.917
X6.227 Y-15.04 Z-2.98
X6.259 Y-15.057 Z-3.037
X6.301 Y-15.079 Z-3.085
X6.351 Y-15.106 Z-3.12
X6.407 Y-15.136 Z-3.142
X6.466 Y-15.167 Z-3.15
G3 X7.229 Y-15.352 I0.743 J1.397
G1 X7.513 Y-15.339
X7.796 Y-15.329
X9.639 Y-15.274
X10.09 Y-15.238
X10.553 Y-15.078
X11.042 Y-14.754
X11.46 Y-14.29
X11.778 Y-13.753
G3 X12.478 Y-11.365 I-8.808 J3.88
X13.462 Y-2.692 I-66.658 J11.952
X12.44 Y14.964 I-77.643 J4.367
G1 X12.382 Y15.084
X12.281 Y15.17 F900
X12.153 Y15.203 F1000
X10.914 Y15.246
X9.922 Y15.285
X9.607 Y15.296
G0 Z2.503
X8.617 Y-14.929
Z-2.55
G1 Z-2.85 F1000
X8.623 Y-14.933 Z-2.917
X8.643 Y-14.944 Z-2.98
X8.674 Y-14.961 Z-3.037
X8.715 Y-14.984 Z-3.085
X8.765 Y-15.012 Z-3.12
X8.821 Y-15.042 Z-3.142
X8.879 Y-15.075 Z-3.15
G3 X9.639 Y-15.274 I0.768 J1.384
G1 X12.19 Y-15.198
X12.631 Y-15.163
X13.093 Y-15.004
X13.584 Y-14.678
X14.002 Y-14.215
X14.319 Y-13.678
G3 X15.016 Y-11.288 I-8.703 J3.833
X15.931 Y-3.234 I-65.959 J11.572
X14.975 Y14.94 I-79.934 J4.908
G1 X14.91 Y15.058
X14.806 Y15.14 F900
X14.676 Y15.169 F1000
G2 X12.153 Y15.203 I-0.687 J42.685
G0 Z2.503
X11.168 Y-14.854
Z-2.55
G1 Z-2.85 F1000
X11.175 Y-14.857 Z-2.917
X11.194 Y-14.868 Z-2.98
X11.225 Y-14.886 Z-3.037
X11.267 Y-14.909 Z-3.085
X11.317 Y-14.936 Z-3.12
X11.372 Y-14.967 Z-3.142
X11.43 Y-14.999 Z-3.15
G3 X12.19 Y-15.198 I0.768 J1.384
G2 X14.742 Y-15.169 I1.835 J-49.279
G1 X15.098 Y-15.152
X15.563 Y-15.006
X16.049 Y-14.705
X16.48 Y-14.254
X16.81 Y-13.725
X17.059 Y-13.153
G3 X17.735 Y-10.112 I-15.366 J5.009
X17.501 Y14.939 I-81.469 J11.768
G1 X17.436 Y15.057
X17.332 Y15.14 F900
X17.202 Y15.169 F1000
X14.676
G0 Z2.503
X13.73 Y-14.795
Z-2.55
G1 Z-2.85 F1000
X13.737 Y-14.799 Z-2.917
X13.756 Y-14.81 Z-2.98
X13.786 Y-14.828 Z-3.037
X13.827 Y-14.853 Z-3.085
X13.876 Y-14.882 Z-3.12
X13.931 Y-14.914 Z-3.142
X13.988 Y-14.948 Z-3.15
G3 X14.742 Y-15.169 I0.809 J1.36
G1 X17.151
X17.619 Y-15.146
X18.08 Y-15.002
X18.57 Y-14.698
X19.002 Y-14.247
X19.332 Y-13.717
X19.582 Y-13.146
G3 X20.254 Y-10.104 I-15.1 J4.931
X20.615 Y10.431 I-83.064 J11.731
X20.027 Y14.94 I-65.424 J-6.236
G1 X19.962 Y15.058
X19.857 Y15.14 F900
X19.728 Y15.169 F1000
X17.202
G0 Z2.503
X16.14 Y-14.795
Z-2.55
G1 Z-2.85 F1000
X16.146 Y-14.799 Z-2.917
X16.165 Y-14.81 Z-2.98
X16.196 Y-14.828 Z-3.037
X16.237 Y-14.853 Z-3.085
X16.286 Y-14.882 Z-3.12
X16.34 Y-14.914 Z-3.142
X16.398 Y-14.948 Z-3.15
G3 X17.151 Y-15.169 I0.809 J1.36
G1 X19.703
X20.137 Y-15.148
X20.6 Y-15.003
X21.091 Y-14.699
X21.522 Y-14.248
X21.852 Y-13.718
X22.102 Y-13.147
G3 X22.77 Y-10.105 I-14.916 J4.871
X23.38 Y7.324 I-84.299 J11.674
X22.554 Y14.94 I-80.627 J-4.896
G1 X22.486 Y15.058
X22.382 Y15.14 F900
X22.252 Y15.169 F1000
X19.728
G0 Z2.503
X18.691 Y-14.795
Z-2.55
G1 Z-2.85 F1000
X18.698 Y-14.799 Z-2.917
X18.717 Y-14.81 Z-2.98
X18.748 Y-14.828 Z-3.037
X18.788 Y-14.853 Z-3.085
X18.837 Y-14.882 Z-3.12
X18.892 Y-14.914 Z-3.142
X18.949 Y-14.948 Z-3.15
G3 X19.703 Y-15.169 I0.809 J1.36
G1 X22.254
X22.658 Y-15.149
X23.12 Y-15.005
X23.611 Y-14.701
X24.042 Y-14.249
X24.372 Y-13.72
X24.622 Y-13.148
G3 X25.286 Y-10.106 I-14.777 J4.819
X26.005 Y4.833 I-85.071 J11.578
X25.108 Y14.77 I-88.221 J-2.947
G1 X25.067 Y14.938
X25.009 Y15.058 F900
X24.905 Y15.14
X24.775 Y15.169 F1000
X22.252
G0 Z2.503
X21.243 Y-14.795
Z-2.55
G1 Z-2.85 F1000
X21.249 Y-14.799 Z-2.917
X21.268 Y-14.81 Z-2.98
X21.299 Y-14.828 Z-3.037
X21.34 Y-14.853 Z-3.085
X21.389 Y-14.882 Z-3.12
X21.443 Y-14.914 Z-3.142
X21.501 Y-14.948 Z-3.15
G3 X22.254 Y-15.169 I0.809 J1.36
G1 X24.806
X25.178 Y-15.151
X25.64 Y-15.006
X26.13 Y-14.702
X26.561 Y-14.251
X26.891 Y-13.722
X27.141 Y-13.15
G3 X27.801 Y-10.106 I-14.665 J4.771
X28.537 Y3.586 I-85.93 J11.489
X27.629 Y14.773 I-91.023 J-1.757
G1 X27.589 Y14.938
X27.53 Y15.058 F900
X27.426 Y15.14
X27.297 Y15.169 F1000
X24.775
G0 Z2.503
X23.794 Y-14.795
Z-2.55
G1 Z-2.85 F1000
X23.801 Y-14.799 Z-2.917
X23.82 Y-14.81 Z-2.98
X23.85 Y-14.828 Z-3.037
X23.891 Y-14.853 Z-3.085
X23.94 Y-14.882 Z-3.12
X23.995 Y-14.914 Z-3.142
X24.052 Y-14.948 Z-3.15
G3 X24.806 Y-15.169 I0.809 J1.36
G1 X27.215
X27.7 Y-15.145
X28.162 Y-15.001
X28.651 Y-14.697
X29.082 Y-14.246
X29.412 Y-13.716
X29.661 Y-13.145
G3 X30.316 Y-10.1 I-14.583 J4.726
X31.045 Y2.97 I-86.988 J11.413
X30.148 Y14.783 I-93.404 J-1.153
G1 X30.109 Y14.939
X30.05 Y15.058 F900
X29.946 Y15.14
X29.817 Y15.169 F1000
X27.297
G0 Z2.503
X26.204 Y-14.795
Z-2.55
G1 Z-2.85 F1000
X26.21 Y-14.799 Z-2.917
X26.229 Y-14.81 Z-2.98
X26.26 Y-14.828 Z-3.037
X26.301 Y-14.853 Z-3.085
X26.35 Y-14.882 Z-3.12
X26.404 Y-14.914 Z-3.142
X26.462 Y-14.948 Z-3.15
G3 X27.215 Y-15.169 I0.809 J1.36
G1 X29.767
X30.217 Y-15.147
X30.679 Y-15.003
X31.168 Y-14.699
X31.599 Y-14.248
X31.929 Y-13.718
X32.178 Y-13.146
G3 X32.829 Y-10.101 I-14.485 J4.684
X33.549 Y2.347 I-87.798 J11.327
X32.667 Y14.786 I-95.864 J-0.545
G1 X32.628 Y14.938
X32.569 Y15.058 F900
X32.465 Y15.14
X32.336 Y15.169 F1000
X29.817
G0 Z2.503
X28.755 Y-14.795
Z-2.55
G1 Z-2.85 F1000
X28.762 Y-14.799 Z-2.917
X28.781 Y-14.81 Z-2.98
X28.812 Y-14.828 Z-3.037
X28.852 Y-14.853 Z-3.085
X28.901 Y-14.882 Z-3.12
X28.956 Y-14.914 Z-3.142
X29.013 Y-14.948 Z-3.15
G3 X29.767 Y-15.169 I0.809 J1.36
G1 X32.318
X32.734 Y-15.149
X33.196 Y-15.004
X33.685 Y-14.701
X34.116 Y-14.25
X34.446 Y-13.72
X34.695 Y-13.148
G3 X35.341 Y-10.102 I-14.4 J4.646
X36.049 Y1.723 I-88.365 J11.225
X35.185 Y14.788 I-98.347 J0.06
G1 X35.145 Y14.938
X35.087 Y15.058 F900
X34.983 Y15.14
X34.853 Y15.169 F1000
X32.336
G0 Z2.503
X31.307 Y-14.795
Z-2.55
G1 Z-2.85 F1000
X31.313 Y-14.799 Z-2.917
X31.332 Y-14.81 Z-2.98
X31.363 Y-14.828 Z-3.037
X31.404 Y-14.853 Z-3.085
X31.453 Y-14.882 Z-3.12
X31.507 Y-14.914 Z-3.142
X31.565 Y-14.948 Z-3.15
G3 X32.318 Y-15.169 I0.809 J1.36
G1 X34.87
X35.25 Y-15.15
X35.713 Y-15.006
X36.201 Y-14.703
X36.632 Y-14.252
X36.961 Y-13.722
X37.21 Y-13.15
G3 X37.852 Y-10.103 I-14.323 J4.61
X38.545 Y1.099 I-88.661 J11.105
X37.702 Y14.789 I-100.852 J0.664
G1 X37.662 Y14.938
X37.604 Y15.058 F900
X37.5 Y15.14
X37.37 Y15.169 F1000
X34.853
G0 Z2.503
X33.858 Y-14.795
Z-2.55
G1 Z-2.85 F1000
X33.865 Y-14.799 Z-2.917
X33.884 Y-14.81 Z-2.98
X33.914 Y-14.828 Z-3.037
X33.955 Y-14.853 Z-3.085
X34.004 Y-14.882 Z-3.12
X34.059 Y-14.914 Z-3.142
X34.116 Y-14.948 Z-3.15
G3 X34.87 Y-15.169 I0.809 J1.36
G1 X37.421
X37.766 Y-15.152
X38.228 Y-15.008
X38.716 Y-14.705
X39.147 Y-14.254
X39.476 Y-13.724
X39.724 Y-13.152
G3 X40.363 Y-10.104 I-14.253 J4.577
X41.037 Y0.475 I-88.652 J10.963
X40.218 Y14.791 I-103.372 J1.267
G1 X40.178 Y14.938
X40.12 Y15.057 F900
X40.016 Y15.14
X39.886 Y15.169 F1000
X37.37
G0 Z2.503
X36.41 Y-14.795
Z-2.55
G1 Z-2.85 F1000
X36.416 Y-14.799 Z-2.917
X36.435 Y-14.81 Z-2.98
X36.466 Y-14.828 Z-3.037
X36.507 Y-14.853 Z-3.085
X36.556 Y-14.882 Z-3.12
X36.61 Y-14.914 Z-3.142
X36.667 Y-14.948 Z-3.15
G3 X37.421 Y-15.169 I0.809 J1.36
G1 X39.831
X40.284 Y-15.147
X40.745 Y-15.003
X41.232 Y-14.7
X41.663 Y-14.249
X41.992 Y-13.719
X42.24 Y-13.147
G3 X42.874 Y-10.098 I-14.206 J4.545
X43.535 Y0.482 I-89.764 J10.914
X42.733 Y14.799 I-105.468 J1.273
G1 X42.693 Y14.938
X42.635 Y15.058 F900
X42.53 Y15.14
X42.401 Y15.169 F1000
X39.886
G0 Z2.503
X38.819 Y-14.795
Z-2.55
G1 Z-2.85 F1000
X38.826 Y-14.799 Z-2.917
X38.845 Y-14.81 Z-2.98
X38.875 Y-14.828 Z-3.037
X38.916 Y-14.853 Z-3.085
X38.965 Y-14.882 Z-3.12
X39.02 Y-14.914 Z-3.142
X39.077 Y-14.948 Z-3.15
G3 X39.831 Y-15.169 I0.809 J1.36
G1 X42.382
X42.796 Y-15.149
X43.258 Y-15.005
X43.745 Y-14.702
X44.176 Y-14.251
X44.505 Y-13.721
X44.753 Y-13.149
G3 X45.384 Y-10.099 I-14.133 J4.515
X46.024 Y-0.142 I-89.29 J10.743
X45.247 Y14.8 I-108.035 J1.874
G1 X45.207 Y14.938
X45.149 Y15.058 F900
X45.045 Y15.14
X44.915 Y15.169 F1000
X42.401
G0 Z2.503
X41.371 Y-14.795
Z-2.55
G1 Z-2.85 F1000
X41.377 Y-14.799 Z-2.917
X41.396 Y-14.81 Z-2.98
X41.427 Y-14.828 Z-3.037
X41.468 Y-14.853 Z-3.085
X41.517 Y-14.882 Z-3.12
X41.571 Y-14.914 Z-3.142
X41.629 Y-14.948 Z-3.15
G3 X42.382 Y-15.169 I0.809 J1.36
G1 X44.934
X45.309 Y-15.151
X45.771 Y-15.006
X46.257 Y-14.705
X46.688 Y-14.253
X47.017 Y-13.723
X47.265 Y-13.151
G3 X47.893 Y-10.101 I-14.07 J4.487
X48.522 Y-0.143 I-90.172 J10.692
X47.761 Y14.801 I-110.157 J1.885
G1 X47.72 Y14.938
X47.662 Y15.057 F900
X47.558 Y15.14
X47.428 Y15.169 F1000
X44.915
G0 Z2.503
X43.922 Y-14.795
Z-2.55
G1 Z-2.85 F1000
X43.929 Y-14.799 Z-2.917
X43.948 Y-14.81 Z-2.98
X43.978 Y-14.828 Z-3.037
X44.019 Y-14.853 Z-3.085
X44.068 Y-14.882 Z-3.12
X44.123 Y-14.914 Z-3.142
X44.18 Y-14.948 Z-3.15
G3 X44.934 Y-15.169 I0.809 J1.36
G1 X47.343
X47.824 Y-15.145
X48.285 Y-15.002
X48.771 Y-14.7
X49.202 Y-14.249
X49.531 Y-13.718
X49.778 Y-13.145
G3 X50.402 Y-10.095 I-14.033 J4.461
X51.019 Y-0.136 I-91.098 J10.641
X50.273 Y14.809 I-112.22 J1.889
G1 X50.233 Y14.938
X50.175 Y15.058 F900
X50.071 Y15.14
X49.941 Y15.169 F1000
X47.428
G0 Z2.503
X46.332 Y-14.795
Z-2.55
G1 Z-2.85 F1000
X46.338 Y-14.799 Z-2.917
X46.357 Y-14.81 Z-2.98
X46.388 Y-14.828 Z-3.037
X46.429 Y-14.853 Z-3.085
X46.478 Y-14.882 Z-3.12
X46.532 Y-14.914 Z-3.142
X46.59 Y-14.948 Z-3.15
G3 X47.343 Y-15.169 I0.809 J1.36
G1 X49.895
X50.334 Y-15.147
X50.796 Y-15.003
X51.282 Y-14.702
X51.713 Y-14.251
X52.042 Y-13.721
X52.288 Y-13.147
G3 X52.91 Y-10.097 I-13.969 J4.436
X53.507 Y-0.761 I-89.989 J10.434
X52.859 Y14.19 I-115.896 J2.466
G1 X52.776 Y14.808
X52.745 Y14.938
X52.687 Y15.058 F900
X52.583 Y15.14
X52.453 Y15.169 F1000
X49.941
G0 Z2.503
X48.883 Y-14.795
Z-2.55
G1 Z-2.85 F1000
X48.89 Y-14.799 Z-2.917
X48.909 Y-14.81 Z-2.98
X48.939 Y-14.828 Z-3.037
X48.98 Y-14.853 Z-3.085
X49.029 Y-14.882 Z-3.12
X49.084 Y-14.914 Z-3.142
X49.141 Y-14.948 Z-3.15
G3 X49.895 Y-15.169 I0.809 J1.36
G1 X52.446
X52.845 Y-15.149
X53.306 Y-15.005
X53.792 Y-14.704
X54.223 Y-14.253
X54.552 Y-13.723
X54.799 Y-13.15
G3 X55.418 Y-10.098 I-13.916 J4.414
X56.004 Y-0.762 I-90.677 J10.381
X55.369 Y14.19 I-118.102 J2.473
G1 X55.287 Y14.808
X55.256 Y14.938
X55.198 Y15.057 F900
X55.094 Y15.14
X54.964 Y15.169 F1000
X52.453
G0 Z2.503
X51.435 Y-14.795
Z-2.55
G1 Z-2.85 F1000
X51.441 Y-14.799 Z-2.917
X51.46 Y-14.81 Z-2.98
X51.491 Y-14.828 Z-3.037
X51.532 Y-14.853 Z-3.085
X51.581 Y-14.882 Z-3.12
X51.635 Y-14.914 Z-3.142
X51.692 Y-14.948 Z-3.15
G3 X52.446 Y-15.169 I0.809 J1.36
G1 X54.997
X55.355 Y-15.152
X55.816 Y-15.007
X56.302 Y-14.706
X56.733 Y-14.255
X57.062 Y-13.725
X57.308 Y-13.152
G3 X57.925 Y-10.1 I-13.869 J4.393
X58.502 Y-0.763 I-91.337 J10.329
X57.88 Y14.189 I-120.286 J2.482
G1 X57.798 Y14.808
X57.767 Y14.938
X57.709 Y15.057 F900
X57.605 Y15.14
X57.475 Y15.169 F1000
X54.964
G0 Z2.503
X53.986 Y-14.795
Z-2.55
G1 Z-2.85 F1000
X53.993 Y-14.799 Z-2.917
X54.012 Y-14.81 Z-2.98
X54.042 Y-14.828 Z-3.037
X54.083 Y-14.853 Z-3.085
X54.132 Y-14.882 Z-3.12
X54.187 Y-14.914 Z-3.142
X54.244 Y-14.948 Z-3.15
G3 X54.997 Y-15.169 I0.809 J1.36
G1 X57.407
X57.868 Y-15.146
X58.328 Y-15.003
X58.813 Y-14.702
X59.244 Y-14.251
X59.573 Y-13.72
X59.819 Y-13.147
G3 X60.433 Y-10.094 I-13.844 J4.372
X60.988 Y-1.38 I-89.664 J10.083
X60.389 Y14.197 I-122.958 J3.073
G1 X60.306 Y14.815
X60.277 Y14.938
X60.219 Y15.058 F900
X60.115 Y15.14
X59.985 Y15.169 F1000
X57.475
G0 Z2.503
X56.396 Y-14.795
Z-2.55
G1 Z-2.85 F1000
X56.402 Y-14.799 Z-2.917
X56.421 Y-14.81 Z-2.98
X56.452 Y-14.828 Z-3.037
X56.493 Y-14.853 Z-3.085
X56.542 Y-14.882 Z-3.12
X56.596 Y-14.914 Z-3.142
X56.654 Y-14.948 Z-3.15
G3 X57.407 Y-15.169 I0.809 J1.36
G1 X59.959
X60.376 Y-15.149
X60.837 Y-15.005
X61.322 Y-14.704
X61.753 Y-14.253
X62.081 Y-13.722
X62.327 Y-13.149
G3 X62.939 Y-10.096 I-13.791 J4.352
X63.486 Y-1.381 I-90.17 J10.028
X62.898 Y14.196 I-125.142 J3.08
G1 X62.816 Y14.815
X62.787 Y14.938
X62.729 Y15.057 F900
X62.625 Y15.14
X62.495 Y15.169 F1000
X59.985
G0 Z2.503
X58.947 Y-14.795
Z-2.55
G1 Z-2.85 F1000
X58.954 Y-14.799 Z-2.917
X58.973 Y-14.81 Z-2.98
X59.003 Y-14.828 Z-3.037
X59.044 Y-14.853 Z-3.085
X59.093 Y-14.882 Z-3.12
X59.148 Y-14.914 Z-3.142
X59.205 Y-14.948 Z-3.15
G3 X59.959 Y-15.169 I0.809 J1.36
G1 X62.51
X62.884 Y-15.151
X63.345 Y-15.007
X63.83 Y-14.706
X64.261 Y-14.255
X64.589 Y-13.724
X64.835 Y-13.151
G3 X65.445 Y-10.098 I-13.748 J4.335
X65.984 Y-1.383 I-90.654 J9.975
X65.407 Y14.195 I-127.308 J3.087
G1 X65.325 Y14.814
X65.296 Y14.938
X65.238 Y15.057 F900
X65.134 Y15.14
X65.004 Y15.169 F1000
X62.495
G0 Z2.503
X61.499 Y-14.795
Z-2.55
G1 Z-2.85 F1000
X61.505 Y-14.799 Z-2.917
X61.524 Y-14.81 Z-2.98
X61.555 Y-14.828 Z-3.037
X61.596 Y-14.853 Z-3.085
X61.645 Y-14.882 Z-3.12
X61.699 Y-14.914 Z-3.142
X61.756 Y-14.948 Z-3.15
G3 X62.51 Y-15.169 I0.809 J1.36
G1 X64.92
X65.395 Y-15.146
X65.855 Y-15.002
X66.34 Y-14.701
X66.771 Y-14.25
X67.099 Y-13.72
X67.345 Y-13.146
G3 X67.952 Y-10.092 I-13.727 J4.317
X68.482 Y-1.377 I-91.215 J9.923
X67.915 Y14.202 I-129.451 J3.087
G1 X67.833 Y14.821
X67.805 Y14.938
X67.747 Y15.058 F900
X67.643 Y15.14
X67.513 Y15.169 F1000
X65.004
G0 Z2.503
X63.908 Y-14.795
Z-2.55
G1 Z-2.85 F1000
X63.915 Y-14.799 Z-2.917
X63.934 Y-14.81 Z-2.98
X63.965 Y-14.828 Z-3.037
X64.005 Y-14.853 Z-3.085
X64.054 Y-14.882 Z-3.12
X64.109 Y-14.914 Z-3.142
X64.166 Y-14.948 Z-3.15
G3 X64.92 Y-15.169 I0.809 J1.36
G1 X67.471
X67.902 Y-15.148
X68.363 Y-15.004
X68.847 Y-14.704
X69.278 Y-14.252
X69.606 Y-13.722
X69.852 Y-13.148
G3 X70.457 Y-10.094 I-13.68 J4.301
X70.98 Y-1.378 I-91.651 J9.872
X70.423 Y14.201 I-131.571 J3.095
G1 X70.341 Y14.82
X70.314 Y14.938
X70.255 Y15.057 F900
X70.151 Y15.14
X70.021 Y15.169 F1000
X67.513
G0 Z2.503
X66.46 Y-14.795
Z-2.55
G1 Z-2.85 F1000
X66.466 Y-14.799 Z-2.917
X66.485 Y-14.81 Z-2.98
X66.516 Y-14.828 Z-3.037
X66.557 Y-14.853 Z-3.085
X66.606 Y-14.882 Z-3.12
X66.66 Y-14.914 Z-3.142
X66.718 Y-14.948 Z-3.15
G3 X67.471 Y-15.169 I0.809 J1.36
G1 X70.023
X70.408 Y-15.15
X70.869 Y-15.006
X71.353 Y-14.706
X71.784 Y-14.255
X72.113 Y-13.724
X72.358 Y-13.151
G3 X72.962 Y-10.096 I-13.643 J4.286
X73.464 Y-2.004 I-88.986 J9.582
X72.931 Y14.2 I-134.313 J3.691
G1 X72.849 Y14.819
X72.821 Y14.938
X72.763 Y15.057 F900
X72.659 Y15.14
X72.529 Y15.169 F1000
X70.021
G0 Z2.503
X69.011 Y-14.795
Z-2.55
G1 Z-2.85 F1000
X69.018 Y-14.799 Z-2.917
X69.037 Y-14.81 Z-2.98
X69.067 Y-14.828 Z-3.037
X69.108 Y-14.853 Z-3.085
X69.157 Y-14.882 Z-3.12
X69.212 Y-14.914 Z-3.142
X69.269 Y-14.948 Z-3.15
G3 X70.023 Y-15.169 I0.809 J1.36
G1 X72.574
X72.915 Y-15.152
X73.376 Y-15.008
X73.86 Y-14.708
X74.291 Y-14.257
X74.619 Y-13.727
X74.865 Y-13.153
G3 X75.467 Y-10.098 I-13.609 J4.272
X75.963 Y-2.005 I-89.291 J9.53
X75.439 Y14.199 I-136.441 J3.697
G1 X75.357 Y14.818
X75.329 Y14.938
X75.271 Y15.057 F900
X75.166 Y15.14
X75.037 Y15.169 F1000
X72.529
G0 Z2.503
X71.563 Y-14.795
Z-2.55
G1 Z-2.85 F1000
X71.569 Y-14.799 Z-2.917
X71.588 Y-14.81 Z-2.98
X71.619 Y-14.828 Z-3.037
X71.66 Y-14.853 Z-3.085
X71.709 Y-14.882 Z-3.12
X71.763 Y-14.914 Z-3.142
X71.82 Y-14.948 Z-3.15
G3 X72.574 Y-15.169 I0.809 J1.36
G1 X74.984
X75.425 Y-15.147
X75.885 Y-15.004
X76.368 Y-14.704
X76.799 Y-14.253
X77.127 Y-13.722
X77.372 Y-13.148
G3 X77.973 Y-10.093 I-13.596 J4.258
X78.462 Y-1.999 I-89.709 J9.481
X77.945 Y14.206 I-138.543 J3.696
G1 X77.863 Y14.824
X77.836 Y14.938
X77.778 Y15.057 F900
X77.674 Y15.14
X77.544 Y15.169 F1000
X75.037
G0 Z2.503
X73.972 Y-14.795
Z-2.55
G1 Z-2.85 F1000
X73.979 Y-14.799 Z-2.917
X73.998 Y-14.81 Z-2.98
X74.029 Y-14.828 Z-3.037
X74.069 Y-14.853 Z-3.085
X74.118 Y-14.882 Z-3.12
X74.173 Y-14.914 Z-3.142
X74.23 Y-14.948 Z-3.15
G3 X74.984 Y-15.169 I0.809 J1.36
G1 X77.535
X77.93 Y-15.15
X78.39 Y-15.006
X78.874 Y-14.706
X79.305 Y-14.255
X79.633 Y-13.724
X79.878 Y-13.15
G3 X80.477 Y-10.095 I-13.556 J4.244
X80.96 Y-2.001 I-89.98 J9.431
X80.452 Y14.205 I-140.623 J3.703
G1 X80.37 Y14.823
X80.343 Y14.938
X80.285 Y15.057 F900
X80.181 Y15.14
X80.051 Y15.169 F1000
X77.544
G0 Z2.503
X76.524 Y-14.795
Z-2.55
G1 Z-2.85 F1000
X76.53 Y-14.799 Z-2.917
X76.549 Y-14.81 Z-2.98
X76.58 Y-14.828 Z-3.037
X76.621 Y-14.853 Z-3.085
X76.67 Y-14.882 Z-3.12
X76.724 Y-14.914 Z-3.142
X76.782 Y-14.948 Z-3.15
G3 X77.535 Y-15.169 I0.809 J1.36
G1 X80.087
X80.435 Y-15.152
X80.896 Y-15.008
X81.379 Y-14.708
X81.81 Y-14.257
X82.138 Y-13.726
X82.383 Y-13.153
G3 X82.981 Y-10.097 I-13.525 J4.233
X83.459 Y-2.003 I-90.24 J9.384
X82.959 Y14.203 I-142.686 J3.71
G1 X82.877 Y14.822
X82.849 Y14.938
X82.791 Y15.057 F900
X82.687 Y15.14
X82.557 Y15.169 F1000
X80.051
G0 Z2.503
X79.075 Y-14.795
Z-2.55
G1 Z-2.85 F1000
X79.082 Y-14.799 Z-2.917
X79.101 Y-14.81 Z-2.98
X79.131 Y-14.828 Z-3.037
X79.172 Y-14.853 Z-3.085
X79.221 Y-14.882 Z-3.12
X79.276 Y-14.914 Z-3.142
X79.333 Y-14.948 Z-3.15
G3 X80.087 Y-15.169 I0.809 J1.36
G1 X82.496
X82.943 Y-15.147
X83.403 Y-15.004
X83.886 Y-14.704
X84.317 Y-14.253
X84.645 Y-13.722
X84.89 Y-13.148
G3 X85.486 Y-10.092 I-13.515 J4.22
X85.957 Y-1.997 I-90.611 J9.339
X85.464 Y14.209 I-144.719 J3.71
G1 X85.382 Y14.828
X85.356 Y14.938
X85.297 Y15.057 F900
X85.193 Y15.14
X85.064 Y15.169 F1000
X82.557
G0 Z2.503
X81.485 Y-14.795
Z-2.55
G1 Z-2.85 F1000
X81.491 Y-14.799 Z-2.917
X81.51 Y-14.81 Z-2.98
X81.541 Y-14.828 Z-3.037
X81.582 Y-14.853 Z-3.085
X81.631 Y-14.882 Z-3.12
X81.685 Y-14.914 Z-3.142
X81.743 Y-14.948 Z-3.15
G3 X82.496 Y-15.169 I0.809 J1.36
G1 X85.048
X85.447 Y-15.149
X85.908 Y-15.006
X86.391 Y-14.706
X86.822 Y-14.255
X87.15 Y-13.724
X87.395 Y-13.15
G3 X87.989 Y-10.094 I-13.479 J4.209
X88.456 Y-1.999 I-90.838 J9.294
X87.97 Y14.208 I-146.732 J3.717
G1 X87.888 Y14.827
X87.862 Y14.938
X87.804 Y15.057 F900
X87.699 Y15.14
X87.57 Y15.169 F1000
X85.064
G0 Z2.503
X84.036 Y-14.795
Z-2.55
G1 Z-2.85 F1000
X84.043 Y-14.799 Z-2.917
X84.062 Y-14.81 Z-2.98
X84.092 Y-14.828 Z-3.037
X84.133 Y-14.853 Z-3.085
X84.182 Y-14.882 Z-3.12
X84.237 Y-14.914 Z-3.142
X84.294 Y-14.948 Z-3.15
G3 X85.048 Y-15.169 I0.809 J1.36
G1 X87.599
X87.952 Y-15.152
X88.412 Y-15.008
X88.895 Y-14.708
X89.326 Y-14.257
X89.654 Y-13.726
X89.899 Y-13.152
G3 X90.493 Y-10.096 I-13.449 J4.199
X90.954 Y-2.001 I-91.05 J9.25
X90.476 Y14.206 I-148.727 J3.725
G1 X90.394 Y14.825
X90.367 Y14.938
X90.309 Y15.057 F900
X90.205 Y15.14
X90.075 Y15.169 F1000
X87.57
G0 Z2.503
X86.588 Y-14.795
Z-2.55
G1 Z-2.85 F1000
X86.594 Y-14.799 Z-2.917
X86.613 Y-14.81 Z-2.98
X86.644 Y-14.828 Z-3.037
X86.685 Y-14.853 Z-3.085
X86.734 Y-14.882 Z-3.12
X86.788 Y-14.914 Z-3.142
X86.846 Y-14.948 Z-3.15
G3 X87.599 Y-15.169 I0.809 J1.36
G1 X90.009
X90.459 Y-15.147
X90.919 Y-15.003
X91.402 Y-14.704
X91.833 Y-14.253
X92.161 Y-13.722
X92.405 Y-13.148
G3 X92.997 Y-10.091 I-13.443 J4.188
X93.453 Y-1.996 I-91.383 J9.209
X92.981 Y14.212 I-150.688 J3.725
G1 X92.898 Y14.831
X92.873 Y14.938
X92.815 Y15.057 F900
X92.71 Y15.14
X92.581 Y15.169 F1000
X90.075
G0 Z2.503
X88.997 Y-14.795
Z-2.55
G1 Z-2.85 F1000
X89.004 Y-14.799 Z-2.917
X89.023 Y-14.81 Z-2.98
X89.054 Y-14.828 Z-3.037
X89.094 Y-14.853 Z-3.085
X89.143 Y-14.882 Z-3.12
X89.198 Y-14.914 Z-3.142
X89.255 Y-14.948 Z-3.15
G3 X90.009 Y-15.169 I0.809 J1.36
G1 X92.56
X92.962 Y-15.149
X93.423 Y-15.006
X93.905 Y-14.706
X94.337 Y-14.255
X94.664 Y-13.724
X94.909 Y-13.15
G3 X95.5 Y-10.094 I-13.41 J4.179
X95.937 Y-2.621 I-87.564 J8.873
X95.487 Y14.211 I-153.571 J4.315
G1 X95.404 Y14.829
X95.378 Y14.938
X95.32 Y15.057 F900
X95.216 Y15.14
X95.086 Y15.169 F1000
X92.581
G0 Z2.503
X91.549 Y-14.795
Z-2.55
G1 Z-2.85 F1000
X91.555 Y-14.799 Z-2.917
X91.574 Y-14.81 Z-2.98
X91.605 Y-14.828 Z-3.037
X91.646 Y-14.853 Z-3.085
X91.695 Y-14.882 Z-3.12
X91.749 Y-14.914 Z-3.142
X91.807 Y-14.948 Z-3.15
G3 X92.56 Y-15.169 I0.809 J1.36
G1 X95.112
X95.466 Y-15.152
X95.927 Y-15.008
X96.409 Y-14.708
X96.84 Y-14.257
X97.168 Y-13.727
X97.412 Y-13.152
X97.487 Y-12.907
X97.494 Y-12.879
X97.499 Y-12.849
X97.5 Y-12.82
G3 X96.99 Y-12.616 I-0.3 J-0.01
G1 X96.925 Y-12.681
X94.973 Y-14.595 F1500
X94.912 Y-14.656 F1000
G3 X95.112 Y-15.169 I0.21 J-0.214
G1 X97.096
X97.238 Y-15.166
X97.273 Y-15.157
X97.309 Y-15.145 F900
X97.344 Y-15.126 F1000
X97.383 Y-15.098
X97.419 Y-15.063
X97.445 Y-15.028
X97.467 Y-14.992
X97.482 Y-14.957
X97.493 Y-14.921
X97.498 Y-14.886
X97.5 Y-14.815
Y14.813
X97.499 Y14.883
X97.493 Y14.919
X97.483 Y14.954
X97.468 Y14.99
X97.447 Y15.025
X97.421 Y15.061
X97.386 Y15.096
X97.38 Y15.101
X97.344 Y15.126
X97.309 Y15.145 F900
X97.273 Y15.157 F1000
X97.238 Y15.166
X97.096 Y15.169
X95.086
G0 Z2.503
X-87.58 Y26.448
Z-2.55
G1 Z-2.85 F1000
X-87.586 Y26.452 Z-2.917
X-87.605 Y26.463 Z-2.98
X-87.636 Y26.481 Z-3.037
X-87.677 Y26.506 Z-3.085
X-87.726 Y26.535 Z-3.12
X-87.78 Y26.567 Z-3.142
X-87.838 Y26.601 Z-3.15
G3 X-88.591 Y26.823 I-0.809 J-1.36
G1 X-92.135
X-92.677 Y26.795
X-93.272 Y26.609
X-93.814 Y26.299
G3 X-95.591 Y24.557 I6.013 J-7.911
X-104.283 Y3.546 I29.443 J-24.483
X-99.603 Y-18.708 I38.307 J-3.564
X-94.026 Y-26.353 I33.239 J18.393
X-93.611 Y-26.786 I27.662 J26.037 F900
G1 X-93.533 Y-26.812 F1000
X-93.454 Y-26.823
X-89.878
G0 Z2.503
X-91.124 Y26.448
Z-2.55
G1 Z-2.85 F1000
X-91.13 Y26.452 Z-2.917
X-91.149 Y26.463 Z-2.98
X-91.18 Y26.481 Z-3.037
X-91.221 Y26.506 Z-3.085
X-91.27 Y26.535 Z-3.12
X-91.324 Y26.567 Z-3.142
X-91.381 Y26.601 Z-3.15
G3 X-92.135 Y26.823 I-0.809 J-1.36
G1 X-95.395
X-95.989 Y26.793
X-96.585 Y26.607
X-97.12 Y26.287
X-97.598 Y25.886
G3 X-99.56 Y23.466 I11.786 J-11.561
X-102.191 Y-19.162 I33.611 J-23.47
X-97.381 Y-26.324 I35.66 J18.755
X-96.991 Y-26.78 I30.85 J25.916 F900
G1 X-96.906 Y-26.81 F1000
X-96.821 Y-26.823
X-93.454
G0 Z2.503
X-94.384 Y26.448
Z-2.55
G1 Z-2.85 F1000
X-94.39 Y26.452 Z-2.917
X-94.409 Y26.463 Z-2.98
X-94.44 Y26.481 Z-3.037
X-94.481 Y26.506 Z-3.085
X-94.53 Y26.535 Z-3.12
X-94.584 Y26.567 Z-3.142
X-94.642 Y26.601 Z-3.15
G3 X-95.395 Y26.823 I-0.809 J-1.36
G1 X-98.655
X-99.152 Y26.798
X-99.747 Y26.612
X-100.279 Y26.285
X-100.748 Y25.873
G3 X-102.271 Y23.901 I9.691 J-9.064
X-104.811 Y-19.516 I36.298 J-23.906
X-100.279 Y-26.707 I38.671 J19.349
G1 X-100.212 Y-26.769 F900
X-100.13 Y-26.809
X-100.041 Y-26.823 F1000
X-96.821
G0 Z2.503
X-97.644 Y26.448
Z-2.55
G1 Z-2.85 F1000
X-97.65 Y26.452 Z-2.917
X-97.669 Y26.463 Z-2.98
X-97.7 Y26.481 Z-3.037
X-97.741 Y26.506 Z-3.085
X-97.79 Y26.535 Z-3.12
X-97.844 Y26.567 Z-3.142
X-97.902 Y26.601 Z-3.15
G3 X-98.655 Y26.823 I-0.809 J-1.36
G1 X-101.774
X-102.211 Y26.801
X-102.795 Y26.618
X-103.326 Y26.289
X-103.787 Y25.869
G3 X-105.248 Y23.851 I9.365 J-8.315
X-107.447 Y-19.797 I39.245 J-23.857
X-103.395 Y-26.696 I41.303 J19.625
G1 X-103.328 Y-26.764 F900
X-103.243 Y-26.807
X-103.149 Y-26.823 F1000
X-100.041
G0 Z2.503
X-100.762 Y26.448
Z-2.55
G1 Z-2.85 F1000
X-100.769 Y26.452 Z-2.917
X-100.788 Y26.463 Z-2.98
X-100.819 Y26.481 Z-3.037
X-100.859 Y26.506 Z-3.085
X-100.908 Y26.535 Z-3.12
X-100.963 Y26.567 Z-3.142
X-101.02 Y26.601 Z-3.15
G3 X-101.774 Y26.823 I-0.809 J-1.36
G1 X-104.75
X-105.191 Y26.8
X-105.759 Y26.623
X-106.289 Y26.294
X-106.746 Y25.869
G3 X-108.155 Y23.815 I8.929 J-7.638
X-114.155 Y-5.039 I41.999 J-23.784
X-110.093 Y-20.029 I48.061 J4.976
X-106.422 Y-26.689 I44.704 J20.304
G1 X-106.354 Y-26.76 F900
X-106.268 Y-26.807
X-106.171 Y-26.823 F1000
X-103.149
G0 Z2.503
X-103.739 Y26.448
Z-2.55
G1 Z-2.85 F1000
X-103.745 Y26.452 Z-2.917
X-103.764 Y26.463 Z-2.98
X-103.795 Y26.481 Z-3.037
X-103.836 Y26.506 Z-3.085
X-103.885 Y26.535 Z-3.12
X-103.939 Y26.567 Z-3.142
X-103.997 Y26.601 Z-3.15
G3 X-104.75 Y26.823 I-0.809 J-1.36
G1 X-107.585
X-108.112 Y26.796
X-108.665 Y26.624
X-109.195 Y26.295
X-109.648 Y25.865
G3 X-111.013 Y23.782 I8.499 J-7.06
X-116.908 Y0.415 I44.681 J-23.7
X-112.732 Y-20.227 I50.825 J-0.461
X-109.382 Y-26.679 I47.164 J20.392
G1 X-109.314 Y-26.755
X-109.226 Y-26.805
X-109.125 Y-26.823
X-106.171
G0 Z2.503
X-106.574 Y26.448
Z-2.55
G1 Z-2.85 F1000
X-106.58 Y26.452 Z-2.917
X-106.599 Y26.463 Z-2.98
X-106.63 Y26.481 Z-3.037
X-106.671 Y26.506 Z-3.085
X-106.72 Y26.535 Z-3.12
X-106.774 Y26.567 Z-3.142
X-106.832 Y26.601 Z-3.15
G3 X-107.585 Y26.823 I-0.809 J-1.36
G1 X-110.562
X-110.978 Y26.802
X-111.517 Y26.633
X-112.048 Y26.304
X-112.498 Y25.872
G3 X-113.823 Y23.764 I8.031 J-6.52
X-119.332 Y2.793 I47.335 J-23.643
X-115.372 Y-20.387 I53.279 J-2.826
X-112.286 Y-26.673 I49.766 J20.527
G1 X-112.219 Y-26.752
X-112.129 Y-26.804
X-112.026 Y-26.823
X-109.125
G0 Z2.503
X-109.551 Y26.448
Z-2.55
G1 Z-2.85 F1000
X-109.557 Y26.452 Z-2.917
X-109.576 Y26.463 Z-2.98
X-109.607 Y26.481 Z-3.037
X-109.648 Y26.506 Z-3.085
X-109.696 Y26.535 Z-3.12
X-109.751 Y26.567 Z-3.142
X-109.808 Y26.601 Z-3.15
G3 X-110.562 Y26.823 I-0.809 J-1.36
G1 X-113.397
X-113.807 Y26.802
X-114.335 Y26.637
X-114.865 Y26.308
X-115.312 Y25.873
G3 X-116.6 Y23.743 I7.712 J-6.117
X-121.456 Y7.038 I49.703 J-23.504
X-118.003 Y-20.531 I55.46 J-7.055
X-115.147 Y-26.664 I52.416 J20.677
G1 X-115.08 Y-26.748
X-114.988 Y-26.803
X-114.883 Y-26.823
X-112.026
G0 Z2.503
X-112.385 Y26.448
Z-2.55
G1 Z-2.85 F1000
X-112.392 Y26.452 Z-2.917
X-112.411 Y26.463 Z-2.98
X-112.442 Y26.481 Z-3.037
X-112.483 Y26.506 Z-3.085
X-112.531 Y26.535 Z-3.12
X-112.586 Y26.567 Z-3.142
X-112.643 Y26.601 Z-3.15
G3 X-113.397 Y26.823 I-0.809 J-1.36
G1 X-116.09
X-116.602 Y26.797
X-117.121 Y26.635
X-117.651 Y26.306
X-118.096 Y25.869
X-118.47 Y25.369
G3 X-119.854 Y22.578 I15.387 J-9.372
X-120.625 Y-20.66 I53.843 J-22.586
X-117.968 Y-26.659 I54.085 J20.368
G1 X-117.902 Y-26.746
X-117.808 Y-26.803
X-117.701 Y-26.823
X-114.883
G0 Z2.503
X-115.079 Y26.448
Z-2.55
G1 Z-2.85 F1000
X-115.085 Y26.452 Z-2.917
X-115.104 Y26.463 Z-2.98
X-115.135 Y26.481 Z-3.037
X-115.176 Y26.506 Z-3.085
X-115.225 Y26.535 Z-3.12
X-115.279 Y26.567 Z-3.142
X-115.336 Y26.601 Z-3.15
G3 X-116.09 Y26.823 I-0.809 J-1.36
G1 X-118.925
X-119.362 Y26.801
X-119.872 Y26.641
X-120.402 Y26.312
X-120.846 Y25.873
X-121.215 Y25.37
G3 X-122.556 Y22.558 I15.049 J-8.901
X-123.246 Y-20.764 I56.519 J-22.568
X-120.758 Y-26.654 I56.32 J20.32
G1 X-120.692 Y-26.743
X-120.598 Y-26.802
X-120.489 Y-26.823
X-117.701
G0 Z2.503
X-117.914 Y26.448
Z-2.55
G1 Z-2.85 F1000
X-117.92 Y26.452 Z-2.917
X-117.939 Y26.463 Z-2.98
X-117.97 Y26.481 Z-3.037
X-118.011 Y26.506 Z-3.085
X-118.06 Y26.535 Z-3.12
X-118.114 Y26.567 Z-3.142
X-118.171 Y26.601 Z-3.15
G3 X-118.925 Y26.823 I-0.809 J-1.36
G1 X-121.618
X-122.1 Y26.798
X-122.603 Y26.641
X-123.133 Y26.312
X-123.574 Y25.871
X-123.94 Y25.365
G3 X-125.241 Y22.535 I14.714 J-8.478
X-127.505 Y15.334 I55.542 J-21.424
G1 X-127.5 Y-14.248
G3 X-127.133 Y-16.71 I9.855 J0.21
X-123.519 Y-26.645 I58.153 J15.527
G1 X-123.457 Y-26.74
X-123.362 Y-26.801
X-123.25 Y-26.823
X-120.489
G0 Z2.503
X-127.125 Y-13.237
Z-2.55
G1 Z-2.85 F1000
X-127.129 Y-13.243 Z-2.917
X-127.141 Y-13.262 Z-2.98
X-127.159 Y-13.293 Z-3.037
X-127.183 Y-13.334 Z-3.085
X-127.212 Y-13.382 Z-3.12
X-127.245 Y-13.437 Z-3.142
X-127.279 Y-13.494 Z-3.15
G3 X-127.5 Y-14.248 I1.36 J-0.809
G1 Y-22.47
X-127.469 Y-23.093
X-127.358 Y-23.707
G3 X-126.256 Y-26.642 I18.755 J5.363
G1 X-126.195 Y-26.738
X-126.099 Y-26.801
X-125.986 Y-26.823
G3 X-125.709 Y-26.437 I-0.01 J0.3
G1 X-125.777 Y-26.209
X-126.913 Y-22.395 F1500
X-126.935 Y-22.34
G3 X-127.5 Y-22.47 I-0.265 J-0.141 F1000
G1 Y-26.51
X-127.497 Y-26.545
X-127.49 Y-26.581
X-127.48 Y-26.611
X-127.467 Y-26.64
X-127.43 Y-26.699
X-127.411 Y-26.723
X-127.38 Y-26.752
X-127.349 Y-26.775
X-127.319 Y-26.792
X-127.288 Y-26.805
X-127.253 Y-26.815
X-127.217 Y-26.821
X-127.146 Y-26.823
X-123.25
G0 Z2.503
X-120.607 Y26.448
Z-2.55
G1 Z-2.85 F1000
X-120.613 Y26.452 Z-2.917
X-120.632 Y26.463 Z-2.98
X-120.663 Y26.481 Z-3.037
X-120.704 Y26.506 Z-3.085
X-120.753 Y26.535 Z-3.12
X-120.807 Y26.567 Z-3.142
X-120.865 Y26.601 Z-3.15
G3 X-121.618 Y26.823 I-0.809 J-1.36
G1 X-124.311
X-124.815 Y26.797
X-125.312 Y26.642
X-125.842 Y26.313
X-126.282 Y25.871
X-126.643 Y25.362
G3 X-127.501 Y23.567 I8.909 J-5.361
G1 X-127.5 Y23.528
G3 X-126.984 Y23.33 I0.3 J0.01
G1 X-126.926 Y23.39
X-124.171 Y26.246 F1500
X-124.106 Y26.314 F1000
G3 X-124.311 Y26.823 I-0.216 J0.208
G1 X-127.146
X-127.217 Y26.821
X-127.253 Y26.815
X-127.288 Y26.805
X-127.319 Y26.792
X-127.35 Y26.774
X-127.382 Y26.751
X-127.413 Y26.72
X-127.43 Y26.699
X-127.467 Y26.639
X-127.481 Y26.609
X-127.49 Y26.578 F900
X-127.497 Y26.543 F1000
X-127.5 Y26.508
Y15.333
G3 X-127.201 Y15.043 I0.3 J0.01
G1 X-127.2
X-127.188
X-127.176 Y15.044
X-127.126 Y15.062 Z-3.145
X-127.077 Y15.079 Z-3.131
X-127.032 Y15.094 Z-3.108
X-126.999 Y15.131 Z-3.071
X-126.972 Y15.161 Z-3.024
X-126.952 Y15.184 Z-2.97
X-126.94 Y15.197 Z-2.912
X-126.935 Y15.202 Z-2.85
G0 Z2.503
X-126.922 Y-24.663
Z-2.2
G1 Z-2.5 F1000
X-126.926 Y-24.669 Z-2.567
X-126.937 Y-24.688 Z-2.63
X-126.954 Y-24.72 Z-2.687
X-126.978 Y-24.761 Z-2.735
X-127.006 Y-24.81 Z-2.77
X-127.037 Y-24.866 Z-2.792
X-127.07 Y-24.924 Z-2.8
G3 X-127.498 Y-26.517 I2.896 J-1.633
G1 X-127.497 Y-26.581
X-127.489 Y-26.616
X-127.477 Y-26.652
X-127.46 Y-26.687
X-127.436 Y-26.723
X-127.43 Y-26.73
X-127.394 Y-26.766
X-127.359 Y-26.794
X-127.323 Y-26.815
X-127.288 Y-26.83
X-127.253 Y-26.84
X-127.217 Y-26.846
X-127.146 Y-26.847
X-65.203
X-60.384 Y-26.708
X-58.541 Y-26.654
X-58.116 Y-26.636
X-57.832 Y-26.612
X-51.454 Y-26.07
X-51.17 Y-26.041
X-44.367 Y-25.073
X-43.374 Y-24.875
X-37.704 Y-23.739
X-37.421 Y-23.679
X-37.091 Y-23.604
X-26.365 Y-21.12
X-15.309 Y-18.555
G2 X-7.938 Y-17.071 I160.906 J-779.979
G1 X-4.252 Y-16.542
X-1.417 Y-16.132
X-1.276 Y-16.113
X-0.992 Y-16.079
X-0.85 Y-16.064
X5.67 Y-15.502
X6.095 Y-15.469
X6.237 Y-15.461
X6.662 Y-15.442
X12.757 Y-15.261
X13.182 Y-15.251
X13.324 Y-15.249
X97.096
X97.238 Y-15.245
X97.263 Y-15.24
X97.292 Y-15.231
X97.321 Y-15.219 F900
X97.35 Y-15.203
X97.38 Y-15.181 F1000
X97.4 Y-15.163
X97.421 Y-15.14
X97.45 Y-15.098
X97.47 Y-15.063
X97.484 Y-15.028 F900
X97.494 Y-14.992 F1000
X97.499 Y-14.957
X97.5 Y-14.815
G0 Z2.503
X96.893 Y13.011
Z-2.2
G1 Z-2.5 F1000
X96.897 Y13.017 Z-2.567
X96.908 Y13.036 Z-2.63
X96.926 Y13.067 Z-2.687
X96.95 Y13.108 Z-2.735
X96.979 Y13.157 Z-2.77
X97.011 Y13.212 Z-2.792
X97.045 Y13.269 Z-2.8
G3 X97.5 Y14.855 I-2.868 J1.681
G1 X97.499 Y14.954
X97.494 Y14.99
X97.485 Y15.025
X97.471 Y15.061
X97.451 Y15.096
X97.422 Y15.139
X97.403 Y15.16
X97.38 Y15.181
X97.353 Y15.201 F900
X97.326 Y15.217
X97.299 Y15.229
X97.272 Y15.238 F1000
X97.238 Y15.245
X97.096 Y15.249
X13.324
X9.71 Y15.363
X6.095 Y15.471
X5.67 Y15.502
X-0.85 Y16.064
X-0.992 Y16.079
X-4.497 Y16.577
X-8 Y17.08
X-8.363 Y17.146
X-8.505 Y17.173
X-12.615 Y18.006
X-15.059 Y18.498
X-15.876 Y18.687
X-28.916 Y21.711
X-37.279 Y23.647
X-37.421 Y23.679
X-37.727 Y23.743
X-44.225 Y25.045
X-44.367 Y25.073
X-51.029 Y26.021
X-51.17 Y26.04
X-51.454 Y26.07
X-57.974 Y26.624
X-58.116 Y26.636
X-58.541 Y26.654
X-65.061 Y26.843
X-65.203 Y26.847
X-127.146
X-127.217 Y26.846
X-127.253 Y26.84
X-127.288 Y26.83
X-127.323 Y26.815
X-127.359 Y26.794
X-127.394 Y26.765
X-127.43 Y26.73
X-127.437 Y26.72
X-127.461 Y26.685
X-127.478 Y26.649 F900
X-127.49 Y26.614 F1000
X-127.497 Y26.578
X-127.498 Y26.536
G3 X-127.18 Y26.241 I0.3 J0.004
G1 X-127.129 Y26.257 Z-2.795
X-127.081 Y26.273 Z-2.781
X-127.035 Y26.288 Z-2.758
X-127.002 Y26.324 Z-2.721
X-126.974 Y26.353 Z-2.674
X-126.953 Y26.375 Z-2.62
X-126.94 Y26.389 Z-2.562
X-126.936 Y26.394 Z-2.5
G0 Z2.503
X-126.895 Y-24.671
Z-1.85
G1 Z-2.15 F1000
X-126.899 Y-24.678 Z-2.217
X-126.91 Y-24.697 Z-2.28
X-126.928 Y-24.728 Z-2.337
X-126.952 Y-24.769 Z-2.385
X-126.981 Y-24.818 Z-2.42
X-127.013 Y-24.873 Z-2.442
X-127.047 Y-24.931 Z-2.45
G3 X-127.499 Y-26.517 I2.871 J-1.677
G1 Y-26.581
X-127.494 Y-26.616
X-127.484 Y-26.652
X-127.469 Y-26.687
X-127.449 Y-26.723
X-127.43 Y-26.748
X-127.394 Y-26.784
X-127.359 Y-26.813
X-127.323 Y-26.834
X-127.288 Y-26.849
X-127.255 Y-26.859
X-127.222 Y-26.864
X-127.146 Y-26.866
X-65.203
X-62.794 Y-26.797
X-58.541 Y-26.673
X-58.116 Y-26.655
X-57.832 Y-26.632
X-51.596 Y-26.102
X-51.454 Y-26.089
X-51.029 Y-26.04
X-44.367 Y-25.093
X-43.299 Y-24.88
X-37.704 Y-23.758
X-37.279 Y-23.667
X-34.161 Y-22.95
X-15.45 Y-18.618
G2 X-7.938 Y-17.118 I162.689 J-795.556
G1 X-1.417 Y-16.183
X-0.992 Y-16.129
X-0.85 Y-16.115
X5.67 Y-15.556
X6.108 Y-15.524
X6.237 Y-15.518
X12.19 Y-15.349
X12.899 Y-15.326
X13.182 Y-15.318
X13.324 Y-15.316
X97.096
X97.238 Y-15.312
X97.273 Y-15.304
X97.309 Y-15.292 F900
X97.344 Y-15.273 F1000
X97.38 Y-15.248
X97.389 Y-15.24
X97.423 Y-15.205
X97.447 Y-15.169
X97.468 Y-15.134
X97.483 Y-15.098
X97.493 Y-15.063
X97.499 Y-15.028
X97.5 Y-14.957
G0 Z2.503
X96.882 Y13.014
Z-1.85
G1 Z-2.15 F1000
X96.886 Y13.021 Z-2.217
X96.897 Y13.04 Z-2.28
X96.915 Y13.071 Z-2.337
X96.939 Y13.112 Z-2.385
X96.969 Y13.16 Z-2.42
X97.001 Y13.215 Z-2.442
X97.035 Y13.272 Z-2.45
G3 X97.5 Y14.855 I-2.858 J1.699
G1 Y14.954
X97.499 Y15.025
X97.494 Y15.061
X97.484 Y15.096
X97.469 Y15.131
X97.449 Y15.167
X97.425 Y15.202
X97.392 Y15.238
X97.38 Y15.248
X97.344 Y15.273
X97.309 Y15.292 F900
X97.273 Y15.304 F1000
X97.238 Y15.312
X97.096 Y15.316
X13.324
X13.182 Y15.318
X12.757 Y15.33
X12.048 Y15.353
X6.237 Y15.518
X6.143 Y15.521
X5.67 Y15.556
X-0.85 Y16.115
X-0.992 Y16.13
X-1.276 Y16.164
X-1.417 Y16.183
X-7.938 Y17.118
X-8.08 Y17.142
X-11.694 Y17.866
X-15.309 Y18.586
X-15.592 Y18.65
X-34.728 Y23.08
X-37.279 Y23.667
X-37.704 Y23.758
X-44.225 Y25.065
X-44.367 Y25.093
X-50.887 Y26.02
X-51.029 Y26.04
G3 X-58.116 Y26.655 I-44.948 J-476.651
G1 X-58.541 Y26.673
X-64.353 Y26.842
X-65.203 Y26.866
X-127.146
X-127.239 Y26.862
X-127.288 Y26.849
X-127.323 Y26.834 F900
X-127.359 Y26.813 F1000
X-127.394 Y26.784
X-127.43 Y26.748
X-127.451 Y26.72
X-127.471 Y26.685
X-127.485 Y26.649
X-127.494 Y26.614
X-127.499 Y26.578
Y26.536
G3 X-127.177 Y26.245 I0.3 J0.009
G1 X-127.127 Y26.262 Z-2.445
X-127.078 Y26.279 Z-2.431
X-127.033 Y26.295 Z-2.408
X-127 Y26.331 Z-2.371
X-126.973 Y26.361 Z-2.324
X-126.952 Y26.383 Z-2.27
X-126.94 Y26.397 Z-2.212
X-126.936 Y26.402 Z-2.15
G0 Z2.503
X-126.883 Y-24.641
Z-1.5
G1 Z-1.8 F1000
X-126.887 Y-24.647 Z-1.867
X-126.898 Y-24.666 Z-1.93
X-126.916 Y-24.697 Z-1.987
X-126.94 Y-24.738 Z-2.035
X-126.969 Y-24.787 Z-2.07
X-127.002 Y-24.841 Z-2.092
X-127.036 Y-24.899 Z-2.1
G3 X-127.5 Y-26.482 I2.859 J-1.698
G1 Y-26.581
X-127.497 Y-26.616
X-127.49 Y-26.652
X-127.478 Y-26.687
X-127.461 Y-26.723
X-127.447 Y-26.745
X-127.43 Y-26.767
X-127.397 Y-26.801
X-127.364 Y-26.828
X-127.331 Y-26.849
X-127.298 Y-26.864
X-127.288 Y-26.868
X-127.253 Y-26.878
X-127.217 Y-26.884
X-127.146 Y-26.886
X-65.203 Y-26.885
X-62.085 Y-26.796
X-58.541 Y-26.693
X-58.116 Y-26.675
X-57.832 Y-26.652
X-51.596 Y-26.122
X-51.454 Y-26.109
X-51.029 Y-26.059
X-50.745 Y-26.02
X-44.367 Y-25.113
X-44.083 Y-25.057
X-37.704 Y-23.778
X-37.279 Y-23.687
X-31.326 Y-22.317
X-15.45 Y-18.642
X-15.167 Y-18.578
X-15.025 Y-18.547
X-8.505 Y-17.262
X-8.299 Y-17.225
G2 X-0.992 Y-16.177 I119.947 J-810.22
G1 X-0.85 Y-16.162
X5.67 Y-15.603
X6.095 Y-15.572
X13.324 Y-15.343
X97.096
X97.238 Y-15.339
X97.273 Y-15.331
X97.309 Y-15.318 F900
X97.344 Y-15.3 F1000
X97.38 Y-15.275
X97.416 Y-15.24
X97.445 Y-15.205
X97.467 Y-15.169
X97.482 Y-15.134
X97.493 Y-15.098
X97.498 Y-15.063
X97.5 Y-15.028
Y-14.989
G0 Z2.503
X96.882 Y13.152
Z-1.5
G1 Z-1.8 F1000
X96.886 Y13.159 Z-1.867
X96.897 Y13.178 Z-1.93
X96.915 Y13.209 Z-1.987
X96.939 Y13.249 Z-2.035
X96.969 Y13.298 Z-2.07
X97.001 Y13.353 Z-2.092
X97.035 Y13.41 Z-2.1
G3 X97.5 Y14.993 I-2.858 J1.699
G1 Y15.025
X97.499 Y15.061
X97.493 Y15.096
X97.483 Y15.131
X97.468 Y15.167
X97.447 Y15.202
X97.418 Y15.238
X97.38 Y15.275
X97.344 Y15.3
X97.309 Y15.318 F900
X97.273 Y15.331 F1000
X97.238 Y15.339
X97.096 Y15.343
X13.324
X13.182 Y15.344
X12.757 Y15.356
X7.654 Y15.525
X6.237 Y15.565
X6.095 Y15.572
X5.67 Y15.603
X-0.85 Y16.162
X-0.992 Y16.177
X-4.537 Y16.677
X-8.08 Y17.187
X-15.309 Y18.61
X-15.734 Y18.707
X-31.978 Y22.467
X-37.279 Y23.687
X-37.704 Y23.778
X-44.225 Y25.085
X-44.367 Y25.113
X-50.887 Y26.04
X-51.029 Y26.059
G3 X-58.116 Y26.675 I-37.407 J-389.628
G1 X-58.541 Y26.693
X-63.502 Y26.837
X-65.203 Y26.885
X-127.146 Y26.886
X-127.217 Y26.884
X-127.253 Y26.878
X-127.288 Y26.868 F900
X-127.304 Y26.862
X-127.335 Y26.847 F1000
X-127.367 Y26.826
X-127.398 Y26.799
X-127.43 Y26.767 F900
X-127.447 Y26.744
X-127.462 Y26.72 F1000
X-127.479 Y26.685
X-127.499 Y26.604
X-127.506 Y26.52
X-127.5 Y26.437
G3 X-127.201 Y26.147 I0.3 J0.01
G1 X-127.2
X-127.188
X-127.176 Y26.148
X-127.126 Y26.166 Z-2.095
X-127.077 Y26.183 Z-2.081
X-127.032 Y26.199 Z-2.058
X-126.999 Y26.235 Z-2.021
X-126.972 Y26.265 Z-1.974
X-126.952 Y26.288 Z-1.92
X-126.94 Y26.302 Z-1.862
X-126.935 Y26.306 Z-1.8
G0 Z2.503
X-126.882 Y-24.641
Z-1.15
G1 Z-1.45 F1000
X-126.886 Y-24.648 Z-1.517
X-126.897 Y-24.667 Z-1.58
X-126.915 Y-24.697 Z-1.637
X-126.939 Y-24.738 Z-1.685
X-126.969 Y-24.787 Z-1.72
X-127.001 Y-24.842 Z-1.742
X-127.035 Y-24.899 Z-1.75
G3 X-127.5 Y-26.482 I2.858 J-1.699
G1 Y-26.581
X-127.499 Y-26.616
X-127.494 Y-26.652
X-127.485 Y-26.687
X-127.47 Y-26.723
X-127.453 Y-26.754
X-127.43 Y-26.785
X-127.384 Y-26.832
X-127.36 Y-26.85
X-127.337 Y-26.864
X-127.313 Y-26.877 F900
X-127.288 Y-26.887 F1000
X-127.253 Y-26.897
X-127.217 Y-26.903
X-127.146 Y-26.905
X-65.203 Y-26.904
X-61.376 Y-26.796
X-58.541 Y-26.713
X-58.116 Y-26.695
X-57.832 Y-26.671
X-51.596 Y-26.141
X-51.454 Y-26.129
X-51.029 Y-26.079
X-50.745 Y-26.04
X-44.367 Y-25.132
X-43.8 Y-25.02
X-37.704 Y-23.797
X-37.279 Y-23.706
X-28.633 Y-21.717
X-15.45 Y-18.666
X-15.167 Y-18.602
X-15.025 Y-18.571
X-9.632 Y-17.508
G2 X-7.938 Y-17.197 I9.987 J-49.601
G1 X-1.417 Y-16.266
X-1.134 Y-16.23
X-0.992 Y-16.213
X-0.85 Y-16.198
X5.67 Y-15.641
X6.095 Y-15.61
X9.71 Y-15.487
X13.324 Y-15.369
X97.096
X97.238 Y-15.365
X97.273 Y-15.357
X97.309 Y-15.344 F900
X97.344 Y-15.326 F1000
X97.38 Y-15.301
X97.411 Y-15.271
X97.438 Y-15.24
X97.461 Y-15.205
X97.478 Y-15.169
X97.49 Y-15.134
X97.497 Y-15.098
X97.498 Y-15.056
G3 X96.936 Y-14.914 I-0.3 J-0.004
G1 X96.904 Y-14.972 Z-1.742
X96.873 Y-15.027 Z-1.72
X96.845 Y-15.077 Z-1.685
X96.822 Y-15.119 Z-1.637
X96.804 Y-15.15 Z-1.58
X96.794 Y-15.169 Z-1.517
X96.79 Y-15.176 Z-1.45
G0 Z2.503
X96.914 Y13.18
Z-1.15
G1 Z-1.45 F1000
X96.918 Y13.187 Z-1.517
X96.929 Y13.206 Z-1.58
X96.946 Y13.237 Z-1.637
X96.97 Y13.278 Z-1.685
X96.998 Y13.328 Z-1.72
X97.029 Y13.383 Z-1.742
X97.062 Y13.441 Z-1.75
G3 X97.499 Y15.032 I-2.888 J1.647
G1 X97.497 Y15.096
X97.491 Y15.131
X97.479 Y15.167
X97.462 Y15.202
X97.439 Y15.238
X97.413 Y15.269
X97.38 Y15.301
X97.344 Y15.326
X97.309 Y15.344 F900
X97.273 Y15.357 F1000
X97.238 Y15.365
X97.096 Y15.369
X13.324
X13.182 Y15.37
X12.757 Y15.382
X6.946 Y15.575
X6.237 Y15.602
X6.095 Y15.61
X5.67 Y15.641
X-0.85 Y16.198
X-0.992 Y16.213
X-1.276 Y16.247
X-1.417 Y16.266
X-7.938 Y17.197
X-11.624 Y17.911
X-15.309 Y18.634
X-15.734 Y18.731
X-29.2 Y21.848
X-37.279 Y23.706
X-37.704 Y23.797
X-44.225 Y25.105
X-44.367 Y25.132
X-50.887 Y26.06
X-51.029 Y26.079
G3 X-58.116 Y26.694 I-37.407 J-389.629
G1 X-58.541 Y26.713
X-62.794 Y26.836
X-65.203 Y26.904
X-127.146 Y26.905
X-127.217 Y26.903
X-127.253 Y26.897
X-127.288 Y26.887
X-127.315 Y26.876
X-127.342 Y26.862
X-127.364 Y26.847
X-127.386 Y26.83
X-127.43 Y26.785
X-127.454 Y26.753
X-127.471 Y26.72
X-127.485 Y26.685
X-127.495 Y26.649
X-127.499 Y26.614
X-127.5 Y26.578
G3 X-127.201 Y26.289 I0.3 J0.01
G1 X-127.2
X-127.188
X-127.176 Y26.29
X-127.126 Y26.308 Z-1.745
X-127.077 Y26.324 Z-1.731
X-127.032 Y26.34 Z-1.708
X-126.999 Y26.377 Z-1.671
X-126.972 Y26.407 Z-1.624
X-126.952 Y26.43 Z-1.57
X-126.94 Y26.443 Z-1.512
X-126.935 Y26.448 Z-1.45
G0 Z2.503
X-126.953 Y-24.756
Z-0.8
G1 Z-1.1 F1000
X-126.957 Y-24.763 Z-1.167
X-126.968 Y-24.782 Z-1.23
X-126.985 Y-24.813 Z-1.287
X-127.007 Y-24.855 Z-1.335
X-127.034 Y-24.905 Z-1.37
X-127.065 Y-24.961 Z-1.392
X-127.096 Y-25.02 Z-1.4
G3 X-127.498 Y-26.62 I2.923 J-1.585
G1 X-127.497 Y-26.652
X-127.49 Y-26.687
X-127.478 Y-26.723
X-127.458 Y-26.763
X-127.43 Y-26.804
X-127.398 Y-26.837
X-127.366 Y-26.864
X-127.327 Y-26.889
X-127.288 Y-26.906 F900
X-127.253 Y-26.917 F1000
X-127.217 Y-26.922
X-127.146 Y-26.924
X-65.203 Y-26.923
X-60.667 Y-26.795
X-58.541 Y-26.732
X-58.116 Y-26.714
X-57.832 Y-26.691
X-51.532 Y-26.156
X-51.454 Y-26.148
X-51.029 Y-26.099
X-50.745 Y-26.059
X-44.367 Y-25.152
X-43.711 Y-25.022
X-37.704 Y-23.817
X-37.279 Y-23.726
X-25.94 Y-21.118
X-15.45 Y-18.69
G2 X-7.938 Y-17.229 I55.806 J-267.057
G1 X-2.693 Y-16.481
G2 X-0.85 Y-16.231 I6.109 J-38.096
G1 X5.953 Y-15.651
G2 X13.324 Y-15.395 I23.415 J-568.917
G1 X97.096
X97.238 Y-15.391
X97.277 Y-15.382
X97.303 Y-15.373 F900
X97.328 Y-15.361
X97.354 Y-15.346
X97.38 Y-15.327 F1000
X97.403 Y-15.305
X97.423 Y-15.284
X97.455 Y-15.24
X97.474 Y-15.205
X97.487 Y-15.169 F900
X97.495 Y-15.134 F1000
X97.5 Y-15.098
Y-14.957
G0 Z2.503
X96.886 Y13.185
Z-0.8
G1 Z-1.1 F1000
X96.89 Y13.191 Z-1.167
X96.901 Y13.21 Z-1.23
X96.919 Y13.241 Z-1.287
X96.944 Y13.282 Z-1.335
X96.973 Y13.331 Z-1.37
X97.005 Y13.385 Z-1.392
X97.039 Y13.443 Z-1.4
G3 X97.5 Y15.027 I-2.862 J1.692
G1 Y15.096
X97.496 Y15.131
X97.488 Y15.167
X97.475 Y15.202
X97.456 Y15.238
X97.424 Y15.282
X97.404 Y15.305
X97.38 Y15.327
X97.356 Y15.345 F900
X97.332 Y15.359
X97.285 Y15.38 F1000
X97.238 Y15.391
X97.096 Y15.395
X13.324
G2 X5.953 Y15.651 I9.942 J393.183
G1 X-0.85 Y16.231
X-0.992 Y16.246
X-1.276 Y16.281
X-1.417 Y16.299
X-6.662 Y17.048
G2 X-8.505 Y17.328 I3.642 J30.163
G1 X-10.631 Y17.737
X-15.025 Y18.595
X-15.309 Y18.658
X-15.734 Y18.755
X-26.507 Y21.249
X-37.279 Y23.726
X-37.704 Y23.817
X-44.225 Y25.124
X-44.367 Y25.152
X-50.887 Y26.079
X-51.029 Y26.099
X-51.454 Y26.148
X-52.021 Y26.197
X-57.974 Y26.703
X-58.116 Y26.714
X-58.541 Y26.732
X-61.943 Y26.831
X-65.203 Y26.923
X-127.146 Y26.924
X-127.217 Y26.922
X-127.253 Y26.917
X-127.288 Y26.906 F900
X-127.329 Y26.888 F1000
X-127.37 Y26.862
X-127.4 Y26.836
X-127.43 Y26.804
X-127.459 Y26.762
X-127.479 Y26.72
X-127.491 Y26.685
X-127.498 Y26.649
X-127.499 Y26.61
G3 X-127.185 Y26.311 I0.3 J0
G1 X-127.134 Y26.326 Z-1.395
X-127.085 Y26.342 Z-1.381
X-127.04 Y26.356 Z-1.358
X-127.006 Y26.391 Z-1.321
X-126.977 Y26.421 Z-1.274
X-126.956 Y26.442 Z-1.22
X-126.943 Y26.456 Z-1.162
X-126.939 Y26.46 Z-1.1
G0 Z2.503
X-126.882 Y-24.74
Z-0.45
G1 Z-0.75 F1000
X-126.886 Y-24.746 Z-0.817
X-126.897 Y-24.765 Z-0.88
X-126.915 Y-24.796 Z-0.937
X-126.939 Y-24.837 Z-0.985
X-126.969 Y-24.886 Z-1.02
X-127.001 Y-24.94 Z-1.042
X-127.035 Y-24.998 Z-1.05
G3 X-127.5 Y-26.581 I2.858 J-1.699
G1 X-127.499 Y-26.652
X-127.494 Y-26.687
X-127.485 Y-26.723
X-127.476 Y-26.748
X-127.464 Y-26.773
X-127.449 Y-26.797
X-127.43 Y-26.822
X-127.39 Y-26.864
X-127.364 Y-26.885
X-127.339 Y-26.902
X-127.313 Y-26.915 F900
X-127.288 Y-26.925 F1000
X-127.253 Y-26.936
X-127.217 Y-26.941
X-127.146 Y-26.943
X-65.203 Y-26.942
X-59.817 Y-26.79
X-58.541 Y-26.752
X-58.116 Y-26.734
X-57.832 Y-26.711
X-51.596 Y-26.181
X-51.454 Y-26.168
X-51.029 Y-26.118
X-50.745 Y-26.079
X-44.367 Y-25.172
X-43.516 Y-25.002
X-37.704 Y-23.837
X-37.279 Y-23.746
X-23.105 Y-20.485
X-15.45 Y-18.713
G2 X-7.938 Y-17.249 I85.089 J-416.626
G1 X-1.417 Y-16.321
X-1.134 Y-16.285
X-0.992 Y-16.268
X-0.85 Y-16.253
X5.67 Y-15.698
X6.113 Y-15.666
X6.237 Y-15.659
X7.654 Y-15.606
X12.757 Y-15.435
X13.182 Y-15.423
X13.324 Y-15.421
X97.096
X97.238 Y-15.417
X97.288 Y-15.405
X97.313 Y-15.395 F900
X97.338 Y-15.382 F1000
X97.38 Y-15.353
X97.41 Y-15.325
X97.433 Y-15.297
X97.468 Y-15.24
X97.483 Y-15.205
X97.493 Y-15.169
X97.499 Y-15.134
X97.5 Y-15.098
G0 Z2.503
X96.882 Y13.186
Z-0.45
G1 Z-0.75 F1000
X96.886 Y13.193 Z-0.817
X96.897 Y13.212 Z-0.88
X96.915 Y13.242 Z-0.937
X96.939 Y13.283 Z-0.985
X96.969 Y13.332 Z-1.02
X97.001 Y13.387 Z-1.042
X97.035 Y13.444 Z-1.05
G3 X97.5 Y15.027 I-2.858 J1.699
G1 Y15.096
X97.499 Y15.131
X97.494 Y15.167
X97.484 Y15.202
X97.469 Y15.238
X97.434 Y15.296
X97.41 Y15.324
X97.38 Y15.353
X97.342 Y15.38
X97.316 Y15.393 F900
X97.29 Y15.404 F1000
X97.264 Y15.412
X97.238 Y15.417
X97.096 Y15.421
X13.324
G2 X6.154 Y15.663 I26.639 J896.545
G1 X5.67 Y15.698
X-0.85 Y16.253
X-0.992 Y16.268
X-1.276 Y16.303
X-1.417 Y16.321
X-7.938 Y17.249
G2 X-9.497 Y17.539 I6.707 J40.454
G1 X-15.025 Y18.619
X-15.167 Y18.65
X-15.592 Y18.746
X-23.708 Y20.625
X-37.279 Y23.746
X-37.704 Y23.837
X-44.225 Y25.144
X-44.367 Y25.172
X-50.887 Y26.099
X-51.029 Y26.118
G3 X-58.116 Y26.734 I-37.412 J-389.682
G1 X-58.541 Y26.752
X-61.093 Y26.826
X-65.203 Y26.942
X-127.146 Y26.943
X-127.217 Y26.941
X-127.253 Y26.936
X-127.288 Y26.925
X-127.314 Y26.915
X-127.34 Y26.901
X-127.366 Y26.884
X-127.392 Y26.862
X-127.43 Y26.822
X-127.449 Y26.797
X-127.464 Y26.771
X-127.476 Y26.746 F900
X-127.486 Y26.72 F1000
X-127.495 Y26.685
X-127.499 Y26.649
X-127.5 Y26.578
G3 X-127.201 Y26.289 I0.3 J0.01
G1 X-127.2
X-127.188
X-127.176 Y26.29
X-127.126 Y26.308 Z-1.045
X-127.077 Y26.324 Z-1.031
X-127.032 Y26.34 Z-1.008
X-126.999 Y26.377 Z-0.971
X-126.972 Y26.407 Z-0.924
X-126.952 Y26.43 Z-0.87
X-126.94 Y26.443 Z-0.812
X-126.935 Y26.448 Z-0.75
G0 Z2.503
X-126.882 Y-24.779
Z-0.1
G1 Z-0.4 F1000
X-126.886 Y-24.785 Z-0.467
X-126.898 Y-24.804 Z-0.53
X-126.916 Y-24.835 Z-0.587
X-126.94 Y-24.876 Z-0.635
X-126.969 Y-24.925 Z-0.67
X-127.002 Y-24.979 Z-0.692
X-127.036 Y-25.037 Z-0.7
G3 X-127.5 Y-26.62 I2.858 J-1.698
G1 Y-26.652
X-127.497 Y-26.687
X-127.491 Y-26.723
X-127.481 Y-26.752
X-127.468 Y-26.782
X-127.452 Y-26.811
X-127.43 Y-26.841
X-127.409 Y-26.864
X-127.378 Y-26.893
X-127.348 Y-26.915
X-127.318 Y-26.932
X-127.288 Y-26.944
X-127.253 Y-26.955
X-127.217 Y-26.96
X-127.146 Y-26.962
X-65.203
X-59.108 Y-26.789
X-58.541 Y-26.772
X-58.116 Y-26.754
X-57.832 Y-26.73
X-51.596 Y-26.2
X-51.454 Y-26.188
X-51.029 Y-26.138
X-50.745 Y-26.099
X-44.367 Y-25.191
X-43.374 Y-24.993
X-37.704 Y-23.857
X-37.279 Y-23.765
X-20.411 Y-19.886
X-15.45 Y-18.737
G2 X-7.938 Y-17.269 I104.904 J-516.705
G1 X-1.417 Y-16.341
X-1.134 Y-16.305
X-0.992 Y-16.288
X-0.85 Y-16.273
X5.67 Y-15.718
X6.095 Y-15.687
X6.237 Y-15.68
X12.757 Y-15.461
X13.182 Y-15.449
X13.324 Y-15.448
X97.096
X97.238 Y-15.444
X97.272 Y-15.436
X97.307 Y-15.423 F900
X97.342 Y-15.406 F1000
X97.38 Y-15.38
X97.415 Y-15.345
X97.442 Y-15.31
X97.463 Y-15.275
X97.479 Y-15.24
X97.491 Y-15.205
X97.498 Y-15.169
X97.5 Y-15.098
G0 Z2.503
X96.882 Y13.255
Z-0.1
G1 Z-0.4 F1000
X96.886 Y13.262 Z-0.467
X96.897 Y13.281 Z-0.53
X96.915 Y13.311 Z-0.587
X96.939 Y13.352 Z-0.635
X96.969 Y13.401 Z-0.67
X97.001 Y13.456 Z-0.692
X97.035 Y13.513 Z-0.7
G3 X97.5 Y15.096 I-2.858 J1.699
G1 X97.498 Y15.167
X97.491 Y15.202
X97.48 Y15.238
X97.464 Y15.273
X97.442 Y15.309
X97.416 Y15.344
X97.38 Y15.38
X97.344 Y15.405
X97.309 Y15.423 F900
X97.273 Y15.436 F1000
X97.238 Y15.444
X97.096 Y15.448
X13.324
X9.71 Y15.565
X6.095 Y15.687
X5.67 Y15.718
X-0.85 Y16.273
X-0.992 Y16.288
X-1.276 Y16.323
X-1.417 Y16.341
X-7.938 Y17.269
X-8.08 Y17.292
X-8.479 Y17.364
X-15.025 Y18.643
X-15.309 Y18.706
X-15.734 Y18.803
X-20.978 Y20.016
X-37.279 Y23.765
X-37.704 Y23.857
X-44.083 Y25.135
X-44.367 Y25.191
X-50.887 Y26.119
X-51.029 Y26.138
G3 X-58.116 Y26.754 I-37.407 J-389.622
G1 X-58.541 Y26.772
X-60.384 Y26.825
X-65.203 Y26.962
X-127.146
X-127.217 Y26.96
X-127.253 Y26.955
X-127.288 Y26.944
X-127.319 Y26.932
X-127.349 Y26.914
X-127.38 Y26.892
X-127.411 Y26.862
X-127.43 Y26.841
X-127.452 Y26.811
X-127.469 Y26.78
X-127.482 Y26.75
X-127.491 Y26.72
X-127.498 Y26.685
X-127.5 Y26.649
Y26.578
G3 X-127.201 Y26.289 I0.3 J0.01
G1 X-127.2
X-127.188
X-127.176 Y26.29
X-127.126 Y26.308 Z-0.695
X-127.077 Y26.324 Z-0.681
X-127.032 Y26.34 Z-0.658
X-126.999 Y26.377 Z-0.621
X-126.972 Y26.407 Z-0.574
X-126.952 Y26.43 Z-0.52
X-126.94 Y26.443 Z-0.462
X-126.935 Y26.448 Z-0.4
G0 Z2.503
X-126.882 Y-24.779
Z0.25
G1 Z-0.05 F1000
X-126.886 Y-24.785 Z-0.117
X-126.897 Y-24.804 Z-0.18
X-126.915 Y-24.835 Z-0.237
X-126.939 Y-24.876 Z-0.285
X-126.969 Y-24.925 Z-0.32
X-127.001 Y-24.979 Z-0.342
X-127.035 Y-25.037 Z-0.35
G3 X-127.5 Y-26.62 I2.858 J-1.699
G1 X-127.499 Y-26.687
X-127.495 Y-26.723
X-127.486 Y-26.757
X-127.473 Y-26.791
X-127.455 Y-26.825
X-127.425 Y-26.864
X-127.391 Y-26.901
X-127.357 Y-26.929
X-127.322 Y-26.949
X-127.288 Y-26.964
X-127.253 Y-26.974
X-127.217 Y-26.979
X-127.146 Y-26.981
X-65.203
X-58.683 Y-26.796
X-58.541 Y-26.792
X-58.116 Y-26.773
X-57.832 Y-26.75
X-51.596 Y-26.22
X-51.454 Y-26.208
X-51.011 Y-26.156
X-47.91 Y-25.715
X-44.367 Y-25.211
X-43.374 Y-25.013
X-37.704 Y-23.876
X-37.279 Y-23.785
X-17.718 Y-19.286
X-15.45 Y-18.761
G2 X-7.938 Y-17.276 I170.615 J-842.95
G1 X-1.417 Y-16.348
X-1.134 Y-16.313
X-0.992 Y-16.296
X-0.85 Y-16.281
X5.67 Y-15.726
X6.095 Y-15.696
G3 X13.182 Y-15.474 I-26.396 J956.7
G1 X13.324
X97.096
X97.238 Y-15.47
X97.273 Y-15.462
X97.309 Y-15.449 F900
X97.344 Y-15.431 F1000
X97.38 Y-15.406
X97.405 Y-15.382
X97.435 Y-15.347
X97.456 Y-15.311
X97.475 Y-15.276
X97.488 Y-15.24
X97.496 Y-15.205
X97.5 Y-15.169
Y-15.098
G0 Z2.503
X96.882 Y13.255
Z0.25
G1 Z-0.05 F1000
X96.886 Y13.262 Z-0.117
X96.897 Y13.281 Z-0.18
X96.915 Y13.311 Z-0.237
X96.939 Y13.352 Z-0.285
X96.969 Y13.401 Z-0.32
X97.001 Y13.456 Z-0.342
X97.035 Y13.513 Z-0.35
G3 X97.5 Y15.096 I-2.858 J1.699
G1 Y15.167
X97.496 Y15.202
X97.488 Y15.238
X97.476 Y15.273
X97.458 Y15.309
X97.436 Y15.344
X97.408 Y15.38
X97.38 Y15.406
X97.344 Y15.431
X97.309 Y15.449 F900
X97.273 Y15.462 F1000
X97.238 Y15.47
X97.096 Y15.474
X13.324
X9.71 Y15.588
X6.095 Y15.696
X5.67 Y15.726
X-0.85 Y16.281
X-0.992 Y16.296
X-1.276 Y16.33
X-1.417 Y16.348
X-7.938 Y17.276
X-8.08 Y17.299
X-15.309 Y18.729
X-15.592 Y18.794
X-18.285 Y19.417
X-37.279 Y23.785
X-37.746 Y23.885
X-44.225 Y25.183
X-44.367 Y25.211
X-50.99 Y26.153
G3 X-58.116 Y26.773 I-35.272 J-364.145
G1 X-58.541 Y26.792
X-59.675 Y26.824
X-65.203 Y26.981
X-127.146
X-127.217 Y26.979
X-127.253 Y26.974
X-127.288 Y26.964
X-127.323 Y26.949
X-127.358 Y26.928
X-127.393 Y26.9
X-127.43 Y26.859
X-127.455 Y26.824
X-127.473 Y26.79
X-127.487 Y26.755
X-127.495 Y26.72
X-127.499 Y26.685
X-127.5 Y26.649
G3 X-127.201 Y26.36 I0.3 J0.01
G1 X-127.2
X-127.188
X-127.176 Y26.361
X-127.126 Y26.378 Z-0.345
X-127.077 Y26.395 Z-0.331
X-127.032 Y26.411 Z-0.308
X-126.999 Y26.448 Z-0.271
X-126.972 Y26.478 Z-0.224
X-126.952 Y26.5 Z-0.17
X-126.94 Y26.514 Z-0.112
X-126.935 Y26.519 Z-0.05
G0 Z2.503
X-65.335 Y-1.303
Z-0.65
G3 X-66.489 Y1.303 Z-0.806 I-0.577 J1.303 F333.3
X-65.335 Y-1.303 Z-0.963 I0.577 J-1.303
X-66.489 Y1.303 Z-1.119 I-0.577 J1.303
X-65.335 Y-1.303 Z-1.275 I0.577 J-1.303
X-66.489 Y1.303 Z-1.432 I-0.577 J1.303
X-65.335 Y-1.303 Z-1.588 I0.577 J-1.303
X-66.489 Y1.303 Z-1.744 I-0.577 J1.303
X-65.335 Y-1.303 Z-1.901 I0.577 J-1.303
X-66.489 Y1.303 Z-2.057 I-0.577 J1.303
X-65.335 Y-1.303 Z-2.213 I0.577 J-1.303
X-66.489 Y1.303 Z-2.37 I-0.577 J1.303
X-65.335 Y-1.303 Z-2.526 I0.577 J-1.303
X-66.489 Y1.303 Z-2.682 I-0.577 J1.303
X-65.335 Y-1.303 Z-2.839 I0.577 J-1.303
X-66.489 Y1.303 Z-2.995 I-0.577 J1.303
X-65.335 Y-1.303 Z-3.151 I0.577 J-1.303
X-66.489 Y1.303 Z-3.308 I-0.577 J1.303
X-65.335 Y-1.303 Z-3.464 I0.577 J-1.303
X-66.489 Y1.303 Z-3.62 I-0.577 J1.303
X-65.335 Y-1.303 Z-3.777 I0.577 J-1.303
X-66.489 Y1.303 Z-3.933 I-0.577 J1.303
X-65.335 Y-1.303 Z-4.089 I0.577 J-1.303
X-66.489 Y1.303 Z-4.246 I-0.577 J1.303
X-65.335 Y-1.303 Z-4.402 I0.577 J-1.303
X-66.489 Y1.303 Z-4.558 I-0.577 J1.303
X-65.335 Y-1.303 Z-4.715 I0.577 J-1.303
X-66.489 Y1.303 Z-4.871 I-0.577 J1.303
X-65.335 Y-1.303 Z-5.027 I0.577 J-1.303
X-66.489 Y1.303 Z-5.184 I-0.577 J1.303
X-65.335 Y-1.303 Z-5.34 I0.577 J-1.303
X-66.489 Y1.303 Z-5.496 I-0.577 J1.303
X-65.335 Y-1.303 Z-5.653 I0.577 J-1.303
X-66.489 Y1.303 Z-5.809 I-0.577 J1.303
X-65.335 Y-1.303 Z-5.965 I0.577 J-1.303
X-66.489 Y1.303 Z-6.122 I-0.577 J1.303
X-65.335 Y-1.303 Z-6.278 I0.577 J-1.303
X-66.489 Y1.303 Z-6.434 I-0.577 J1.303
X-65.335 Y-1.303 Z-6.591 I0.577 J-1.303
X-64.487 Y0 Z-6.648 I-0.577 J1.303
X-67.337 Y0 I-1.425 J0
X-64.487 Y0 I1.425 J0
G1 X-64.485 Y0.039 F1000
X-64.473 Y0.076
X-64.452 Y0.109
X-63.992 Y0.53
X-63.793 Y0.7
X-63.619 Y0.949
X-63.498 Y1.273
X-63.457 Y1.662
X-63.522 Y2.098
X-63.716 Y2.555
X-64.058 Y3.001
X-64.549 Y3.386
X-65.12 Y3.638
X-65.731 Y3.763
X-66.355 Y3.766
X-66.969 Y3.657
X-67.555 Y3.442
X-68.097 Y3.132
X-68.579 Y2.737
X-68.99 Y2.267
X-69.318 Y1.736
X-69.556 Y1.159
X-69.696 Y0.551
X-69.736 Y-0.071
X-69.673 Y-0.692
X-69.511 Y-1.294
X-69.252 Y-1.862
X-68.905 Y-2.381
X-68.478 Y-2.836
X-67.983 Y-3.215
X-67.432 Y-3.509
X-66.842 Y-3.71
X-66.226 Y-3.812
X-65.602
X-64.986 Y-3.711
X-64.395 Y-3.511
X-63.845 Y-3.218
X-63.349 Y-2.839
X-62.921 Y-2.384
X-62.574 Y-1.866
X-62.215 Y-1.356
X-61.845 Y-0.853
X-61.529 Y-0.315
X-61.283 Y0.258
X-61.121 Y0.861
X-61.058 Y1.482
X-61.08 Y2.105
X-61.201 Y2.717
X-61.405 Y3.307
X-61.693 Y3.86
X-62.052 Y4.371
X-62.478 Y4.827
X-62.958 Y5.226
G3 X-65.253 Y6.147 I-3.023 J-4.215
X-68.313 Y5.766 I-0.843 J-5.708
X-72.172 Y-0.127 I2.35 J-5.749
X-68.087 Y-5.874 I6.255 J0.121
X-60.85 Y-3.69 I2.174 J5.878
X-59.441 Y-1.634 I-11.263 J9.229
X-58.68 Y2.594 I-6.004 J3.262
X-61.074 Y6.855 I-6.894 J-1.07
X-66.884 Y8.622 I-4.977 J-5.928
X-74.377 Y2.079 I0.863 J-8.55
X-67.964 Y-8.476 I8.453 J-2.09
X-59.038 Y-5.374 I2.054 J8.484
X-56.993 Y-2.252 I-10.401 J9.044
X-59.303 Y8.571 I-8.434 J3.858
X-66.158 Y11.125 I-6.697 J-7.496
X-76.068 Y4.683 I0.1 J-10.998
X-77.1 Y-0.158 I9.957 J-4.654
X-57.571 Y-7.462 I11.189 J0.156
X-54.525 Y-2.779 I-11.687 J10.935
X-54.439 Y5.759 I-10.933 J4.379
X-60.688 Y12.414 I-11.298 J-4.346
X-72.135 Y12.143 I-5.447 J-11.846
X-71.612 Y-12.414 I6.195 J-12.152
X-63.693 Y-13.484 I5.693 J12.307
X-55.659 Y-9.044 I-2.229 J13.523
X-52.054 Y-3.253 I-13.064 J12.15
X-56.85 Y12.96 I-13.419 J4.846
X-67.386 Y16.023 I-9.187 J-11.948
X-72.214 Y14.844 I1.189 J-15.339
X-59.767 Y-14.923 I6.29 J-14.856
X-53.32 Y-10.139 I-6.227 J15.127
X-49.397 Y-3.107 I-14.52 J12.711
X-55.662 Y15.17 I-16.088 J4.697
X-66.791 Y18.547 I-10.362 J-14.123
G1 X-67.414 Y18.516
X-68.036 Y18.461
X-68.655 Y18.385
G3 X-82.648 Y-8.162 I2.679 J-18.373
X-71.053 Y-17.902 I16.69 J8.097
X-52.217 Y-12.633 I5.146 J17.905
X-47.315 Y-4.74 I-16.187 J15.525
X-51.213 Y14.489 I-18.137 J6.333
X-68.061 Y20.945 I-14.809 J-13.436
X-82.059 Y13.587 I1.947 J-20.7
X-87.005 Y-0.831 I16.053 J-13.565
X-50.718 Y-14.659 I21.094 J0.828
G1 X-50.279 Y-14.215
X-49.859 Y-13.754
G3 X-45.049 Y-5.788 I-18.707 J16.73
X-52.773 Y19.212 I-20.437 J7.379
X-64.956 Y23.502 I-13.213 J-18.077
X-87.444 Y9.633 I-1.114 J-23.358
X-86.256 Y-11.952 I21.458 J-9.645
X-49.236 Y-16.697 I20.346 J11.947
X-44.664 Y-10.796 I-19.532 J19.852
X-41.476 Y4.81 I-21.132 J12.446
X-56.459 Y24.106 I-24.208 J-3.333
X-64.942 Y25.995 I-9.545 J-22.876
X-90.701 Y8.095 I-1.113 J-25.884
X-90.586 Y-8.457 I24.643 J-8.105
X-49.171 Y-20.004 I24.674 J8.45
X-40.33 Y-7.367 I-19.307 J22.918
X-49.804 Y23.204 I-25.159 J8.956
G1 X-50.306 Y23.575
G3 X-53.195 Y25.329 I-14.608 J-20.799
X-53.731 Y25.6 I-11.718 J-22.554 F900
G1 X-53.77 F1000
X-57.974 Y25.971
X-58.116 Y25.983
X-58.541 Y26.002
X-59.108 Y26.02
X-65.203 Y26.19
X-76.118
X-76.741 Y26.159
X-77.352 Y26.034
G3 X-79.636 Y25.039 I3.469 J-11.082
X-89.989 Y-15.379 I13.676 J-25.038
X-77.873 Y-25.949 I24.004 J15.286
X-77.325 Y-26.194 I11.888 J25.856 F900
G1 X-77.28 Y-26.19 F1000
X-65.203
X-58.966 Y-26.016
X-58.541 Y-26.002
X-58.116 Y-25.983
X-57.832 Y-25.958
X-54.289 Y-25.645
X-53.671 Y-25.56
X-53.069 Y-25.394
G3 X-50.317 Y-23.939 I-4.947 J12.685
X-42.266 Y-16.201 I-16.678 J25.412
X-36.283 Y1.219 I-24.116 J18.019
X-40.493 Y16.674 I-29.364 J0.303
X-47.851 Y24.86 I-25.242 J-15.29
G1 X-47.9 Y24.877
X-47.95 Y24.888
X-50.887 Y25.322
X-51.029 Y25.342
X-51.454 Y25.395
X-53.297 Y25.558
X-53.77 Y25.6
G3 X-53.95 Y25.049 I-0.016 J-0.3
G1 X-53.894 Y25.012 Z-6.641
X-53.841 Y24.978 Z-6.618
X-53.793 Y24.947 Z-6.583
X-53.753 Y24.921 Z-6.535
X-53.723 Y24.901 Z-6.478
X-53.705 Y24.889 Z-6.415
X-53.698 Y24.885 Z-6.348
G0 Z2.503
X-75.106 Y25.815
Z-6.048
G1 Z-6.348 F1000
X-75.113 Y25.819 Z-6.415
X-75.132 Y25.831 Z-6.478
X-75.162 Y25.849 Z-6.535
X-75.203 Y25.873 Z-6.583
X-75.252 Y25.902 Z-6.618
X-75.307 Y25.935 Z-6.641
X-75.364 Y25.969 Z-6.648
G3 X-76.118 Y26.19 I-0.809 J-1.36
G1 X-81.221
X-81.844 Y26.159
X-82.452 Y26.019
X-83.028 Y25.78
G3 X-85.595 Y24.017 I7.007 J-12.953
X-91.858 Y-17.076 I19.647 J-24.019
X-82.642 Y-26.172 I25.826 J16.951
G1 X-82.585 Y-26.184
X-82.527 Y-26.19
X-77.28
G0 Z2.503
X-55.329 Y-25.361
Z-6.048
G1 Z-6.348 F1000
X-55.322 Y-25.365 Z-6.415
X-55.302 Y-25.374 Z-6.478
X-55.27 Y-25.39 Z-6.535
X-55.227 Y-25.41 Z-6.583
X-55.176 Y-25.435 Z-6.618
X-55.119 Y-25.462 Z-6.641
X-55.059 Y-25.491 Z-6.648
G3 X-54.289 Y-25.645 I0.686 J1.426
G1 X-51.596 Y-25.408
X-51.454 Y-25.395
X-51.029 Y-25.342
X-50.769 Y-25.305
X-48.477 Y-24.966
X-47.865 Y-24.844
X-47.281 Y-24.626
G3 X-45.252 Y-23.184 I-4.474 J8.446
X-38.19 Y-14.516 I-22.862 J25.837
X-34.526 Y8.362 I-27.522 J16.139
X-39.153 Y19.203 I-31.26 J-6.934
X-43.189 Y24.097 I-26.743 J-17.945
G1 X-43.243 Y24.12
X-43.298 Y24.136
X-44.367 Y24.359
X-47.95 Y24.888
G3 X-48.161 Y24.349 I-0.033 J-0.298
G1 X-48.108 Y24.309 Z-6.641
X-48.057 Y24.271 Z-6.618
X-48.011 Y24.238 Z-6.583
X-47.973 Y24.21 Z-6.535
X-47.944 Y24.188 Z-6.478
X-47.926 Y24.175 Z-6.415
X-47.92 Y24.171 Z-6.348
G0 Z2.503
X-80.209 Y25.815
Z-6.048
G1 Z-6.348 F1000
X-80.216 Y25.819 Z-6.415
X-80.235 Y25.831 Z-6.478
X-80.265 Y25.849 Z-6.535
X-80.306 Y25.873 Z-6.583
X-80.355 Y25.902 Z-6.618
X-80.41 Y25.935 Z-6.641
X-80.467 Y25.969 Z-6.648
G3 X-81.221 Y26.19 I-0.809 J-1.36
G1 X-85.473
X-86.096 Y26.159
X-86.696 Y25.988
X-87.254 Y25.708
G3 X-89.193 Y24.145 I6.26 J-9.753
X-94.114 Y-18.175 I23.235 J-24.147
X-87.383 Y-25.785 I27.99 J17.976
X-86.918 Y-26.164 I21.259 J25.586 F900
G1 X-86.851 Y-26.182 F1000
X-86.785 Y-26.19
X-82.527
G0 Z2.503
X-49.533 Y-24.744
Z-6.048
G1 Z-6.348 F1000
X-49.526 Y-24.746 Z-6.415
X-49.505 Y-24.755 Z-6.478
X-49.472 Y-24.768 Z-6.535
X-49.428 Y-24.786 Z-6.583
X-49.375 Y-24.808 Z-6.618
X-49.317 Y-24.832 Z-6.641
X-49.255 Y-24.858 Z-6.648
G3 X-48.477 Y-24.966 I0.601 J1.464
G1 X-44.367 Y-24.359
X-43.658 Y-24.211
X-43.054 Y-24.054
X-42.497 Y-23.774
G3 X-40.647 Y-22.109 I-5.361 J7.817
X-32.23 Y-6.3 I-26.983 J24.51
X-33.397 Y13.352 I-33.362 J7.88
X-37.42 Y21.079 I-32.386 J-11.95
X-38.667 Y22.757 I-27.819 J-19.373
X-39.043 Y23.224 I-26.573 J-21.051 F900
G1 X-39.105 Y23.255 F1000
X-39.169 Y23.277
X-43.298 Y24.136
G3 X-43.54 Y23.61 I-0.051 J-0.296
G1 X-43.489 Y23.567 Z-6.641
X-43.44 Y23.527 Z-6.618
X-43.397 Y23.49 Z-6.583
X-43.36 Y23.46 Z-6.535
X-43.333 Y23.437 Z-6.478
X-43.315 Y23.423 Z-6.415
X-43.31 Y23.418 Z-6.348
G0 Z2.503
X-84.461 Y25.815
Z-6.048
G1 Z-6.348 F1000
X-84.468 Y25.819 Z-6.415
X-84.487 Y25.831 Z-6.478
X-84.518 Y25.849 Z-6.535
X-84.559 Y25.873 Z-6.583
X-84.607 Y25.902 Z-6.618
X-84.662 Y25.935 Z-6.641
X-84.719 Y25.969 Z-6.648
G3 X-85.473 Y26.19 I-0.809 J-1.36
G1 X-89.158
X-89.781 Y26.159
X-90.381 Y25.988
X-90.931 Y25.693
G3 X-92.77 Y24.015 I5.84 J-8.245
X-99.845 Y-12.144 I26.764 J-24.009
X-96.613 Y-18.882 I33.013 J11.692
X-91.142 Y-25.74 I30.201 J18.485
X-90.709 Y-26.155 I24.729 J25.343 F900
G1 X-90.634 Y-26.18 F1000
X-90.558 Y-26.19
X-86.785
G0 Z2.503
X-44.724 Y-24.051
Z-6.048
G1 Z-6.348 F1000
X-44.717 Y-24.053 Z-6.415
X-44.696 Y-24.061 Z-6.478
X-44.662 Y-24.072 Z-6.535
X-44.618 Y-24.088 Z-6.583
X-44.564 Y-24.106 Z-6.618
X-44.504 Y-24.127 Z-6.641
X-44.441 Y-24.148 Z-6.648
G3 X-43.658 Y-24.211 I0.514 J1.497
G1 X-39.547 Y-23.355
X-38.943 Y-23.198
X-38.386 Y-22.917
X-37.89 Y-22.538
G3 X-36.261 Y-20.653 I-8.568 J9.056
X-28.868 Y-0.428 I-30.212 J22.507
X-35.246 Y22.316 I-36.667 J1.984
G1 X-35.297 Y22.369 F900
X-35.357 Y22.411 F1000
X-35.426 Y22.436
X-37.279 Y22.876
X-37.704 Y22.971
X-39.169 Y23.277
G3 X-39.412 Y22.75 I-0.051 J-0.296
G1 X-39.361 Y22.708 Z-6.641
X-39.312 Y22.667 Z-6.618
X-39.268 Y22.631 Z-6.583
X-39.232 Y22.6 Z-6.535
X-39.204 Y22.577 Z-6.478
X-39.187 Y22.563 Z-6.415
X-39.182 Y22.558 Z-6.348
G0 Z2.503
X-40.614 Y-23.195
Z-6.048
G1 Z-6.348 F1000
X-40.607 Y-23.197 Z-6.415
X-40.586 Y-23.204 Z-6.478
X-40.552 Y-23.216 Z-6.535
X-40.507 Y-23.231 Z-6.583
X-40.453 Y-23.25 Z-6.618
X-40.393 Y-23.27 Z-6.641
X-40.33 Y-23.292 Z-6.648
G3 X-39.547 Y-23.355 I0.514 J1.497
G1 X-37.704 Y-22.971
X-37.279 Y-22.876
X-35.578 Y-22.472
X-35.02 Y-22.31
X-34.484 Y-21.991
X-34.015 Y-21.579
G3 X-32.523 Y-19.584 I-9.254 J8.478
X-27.053 Y9.136 I-33.273 J21.218
X-31.495 Y21.019 I-38.735 J-7.709
X-31.797 Y21.538 I-34.293 J-19.592 F900
G1 X-31.87 Y21.58
X-31.944 Y21.609 F1000
X-35.426 Y22.436
G0 Z2.503
X-36.649 Y-22.342
Z-6.048
G1 Z-6.348 F1000
X-36.642 Y-22.344 Z-6.415
X-36.621 Y-22.35 Z-6.478
X-36.586 Y-22.361 Z-6.535
X-36.541 Y-22.375 Z-6.583
X-36.487 Y-22.392 Z-6.618
X-36.426 Y-22.411 Z-6.641
X-36.363 Y-22.431 Z-6.648
G3 X-35.578 Y-22.472 I0.472 J1.51
G1 X-32.035 Y-21.631
X-31.486 Y-21.471
X-30.949 Y-21.152
X-30.489 Y-20.73
G3 X-29.094 Y-18.668 I-8.31 J7.124
X-28.467 Y20.678 I-36.416 J20.258
G1 X-28.521 Y20.746 F900
X-28.589 Y20.799 F1000
X-28.669 Y20.831
X-31.944 Y21.609
G0 Z2.503
X-33.105 Y-21.5
Z-6.048
G1 Z-6.348 F1000
X-33.098 Y-21.502 Z-6.415
X-33.077 Y-21.509 Z-6.478
X-33.043 Y-21.519 Z-6.535
X-32.997 Y-21.534 Z-6.583
X-32.943 Y-21.55 Z-6.618
X-32.883 Y-21.569 Z-6.641
X-32.819 Y-21.589 Z-6.648
G3 X-32.035 Y-21.631 I0.472 J1.51
G1 X-28.633 Y-20.822
X-28.15 Y-20.682
X-27.614 Y-20.363
X-27.16 Y-19.934
G3 X-25.852 Y-17.817 I-7.738 J6.245
X-25.332 Y19.921 I-39.562 J19.417
G1 X-25.384 Y19.996 F900
X-25.454 Y20.053
X-25.537 Y20.087 F1000
X-28.669 Y20.831
G0 Z2.503
X-29.703 Y-20.692
Z-6.048
G1 Z-6.348 F1000
X-29.696 Y-20.694 Z-6.415
X-29.675 Y-20.7 Z-6.478
X-29.641 Y-20.711 Z-6.535
X-29.596 Y-20.725 Z-6.583
X-29.541 Y-20.742 Z-6.618
X-29.481 Y-20.761 Z-6.641
X-29.417 Y-20.781 Z-6.648
G3 X-28.633 Y-20.822 I0.472 J1.51
G1 X-25.514 Y-20.082
X-24.957 Y-19.919
X-24.421 Y-19.601
X-23.974 Y-19.165
X-23.603 Y-18.663
G3 X-22.251 Y-15.857 I-14.881 J8.899
X-22.294 Y19.172 I-43.131 J17.461
G1 X-22.344 Y19.252 F900
X-22.415 Y19.313
X-22.501 Y19.35 F1000
X-24.227 Y19.774
X-24.522 Y19.846
X-25.537 Y20.087
G0 Z2.503
X-26.585 Y-19.951
Z-6.048
G1 Z-6.348 F1000
X-26.578 Y-19.953 Z-6.415
X-26.557 Y-19.96 Z-6.478
X-26.522 Y-19.97 Z-6.535
X-26.477 Y-19.985 Z-6.583
X-26.423 Y-20.002 Z-6.618
X-26.362 Y-20.02 Z-6.641
X-26.299 Y-20.04 Z-6.648
G3 X-25.514 Y-20.082 I0.472 J1.51
G1 X-24.522 Y-19.846
X-23.813 Y-19.673
X-22.396 Y-19.324
X-21.855 Y-19.161
X-21.321 Y-18.838
X-20.882 Y-18.395
X-20.523 Y-17.885
G3 X-19.486 Y-15.618 I-12.216 J6.958
X-19.336 Y18.433 I-45.841 J17.228
G1 X-19.383 Y18.518 F900
X-19.456 Y18.583
X-19.546 Y18.622 F1000
X-22.501 Y19.35
G3 X-22.763 Y18.833 I-0.062 J-0.294
G1 X-22.713 Y18.788 Z-6.641
X-22.666 Y18.746 Z-6.618
X-22.624 Y18.708 Z-6.583
X-22.588 Y18.676 Z-6.535
X-22.562 Y18.652 Z-6.478
X-22.545 Y18.637 Z-6.415
X-22.539 Y18.632 Z-6.348
G0 Z2.503
X-23.468 Y-19.202
Z-6.048
G1 Z-6.348 F1000
X-23.46 Y-19.204 Z-6.415
X-23.439 Y-19.21 Z-6.478
X-23.405 Y-19.221 Z-6.535
X-23.359 Y-19.235 Z-6.583
X-23.305 Y-19.251 Z-6.618
X-23.244 Y-19.27 Z-6.641
X-23.181 Y-19.289 Z-6.648
G3 X-22.396 Y-19.324 I0.46 J1.514
G1 X-19.277 Y-18.556
X-18.859 Y-18.43
X-18.328 Y-18.109
X-17.892 Y-17.662
X-17.541 Y-17.146
G3 X-16.571 Y-14.851 I-11.754 J6.325
X-16.448 Y17.714 I-48.689 J16.466
G1 X-16.492 Y17.803 F900
X-16.566 Y17.87 F1000
X-16.658 Y17.91
X-19.546 Y18.622
G3 X-19.808 Y18.105 I-0.062 J-0.294
G1 X-19.758 Y18.06 Z-6.641
X-19.711 Y18.018 Z-6.618
X-19.668 Y17.98 Z-6.583
X-19.633 Y17.948 Z-6.535
X-19.606 Y17.924 Z-6.478
X-19.59 Y17.909 Z-6.415
X-19.584 Y17.904 Z-6.348
G0 Z2.503
X-20.349 Y-18.434
Z-6.048
G1 Z-6.348 F1000
X-20.342 Y-18.436 Z-6.415
X-20.321 Y-18.442 Z-6.478
X-20.287 Y-18.453 Z-6.535
X-20.241 Y-18.467 Z-6.583
X-20.187 Y-18.483 Z-6.618
X-20.126 Y-18.501 Z-6.641
X-20.062 Y-18.521 Z-6.648
G3 X-19.277 Y-18.556 I0.46 J1.514
G1 X-16.443 Y-17.857
X-15.929 Y-17.703
X-15.413 Y-17.391
X-14.977 Y-16.945
X-14.632 Y-16.425
G3 X-13.716 Y-14.107 I-11.102 J5.728
X-13.63 Y17.061 I-51.463 J15.726
G1 X-13.675 Y17.158
X-13.754 Y17.23
X-13.853 Y17.271
G2 X-16.658 Y17.911 I8.385 J43.186
G1 X-16.723 Y17.917
X-16.788 Y17.909
X-16.85 Y17.887
X-16.905 Y17.853
X-16.952 Y17.807
X-16.987 Y17.752
X-17.01 Y17.691
X-17.02 Y17.626
X-17.014 Y17.561
X-16.995 Y17.499
X-16.963 Y17.442
X-16.92 Y17.393
X-16.87 Y17.349 Z-6.641
X-16.823 Y17.306 Z-6.618
X-16.78 Y17.268 Z-6.583
X-16.745 Y17.237 Z-6.535
X-16.718 Y17.213 Z-6.478
X-16.702 Y17.198 Z-6.415
X-16.696 Y17.193 Z-6.348
G0 Z2.503
X-17.514 Y-17.735
Z-6.048
G1 Z-6.348 F1000
X-17.507 Y-17.738 Z-6.415
X-17.486 Y-17.744 Z-6.478
X-17.452 Y-17.754 Z-6.535
X-17.406 Y-17.768 Z-6.583
X-17.352 Y-17.785 Z-6.618
X-17.291 Y-17.803 Z-6.641
X-17.227 Y-17.823 Z-6.648
G3 X-16.443 Y-17.857 I0.46 J1.514
G2 X-13.638 Y-17.225 I11.164 J-42.965
G1 X-13.155 Y-17.099
X-12.659 Y-16.823
X-12.207 Y-16.392
X-11.852 Y-15.879
G3 X-10.96 Y-13.554 I-9.586 J5.013
X-9.802 Y11.78 I-53.986 J15.161
X-10.868 Y16.484 I-53.058 J-9.554
G1 X-10.916 Y16.583
X-10.996 Y16.659
X-11.098 Y16.7
X-12.757 Y17.043
X-13.853 Y17.271
G0 Z2.503
X-14.705 Y-17.064
Z-6.048
G1 Z-6.348 F1000
X-14.698 Y-17.067 Z-6.415
X-14.677 Y-17.074 Z-6.478
X-14.643 Y-17.085 Z-6.535
X-14.598 Y-17.101 Z-6.583
X-14.544 Y-17.119 Z-6.618
X-14.484 Y-17.14 Z-6.641
X-14.421 Y-17.162 Z-6.648
G3 X-13.638 Y-17.225 I0.515 J1.496
G1 X-10.773 Y-16.629
X-10.37 Y-16.524
X-9.881 Y-16.252
X-9.429 Y-15.822
X-9.078 Y-15.306
G3 X-8.224 Y-12.967 I-9.151 J4.669
X-6.517 Y5.592 I-56.305 J14.535
X-8.142 Y15.918 I-58.475 J-3.912
G1 X-8.188 Y16.019
X-8.268 Y16.097
X-8.371 Y16.14
X-9.355 Y16.348
X-11.056 Y16.692
X-11.098 Y16.7
G3 X-11.338 Y16.173 I-0.05 J-0.296
G1 X-11.287 Y16.13 Z-6.641
X-11.238 Y16.09 Z-6.618
X-11.194 Y16.054 Z-6.583
X-11.157 Y16.023 Z-6.535
X-11.13 Y16.001 Z-6.478
X-11.113 Y15.987 Z-6.415
X-11.107 Y15.982 Z-6.348
G0 Z2.503
X-11.839 Y-16.468
Z-6.048
G1 Z-6.348 F1000
X-11.832 Y-16.47 Z-6.415
X-11.811 Y-16.478 Z-6.478
X-11.777 Y-16.489 Z-6.535
X-11.732 Y-16.505 Z-6.583
X-11.679 Y-16.523 Z-6.618
X-11.619 Y-16.544 Z-6.641
X-11.556 Y-16.566 Z-6.648
G3 X-10.773 Y-16.629 I0.515 J1.496
G2 X-8.113 Y-16.09 I22.455 J-103.98
G1 X-7.685 Y-15.995
X-7.212 Y-15.754
X-6.745 Y-15.34
X-6.383 Y-14.832
X-6.104 Y-14.273
G3 X-5.257 Y-11.275 I-16.611 J6.314
X-5.476 Y15.496 I-59.86 J12.897
G1 X-5.524 Y15.604
X-5.611 Y15.684
X-5.722 Y15.724
X-7.938 Y16.062
X-8.221 Y16.109
X-8.371 Y16.14
G3 X-8.616 Y15.614 I-0.052 J-0.295
G1 X-8.564 Y15.571 Z-6.641
X-8.516 Y15.53 Z-6.618
X-8.472 Y15.494 Z-6.583
X-8.436 Y15.463 Z-6.535
X-8.408 Y15.44 Z-6.478
X-8.391 Y15.426 Z-6.415
X-8.386 Y15.421 Z-6.348
G0 Z2.503
X-9.173 Y-15.892
Z-6.048
G1 Z-6.348 F1000
X-9.166 Y-15.895 Z-6.415
X-9.146 Y-15.903 Z-6.478
X-9.112 Y-15.916 Z-6.535
X-9.068 Y-15.933 Z-6.583
X-9.015 Y-15.953 Z-6.618
X-8.956 Y-15.976 Z-6.641
X-8.893 Y-16 Z-6.648
G3 X-8.113 Y-16.091 I0.568 J1.477
G1 X-7.938 Y-16.062
X-5.528 Y-15.695
X-5.043 Y-15.596
X-4.575 Y-15.368
X-4.1 Y-14.963
X-3.732 Y-14.459
X-3.452 Y-13.901
G3 X-2.76 Y-11.507 I-13.07 J5.076
X-2.829 Y15.086 I-62.179 J13.135
G1 X-2.874 Y15.197
X-2.962 Y15.28
X-3.075 Y15.322
X-5.722 Y15.724
G3 X-5.935 Y15.186 I-0.035 J-0.298
G1 X-5.882 Y15.146 Z-6.641
X-5.831 Y15.108 Z-6.618
X-5.785 Y15.074 Z-6.583
X-5.747 Y15.046 Z-6.535
X-5.719 Y15.024 Z-6.478
X-5.701 Y15.011 Z-6.415
X-5.695 Y15.007 Z-6.348
G0 Z2.503
X-6.584 Y-15.477
Z-6.048
G1 Z-6.348 F1000
X-6.577 Y-15.48 Z-6.415
X-6.557 Y-15.488 Z-6.478
X-6.524 Y-15.501 Z-6.535
X-6.48 Y-15.519 Z-6.583
X-6.427 Y-15.541 Z-6.618
X-6.368 Y-15.564 Z-6.641
X-6.306 Y-15.59 Z-6.648
G3 X-5.528 Y-15.695 I0.595 J1.466
G1 X-2.835 Y-15.285
X-2.381 Y-15.193
X-1.918 Y-14.966
X-1.443 Y-14.561
X-1.076 Y-14.057
X-0.799 Y-13.497
G3 X-0.133 Y-11.096 I-12.694 J4.815
X-0.205 Y14.722 I-64.676 J12.729
G1 X-0.253 Y14.839 F900
X-0.347 Y14.924 F1000
X-0.469 Y14.962
G2 X-1.417 Y15.07 I1.135 J14.29
G1 X-3.075 Y15.322
G3 X-3.288 Y14.783 I-0.035 J-0.298
G1 X-3.235 Y14.743 Z-6.641
X-3.184 Y14.705 Z-6.618
X-3.138 Y14.671 Z-6.583
X-3.1 Y14.643 Z-6.535
X-3.072 Y14.622 Z-6.478
X-3.054 Y14.608 Z-6.415
X-3.048 Y14.604 Z-6.348
G0 Z2.503
X-3.891 Y-15.067
Z-6.048
G1 Z-6.348 F1000
X-3.884 Y-15.07 Z-6.415
X-3.864 Y-15.078 Z-6.478
X-3.831 Y-15.091 Z-6.535
X-3.787 Y-15.109 Z-6.583
X-3.734 Y-15.131 Z-6.618
X-3.675 Y-15.155 Z-6.641
X-3.613 Y-15.18 Z-6.648
G3 X-2.835 Y-15.285 I0.595 J1.466
G2 X-0.851 Y-14.997 I6.727 J-39.379
G1 X-0.283 Y-14.945
X0.137 Y-14.885
X0.598 Y-14.693
X1.09 Y-14.321
X1.478 Y-13.832
X1.77 Y-13.281
G3 X2.443 Y-10.882 I-10.95 J4.37
X3.2 Y8.997 I-66.617 J12.491
X2.388 Y14.479 I-65.011 J-6.836
G1 X2.338 Y14.598 F900
X2.243 Y14.684 F1000
X2.121 Y14.723
X-0.469 Y14.962
G3 X-0.65 Y14.412 I-0.017 J-0.3
G1 X-0.595 Y14.376 Z-6.641
X-0.542 Y14.341 Z-6.618
X-0.494 Y14.31 Z-6.583
X-0.454 Y14.283 Z-6.535
X-0.424 Y14.264 Z-6.478
X-0.406 Y14.252 Z-6.415
X-0.4 Y14.248 Z-6.348
G0 Z2.503
X-1.325 Y-14.665
Z-6.048
G1 Z-6.348 F1000
X-1.318 Y-14.669 Z-6.415
X-1.298 Y-14.678 Z-6.478
X-1.266 Y-14.693 Z-6.535
X-1.223 Y-14.714 Z-6.583
X-1.172 Y-14.738 Z-6.618
X-1.114 Y-14.766 Z-6.641
X-1.054 Y-14.794 Z-6.648
G3 X-0.283 Y-14.945 I0.68 J1.429
G1 X2.268 Y-14.71
X2.724 Y-14.645
X3.184 Y-14.453
X3.679 Y-14.078
X4.067 Y-13.589
X4.359 Y-13.038
G3 X5.02 Y-10.636 I-10.621 J4.219
X6.043 Y4.274 I-67.972 J12.152
X4.967 Y14.25 I-69.632 J-2.464
G1 X4.915 Y14.364
X4.821 Y14.448
X4.701 Y14.485
X2.121 Y14.723
G3 X1.939 Y14.173 I-0.017 J-0.3
G1 X1.995 Y14.136 Z-6.641
X2.048 Y14.102 Z-6.618
X2.096 Y14.07 Z-6.583
X2.135 Y14.044 Z-6.535
X2.165 Y14.025 Z-6.478
X2.184 Y14.013 Z-6.415
X2.19 Y14.008 Z-6.348
G0 Z2.503
X1.226 Y-14.43
Z-6.048
G1 Z-6.348 F1000
X1.233 Y-14.433 Z-6.415
X1.253 Y-14.442 Z-6.478
X1.285 Y-14.458 Z-6.535
X1.328 Y-14.478 Z-6.583
X1.38 Y-14.503 Z-6.618
X1.437 Y-14.53 Z-6.641
X1.497 Y-14.559 Z-6.648
G3 X2.268 Y-14.71 I0.68 J1.429
G1 X4.819 Y-14.474
X5.31 Y-14.404
X5.77 Y-14.212
X6.263 Y-13.84
X6.651 Y-13.351
X6.941 Y-12.799
G3 X7.59 Y-10.394 I-10.355 J4.084
X8.58 Y2.652 I-69.294 J11.819
X7.532 Y14.066 I-71.918 J-0.852
G1 X7.477 Y14.187
X7.376 Y14.274 F900
X7.248 Y14.309 F1000
G2 X4.701 Y14.486 I0.877 J31.157
G3 X4.519 Y13.935 I-0.017 J-0.3
G1 X4.575 Y13.898 Z-6.641
X4.628 Y13.863 Z-6.618
X4.676 Y13.832 Z-6.583
X4.715 Y13.806 Z-6.535
X4.745 Y13.787 Z-6.478
X4.764 Y13.774 Z-6.415
X4.77 Y13.77 Z-6.348
G0 Z2.503
X3.778 Y-14.194
Z-6.048
G1 Z-6.348 F1000
X3.785 Y-14.197 Z-6.415
X3.805 Y-14.207 Z-6.478
X3.837 Y-14.222 Z-6.535
X3.88 Y-14.243 Z-6.583
X3.931 Y-14.267 Z-6.618
X3.988 Y-14.294 Z-6.641
X4.049 Y-14.323 Z-6.648
G3 X4.819 Y-14.474 I0.68 J1.429
G2 X7.371 Y-14.318 I2.851 J-25.577
G1 X7.752 Y-14.286
X8.214 Y-14.125
X8.695 Y-13.804
X9.111 Y-13.339
X9.427 Y-12.8
G3 X10.108 Y-10.406 I-8.837 J3.809
X11.034 Y-1.101 I-65.992 J11.266
X10.075 Y13.984 I-74.874 J2.814
G1 X10.015 Y14.102
X9.914 Y14.186 F900
X9.787 Y14.219 F1000
X7.513 Y14.298
X7.248 Y14.309
G3 X7.094 Y13.75 I-0.002 J-0.3
G1 X7.152 Y13.717 Z-6.641
X7.206 Y13.685 Z-6.618
X7.255 Y13.656 Z-6.583
X7.296 Y13.632 Z-6.535
X7.327 Y13.614 Z-6.478
X7.346 Y13.603 Z-6.415
X7.353 Y13.599 Z-6.348
G0 Z2.503
X6.348 Y-13.977
Z-6.048
G1 Z-6.348 F1000
X6.354 Y-13.98 Z-6.415
X6.374 Y-13.991 Z-6.478
X6.405 Y-14.008 Z-6.535
X6.446 Y-14.031 Z-6.583
X6.496 Y-14.059 Z-6.618
X6.552 Y-14.089 Z-6.641
X6.61 Y-14.121 Z-6.648
G3 X7.371 Y-14.318 I0.763 J1.386
G1 X7.938 Y-14.297
X9.639 Y-14.231
X9.922 Y-14.219
X10.317 Y-14.18
X10.776 Y-14.013
X11.267 Y-13.674
X11.676 Y-13.203
X11.984 Y-12.661
G3 X12.653 Y-10.263 I-8.949 J3.788
X13.514 Y-1.577 I-66.16 J10.94
X12.62 Y13.88 I-77.357 J3.284
G1 X12.567 Y14.006 F900
X12.464 Y14.095
X12.333 Y14.131 F1000
X9.787 Y14.219
G3 X9.637 Y13.659 I0 J-0.3
G1 X9.695 Y13.626 Z-6.641
X9.75 Y13.594 Z-6.618
X9.799 Y13.566 Z-6.583
X9.84 Y13.542 Z-6.535
X9.871 Y13.524 Z-6.478
X9.891 Y13.513 Z-6.415
X9.897 Y13.509 Z-6.348
G0 Z2.503
X8.896 Y-13.887
Z-6.048
G1 Z-6.348 F1000
X8.903 Y-13.891 Z-6.415
X8.922 Y-13.901 Z-6.478
X8.954 Y-13.918 Z-6.535
X8.995 Y-13.941 Z-6.583
X9.046 Y-13.968 Z-6.618
X9.101 Y-13.998 Z-6.641
X9.16 Y-14.03 Z-6.648
G3 X9.922 Y-14.219 I0.751 J1.393
G1 X10.631 Y-14.186
X10.914 Y-14.173
X12.474 Y-14.124
X12.823 Y-14.095
X13.285 Y-13.935
X13.771 Y-13.612
X14.187 Y-13.147
X14.503 Y-12.609
G3 X15.178 Y-10.214 I-8.511 J3.693
X15.987 Y-2.149 I-64.864 J10.578
X15.149 Y13.853 I-79.648 J3.851
G1 X15.089 Y13.98
X14.983 Y14.07 F900
X14.848 Y14.102 F1000
G2 X12.333 Y14.131 I-0.774 J41.995
G3 X12.183 Y13.571 I0 J-0.3
G1 X12.241 Y13.538 Z-6.641
X12.296 Y13.506 Z-6.618
X12.345 Y13.478 Z-6.583
X12.386 Y13.454 Z-6.535
X12.417 Y13.436 Z-6.478
X12.436 Y13.425 Z-6.415
X12.443 Y13.421 Z-6.348
G0 Z2.503
X11.451 Y-13.782
Z-6.048
G1 Z-6.348 F1000
X11.457 Y-13.785 Z-6.415
X11.477 Y-13.796 Z-6.478
X11.508 Y-13.813 Z-6.535
X11.55 Y-13.836 Z-6.583
X11.6 Y-13.864 Z-6.618
X11.655 Y-13.894 Z-6.641
X11.713 Y-13.927 Z-6.648
G3 X12.474 Y-14.124 I0.765 J1.385
G2 X14.883 Y-14.102 I1.616 J-45.256
G1 X15.279 Y-14.082
X15.743 Y-13.938
X16.225 Y-13.639
X16.656 Y-13.188
X16.985 Y-12.657
X17.232 Y-12.084
G3 X17.879 Y-9.038 I-14.924 J4.762
X18.125 Y10.257 I-80.943 J10.682
X17.668 Y13.852 I-57.649 J-5.5
G1 X17.611 Y13.98 F900
X17.505 Y14.07
X17.37 Y14.102 F1000
X14.848
G0 Z2.503
X13.872 Y-13.728
Z-6.048
G1 Z-6.348 F1000
X13.878 Y-13.731 Z-6.415
X13.897 Y-13.743 Z-6.478
X13.928 Y-13.761 Z-6.535
X13.969 Y-13.785 Z-6.583
X14.018 Y-13.814 Z-6.618
X14.072 Y-13.847 Z-6.641
X14.13 Y-13.881 Z-6.648
G3 X14.883 Y-14.102 I0.809 J1.36
G1 X17.435
X17.789 Y-14.084
X18.25 Y-13.94
X18.737 Y-13.638
X19.168 Y-13.187
X19.497 Y-12.657
X19.745 Y-12.085
G3 X20.392 Y-9.038 I-14.644 J4.699
X20.928 Y6.528 I-81.774 J10.61
X20.192 Y13.852 I-77.82 J-4.126
G1 X20.132 Y13.98
X20.025 Y14.07 F900
X19.89 Y14.102 F1000
X17.37
G0 Z2.503
X16.423 Y-13.728
Z-6.048
G1 Z-6.348 F1000
X16.43 Y-13.731 Z-6.415
X16.449 Y-13.743 Z-6.478
X16.48 Y-13.761 Z-6.535
X16.52 Y-13.785 Z-6.583
X16.569 Y-13.814 Z-6.618
X16.624 Y-13.847 Z-6.641
X16.681 Y-13.881 Z-6.648
G3 X17.435 Y-14.102 I0.809 J1.36
G1 X19.844
X20.305 Y-14.079
X20.766 Y-13.935
X21.253 Y-13.633
X21.685 Y-13.182
X22.014 Y-12.652
X22.262 Y-12.079
G3 X22.905 Y-9.032 I-14.501 J4.653
X23.512 Y4.666 I-82.452 J10.515
X22.712 Y13.852 I-82.519 J-2.555
G1 X22.65 Y13.98
X22.544 Y14.07 F900
X22.408 Y14.102 F1000
X19.89
G0 Z2.503
X18.833 Y-13.728
Z-6.048
G1 Z-6.348 F1000
X18.839 Y-13.731 Z-6.415
X18.859 Y-13.743 Z-6.478
X18.889 Y-13.761 Z-6.535
X18.93 Y-13.785 Z-6.583
X18.979 Y-13.814 Z-6.618
X19.034 Y-13.847 Z-6.641
X19.091 Y-13.881 Z-6.648
G3 X19.844 Y-14.102 I0.809 J1.36
G1 X22.396
X22.818 Y-14.081
X23.28 Y-13.937
X23.767 Y-13.634
X24.199 Y-13.183
X24.528 Y-12.653
X24.776 Y-12.081
G3 X25.417 Y-9.033 I-14.37 J4.612
X26.043 Y3.418 I-82.916 J10.412
X25.232 Y13.852 I-85.793 J-1.423
G1 X25.168 Y13.98
X25.062 Y14.07 F900
X24.926 Y14.102 F1000
X22.408
G0 Z2.503
X21.384 Y-13.728
Z-6.048
G1 Z-6.348 F1000
X21.391 Y-13.731 Z-6.415
X21.41 Y-13.743 Z-6.478
X21.441 Y-13.761 Z-6.535
X21.482 Y-13.785 Z-6.583
X21.53 Y-13.814 Z-6.618
X21.585 Y-13.847 Z-6.641
X21.642 Y-13.881 Z-6.648
G3 X22.396 Y-14.102 I0.809 J1.36
G1 X24.947
X25.332 Y-14.083
X25.794 Y-13.939
X26.281 Y-13.636
X26.713 Y-13.185
X27.042 Y-12.655
X27.29 Y-12.083
G3 X27.927 Y-9.035 I-14.27 J4.576
X28.55 Y2.794 I-83.595 J10.329
X27.818 Y13.37 I-90.122 J-0.919
G1 X27.738 Y13.851
X27.684 Y13.979 F900
X27.578 Y14.07
X27.442 Y14.102 F1000
X24.926
G0 Z2.503
X23.936 Y-13.728
Z-6.048
G1 Z-6.348 F1000
X23.942 Y-13.731 Z-6.415
X23.961 Y-13.743 Z-6.478
X23.992 Y-13.761 Z-6.535
X24.033 Y-13.785 Z-6.583
X24.082 Y-13.814 Z-6.618
X24.136 Y-13.847 Z-6.641
X24.194 Y-13.881 Z-6.648
G3 X24.947 Y-14.102 I0.809 J1.36
G1 X27.499
X27.846 Y-14.085
X28.308 Y-13.941
X28.795 Y-13.638
X29.226 Y-13.187
X29.555 Y-12.657
X29.803 Y-12.085
G3 X30.438 Y-9.036 I-14.186 J4.542
X31.052 Y2.17 I-84.005 J10.228
X30.334 Y13.371 I-92.67 J-0.321
G1 X30.254 Y13.85
X30.2 Y13.979 F900
X30.094 Y14.07
X29.958 Y14.102 F1000
X27.442
G0 Z2.503
X26.487 Y-13.728
Z-6.048
G1 Z-6.348 F1000
X26.494 Y-13.731 Z-6.415
X26.513 Y-13.743 Z-6.478
X26.544 Y-13.761 Z-6.535
X26.584 Y-13.785 Z-6.583
X26.633 Y-13.814 Z-6.618
X26.688 Y-13.847 Z-6.641
X26.745 Y-13.881 Z-6.648
G3 X27.499 Y-14.102 I0.809 J1.36
G1 X29.908
X30.363 Y-14.079
X30.823 Y-13.936
X31.31 Y-13.633
X31.741 Y-13.182
X32.07 Y-12.652
X32.318 Y-12.079
G3 X32.948 Y-9.03 I-14.131 J4.509
X33.551 Y1.553 I-84.169 J10.104
X32.847 Y13.379 I-95.255 J0.267
G1 X32.768 Y13.85
X32.714 Y13.979 F900
X32.608 Y14.07
X32.472 Y14.102 F1000
X29.958
G0 Z2.503
X28.897 Y-13.728
Z-6.048
G1 Z-6.348 F1000
X28.903 Y-13.731 Z-6.415
X28.923 Y-13.743 Z-6.478
X28.953 Y-13.761 Z-6.535
X28.994 Y-13.785 Z-6.583
X29.043 Y-13.814 Z-6.618
X29.097 Y-13.847 Z-6.641
X29.155 Y-13.881 Z-6.648
G3 X29.908 Y-14.102 I0.809 J1.36
G1 X32.46
X32.874 Y-14.081
X33.336 Y-13.937
X33.822 Y-13.635
X34.253 Y-13.184
X34.582 Y-12.654
X34.83 Y-12.081
G3 X35.457 Y-9.031 I-14.052 J4.479
X36.048 Y1.552 I-85.236 J10.066
X35.361 Y13.38 I-97.298 J0.285
G1 X35.281 Y13.85
X35.228 Y13.979 F900
X35.121 Y14.07
X34.985 Y14.102 F1000
X32.472
G0 Z2.503
X31.448 Y-13.728
Z-6.048
G1 Z-6.348 F1000
X31.455 Y-13.731 Z-6.415
X31.474 Y-13.743 Z-6.478
X31.505 Y-13.761 Z-6.535
X31.546 Y-13.785 Z-6.583
X31.594 Y-13.814 Z-6.618
X31.649 Y-13.847 Z-6.641
X31.706 Y-13.881 Z-6.648
G3 X32.46 Y-14.102 I0.809 J1.36
G1 X35.011
X35.386 Y-14.083
X35.848 Y-13.939
X36.334 Y-13.638
X36.765 Y-13.187
X37.094 Y-12.656
X37.341 Y-12.083
G3 X37.965 Y-9.033 I-13.986 J4.451
X38.543 Y0.928 I-84.895 J9.919
X37.874 Y13.381 I-99.95 J0.877
G1 X37.794 Y13.85
X37.74 Y13.979 F900
X37.634 Y14.07
X37.498 Y14.102 F1000
X34.985
G0 Z2.503
X34 Y-13.728
Z-6.048
G1 Z-6.348 F1000
X34.006 Y-13.731 Z-6.415
X34.025 Y-13.743 Z-6.478
X34.056 Y-13.761 Z-6.535
X34.097 Y-13.785 Z-6.583
X34.146 Y-13.814 Z-6.618
X34.2 Y-13.847 Z-6.641
X34.258 Y-13.881 Z-6.648
G3 X35.011 Y-14.102 I0.809 J1.36
G1 X37.421
X37.9 Y-14.078
X38.361 Y-13.934
X38.847 Y-13.633
X39.278 Y-13.182
X39.607 Y-12.651
X39.853 Y-12.078
G3 X40.474 Y-9.027 I-13.946 J4.424
X41.04 Y0.934 I-85.873 J9.874
X40.385 Y13.388 I-101.982 J0.884
G1 X40.306 Y13.85
X40.252 Y13.979 F900
X40.146 Y14.07
X40.01 Y14.102 F1000
X37.498
G0 Z2.503
X36.41 Y-13.728
Z-6.048
G1 Z-6.348 F1000
X36.416 Y-13.731 Z-6.415
X36.435 Y-13.743 Z-6.478
X36.466 Y-13.761 Z-6.535
X36.507 Y-13.785 Z-6.583
X36.556 Y-13.814 Z-6.618
X36.61 Y-13.847 Z-6.641
X36.667 Y-13.881 Z-6.648
G3 X37.421 Y-14.102 I0.809 J1.36
G1 X39.972
X40.41 Y-14.08
X40.871 Y-13.936
X41.357 Y-13.635
X41.788 Y-13.184
X42.117 Y-12.654
X42.363 Y-12.08
G3 X42.981 Y-9.029 I-13.88 J4.399
X43.532 Y0.309 I-85.035 J9.698
X42.897 Y13.388 I-104.681 J1.474
G1 X42.817 Y13.85
X42.763 Y13.979 F900
X42.657 Y14.07
X42.521 Y14.102 F1000
X40.01
G0 Z2.503
X38.961 Y-13.728
Z-6.048
G1 Z-6.348 F1000
X38.967 Y-13.731 Z-6.415
X38.987 Y-13.743 Z-6.478
X39.017 Y-13.761 Z-6.535
X39.058 Y-13.785 Z-6.583
X39.107 Y-13.814 Z-6.618
X39.161 Y-13.847 Z-6.641
X39.219 Y-13.881 Z-6.648
G3 X39.972 Y-14.102 I0.809 J1.36
G1 X42.524
X42.92 Y-14.082
X43.381 Y-13.938
X43.866 Y-13.637
X44.297 Y-13.186
X44.626 Y-12.656
X44.872 Y-12.083
G3 X45.488 Y-9.03 I-13.826 J4.376
X46.029 Y0.308 I-85.786 J9.653
X45.408 Y13.388 I-106.721 J1.487
G1 X45.328 Y13.85
X45.274 Y13.979 F900
X45.167 Y14.07
X45.031 Y14.102 F1000
X42.521
G0 Z2.503
X41.512 Y-13.728
Z-6.048
G1 Z-6.348 F1000
X41.519 Y-13.731 Z-6.415
X41.538 Y-13.743 Z-6.478
X41.569 Y-13.761 Z-6.535
X41.609 Y-13.785 Z-6.583
X41.658 Y-13.814 Z-6.618
X41.713 Y-13.847 Z-6.641
X41.77 Y-13.881 Z-6.648
G3 X42.524 Y-14.102 I0.809 J1.36
G1 X45.075
X45.429 Y-14.084
X45.89 Y-13.94
X46.375 Y-13.639
X46.806 Y-13.188
X47.135 Y-12.658
X47.381 Y-12.085
G3 X47.994 Y-9.032 I-13.778 J4.355
X48.526 Y0.307 I-86.513 J9.609
X47.918 Y13.388 I-108.729 J1.5
G1 X47.838 Y13.85
X47.784 Y13.979 F900
X47.678 Y14.07
X47.541 Y14.102 F1000
X45.031
G0 Z2.503
X44.064 Y-13.728
Z-6.048
G1 Z-6.348 F1000
X44.07 Y-13.731 Z-6.415
X44.089 Y-13.743 Z-6.478
X44.12 Y-13.761 Z-6.535
X44.161 Y-13.785 Z-6.583
X44.21 Y-13.814 Z-6.618
X44.264 Y-13.847 Z-6.641
X44.322 Y-13.881 Z-6.648
G3 X45.075 Y-14.102 I0.809 J1.36
G1 X47.485
X47.941 Y-14.079
X48.401 Y-13.936
X48.886 Y-13.635
X49.317 Y-13.184
X49.645 Y-12.653
X49.891 Y-12.08
G3 X50.501 Y-9.027 I-13.752 J4.334
X51.016 Y-0.31 I-85.112 J9.396
X50.427 Y13.395 I-111.479 J2.079
G1 X50.347 Y13.85
X50.293 Y13.979 F900
X50.187 Y14.07
X50.051 Y14.102 F1000
X47.541
G0 Z2.503
X46.474 Y-13.728
Z-6.048
G1 Z-6.348 F1000
X46.48 Y-13.731 Z-6.415
X46.499 Y-13.743 Z-6.478
X46.53 Y-13.761 Z-6.535
X46.571 Y-13.785 Z-6.583
X46.619 Y-13.814 Z-6.618
X46.674 Y-13.847 Z-6.641
X46.731 Y-13.881 Z-6.648
G3 X47.485 Y-14.102 I0.809 J1.36
G1 X50.036
X50.448 Y-14.082
X50.909 Y-13.938
X51.394 Y-13.637
X51.825 Y-13.186
X52.153 Y-12.655
X52.399 Y-12.082
G3 X53.007 Y-9.028 I-13.699 J4.315
X53.513 Y-0.312 I-85.683 J9.349
X52.936 Y13.395 I-113.488 J2.089
G1 X52.856 Y13.85
X52.802 Y13.979 F900
X52.695 Y14.07
X52.559 Y14.102 F1000
X50.051
G0 Z2.503
X49.025 Y-13.728
Z-6.048
G1 Z-6.348 F1000
X49.031 Y-13.731 Z-6.415
X49.05 Y-13.743 Z-6.478
X49.081 Y-13.761 Z-6.535
X49.122 Y-13.785 Z-6.583
X49.171 Y-13.814 Z-6.618
X49.225 Y-13.847 Z-6.641
X49.283 Y-13.881 Z-6.648
G3 X50.036 Y-14.102 I0.809 J1.36
G1 X52.588
X52.956 Y-14.084
X53.417 Y-13.94
