(250x30faceoff)
(Machine)
(  vendor: Autodesk)
(  description: Generic 3-axis)
(T2  D=3 CR=1.5 - ZMIN=-4.99 - ball end mill)
G90 G94
G17
G21
G28 G91 Z0
G90

(Adaptive2)
T2
S18000 M3
G54
G0 X253.329 Y-1.257
Z2.51
Z-4.39
G1 Z-4.69 F200
X253.323 Y-1.261 Z-4.757
X253.303 Y-1.272 Z-4.82
X253.273 Y-1.29 Z-4.877
X253.232 Y-1.314 Z-4.925
X253.183 Y-1.344 Z-4.96
X253.129 Y-1.376 Z-4.982
X253.071 Y-1.41 Z-4.99
G2 X251.488 Y-1.875 I-1.699 J2.858
G1 X251.456
X251.418 Y-1.873
G2 X251.121 Y-0.889 I2.045 J1.153
X250.997 Y1.113 I13.038 J1.809
X251.745 Y1.875 I0.745 J0.017
X252.033 Y1.548 I-0.01 J-0.299
G1 X252.006 Y1.252
X251.777 Y-1.252 F1000
X251.745 Y-1.603 F200
G2 X251.456 Y-1.875 I-0.299 J0.027
G1 X251.311
X251.272 Y-1.873
G2 X250.828 Y-1.103 I1.201 J1.207
X250.568 Y0.886 I5.668 J1.752
X250.749 Y1.514 I2.028 J-0.245
X251.392 Y1.875 I0.645 J-0.395
X251.681 Y1.568 I-0.01 J-0.3
G1 X251.673 Y1.251
X251.609 Y-1.251 F1000
X251.601 Y-1.583 F200
G2 X251.311 Y-1.875 I-0.3 J0.008
G1 X251.147
X251.109 Y-1.873
G2 X250.539 Y-1.196 I0.761 J1.219
X250.214 Y1.057 I3.522 J1.658
X250.467 Y1.616 I1.485 J-0.336
G1 X250.628 Y1.756
X250.822 Y1.845
X251.034 Y1.875
G2 X251.323 Y1.586 I-0.01 J-0.3
G1 X251.335 Y1.251
X251.425 Y-1.251 F1000
X251.436 Y-1.564 F200
G2 X251.147 Y-1.875 I-0.3 J-0.011
G1 X250.952
X250.848 Y-1.87
G2 X250.151 Y-1.109 I0.841 J1.468
X249.893 Y1.242 I2.933 J1.512
X250.306 Y1.782 I0.932 J-0.284
G1 X250.481 Y1.851
X250.667 Y1.875
G2 X250.956 Y1.602 I-0.01 J-0.3
G1 X250.987 Y1.252
X251.214 Y-1.252 F1000
X251.24 Y-1.548 F200
G2 X250.952 Y-1.875 I-0.299 J-0.027
G1 X250.695
G2 X250.221 Y-1.646 I0.062 J0.733
X249.502 Y-0.355 I1.774 J1.833
X249.594 Y1.414 I2.758 J0.743
X250.295 Y1.875 I0.707 J-0.31
X250.582 Y1.613 I-0.01 J-0.3
G1 X250.628 Y1.253
X250.946 Y-1.253 F1000
X250.982 Y-1.537 F200
G2 X250.695 Y-1.875 I-0.298 J-0.038
G1 X250.424
G2 X249.796 Y-1.566 I0.052 J0.898
X249.043 Y0.337 I1.964 J1.878
X249.29 Y1.529 I2.175 J0.169
X249.926 Y1.875 I0.641 J-0.418
G1 X250.295
G2 X250.585 Y1.587 I-0.01 J-0.3
G1 X250.598 Y1.251
X250.701 Y-1.251 F1000
X250.713 Y-1.563 F200
G2 X250.424 Y-1.875 I-0.3 J-0.012
G1 X250.102
G2 X249.453 Y-1.577 I0.032 J0.925
X248.673 Y0.313 I1.877 J1.881
X248.914 Y1.519 I2.177 J0.191
X249.556 Y1.875 I0.647 J-0.409
G1 X249.926
G2 X250.215 Y1.592 I-0.01 J-0.3
G1 X250.234 Y1.251
X250.374 Y-1.251 F1000
X250.391 Y-1.558 F200
G2 X250.102 Y-1.875 I-0.3 J-0.017
G1 X249.755
G2 X248.992 Y-1.476 I0.055 J1.035
X248.299 Y0.451 I2.036 J1.82
X248.542 Y1.513 I2.089 J0.081
X249.186 Y1.875 I0.649 J-0.401
G1 X249.556
G2 X249.845 Y1.594 I-0.01 J-0.3
G1 X249.867 Y1.251
X250.025 Y-1.251 F1000
X250.044 Y-1.556 F200
G2 X249.755 Y-1.875 I-0.299 J-0.019
G1 X249.399
G2 X248.63 Y-1.48 I0.051 J1.044
X247.929 Y0.444 I2.016 J1.825
X248.17 Y1.51 I2.091 J0.087
X248.817 Y1.875 I0.651 J-0.398
G1 X249.186
G2 X249.475 Y1.595 I-0.01 J-0.3
G1 X249.498 Y1.251
X249.667 Y-1.251 F1000
X249.687 Y-1.555 F200
G2 X249.399 Y-1.875 I-0.299 J-0.02
G1 X249.044
G2 X248.267 Y-1.484 I0.041 J1.048
X247.559 Y0.437 I2.001 J1.829
X247.799 Y1.508 I2.096 J0.092
X248.447 Y1.875 I0.652 J-0.395
G1 X248.817
G2 X249.105 Y1.597 I-0.01 J-0.3
G1 X249.13 Y1.251
X249.311 Y-1.251 F1000
X249.332 Y-1.554 F200
G2 X249.044 Y-1.875 I-0.299 J-0.022
G1 X248.684
G2 X247.851 Y-1.431 I0.06 J1.116
X247.362 Y1.386 I2.146 J1.824
X248.075 Y1.877 I0.735 J-0.304
G1 X248.447 Y1.875
G2 X248.736 Y1.598 I-0.01 J-0.3
G1 X248.762 Y1.252
X248.95 Y-1.251 F1000
X248.973 Y-1.553 F200
G2 X248.684 Y-1.875 I-0.299 J-0.023
G1 X248.312
G2 X247.534 Y-1.485 I0.042 J1.056
X246.836 Y0.732 I2.053 J1.865
X247.174 Y1.661 I1.591 J-0.055
G1 X247.333 Y1.775
X247.514 Y1.85
X247.707 Y1.875
X248.075
G2 X248.364 Y1.598 I-0.01 J-0.3
G1 X248.39 Y1.252
X248.578 Y-1.251 F1000
X248.6 Y-1.553 F200
G2 X248.312 Y-1.875 I-0.299 J-0.022
G1 X247.942
G2 X247.165 Y-1.485 I0.043 J1.054
X246.451 Y0.433 I1.988 J1.833
X246.689 Y1.506 I2.097 J0.097
X247.338 Y1.875 I0.653 J-0.393
G1 X247.707
G2 X247.995 Y1.598 I-0.01 J-0.3
G1 X248.021 Y1.251
X248.208 Y-1.251 F1000
X248.231 Y-1.553 F200
G2 X247.942 Y-1.875 I-0.299 J-0.022
G1 X247.588
G2 X246.751 Y-1.436 I0.051 J1.116
X246.25 Y1.379 I2.134 J1.832
X246.966 Y1.877 I0.739 J-0.298
G1 X247.338 Y1.875
G2 X247.626 Y1.599 I-0.01 J-0.3
G1 X247.654 Y1.252
X247.853 Y-1.252 F1000
X247.877 Y-1.551 F200
G2 X247.588 Y-1.875 I-0.299 J-0.024
G1 X247.203
G2 X246.427 Y-1.485 I0.046 J1.058
X245.727 Y0.732 I2.051 J1.867
X246.066 Y1.661 I1.589 J-0.053
G1 X246.225 Y1.776
X246.405 Y1.85
X246.598 Y1.875
X246.967
G2 X247.255 Y1.598 I-0.01 J-0.3
G1 X247.281 Y1.252
X247.469 Y-1.251 F1000
X247.492 Y-1.553 F200
G2 X247.203 Y-1.875 I-0.299 J-0.022
G1 X246.847
G2 X246.011 Y-1.433 I0.057 J1.119
X245.512 Y1.382 I2.135 J1.831
X246.227 Y1.877 I0.737 J-0.3
G1 X246.598 Y1.875
G2 X246.887 Y1.599 I-0.01 J-0.3
G1 X246.914 Y1.252
X247.112 Y-1.252 F1000
X247.135 Y-1.552 F200
G2 X246.847 Y-1.875 I-0.299 J-0.024
G1 X246.492
G2 X245.649 Y-1.44 I0.042 J1.115
X245.138 Y1.372 I2.125 J1.839
X245.857 Y1.877 I0.739 J-0.288
G1 X246.227 Y1.875
G2 X246.516 Y1.6 I-0.01 J-0.3
G1 X246.545 Y1.252
X246.755 Y-1.252 F1000
X246.78 Y-1.55 F200
G2 X246.492 Y-1.875 I-0.299 J-0.025
G1 X246.101
G2 X245.322 Y-1.486 I0.043 J1.06
X244.619 Y0.73 I2.046 J1.869
X244.956 Y1.66 I1.588 J-0.049
G1 X245.115 Y1.775
X245.295 Y1.85
X245.489 Y1.875
X245.857
G2 X246.146 Y1.598 I-0.01 J-0.3
G1 X246.172 Y1.252
X246.366 Y-1.251 F1000
X246.389 Y-1.552 F200
G2 X246.101 Y-1.875 I-0.299 J-0.023
G1 X245.712
G2 X244.947 Y-1.481 I0.061 J1.059
X244.25 Y0.737 I2.055 J1.864
X244.59 Y1.663 I1.575 J-0.053
G1 X244.748 Y1.776
X244.928 Y1.85
X245.12 Y1.875
X245.489
G2 X245.778 Y1.596 I-0.01 J-0.3
G1 X245.802 Y1.251
X245.98 Y-1.251 F1000
X246.001 Y-1.554 F200
G2 X245.712 Y-1.875 I-0.299 J-0.021
G1 X245.357
G2 X244.581 Y-1.485 I0.045 J1.056
X243.865 Y0.433 I1.99 J1.837
X244.102 Y1.505 I2.094 J0.1
X244.751 Y1.875 I0.654 J-0.393
G1 X245.12
G2 X245.409 Y1.598 I-0.01 J-0.3
G1 X245.435 Y1.252
X245.623 Y-1.251 F1000
X245.646 Y-1.553 F200
G2 X245.357 Y-1.875 I-0.299 J-0.023
G1 X244.998
G2 X244.164 Y-1.432 I0.061 J1.122
X243.665 Y1.383 I2.137 J1.83
X244.38 Y1.877 I0.737 J-0.302
G1 X244.751 Y1.875
G2 X245.04 Y1.599 I-0.01 J-0.3
G1 X245.067 Y1.252
X245.263 Y-1.251 F1000
X245.287 Y-1.552 F200
G2 X244.998 Y-1.875 I-0.299 J-0.023
G1 X244.625
G2 X243.845 Y-1.487 I0.04 J1.059
X243.141 Y0.729 I2.046 J1.87
X243.478 Y1.66 I1.596 J-0.052
G1 X243.638 Y1.775
X243.818 Y1.85
X244.012 Y1.875
X244.38
G2 X244.669 Y1.598 I-0.01 J-0.3
G1 X244.696 Y1.252
X244.891 Y-1.251 F1000
X244.914 Y-1.552 F200
G2 X244.625 Y-1.875 I-0.299 J-0.023
G1 X244.256
G2 X243.476 Y-1.487 I0.04 J1.057
X242.757 Y0.43 I1.983 J1.838
X242.993 Y1.504 I2.097 J0.102
X243.643 Y1.875 I0.654 J-0.391
G1 X244.012
G2 X244.301 Y1.598 I-0.01 J-0.3
G1 X244.327 Y1.252
X244.521 Y-1.251 F1000
X244.545 Y-1.552 F200
G2 X244.256 Y-1.875 I-0.299 J-0.023
G1 X243.902
G2 X243.062 Y-1.439 I0.046 J1.115
X242.554 Y1.374 I2.128 J1.837
X243.272 Y1.877 I0.741 J-0.295
G1 X243.643 Y1.875
G2 X243.932 Y1.6 I-0.01 J-0.3
G1 X243.96 Y1.252
X244.166 Y-1.252 F1000
X244.191 Y-1.551 F200
G2 X243.902 Y-1.875 I-0.299 J-0.025
G1 X243.517
G2 X242.737 Y-1.486 I0.041 J1.059
X242.033 Y0.729 I2.046 J1.87
X242.371 Y1.66 I1.594 J-0.052
G1 X242.53 Y1.775
X242.711 Y1.85
X242.904 Y1.875
X243.272
G2 X243.561 Y1.598 I-0.01 J-0.3
G1 X243.588 Y1.252
X243.782 Y-1.251 F1000
X243.806 Y-1.552 F200
G2 X243.517 Y-1.875 I-0.299 J-0.023
G1 X243.16
G2 X242.322 Y-1.437 I0.05 J1.117
X241.816 Y1.377 I2.13 J1.835
X242.533 Y1.877 I0.74 J-0.297
G1 X242.904 Y1.875
G2 X243.193 Y1.6 I-0.01 J-0.3
G1 X243.221 Y1.252
X243.425 Y-1.252 F1000
X243.449 Y-1.551 F200
G2 X243.16 Y-1.875 I-0.299 J-0.024
G1 X242.778
G2 X241.999 Y-1.486 I0.041 J1.059
X241.294 Y0.729 I2.045 J1.87
X241.632 Y1.66 I1.594 J-0.051
G1 X241.791 Y1.775
X241.972 Y1.85
X242.165 Y1.875
X242.533
G2 X242.822 Y1.598 I-0.01 J-0.3
G1 X242.849 Y1.252
X243.044 Y-1.251 F1000
X243.067 Y-1.552 F200
G2 X242.778 Y-1.875 I-0.299 J-0.023
G1 X242.414
G2 X241.58 Y-1.432 I0.061 J1.123
X241.079 Y1.382 I2.134 J1.832
X241.794 Y1.877 I0.737 J-0.301
G1 X242.165 Y1.875
G2 X242.454 Y1.599 I-0.01 J-0.3
G1 X242.481 Y1.252
X242.679 Y-1.252 F1000
X242.703 Y-1.552 F200
G2 X242.414 Y-1.875 I-0.299 J-0.024
G1 X242.026
G2 X241.256 Y-1.483 I0.055 J1.059
X240.556 Y0.735 I2.053 J1.868
X240.894 Y1.661 I1.585 J-0.053
G1 X241.053 Y1.776
X241.233 Y1.85
X241.426 Y1.875
X241.794
G2 X242.083 Y1.597 I-0.01 J-0.3
G1 X242.109 Y1.251
X242.293 Y-1.251 F1000
X242.315 Y-1.553 F200
G2 X242.026 Y-1.875 I-0.299 J-0.022
G1 X241.671
G2 X240.891 Y-1.487 I0.039 J1.057
X240.171 Y0.43 I1.984 J1.839
X240.407 Y1.504 I2.097 J0.102
X241.058 Y1.875 I0.654 J-0.391
G1 X241.426
G2 X241.715 Y1.598 I-0.01 J-0.3
G1 X241.742 Y1.252
X241.936 Y-1.251 F1000
X241.96 Y-1.552 F200
G2 X241.671 Y-1.875 I-0.299 J-0.023
G1 X241.312
G2 X240.474 Y-1.435 I0.053 J1.119
X239.97 Y1.378 I2.131 J1.834
X240.687 Y1.877 I0.739 J-0.298
G1 X241.058 Y1.875
G2 X241.346 Y1.599 I-0.01 J-0.3
G1 X241.374 Y1.252
X241.576 Y-1.252 F1000
X241.6 Y-1.551 F200
G2 X241.312 Y-1.875 I-0.299 J-0.024
G1 X240.939
G2 X240.103 Y-1.433 I0.06 J1.125
X239.601 Y1.381 I2.131 J1.832
X240.316 Y1.877 I0.734 J-0.295
G1 X240.687 Y1.875
G2 X240.975 Y1.599 I-0.01 J-0.3
G1 X241.003 Y1.252
X241.204 Y-1.252 F1000
X241.228 Y-1.551 F200
G2 X240.939 Y-1.875 I-0.299 J-0.024
G1 X240.57
G2 X239.734 Y-1.433 I0.062 J1.128
X239.231 Y1.381 I2.133 J1.833
X239.946 Y1.877 I0.733 J-0.294
G1 X240.316 Y1.875
G2 X240.605 Y1.599 I-0.01 J-0.3
G1 X240.633 Y1.252
X240.834 Y-1.252 F1000
X240.858 Y-1.551 F200
G2 X240.57 Y-1.875 I-0.299 J-0.024
G1 X240.216
G2 X239.373 Y-1.441 I0.041 J1.118
X238.737 Y0.938 I2.124 J1.841
X239.061 Y1.676 I1.339 J-0.148
G1 X239.216 Y1.783
X239.39 Y1.852
X239.576 Y1.875
X239.946
G2 X240.234 Y1.601 I-0.01 J-0.3
G1 X240.264 Y1.252
X240.479 Y-1.252 F1000
X240.505 Y-1.55 F200
G2 X240.216 Y-1.875 I-0.299 J-0.026
G1 X239.831
G2 X238.995 Y-1.433 I0.063 J1.129
X238.492 Y1.381 I2.136 J1.834
X239.206 Y1.877 I0.734 J-0.295
G1 X239.576 Y1.875
G2 X239.865 Y1.599 I-0.01 J-0.3
G1 X239.893 Y1.252
X240.095 Y-1.252 F1000
X240.119 Y-1.551 F200
G2 X239.831 Y-1.875 I-0.299 J-0.024
G1 X239.474
G2 X238.632 Y-1.44 I0.046 J1.12
X238.119 Y1.373 I2.129 J1.842
X238.837 Y1.877 I0.738 J-0.288
G1 X239.206 Y1.875
G2 X239.495 Y1.601 I-0.01 J-0.3
G1 X239.524 Y1.252
X239.737 Y-1.252 F1000
X239.763 Y-1.55 F200
G2 X239.474 Y-1.875 I-0.299 J-0.025
G1 X239.092
G2 X238.257 Y-1.433 I0.063 J1.129
X237.752 Y1.381 I2.136 J1.835
X238.467 Y1.877 I0.734 J-0.295
G1 X238.837 Y1.875
G2 X239.125 Y1.599 I-0.01 J-0.3
G1 X239.154 Y1.252
X239.357 Y-1.252 F1000
X239.381 Y-1.551 F200
G2 X239.092 Y-1.875 I-0.299 J-0.024
G1 X238.728
G2 X237.89 Y-1.436 I0.055 J1.125
X237.381 Y1.378 I2.133 J1.839
X238.097 Y1.877 I0.735 J-0.292
G1 X238.467 Y1.875
G2 X238.755 Y1.6 I-0.01 J-0.3
G1 X238.784 Y1.252
X238.992 Y-1.252 F1000
X239.017 Y-1.55 F200
G2 X238.728 Y-1.875 I-0.299 J-0.025
G1 X238.34
G2 X237.565 Y-1.485 I0.049 J1.061
X236.861 Y0.731 I2.052 J1.872
X237.197 Y1.66 I1.58 J-0.046
G1 X237.356 Y1.775
X237.536 Y1.85
X237.73 Y1.875
X238.097
G2 X238.386 Y1.598 I-0.01 J-0.3
G1 X238.413 Y1.252
X238.606 Y-1.251 F1000
X238.629 Y-1.552 F200
G2 X238.34 Y-1.875 I-0.299 J-0.023
G1 X237.985
G2 X237.149 Y-1.434 I0.057 J1.121
X236.643 Y1.38 I2.137 J1.836
X237.36 Y1.877 I0.738 J-0.3
G1 X237.73 Y1.875
G2 X238.019 Y1.599 I-0.01 J-0.3
G1 X238.047 Y1.252
X238.249 Y-1.252 F1000
X238.274 Y-1.551 F200
G2 X237.985 Y-1.875 I-0.299 J-0.024
G1 X237.626
G2 X236.785 Y-1.438 I0.047 J1.119
X236.272 Y1.374 I2.126 J1.841
X236.99 Y1.877 I0.738 J-0.29
G1 X237.36 Y1.875
G2 X237.648 Y1.6 I-0.01 J-0.3
G1 X237.678 Y1.252
X237.889 Y-1.252 F1000
X237.914 Y-1.55 F200
G2 X237.626 Y-1.875 I-0.299 J-0.025
G1 X237.253
G2 X236.414 Y-1.437 I0.053 J1.124
X235.903 Y1.376 I2.128 J1.839
X236.62 Y1.877 I0.737 J-0.291
G1 X236.99 Y1.875
G2 X237.278 Y1.6 I-0.01 J-0.3
G1 X237.307 Y1.252
X237.517 Y-1.252 F1000
X237.542 Y-1.55 F200
G2 X237.253 Y-1.875 I-0.299 J-0.025
G1 X236.884
G2 X236.044 Y-1.437 I0.053 J1.125
X235.533 Y1.376 I2.129 J1.839
X236.25 Y1.877 I0.736 J-0.29
G1 X236.62 Y1.875
G2 X236.908 Y1.6 I-0.01 J-0.3
G1 X236.938 Y1.252
X237.147 Y-1.252 F1000
X237.172 Y-1.55 F200
G2 X236.884 Y-1.875 I-0.299 J-0.025
G1 X236.491
G2 X235.718 Y-1.484 I0.05 J1.061
X235.014 Y0.732 I2.051 J1.872
X235.35 Y1.66 I1.582 J-0.047
G1 X235.509 Y1.775
X235.69 Y1.85
X235.883 Y1.875
X236.25
G2 X236.539 Y1.598 I-0.01 J-0.3
G1 X236.565 Y1.252
X236.757 Y-1.251 F1000
X236.78 Y-1.552 F200
G2 X236.491 Y-1.875 I-0.299 J-0.023
G1 X236.145
G2 X235.305 Y-1.438 I0.048 J1.116
X234.795 Y1.376 I2.132 J1.84
X235.513 Y1.877 I0.741 J-0.296
G1 X235.883 Y1.875
G2 X236.171 Y1.6 I-0.01 J-0.3
G1 X236.2 Y1.252
X236.408 Y-1.252 F1000
X236.433 Y-1.55 F200
G2 X236.145 Y-1.875 I-0.299 J-0.025
G1 X235.749
G2 X234.977 Y-1.483 I0.053 J1.059
X234.275 Y0.734 I2.054 J1.871
X234.613 Y1.661 I1.583 J-0.051
G1 X234.772 Y1.776
X234.952 Y1.85
X235.145 Y1.875
X235.513
G2 X235.801 Y1.598 I-0.01 J-0.3
G1 X235.827 Y1.252
X236.015 Y-1.251 F1000
X236.037 Y-1.553 F200
G2 X235.749 Y-1.875 I-0.299 J-0.022
G1 X235.396
G2 X234.561 Y-1.432 I0.061 J1.123
X234.059 Y1.382 I2.135 J1.833
X234.774 Y1.877 I0.737 J-0.302
G1 X235.145 Y1.875
G2 X235.433 Y1.599 I-0.01 J-0.3
G1 X235.461 Y1.252
X235.66 Y-1.252 F1000
X235.684 Y-1.551 F200
G2 X235.396 Y-1.875 I-0.299 J-0.024
G1 X235.042
G2 X234.2 Y-1.44 I0.044 J1.117
X233.686 Y1.372 I2.124 J1.841
X234.404 Y1.877 I0.739 J-0.288
G1 X234.774 Y1.875
G2 X235.063 Y1.601 I-0.01 J-0.3
G1 X235.092 Y1.252
X235.305 Y-1.252 F1000
X235.33 Y-1.55 F200
G2 X235.042 Y-1.875 I-0.299 J-0.025
G1 X234.654
G2 X233.873 Y-1.487 I0.041 J1.061
X233.167 Y0.728 I2.044 J1.873
X233.503 Y1.659 I1.589 J-0.047
G1 X233.662 Y1.775
X233.843 Y1.85
X234.037 Y1.875
X234.404
G2 X234.693 Y1.599 I-0.01 J-0.3
G1 X234.72 Y1.252
X234.919 Y-1.252 F1000
X234.942 Y-1.551 F200
G2 X234.654 Y-1.875 I-0.299 J-0.024
G1 X234.299
G2 X233.459 Y-1.438 I0.047 J1.116
X232.948 Y1.375 I2.129 J1.84
X233.666 Y1.877 I0.741 J-0.295
G1 X234.037 Y1.875
G2 X234.325 Y1.6 I-0.01 J-0.3
G1 X234.354 Y1.252
X234.562 Y-1.252 F1000
X234.587 Y-1.55 F200
G2 X234.299 Y-1.875 I-0.299 J-0.025
G1 X233.89
G2 X233.234 Y-1.584 I0.034 J0.962
X232.418 Y0.29 I1.812 J1.904
X232.649 Y1.508 I2.192 J0.215
X233.298 Y1.875 I0.655 J-0.399
G1 X233.666
G2 X233.955 Y1.596 I-0.01 J-0.3
G1 X233.98 Y1.251
X234.158 Y-1.251 F1000
X234.179 Y-1.554 F200
G2 X233.89 Y-1.875 I-0.299 J-0.021
G1 X233.52
G2 X232.864 Y-1.584 I0.033 J0.96
X232.049 Y0.29 I1.806 J1.899
X232.281 Y1.509 I2.179 J0.216
X232.929 Y1.875 I0.654 J-0.4
G1 X233.298
G2 X233.587 Y1.596 I-0.01 J-0.3
G1 X233.611 Y1.251
X233.787 Y-1.251 F1000
X233.808 Y-1.554 F200
G2 X233.52 Y-1.875 I-0.299 J-0.021
G1 X233.165
G2 X232.391 Y-1.484 I0.048 J1.057
X231.674 Y0.434 I1.991 J1.837
X231.912 Y1.506 I2.093 J0.099
X232.561 Y1.875 I0.653 J-0.393
G1 X232.929
G2 X233.218 Y1.598 I-0.01 J-0.3
G1 X233.244 Y1.251
X233.431 Y-1.251 F1000
X233.453 Y-1.553 F200
G2 X233.165 Y-1.875 I-0.299 J-0.022
G1 X232.805
G2 X232.024 Y-1.487 I0.038 J1.057
X231.305 Y0.429 I1.985 J1.838
X231.541 Y1.504 I2.097 J0.102
X232.192 Y1.875 I0.654 J-0.391
G1 X232.561
G2 X232.849 Y1.598 I-0.01 J-0.3
G1 X232.876 Y1.252
X233.07 Y-1.251 F1000
X233.094 Y-1.552 F200
G2 X232.805 Y-1.875 I-0.299 J-0.023
G1 X232.433
G2 X231.654 Y-1.486 I0.042 J1.058
X230.935 Y0.43 I1.985 J1.837
X231.173 Y1.505 I2.096 J0.1
X231.822 Y1.875 I0.654 J-0.392
G1 X232.192
G2 X232.48 Y1.598 I-0.01 J-0.3
G1 X232.507 Y1.252
X232.698 Y-1.251 F1000
X232.721 Y-1.552 F200
G2 X232.433 Y-1.875 I-0.299 J-0.023
G1 X232.063
G2 X231.284 Y-1.486 I0.041 J1.058
X230.566 Y0.43 I1.984 J1.837
X230.804 Y1.505 I2.097 J0.1
X231.453 Y1.875 I0.654 J-0.392
G1 X231.822
G2 X232.111 Y1.598 I-0.01 J-0.3
G1 X232.138 Y1.252
X232.329 Y-1.251 F1000
X232.352 Y-1.552 F200
G2 X232.063 Y-1.875 I-0.299 J-0.023
G1 X231.71
G2 X230.87 Y-1.438 I0.047 J1.115
X230.364 Y1.376 I2.129 J1.835
X231.082 Y1.877 I0.741 J-0.296
G1 X231.453 Y1.875
G2 X231.742 Y1.6 I-0.01 J-0.3
G1 X231.77 Y1.252
X231.974 Y-1.252 F1000
X231.998 Y-1.551 F200
G2 X231.71 Y-1.875 I-0.299 J-0.024
G1 X231.324
G2 X230.545 Y-1.486 I0.042 J1.059
X229.843 Y0.73 I2.046 J1.869
X230.181 Y1.66 I1.594 J-0.053
G1 X230.34 Y1.775
X230.52 Y1.85
X230.714 Y1.875
X231.082
G2 X231.371 Y1.598 I-0.01 J-0.3
G1 X231.398 Y1.252
X231.59 Y-1.251 F1000
X231.613 Y-1.552 F200
G2 X231.324 Y-1.875 I-0.299 J-0.023
G1 X230.968
G2 X230.13 Y-1.436 I0.052 J1.117
X229.626 Y1.378 I2.131 J1.834
X230.343 Y1.877 I0.739 J-0.298
G1 X230.714 Y1.875
G2 X231.002 Y1.599 I-0.01 J-0.3
G1 X231.03 Y1.252
X231.232 Y-1.252 F1000
X231.256 Y-1.551 F200
G2 X230.968 Y-1.875 I-0.299 J-0.024
G1 X230.586
G2 X229.807 Y-1.486 I0.043 J1.059
X229.104 Y0.73 I2.046 J1.869
X229.442 Y1.66 I1.593 J-0.052
G1 X229.601 Y1.775
X229.781 Y1.85
X229.975 Y1.875
X230.343
G2 X230.632 Y1.598 I-0.01 J-0.3
G1 X230.658 Y1.252
X230.851 Y-1.251 F1000
X230.874 Y-1.552 F200
G2 X230.586 Y-1.875 I-0.299 J-0.023
G1 X230.222
G2 X229.388 Y-1.431 I0.063 J1.124
X228.889 Y1.384 I2.136 J1.83
X229.604 Y1.877 I0.736 J-0.302
G1 X229.975 Y1.875
G2 X230.263 Y1.599 I-0.01 J-0.3
G1 X230.291 Y1.252
X230.487 Y-1.251 F1000
X230.51 Y-1.552 F200
G2 X230.222 Y-1.875 I-0.299 J-0.023
G1 X229.833
G2 X229.065 Y-1.482 I0.057 J1.059
X228.366 Y0.735 I2.054 J1.867
X228.704 Y1.662 I1.584 J-0.054
G1 X228.863 Y1.776
X229.043 Y1.85
X229.236 Y1.875
X229.604
G2 X229.893 Y1.597 I-0.01 J-0.3
G1 X229.918 Y1.251
X230.1 Y-1.251 F1000
X230.122 Y-1.553 F200
G2 X229.833 Y-1.875 I-0.299 J-0.022
G1 X229.478
G2 X228.7 Y-1.486 I0.041 J1.057
X227.981 Y0.431 I1.986 J1.838
X228.217 Y1.505 I2.097 J0.101
X228.867 Y1.875 I0.654 J-0.392
G1 X229.236
G2 X229.524 Y1.598 I-0.01 J-0.3
G1 X229.551 Y1.252
X229.744 Y-1.251 F1000
X229.767 Y-1.552 F200
G2 X229.478 Y-1.875 I-0.299 J-0.023
G1 X229.119
G2 X228.283 Y-1.434 I0.056 J1.12
X227.78 Y1.38 I2.133 J1.833
X228.496 Y1.877 I0.739 J-0.299
G1 X228.867 Y1.875
G2 X229.156 Y1.599 I-0.01 J-0.3
G1 X229.183 Y1.252
X229.384 Y-1.252 F1000
X229.408 Y-1.551 F200
G2 X229.119 Y-1.875 I-0.299 J-0.024
G1 X228.746
G2 X227.912 Y-1.432 I0.063 J1.126
X227.411 Y1.382 I2.132 J1.831
X228.125 Y1.877 I0.734 J-0.296
G1 X228.496 Y1.875
G2 X228.785 Y1.599 I-0.01 J-0.3
G1 X228.812 Y1.252
X229.011 Y-1.252 F1000
X229.035 Y-1.551 F200
G2 X228.746 Y-1.875 I-0.299 J-0.024
G1 X228.377
G2 X227.543 Y-1.432 I0.064 J1.129
X227.041 Y1.382 I2.134 J1.832
X227.755 Y1.877 I0.732 J-0.295
G1 X228.125 Y1.875
G2 X228.414 Y1.599 I-0.01 J-0.3
G1 X228.442 Y1.252
X228.642 Y-1.252 F1000
X228.666 Y-1.551 F200
G2 X228.377 Y-1.875 I-0.299 J-0.024
G1 X228.023
G2 X227.181 Y-1.44 I0.044 J1.119
X226.547 Y0.94 I2.126 J1.84
X226.871 Y1.676 I1.337 J-0.148
G1 X227.026 Y1.783
X227.2 Y1.852
X227.386 Y1.875
X227.755
G2 X228.044 Y1.601 I-0.01 J-0.3
G1 X228.073 Y1.252
X228.286 Y-1.252 F1000
X228.312 Y-1.55 F200
G2 X228.023 Y-1.875 I-0.299 J-0.025
G1 X227.638
G2 X226.804 Y-1.432 I0.065 J1.13
X226.302 Y1.383 I2.137 J1.833
X227.016 Y1.877 I0.733 J-0.296
G1 X227.386 Y1.875
G2 X227.674 Y1.599 I-0.01 J-0.3
G1 X227.702 Y1.252
X227.903 Y-1.252 F1000
X227.927 Y-1.551 F200
G2 X227.638 Y-1.875 I-0.299 J-0.024
G1 X227.282
G2 X226.441 Y-1.438 I0.048 J1.121
X225.929 Y1.374 I2.131 J1.841
X226.646 Y1.877 I0.737 J-0.289
G1 X227.016 Y1.875
G2 X227.304 Y1.6 I-0.01 J-0.3
G1 X227.333 Y1.252
X227.545 Y-1.252 F1000
X227.57 Y-1.55 F200
G2 X227.282 Y-1.875 I-0.299 J-0.025
G1 X226.9
G2 X226.065 Y-1.432 I0.065 J1.13
X225.562 Y1.383 I2.138 J1.834
X226.276 Y1.877 I0.733 J-0.296
G1 X226.646 Y1.875
G2 X226.935 Y1.599 I-0.01 J-0.3
G1 X226.963 Y1.252
X227.164 Y-1.252 F1000
X227.188 Y-1.551 F200
G2 X226.9 Y-1.875 I-0.299 J-0.024
G1 X226.535
G2 X225.698 Y-1.435 I0.058 J1.126
X225.191 Y1.379 I2.135 J1.837
X225.906 Y1.877 I0.734 J-0.293
G1 X226.276 Y1.875
G2 X226.565 Y1.6 I-0.01 J-0.3
G1 X226.593 Y1.252
X226.799 Y-1.252 F1000
X226.824 Y-1.551 F200
G2 X226.535 Y-1.875 I-0.299 J-0.025
G1 X226.147
G2 X225.374 Y-1.484 I0.051 J1.061
X224.67 Y0.732 I2.054 J1.872
X225.006 Y1.66 I1.579 J-0.047
G1 X225.166 Y1.775
X225.346 Y1.85
X225.539 Y1.875
X225.906
G2 X226.195 Y1.598 I-0.01 J-0.3
G1 X226.222 Y1.252
X226.413 Y-1.251 F1000
X226.436 Y-1.552 F200
G2 X226.147 Y-1.875 I-0.299 J-0.023
G1 X225.792
G2 X224.957 Y-1.433 I0.06 J1.122
X224.453 Y1.382 I2.138 J1.835
X225.169 Y1.877 I0.738 J-0.301
G1 X225.539 Y1.875
G2 X225.828 Y1.599 I-0.01 J-0.3
G1 X225.856 Y1.252
X226.057 Y-1.252 F1000
X226.081 Y-1.551 F200
G2 X225.792 Y-1.875 I-0.299 J-0.024
G1 X225.433
G2 X224.593 Y-1.437 I0.05 J1.12
X224.082 Y1.375 I2.128 J1.84
X224.799 Y1.877 I0.738 J-0.291
G1 X225.169 Y1.875
G2 X225.458 Y1.6 I-0.01 J-0.3
G1 X225.487 Y1.252
X225.696 Y-1.252 F1000
X225.721 Y-1.55 F200
G2 X225.433 Y-1.875 I-0.299 J-0.025
G1 X225.06
G2 X224.222 Y-1.436 I0.056 J1.125
X223.713 Y1.377 I2.13 J1.838
X224.429 Y1.877 I0.736 J-0.292
G1 X224.799 Y1.875
G2 X225.088 Y1.6 I-0.01 J-0.3
G1 X225.116 Y1.252
X225.324 Y-1.252 F1000
X225.349 Y-1.55 F200
G2 X225.06 Y-1.875 I-0.299 J-0.025
G1 X224.691
G2 X223.853 Y-1.436 I0.056 J1.126
X223.343 Y1.377 I2.131 J1.838
X224.059 Y1.877 I0.736 J-0.292
G1 X224.429 Y1.875
G2 X224.718 Y1.6 I-0.01 J-0.3
G1 X224.747 Y1.252
X224.955 Y-1.252 F1000
X224.979 Y-1.55 F200
G2 X224.691 Y-1.875 I-0.299 J-0.025
G1 X224.299
G2 X223.526 Y-1.484 I0.053 J1.061
X222.823 Y0.732 I2.053 J1.871
X223.16 Y1.66 I1.579 J-0.047
G1 X223.319 Y1.775
X223.499 Y1.85
X223.692 Y1.875
X224.06
G2 X224.348 Y1.598 I-0.01 J-0.3
G1 X224.374 Y1.252
X224.564 Y-1.251 F1000
X224.587 Y-1.552 F200
G2 X224.299 Y-1.875 I-0.299 J-0.023
G1 X223.952
G2 X223.113 Y-1.436 I0.051 J1.118
X222.604 Y1.377 I2.133 J1.839
X223.322 Y1.877 I0.74 J-0.297
G1 X223.692 Y1.875
G2 X223.981 Y1.6 I-0.01 J-0.3
G1 X224.009 Y1.252
X224.216 Y-1.252 F1000
X224.24 Y-1.551 F200
G2 X223.952 Y-1.875 I-0.299 J-0.025
G1 X223.556
G2 X222.786 Y-1.482 I0.055 J1.059
X222.084 Y0.734 I2.055 J1.87
X222.422 Y1.661 I1.582 J-0.052
G1 X222.581 Y1.776
X222.761 Y1.85
X222.954 Y1.875
X223.322
G2 X223.611 Y1.597 I-0.01 J-0.3
G1 X223.636 Y1.251
X223.822 Y-1.251 F1000
X223.845 Y-1.553 F200
G2 X223.556 Y-1.875 I-0.299 J-0.022
G1 X223.203
G2 X222.422 Y-1.487 I0.038 J1.057
X221.7 Y0.428 I1.984 J1.841
X221.935 Y1.503 I2.097 J0.105
X222.586 Y1.875 I0.655 J-0.391
G1 X222.954
G2 X223.243 Y1.599 I-0.01 J-0.3
G1 X223.27 Y1.252
X223.468 Y-1.252 F1000
X223.492 Y-1.552 F200
G2 X223.203 Y-1.875 I-0.299 J-0.024
G1 X222.849
G2 X222.008 Y-1.44 I0.043 J1.114
X221.496 Y1.373 I2.126 J1.84
X222.215 Y1.877 I0.742 J-0.294
G1 X222.586 Y1.875
G2 X222.874 Y1.6 I-0.01 J-0.3
G1 X222.903 Y1.252
X223.113 Y-1.252 F1000
X223.138 Y-1.55 F200
G2 X222.849 Y-1.875 I-0.299 J-0.025
G1 X222.461
G2 X221.682 Y-1.486 I0.042 J1.06
X220.976 Y0.729 I2.046 J1.872
X221.314 Y1.66 I1.594 J-0.051
G1 X221.473 Y1.775
X221.653 Y1.85
X221.847 Y1.875
X222.215
G2 X222.504 Y1.599 I-0.01 J-0.3
G1 X222.531 Y1.252
X222.726 Y-1.251 F1000
X222.75 Y-1.552 F200
G2 X222.461 Y-1.875 I-0.299 J-0.023
G1 X222.106
G2 X221.267 Y-1.437 I0.049 J1.117
X220.758 Y1.376 I2.128 J1.837
X221.476 Y1.877 I0.741 J-0.296
G1 X221.847 Y1.875
G2 X222.135 Y1.6 I-0.01 J-0.3
G1 X222.164 Y1.252
X222.37 Y-1.252 F1000
X222.395 Y-1.551 F200
G2 X222.106 Y-1.875 I-0.299 J-0.025
G1 X221.698
G2 X221.042 Y-1.584 I0.035 J0.961
X220.227 Y0.29 I1.813 J1.903
X220.459 Y1.508 I2.193 J0.213
X221.108 Y1.875 I0.654 J-0.399
G1 X221.476
G2 X221.765 Y1.596 I-0.01 J-0.3
G1 X221.789 Y1.251
X221.965 Y-1.251 F1000
X221.986 Y-1.554 F200
G2 X221.698 Y-1.875 I-0.299 J-0.021
G1 X221.327
G2 X220.672 Y-1.583 I0.035 J0.959
X219.858 Y0.291 I1.806 J1.898
X220.091 Y1.509 I2.179 J0.214
X220.739 Y1.875 I0.654 J-0.4
G1 X221.108
G2 X221.397 Y1.596 I-0.01 J-0.3
G1 X221.421 Y1.251
X221.595 Y-1.251 F1000
X221.616 Y-1.554 F200
G2 X221.327 Y-1.875 I-0.299 J-0.021
G1 X220.972
G2 X220.199 Y-1.484 I0.05 J1.057
X219.484 Y0.435 I1.992 J1.836
X219.721 Y1.506 I2.093 J0.098
X220.37 Y1.875 I0.653 J-0.394
G1 X220.739
G2 X221.028 Y1.597 I-0.01 J-0.3
G1 X221.053 Y1.251
X221.238 Y-1.251 F1000
X221.261 Y-1.553 F200
G2 X220.972 Y-1.875 I-0.299 J-0.022
G1 X220.612
G2 X219.833 Y-1.487 I0.04 J1.057
X219.114 Y0.43 I1.986 J1.838
X219.351 Y1.505 I2.096 J0.101
X220.001 Y1.875 I0.654 J-0.392
G1 X220.37
G2 X220.659 Y1.598 I-0.01 J-0.3
G1 X220.686 Y1.252
X220.878 Y-1.251 F1000
X220.901 Y-1.552 F200
G2 X220.612 Y-1.875 I-0.299 J-0.023
G1 X220.24
G2 X219.462 Y-1.486 I0.043 J1.058
X218.745 Y0.431 I1.987 J1.836
X218.982 Y1.505 I2.096 J0.099
X219.632 Y1.875 I0.654 J-0.392
G1 X220.001
G2 X220.29 Y1.598 I-0.01 J-0.3
G1 X220.316 Y1.252
X220.506 Y-1.251 F1000
X220.529 Y-1.553 F200
G2 X220.24 Y-1.875 I-0.299 J-0.023
G1 X219.871
G2 X219.093 Y-1.486 I0.043 J1.057
X218.375 Y0.431 I1.986 J1.836
X218.613 Y1.505 I2.097 J0.099
X219.263 Y1.875 I0.654 J-0.392
G1 X219.632
G2 X219.921 Y1.598 I-0.01 J-0.3
G1 X219.947 Y1.252
X220.136 Y-1.251 F1000
X220.159 Y-1.553 F200
G2 X219.871 Y-1.875 I-0.299 J-0.023
G1 X219.517
G2 X218.678 Y-1.437 I0.049 J1.116
X218.174 Y1.377 I2.13 J1.834
X218.892 Y1.877 I0.74 J-0.297
G1 X219.263 Y1.875
G2 X219.551 Y1.599 I-0.01 J-0.3
G1 X219.579 Y1.252
X219.781 Y-1.252 F1000
X219.805 Y-1.551 F200
G2 X219.517 Y-1.875 I-0.299 J-0.024
G1 X219.132
G2 X218.354 Y-1.485 I0.044 J1.058
X217.652 Y0.731 I2.048 J1.868
X217.99 Y1.661 I1.593 J-0.053
G1 X218.15 Y1.775
X218.33 Y1.85
X218.523 Y1.875
X218.892
G2 X219.18 Y1.598 I-0.01 J-0.3
G1 X219.207 Y1.252
X219.397 Y-1.251 F1000
X219.42 Y-1.552 F200
G2 X219.132 Y-1.875 I-0.299 J-0.023
G1 X218.775
G2 X217.938 Y-1.435 I0.055 J1.118
X217.436 Y1.38 I2.132 J1.833
X218.152 Y1.877 I0.738 J-0.299
G1 X218.523 Y1.875
G2 X218.812 Y1.599 I-0.01 J-0.3
G1 X218.84 Y1.252
X219.04 Y-1.252 F1000
X219.064 Y-1.551 F200
G2 X218.775 Y-1.875 I-0.299 J-0.024
G1 X218.393
G2 X217.616 Y-1.485 I0.045 J1.059
X216.913 Y0.731 I2.048 J1.869
X217.251 Y1.66 I1.592 J-0.052
G1 X217.411 Y1.775
X217.591 Y1.85
X217.784 Y1.875
X218.152
G2 X218.441 Y1.598 I-0.01 J-0.3
G1 X218.468 Y1.252
X218.659 Y-1.251 F1000
X218.682 Y-1.552 F200
G2 X218.393 Y-1.875 I-0.299 J-0.023
G1 X218.029
G2 X217.248 Y-1.487 I0.039 J1.057
X216.529 Y0.429 I1.983 J1.838
X216.765 Y1.504 I2.098 J0.102
X217.415 Y1.875 I0.654 J-0.391
G1 X217.784
G2 X218.073 Y1.598 I-0.01 J-0.3
G1 X218.1 Y1.252
X218.294 Y-1.251 F1000
X218.318 Y-1.552 F200
G2 X218.029 Y-1.875 I-0.299 J-0.023
G1 X217.641
G2 X216.873 Y-1.482 I0.058 J1.059
X216.159 Y0.437 I1.994 J1.834
X216.398 Y1.507 I2.091 J0.096
X217.046 Y1.875 I0.652 J-0.394
G1 X217.415
G2 X217.704 Y1.597 I-0.01 J-0.3
G1 X217.729 Y1.251
X217.908 Y-1.251 F1000
X217.93 Y-1.554 F200
G2 X217.641 Y-1.875 I-0.299 J-0.021
G1 X217.286
G2 X216.507 Y-1.486 I0.042 J1.057
X215.79 Y0.431 I1.987 J1.836
X216.028 Y1.505 I2.097 J0.099
X216.677 Y1.875 I0.654 J-0.392
G1 X217.046
G2 X217.335 Y1.598 I-0.01 J-0.3
G1 X217.361 Y1.252
X217.551 Y-1.251 F1000
X217.574 Y-1.552 F200
G2 X217.286 Y-1.875 I-0.299 J-0.023
G1 X216.926
G2 X216.09 Y-1.434 I0.056 J1.12
X215.59 Y1.381 I2.134 J1.831
X216.306 Y1.877 I0.738 J-0.3
G1 X216.677 Y1.875
G2 X216.966 Y1.599 I-0.01 J-0.3
G1 X216.993 Y1.252
X217.191 Y-1.252 F1000
X217.215 Y-1.552 F200
G2 X216.926 Y-1.875 I-0.299 J-0.024
G1 X216.554
G2 X215.72 Y-1.431 I0.064 J1.126
X215.221 Y1.383 I2.133 J1.829
X215.935 Y1.877 I0.733 J-0.297
G1 X216.306 Y1.875
G2 X216.595 Y1.599 I-0.01 J-0.3
G1 X216.622 Y1.252
X216.819 Y-1.252 F1000
X216.842 Y-1.552 F200
G2 X216.554 Y-1.875 I-0.299 J-0.024
G1 X216.184
G2 X215.35 Y-1.431 I0.066 J1.129
X214.851 Y1.383 I2.135 J1.83
X215.565 Y1.877 I0.732 J-0.296
G1 X215.935 Y1.875
G2 X216.224 Y1.599 I-0.01 J-0.3
G1 X216.251 Y1.252
X216.449 Y-1.252 F1000
X216.473 Y-1.552 F200
G2 X216.184 Y-1.875 I-0.299 J-0.024
G1 X215.831
G2 X214.989 Y-1.439 I0.046 J1.119
X214.357 Y0.941 I2.127 J1.839
X214.68 Y1.676 I1.336 J-0.149
G1 X214.835 Y1.783
X215.009 Y1.852
X215.195 Y1.875
X215.565
G2 X215.853 Y1.6 I-0.01 J-0.3
G1 X215.883 Y1.252
X216.094 Y-1.252 F1000
X216.119 Y-1.55 F200
G2 X215.831 Y-1.875 I-0.299 J-0.025
G1 X215.445
G2 X214.664 Y-1.487 I0.039 J1.061
X213.958 Y0.728 I2.046 J1.872
X214.294 Y1.659 I1.587 J-0.046
G1 X214.453 Y1.775
X214.634 Y1.85
X214.828 Y1.875
X215.195
G2 X215.484 Y1.599 I-0.01 J-0.3
G1 X215.511 Y1.252
X215.71 Y-1.252 F1000
X215.734 Y-1.551 F200
G2 X215.445 Y-1.875 I-0.299 J-0.024
G1 X215.089
G2 X214.249 Y-1.438 I0.047 J1.115
X213.739 Y1.375 I2.132 J1.839
X214.457 Y1.877 I0.741 J-0.295
G1 X214.828 Y1.875
G2 X215.116 Y1.6 I-0.01 J-0.3
G1 X215.145 Y1.252
X215.353 Y-1.252 F1000
X215.377 Y-1.55 F200
G2 X215.089 Y-1.875 I-0.299 J-0.025
G1 X214.707
G2 X213.925 Y-1.487 I0.039 J1.059
X213.219 Y0.728 I2.046 J1.873
X213.556 Y1.659 I1.593 J-0.05
G1 X213.715 Y1.775
X213.896 Y1.85
X214.089 Y1.875
X214.457
G2 X214.746 Y1.599 I-0.01 J-0.3
G1 X214.773 Y1.252
X214.972 Y-1.252 F1000
X214.995 Y-1.552 F200
G2 X214.707 Y-1.875 I-0.299 J-0.024
G1 X214.343
G2 X213.507 Y-1.434 I0.057 J1.121
X213.003 Y1.38 I2.133 J1.834
X213.719 Y1.877 I0.739 J-0.3
G1 X214.089 Y1.875
G2 X214.378 Y1.599 I-0.01 J-0.3
G1 X214.406 Y1.252
X214.607 Y-1.252 F1000
X214.631 Y-1.551 F200
G2 X214.343 Y-1.875 I-0.299 J-0.024
G1 X213.955
G2 X213.183 Y-1.483 I0.052 J1.06
X212.481 Y0.733 I2.052 J1.87
X212.819 Y1.661 I1.586 J-0.052
G1 X212.978 Y1.776
X213.158 Y1.85
X213.351 Y1.875
X213.719
G2 X214.008 Y1.598 I-0.01 J-0.3
G1 X214.033 Y1.251
X214.221 Y-1.251 F1000
X214.243 Y-1.553 F200
G2 X213.955 Y-1.875 I-0.299 J-0.022
G1 X213.6
G2 X212.766 Y-1.431 I0.063 J1.124
X212.265 Y1.383 I2.135 J1.832
X212.98 Y1.877 I0.737 J-0.302
G1 X213.351 Y1.875
G2 X213.639 Y1.599 I-0.01 J-0.3
G1 X213.667 Y1.252
X213.864 Y-1.252 F1000
X213.888 Y-1.552 F200
G2 X213.6 Y-1.875 I-0.299 J-0.024
G1 X213.24
G2 X212.401 Y-1.436 I0.053 J1.122
X211.893 Y1.377 I2.127 J1.837
X212.61 Y1.877 I0.736 J-0.292
G1 X212.98 Y1.875
G2 X213.269 Y1.6 I-0.01 J-0.3
G1 X213.297 Y1.252
X213.504 Y-1.252 F1000
X213.529 Y-1.551 F200
G2 X213.24 Y-1.875 I-0.299 J-0.025
G1 X212.868
G2 X212.03 Y-1.434 I0.059 J1.127
X211.524 Y1.379 I2.131 J1.836
X212.24 Y1.877 I0.735 J-0.293
G1 X212.61 Y1.875
G2 X212.898 Y1.6 I-0.01 J-0.3
G1 X212.927 Y1.252
X213.132 Y-1.252 F1000
X213.156 Y-1.551 F200
G2 X212.868 Y-1.875 I-0.299 J-0.024
G1 X212.498
G2 X211.661 Y-1.435 I0.059 J1.127
X211.155 Y1.379 I2.133 J1.836
X211.87 Y1.877 I0.734 J-0.293
G1 X212.24 Y1.875
G2 X212.528 Y1.6 I-0.01 J-0.3
G1 X212.557 Y1.252
X212.762 Y-1.252 F1000
X212.787 Y-1.551 F200
G2 X212.498 Y-1.875 I-0.299 J-0.025
G1 X212.106
G2 X211.335 Y-1.483 I0.055 J1.061
X210.634 Y0.734 I2.054 J1.87
X210.97 Y1.661 I1.578 J-0.048
G1 X211.129 Y1.776
X211.309 Y1.85
X211.503 Y1.875
X211.87
G2 X212.159 Y1.598 I-0.01 J-0.3
G1 X212.185 Y1.251
X212.372 Y-1.251 F1000
X212.395 Y-1.553 F200
G2 X212.106 Y-1.875 I-0.299 J-0.022
G1 X211.759
G2 X210.922 Y-1.435 I0.054 J1.119
X210.416 Y1.379 I2.135 J1.837
X211.132 Y1.877 I0.739 J-0.298
G1 X211.503 Y1.875
G2 X211.791 Y1.6 I-0.01 J-0.3
G1 X211.819 Y1.252
X212.023 Y-1.252 F1000
X212.048 Y-1.551 F200
G2 X211.759 Y-1.875 I-0.299 J-0.024
G1 X211.363
G2 X210.595 Y-1.482 I0.057 J1.059
X209.895 Y0.736 I2.057 J1.869
X210.233 Y1.662 I1.581 J-0.052
G1 X210.392 Y1.776
X210.572 Y1.85
X210.764 Y1.875
X211.132
G2 X211.421 Y1.597 I-0.01 J-0.3
G1 X211.446 Y1.251
X211.63 Y-1.251 F1000
X211.652 Y-1.553 F200
G2 X211.363 Y-1.875 I-0.299 J-0.022
G1 X211.01
G2 X210.231 Y-1.487 I0.04 J1.057
X209.51 Y0.43 I1.986 J1.84
X209.746 Y1.504 I2.096 J0.103
X210.396 Y1.875 I0.655 J-0.391
G1 X210.764
G2 X211.053 Y1.599 I-0.01 J-0.3
G1 X211.08 Y1.252
X211.275 Y-1.251 F1000
X211.299 Y-1.552 F200
G2 X211.01 Y-1.875 I-0.299 J-0.023
G1 X210.657
G2 X209.816 Y-1.438 I0.046 J1.116
X209.307 Y1.375 I2.128 J1.838
X210.025 Y1.877 I0.741 J-0.295
G1 X210.396 Y1.875
G2 X210.684 Y1.6 I-0.01 J-0.3
G1 X210.713 Y1.252
X210.92 Y-1.252 F1000
X210.945 Y-1.55 F200
G2 X210.657 Y-1.875 I-0.299 J-0.025
G1 X210.268
G2 X209.491 Y-1.486 I0.044 J1.059
X208.786 Y0.73 I2.047 J1.871
X209.124 Y1.66 I1.592 J-0.052
G1 X209.283 Y1.775
X209.464 Y1.85
X209.657 Y1.875
X210.025
G2 X210.314 Y1.598 I-0.01 J-0.3
G1 X210.341 Y1.252
X210.534 Y-1.251 F1000
X210.557 Y-1.552 F200
G2 X210.268 Y-1.875 I-0.299 J-0.023
G1 X209.913
G2 X209.076 Y-1.436 I0.052 J1.118
X208.569 Y1.378 I2.13 J1.836
X209.286 Y1.877 I0.739 J-0.297
G1 X209.657 Y1.875
G2 X209.946 Y1.599 I-0.01 J-0.3
G1 X209.974 Y1.252
X210.178 Y-1.252 F1000
X210.202 Y-1.551 F200
G2 X209.913 Y-1.875 I-0.299 J-0.024
G1 X209.505
G2 X208.852 Y-1.583 I0.037 J0.961
X208.037 Y0.292 I1.815 J1.902
X208.27 Y1.509 I2.193 J0.212
X208.918 Y1.875 I0.654 J-0.4
G1 X209.287
G2 X209.575 Y1.596 I-0.01 J-0.3
G1 X209.599 Y1.251
X209.773 Y-1.251 F1000
X209.794 Y-1.554 F200
G2 X209.505 Y-1.875 I-0.299 J-0.021
G1 X209.134
G2 X208.481 Y-1.583 I0.037 J0.958
X207.668 Y0.292 I1.809 J1.898
X207.902 Y1.51 I2.179 J0.213
X208.549 Y1.875 I0.653 J-0.401
G1 X208.918
G2 X209.207 Y1.596 I-0.01 J-0.3
G1 X209.231 Y1.251
X209.402 Y-1.251 F1000
X209.423 Y-1.555 F200
G2 X209.134 Y-1.875 I-0.299 J-0.021
G1 X208.779
G2 X208.008 Y-1.483 I0.053 J1.056
X207.294 Y0.436 I1.994 J1.835
X207.532 Y1.507 I2.092 J0.097
X208.18 Y1.875 I0.653 J-0.394
G1 X208.549
G2 X208.838 Y1.597 I-0.01 J-0.3
G1 X208.863 Y1.251
X209.046 Y-1.251 F1000
X209.068 Y-1.553 F200
G2 X208.779 Y-1.875 I-0.299 J-0.022
G1 X208.42
G2 X207.642 Y-1.486 I0.043 J1.057
X206.924 Y0.431 I1.988 J1.837
X207.162 Y1.505 I2.096 J0.1
X207.811 Y1.875 I0.654 J-0.392
G1 X208.18
G2 X208.469 Y1.598 I-0.01 J-0.3
G1 X208.495 Y1.252
X208.686 Y-1.251 F1000
X208.708 Y-1.552 F200
G2 X208.42 Y-1.875 I-0.299 J-0.023
G1 X208.047
G2 X207.271 Y-1.485 I0.046 J1.057
X206.555 Y0.433 I1.989 J1.836
X206.793 Y1.506 I2.095 J0.098
X207.442 Y1.875 I0.653 J-0.393
G1 X207.811
G2 X208.1 Y1.598 I-0.01 J-0.3
G1 X208.126 Y1.251
X208.313 Y-1.251 F1000
X208.336 Y-1.553 F200
G2 X208.047 Y-1.875 I-0.299 J-0.022
G1 X207.677
G2 X206.902 Y-1.485 I0.046 J1.057
X206.186 Y0.433 I1.988 J1.835
X206.424 Y1.506 I2.095 J0.098
X207.073 Y1.875 I0.653 J-0.393
G1 X207.442
G2 X207.731 Y1.598 I-0.01 J-0.3
G1 X207.757 Y1.251
X207.943 Y-1.251 F1000
X207.966 Y-1.553 F200
G2 X207.677 Y-1.875 I-0.299 J-0.022
G1 X207.324
G2 X206.487 Y-1.435 I0.053 J1.118
X205.985 Y1.379 I2.132 J1.832
X206.702 Y1.877 I0.739 J-0.298
G1 X207.073 Y1.875
G2 X207.361 Y1.599 I-0.01 J-0.3
G1 X207.389 Y1.252
X207.589 Y-1.252 F1000
X207.613 Y-1.551 F200
G2 X207.324 Y-1.875 I-0.299 J-0.024
G1 X206.939
G2 X206.163 Y-1.485 I0.047 J1.058
X205.462 Y0.732 I2.049 J1.867
X205.801 Y1.661 I1.589 J-0.053
G1 X205.96 Y1.775
X206.14 Y1.85
X206.333 Y1.875
X206.702
G2 X206.99 Y1.598 I-0.01 J-0.3
G1 X207.016 Y1.252
X207.205 Y-1.251 F1000
X207.227 Y-1.553 F200
G2 X206.939 Y-1.875 I-0.299 J-0.023
G1 X206.582
G2 X205.747 Y-1.433 I0.058 J1.12
X205.247 Y1.382 I2.134 J1.831
X205.962 Y1.877 I0.737 J-0.3
G1 X206.333 Y1.875
G2 X206.622 Y1.599 I-0.01 J-0.3
G1 X206.649 Y1.252
X206.847 Y-1.252 F1000
X206.871 Y-1.552 F200
G2 X206.582 Y-1.875 I-0.299 J-0.024
G1 X206.227
G2 X205.385 Y-1.44 I0.043 J1.115
X204.874 Y1.372 I2.124 J1.839
X205.592 Y1.877 I0.739 J-0.288
G1 X205.962 Y1.875
G2 X206.251 Y1.6 I-0.01 J-0.3
G1 X206.28 Y1.252
X206.491 Y-1.252 F1000
X206.516 Y-1.55 F200
G2 X206.227 Y-1.875 I-0.299 J-0.025
G1 X205.836
G2 X205.058 Y-1.486 I0.044 J1.06
X204.354 Y0.73 I2.046 J1.87
X204.691 Y1.66 I1.588 J-0.049
G1 X204.85 Y1.775
X205.031 Y1.85
X205.224 Y1.875
X205.592
G2 X205.881 Y1.598 I-0.01 J-0.3
G1 X205.908 Y1.252
X206.102 Y-1.251 F1000
X206.125 Y-1.552 F200
G2 X205.836 Y-1.875 I-0.299 J-0.023
G1 X205.448
G2 X204.683 Y-1.481 I0.061 J1.059
X203.985 Y0.737 I2.054 J1.865
X204.325 Y1.663 I1.575 J-0.053
G1 X204.484 Y1.776
X204.663 Y1.85
X204.855 Y1.875
X205.224
G2 X205.513 Y1.596 I-0.01 J-0.3
G1 X205.538 Y1.251
X205.715 Y-1.251 F1000
X205.737 Y-1.554 F200
G2 X205.448 Y-1.875 I-0.299 J-0.021
G1 X205.093
G2 X204.317 Y-1.485 I0.045 J1.057
X203.6 Y0.432 I1.99 J1.837
X203.837 Y1.505 I2.094 J0.1
X204.486 Y1.875 I0.654 J-0.393
G1 X204.855
G2 X205.144 Y1.598 I-0.01 J-0.3
G1 X205.17 Y1.252
X205.359 Y-1.251 F1000
X205.382 Y-1.553 F200
G2 X205.093 Y-1.875 I-0.299 J-0.023
G1 X204.734
G2 X203.899 Y-1.432 I0.061 J1.123
X203.4 Y1.383 I2.137 J1.83
X204.115 Y1.877 I0.737 J-0.302
G1 X204.486 Y1.875
G2 X204.775 Y1.599 I-0.01 J-0.3
G1 X204.802 Y1.252
X204.999 Y-1.251 F1000
X205.022 Y-1.552 F200
G2 X204.734 Y-1.875 I-0.299 J-0.023
G1 X204.361
G2 X203.581 Y-1.487 I0.04 J1.059
X202.876 Y0.729 I2.046 J1.87
X203.214 Y1.66 I1.594 J-0.051
G1 X203.373 Y1.775
X203.554 Y1.85
X203.747 Y1.875
X204.115
G2 X204.404 Y1.598 I-0.01 J-0.3
G1 X204.431 Y1.252
X204.626 Y-1.251 F1000
X204.65 Y-1.552 F200
G2 X204.361 Y-1.875 I-0.299 J-0.023
G1 X203.992
G2 X203.211 Y-1.487 I0.039 J1.057
X202.492 Y0.429 I1.982 J1.838
X202.728 Y1.504 I2.097 J0.102
X203.378 Y1.875 I0.654 J-0.391
G1 X203.747
G2 X204.036 Y1.598 I-0.01 J-0.3
G1 X204.063 Y1.252
X204.257 Y-1.251 F1000
X204.28 Y-1.552 F200
G2 X203.992 Y-1.875 I-0.299 J-0.023
G1 X203.638
G2 X202.797 Y-1.439 I0.045 J1.115
X202.289 Y1.374 I2.127 J1.837
X203.008 Y1.877 I0.741 J-0.294
G1 X203.378 Y1.875
G2 X203.667 Y1.6 I-0.01 J-0.3
G1 X203.696 Y1.252
X203.902 Y-1.252 F1000
X203.926 Y-1.551 F200
G2 X203.638 Y-1.875 I-0.299 J-0.025
G1 X203.253
G2 X202.473 Y-1.487 I0.041 J1.059
X201.768 Y0.729 I2.045 J1.87
X202.106 Y1.66 I1.594 J-0.052
G1 X202.265 Y1.775
X202.446 Y1.85
X202.639 Y1.875
X203.008
G2 X203.296 Y1.598 I-0.01 J-0.3
G1 X203.323 Y1.252
X203.518 Y-1.251 F1000
X203.541 Y-1.552 F200
G2 X203.253 Y-1.875 I-0.299 J-0.023
G1 X202.896
G2 X202.057 Y-1.437 I0.05 J1.116
X201.551 Y1.377 I2.129 J1.836
X202.269 Y1.877 I0.74 J-0.296
G1 X202.639 Y1.875
G2 X202.928 Y1.6 I-0.01 J-0.3
G1 X202.956 Y1.252
X203.16 Y-1.252 F1000
X203.185 Y-1.551 F200
G2 X202.896 Y-1.875 I-0.299 J-0.024
G1 X202.514
G2 X201.734 Y-1.486 I0.041 J1.059
X201.03 Y0.729 I2.045 J1.87
X201.367 Y1.66 I1.594 J-0.051
G1 X201.527 Y1.775
X201.707 Y1.85
X201.901 Y1.875
X202.269
G2 X202.557 Y1.598 I-0.01 J-0.3
G1 X202.584 Y1.252
X202.779 Y-1.251 F1000
X202.803 Y-1.552 F200
G2 X202.514 Y-1.875 I-0.299 J-0.023
G1 X202.15
G2 X201.315 Y-1.432 I0.061 J1.123
X200.814 Y1.382 I2.134 J1.832
X201.53 Y1.877 I0.737 J-0.301
G1 X201.901 Y1.875
G2 X202.189 Y1.599 I-0.01 J-0.3
G1 X202.217 Y1.252
X202.415 Y-1.252 F1000
X202.439 Y-1.552 F200
G2 X202.15 Y-1.875 I-0.299 J-0.024
G1 X201.762
G2 X200.992 Y-1.483 I0.055 J1.059
X200.291 Y0.734 I2.053 J1.868
X200.63 Y1.661 I1.585 J-0.053
G1 X200.789 Y1.776
X200.969 Y1.85
X201.162 Y1.875
X201.53
G2 X201.819 Y1.597 I-0.01 J-0.3
G1 X201.844 Y1.251
X202.028 Y-1.251 F1000
X202.051 Y-1.553 F200
G2 X201.762 Y-1.875 I-0.299 J-0.022
G1 X201.407
G2 X200.627 Y-1.487 I0.039 J1.057
X199.907 Y0.429 I1.984 J1.839
X200.143 Y1.504 I2.097 J0.102
X200.793 Y1.875 I0.654 J-0.391
G1 X201.162
G2 X201.45 Y1.598 I-0.01 J-0.3
G1 X201.477 Y1.252
X201.672 Y-1.251 F1000
X201.695 Y-1.552 F200
G2 X201.407 Y-1.875 I-0.299 J-0.023
G1 X201.047
G2 X200.21 Y-1.436 I0.053 J1.119
X199.705 Y1.378 I2.131 J1.835
X200.422 Y1.877 I0.74 J-0.298
G1 X200.793 Y1.875
G2 X201.082 Y1.599 I-0.01 J-0.3
G1 X201.11 Y1.252
X201.312 Y-1.252 F1000
X201.336 Y-1.551 F200
G2 X201.047 Y-1.875 I-0.299 J-0.024
G1 X200.675
G2 X199.839 Y-1.433 I0.06 J1.125
X199.336 Y1.381 I2.131 J1.832
X200.051 Y1.877 I0.734 J-0.295
G1 X200.422 Y1.875
G2 X200.711 Y1.599 I-0.01 J-0.3
G1 X200.739 Y1.252
X200.939 Y-1.252 F1000
X200.963 Y-1.551 F200
G2 X200.675 Y-1.875 I-0.299 J-0.024
G1 X200.305
G2 X199.47 Y-1.433 I0.061 J1.127
X198.967 Y1.381 I2.132 J1.833
X199.681 Y1.877 I0.733 J-0.294
G1 X200.051 Y1.875
G2 X200.34 Y1.599 I-0.01 J-0.3
G1 X200.368 Y1.252
X200.57 Y-1.252 F1000
X200.594 Y-1.551 F200
G2 X200.305 Y-1.875 I-0.299 J-0.024
G1 X199.913
G2 X199.145 Y-1.482 I0.057 J1.061
X198.445 Y0.735 I2.055 J1.868
X198.782 Y1.661 I1.577 J-0.05
G1 X198.941 Y1.776
X199.121 Y1.85
X199.314 Y1.875
X199.681
G2 X199.97 Y1.597 I-0.01 J-0.3
G1 X199.995 Y1.251
X200.18 Y-1.251 F1000
X200.202 Y-1.553 F200
G2 X199.913 Y-1.875 I-0.299 J-0.022
G1 X199.566
G2 X198.731 Y-1.434 I0.057 J1.12
X198.227 Y1.381 I2.137 J1.834
X198.943 Y1.877 I0.738 J-0.3
G1 X199.314 Y1.875
G2 X199.602 Y1.599 I-0.01 J-0.3
G1 X199.63 Y1.252
X199.831 Y-1.252 F1000
X199.855 Y-1.551 F200
G2 X199.566 Y-1.875 I-0.299 J-0.024
G1 X199.21
G2 X198.368 Y-1.44 I0.043 J1.116
X197.855 Y1.373 I2.126 J1.841
X198.573 Y1.877 I0.739 J-0.289
G1 X198.943 Y1.875
G2 X199.232 Y1.6 I-0.01 J-0.3
G1 X199.261 Y1.252
X199.473 Y-1.252 F1000
X199.498 Y-1.55 F200
G2 X199.21 Y-1.875 I-0.299 J-0.025
G1 X198.828
G2 X197.992 Y-1.433 I0.062 J1.128
X197.488 Y1.381 I2.134 J1.834
X198.203 Y1.877 I0.734 J-0.295
G1 X198.573 Y1.875
G2 X198.862 Y1.599 I-0.01 J-0.3
G1 X198.89 Y1.252
X199.092 Y-1.252 F1000
X199.116 Y-1.551 F200
G2 X198.828 Y-1.875 I-0.299 J-0.024
G1 X198.464
G2 X197.625 Y-1.436 I0.055 J1.125
X197.117 Y1.378 I2.132 J1.838
X197.833 Y1.877 I0.735 J-0.291
G1 X198.203 Y1.875
G2 X198.492 Y1.6 I-0.01 J-0.3
G1 X198.52 Y1.252
X198.728 Y-1.252 F1000
X198.752 Y-1.55 F200
G2 X198.464 Y-1.875 I-0.299 J-0.025
G1 X198.076
G2 X197.301 Y-1.485 I0.049 J1.061
X196.597 Y0.731 I2.051 J1.871
X196.933 Y1.66 I1.583 J-0.047
G1 X197.092 Y1.775
X197.272 Y1.85
X197.466 Y1.875
X197.833
G2 X198.122 Y1.598 I-0.01 J-0.3
G1 X198.149 Y1.252
X198.341 Y-1.251 F1000
X198.364 Y-1.552 F200
G2 X198.076 Y-1.875 I-0.299 J-0.023
G1 X197.721
G2 X196.884 Y-1.434 I0.057 J1.121
X196.379 Y1.38 I2.136 J1.836
X197.096 Y1.877 I0.738 J-0.3
G1 X197.466 Y1.875
G2 X197.755 Y1.599 I-0.01 J-0.3
G1 X197.783 Y1.252
X197.985 Y-1.252 F1000
X198.009 Y-1.551 F200
G2 X197.721 Y-1.875 I-0.299 J-0.024
G1 X197.361
G2 X196.52 Y-1.439 I0.047 J1.118
X196.008 Y1.374 I2.126 J1.84
X196.726 Y1.877 I0.738 J-0.29
G1 X197.096 Y1.875
G2 X197.384 Y1.6 I-0.01 J-0.3
G1 X197.414 Y1.252
X197.625 Y-1.252 F1000
X197.65 Y-1.55 F200
G2 X197.361 Y-1.875 I-0.299 J-0.025
G1 X196.989
G2 X196.149 Y-1.437 I0.052 J1.124
X195.639 Y1.376 I2.128 J1.839
X196.356 Y1.877 I0.737 J-0.291
G1 X196.726 Y1.875
G2 X197.014 Y1.6 I-0.01 J-0.3
G1 X197.043 Y1.252
X197.252 Y-1.252 F1000
X197.277 Y-1.55 F200
G2 X196.989 Y-1.875 I-0.299 J-0.025
G1 X196.619
G2 X195.78 Y-1.437 I0.053 J1.124
X195.269 Y1.376 I2.13 J1.839
X195.986 Y1.877 I0.736 J-0.29
G1 X196.356 Y1.875
G2 X196.644 Y1.6 I-0.01 J-0.3
G1 X196.673 Y1.252
X196.883 Y-1.252 F1000
X196.908 Y-1.55 F200
G2 X196.619 Y-1.875 I-0.299 J-0.025
G1 X196.227
G2 X195.453 Y-1.484 I0.05 J1.061
X194.749 Y0.732 I2.052 J1.871
X195.086 Y1.66 I1.582 J-0.048
G1 X195.245 Y1.775
X195.425 Y1.85
X195.619 Y1.875
X195.986
G2 X196.275 Y1.598 I-0.01 J-0.3
G1 X196.301 Y1.252
X196.493 Y-1.251 F1000
X196.516 Y-1.552 F200
G2 X196.227 Y-1.875 I-0.299 J-0.023
G1 X195.88
G2 X195.041 Y-1.438 I0.048 J1.116
X194.53 Y1.376 I2.132 J1.84
X195.248 Y1.877 I0.741 J-0.296
G1 X195.619 Y1.875
G2 X195.907 Y1.6 I-0.01 J-0.3
G1 X195.936 Y1.252
X196.144 Y-1.252 F1000
X196.169 Y-1.55 F200
G2 X195.88 Y-1.875 I-0.299 J-0.025
G1 X195.484
G2 X194.713 Y-1.483 I0.053 J1.059
X194.011 Y0.734 I2.054 J1.87
X194.349 Y1.661 I1.583 J-0.051
G1 X194.508 Y1.776
X194.688 Y1.85
X194.881 Y1.875
X195.249
G2 X195.537 Y1.598 I-0.01 J-0.3
G1 X195.563 Y1.251
X195.751 Y-1.251 F1000
X195.773 Y-1.553 F200
G2 X195.484 Y-1.875 I-0.299 J-0.022
G1 X195.131
G2 X194.297 Y-1.432 I0.061 J1.123
X193.795 Y1.382 I2.135 J1.833
X194.51 Y1.877 I0.737 J-0.301
G1 X194.881 Y1.875
G2 X195.169 Y1.599 I-0.01 J-0.3
G1 X195.197 Y1.252
X195.396 Y-1.252 F1000
X195.42 Y-1.551 F200
G2 X195.131 Y-1.875 I-0.299 J-0.024
G1 X194.778
G2 X193.935 Y-1.44 I0.044 J1.117
X193.421 Y1.372 I2.124 J1.841
X194.14 Y1.877 I0.739 J-0.288
G1 X194.51 Y1.875
G2 X194.798 Y1.601 I-0.01 J-0.3
G1 X194.828 Y1.252
X195.041 Y-1.252 F1000
X195.066 Y-1.55 F200
G2 X194.778 Y-1.875 I-0.299 J-0.025
G1 X194.389
G2 X193.609 Y-1.487 I0.041 J1.061
X192.902 Y0.728 I2.044 J1.872
X193.238 Y1.659 I1.589 J-0.047
G1 X193.398 Y1.775
X193.579 Y1.85
X193.772 Y1.875
X194.14
G2 X194.429 Y1.599 I-0.01 J-0.3
G1 X194.456 Y1.252
X194.654 Y-1.252 F1000
X194.678 Y-1.552 F200
G2 X194.389 Y-1.875 I-0.299 J-0.024
G1 X194.034
G2 X193.194 Y-1.438 I0.047 J1.116
X192.684 Y1.375 I2.129 J1.839
X193.402 Y1.877 I0.741 J-0.295
G1 X193.772 Y1.875
G2 X194.061 Y1.6 I-0.01 J-0.3
G1 X194.09 Y1.252
X194.298 Y-1.252 F1000
X194.323 Y-1.55 F200
G2 X194.034 Y-1.875 I-0.299 J-0.025
G1 X193.626
G2 X192.97 Y-1.584 I0.034 J0.962
X192.154 Y0.29 I1.812 J1.904
X192.385 Y1.508 I2.192 J0.215
X193.034 Y1.875 I0.655 J-0.399
G1 X193.402
G2 X193.691 Y1.596 I-0.01 J-0.3
G1 X193.715 Y1.251
X193.893 Y-1.251 F1000
X193.915 Y-1.554 F200
G2 X193.626 Y-1.875 I-0.299 J-0.021
G1 X193.255
G2 X192.599 Y-1.584 I0.033 J0.959
X191.784 Y0.29 I1.806 J1.899
X192.017 Y1.509 I2.179 J0.216
X192.665 Y1.875 I0.654 J-0.4
G1 X193.034
G2 X193.323 Y1.596 I-0.01 J-0.3
G1 X193.347 Y1.251
X193.523 Y-1.251 F1000
X193.544 Y-1.554 F200
G2 X193.255 Y-1.875 I-0.299 J-0.021
G1 X192.9
G2 X192.127 Y-1.484 I0.048 J1.057
X191.41 Y0.434 I1.992 J1.837
X191.647 Y1.506 I2.093 J0.099
X192.296 Y1.875 I0.653 J-0.393
G1 X192.665
G2 X192.954 Y1.598 I-0.01 J-0.3
G1 X192.98 Y1.251
X193.166 Y-1.251 F1000
X193.189 Y-1.553 F200
G2 X192.9 Y-1.875 I-0.299 J-0.022
G1 X192.541
G2 X191.76 Y-1.487 I0.039 J1.057
X191.041 Y0.429 I1.985 J1.838
X191.277 Y1.504 I2.097 J0.102
X191.927 Y1.875 I0.654 J-0.391
G1 X192.296
G2 X192.585 Y1.598 I-0.01 J-0.3
G1 X192.612 Y1.252
X192.806 Y-1.251 F1000
X192.829 Y-1.552 F200
G2 X192.541 Y-1.875 I-0.299 J-0.023
G1 X192.168
G2 X191.39 Y-1.486 I0.042 J1.058
X190.671 Y0.43 I1.985 J1.837
X190.908 Y1.505 I2.096 J0.1
X191.558 Y1.875 I0.654 J-0.392
G1 X191.927
G2 X192.216 Y1.598 I-0.01 J-0.3
G1 X192.242 Y1.252
X192.434 Y-1.251 F1000
X192.457 Y-1.552 F200
G2 X192.168 Y-1.875 I-0.299 J-0.023
G1 X191.799
G2 X191.02 Y-1.486 I0.041 J1.058
X190.302 Y0.43 I1.985 J1.836
X190.539 Y1.505 I2.097 J0.1
X191.189 Y1.875 I0.654 J-0.392
G1 X191.558
G2 X191.847 Y1.598 I-0.01 J-0.3
G1 X191.873 Y1.252
X192.065 Y-1.251 F1000
X192.088 Y-1.552 F200
G2 X191.799 Y-1.875 I-0.299 J-0.023
G1 X191.445
G2 X190.606 Y-1.438 I0.047 J1.115
X190.1 Y1.376 I2.129 J1.835
X190.818 Y1.877 I0.741 J-0.296
G1 X191.189 Y1.875
G2 X191.478 Y1.599 I-0.01 J-0.3
G1 X191.506 Y1.252
X191.709 Y-1.252 F1000
X191.734 Y-1.551 F200
G2 X191.445 Y-1.875 I-0.299 J-0.024
G1 X191.06
G2 X190.281 Y-1.486 I0.042 J1.059
X189.578 Y0.73 I2.046 J1.868
X189.916 Y1.66 I1.594 J-0.053
G1 X190.076 Y1.775
X190.256 Y1.85
X190.45 Y1.875
X190.818
G2 X191.107 Y1.598 I-0.01 J-0.3
G1 X191.133 Y1.252
X191.325 Y-1.251 F1000
X191.349 Y-1.552 F200
G2 X191.06 Y-1.875 I-0.299 J-0.023
G1 X190.703
G2 X189.866 Y-1.436 I0.052 J1.117
X189.362 Y1.378 I2.131 J1.834
X190.079 Y1.877 I0.739 J-0.298
G1 X190.45 Y1.875
G2 X190.738 Y1.599 I-0.01 J-0.3
G1 X190.766 Y1.252
X190.968 Y-1.252 F1000
X190.992 Y-1.551 F200
G2 X190.703 Y-1.875 I-0.299 J-0.024
G1 X190.321
G2 X189.543 Y-1.486 I0.043 J1.059
X188.84 Y0.73 I2.046 J1.869
X189.177 Y1.66 I1.593 J-0.052
G1 X189.337 Y1.775
X189.517 Y1.85
X189.711 Y1.875
X190.079
G2 X190.367 Y1.598 I-0.01 J-0.3
G1 X190.394 Y1.252
X190.587 Y-1.251 F1000
X190.61 Y-1.552 F200
G2 X190.321 Y-1.875 I-0.299 J-0.023
G1 X189.957
G2 X189.175 Y-1.488 I0.037 J1.057
X188.455 Y0.428 I1.981 J1.838
X188.691 Y1.504 I2.098 J0.103
X189.342 Y1.875 I0.655 J-0.391
G1 X189.711
G2 X189.999 Y1.599 I-0.01 J-0.3
G1 X190.026 Y1.252
X190.222 Y-1.251 F1000
X190.246 Y-1.552 F200
G2 X189.957 Y-1.875 I-0.299 J-0.023
G1 X189.569
G2 X188.8 Y-1.482 I0.056 J1.06
X188.086 Y0.436 I1.992 J1.834
X188.324 Y1.507 I2.091 J0.096
X188.973 Y1.875 I0.653 J-0.394
G1 X189.342
G2 X189.631 Y1.597 I-0.01 J-0.3
G1 X189.655 Y1.251
X189.836 Y-1.251 F1000
X189.858 Y-1.554 F200
G2 X189.569 Y-1.875 I-0.299 J-0.022
G1 X189.214
G2 X188.434 Y-1.487 I0.04 J1.057
X187.716 Y0.43 I1.985 J1.837
X187.954 Y1.505 I2.098 J0.1
X188.603 Y1.875 I0.654 J-0.392
G1 X188.973
G2 X189.261 Y1.598 I-0.01 J-0.3
G1 X189.288 Y1.252
X189.48 Y-1.251 F1000
X189.503 Y-1.552 F200
G2 X189.214 Y-1.875 I-0.299 J-0.023
G1 X188.855
G2 X188.018 Y-1.435 I0.054 J1.119
X187.516 Y1.379 I2.133 J1.832
X188.232 Y1.877 I0.739 J-0.299
G1 X188.603 Y1.875
G2 X188.892 Y1.599 I-0.01 J-0.3
G1 X188.92 Y1.252
X189.119 Y-1.252 F1000
X189.143 Y-1.551 F200
G2 X188.855 Y-1.875 I-0.299 J-0.024
G1 X188.482
G2 X187.647 Y-1.432 I0.061 J1.125
X187.147 Y1.382 I2.132 J1.83
X187.861 Y1.877 I0.734 J-0.296
G1 X188.232 Y1.875
G2 X188.521 Y1.599 I-0.01 J-0.3
G1 X188.549 Y1.252
X188.747 Y-1.252 F1000
X188.771 Y-1.551 F200
G2 X188.482 Y-1.875 I-0.299 J-0.024
G1 X188.113
G2 X187.278 Y-1.432 I0.063 J1.128
X186.777 Y1.382 I2.134 J1.831
X187.491 Y1.877 I0.733 J-0.295
G1 X187.862 Y1.875
G2 X188.15 Y1.599 I-0.01 J-0.3
G1 X188.178 Y1.252
X188.377 Y-1.252 F1000
X188.401 Y-1.551 F200
G2 X188.113 Y-1.875 I-0.299 J-0.024
G1 X187.759
G2 X186.916 Y-1.44 I0.043 J1.118
X186.283 Y0.939 I2.126 J1.84
X186.607 Y1.676 I1.338 J-0.148
G1 X186.762 Y1.783
X186.936 Y1.852
X187.122 Y1.875
X187.491
G2 X187.78 Y1.601 I-0.01 J-0.3
G1 X187.809 Y1.252
X188.022 Y-1.252 F1000
X188.047 Y-1.55 F200
G2 X187.759 Y-1.875 I-0.299 J-0.025
G1 X187.374
G2 X186.539 Y-1.432 I0.065 J1.129
X186.037 Y1.383 I2.137 J1.833
X186.751 Y1.877 I0.733 J-0.296
G1 X187.122 Y1.875
G2 X187.41 Y1.599 I-0.01 J-0.3
G1 X187.438 Y1.252
X187.638 Y-1.252 F1000
X187.662 Y-1.551 F200
G2 X187.374 Y-1.875 I-0.299 J-0.024
G1 X187.017
G2 X186.176 Y-1.439 I0.048 J1.12
X185.664 Y1.374 I2.131 J1.841
X186.382 Y1.877 I0.737 J-0.289
G1 X186.751 Y1.875
G2 X187.04 Y1.6 I-0.01 J-0.3
G1 X187.069 Y1.252
X187.28 Y-1.252 F1000
X187.306 Y-1.55 F200
G2 X187.017 Y-1.875 I-0.299 J-0.025
G1 X186.635
G2 X185.801 Y-1.432 I0.065 J1.13
X185.298 Y1.383 I2.138 J1.834
X186.012 Y1.877 I0.733 J-0.296
G1 X186.382 Y1.875
G2 X186.67 Y1.599 I-0.01 J-0.3
G1 X186.698 Y1.252
X186.9 Y-1.252 F1000
X186.924 Y-1.551 F200
G2 X186.635 Y-1.875 I-0.299 J-0.024
G1 X186.271
G2 X185.434 Y-1.435 I0.058 J1.126
X184.927 Y1.379 I2.135 J1.837
X185.642 Y1.877 I0.734 J-0.293
G1 X186.012 Y1.875
G2 X186.3 Y1.6 I-0.01 J-0.3
G1 X186.329 Y1.252
X186.535 Y-1.252 F1000
X186.56 Y-1.551 F200
G2 X186.271 Y-1.875 I-0.299 J-0.025
G1 X185.883
G2 X185.11 Y-1.484 I0.051 J1.061
X184.406 Y0.732 I2.054 J1.872
X184.742 Y1.66 I1.579 J-0.047
G1 X184.901 Y1.775
X185.082 Y1.85
X185.275 Y1.875
X185.642
G2 X185.931 Y1.598 I-0.01 J-0.3
G1 X185.957 Y1.252
X186.149 Y-1.251 F1000
X186.172 Y-1.552 F200
G2 X185.883 Y-1.875 I-0.299 J-0.023
G1 X185.528
G2 X184.693 Y-1.433 I0.06 J1.122
X184.189 Y1.382 I2.138 J1.835
X184.905 Y1.877 I0.738 J-0.301
G1 X185.275 Y1.875
G2 X185.564 Y1.599 I-0.01 J-0.3
G1 X185.591 Y1.252
X185.792 Y-1.252 F1000
X185.816 Y-1.551 F200
G2 X185.528 Y-1.875 I-0.299 J-0.024
G1 X185.168
G2 X184.329 Y-1.437 I0.049 J1.12
X183.817 Y1.375 I2.128 J1.84
X184.535 Y1.877 I0.738 J-0.291
G1 X184.905 Y1.875
G2 X185.193 Y1.6 I-0.01 J-0.3
G1 X185.222 Y1.252
X185.432 Y-1.252 F1000
X185.457 Y-1.55 F200
G2 X185.168 Y-1.875 I-0.299 J-0.025
G1 X184.796
G2 X183.958 Y-1.436 I0.055 J1.125
X183.449 Y1.377 I2.13 J1.838
X184.165 Y1.877 I0.736 J-0.292
G1 X184.535 Y1.875
G2 X184.823 Y1.6 I-0.01 J-0.3
G1 X184.852 Y1.252
X185.06 Y-1.252 F1000
X185.084 Y-1.55 F200
G2 X184.796 Y-1.875 I-0.299 J-0.025
G1 X184.427
G2 X183.588 Y-1.436 I0.055 J1.126
X183.079 Y1.377 I2.131 J1.838
X183.795 Y1.877 I0.736 J-0.291
G1 X184.165 Y1.875
G2 X184.453 Y1.6 I-0.01 J-0.3
G1 X184.482 Y1.252
X184.69 Y-1.252 F1000
X184.715 Y-1.55 F200
G2 X184.427 Y-1.875 I-0.299 J-0.025
G1 X184.034
G2 X183.262 Y-1.484 I0.052 J1.061
X182.559 Y0.732 I2.053 J1.871
X182.895 Y1.66 I1.579 J-0.047
G1 X183.054 Y1.775
X183.234 Y1.85
X183.428 Y1.875
X183.795
G2 X184.084 Y1.598 I-0.01 J-0.3
G1 X184.11 Y1.252
X184.3 Y-1.251 F1000
X184.323 Y-1.552 F200
G2 X184.034 Y-1.875 I-0.299 J-0.023
G1 X183.688
G2 X182.849 Y-1.436 I0.05 J1.117
X182.34 Y1.377 I2.133 J1.839
X183.058 Y1.877 I0.74 J-0.297
G1 X183.428 Y1.875
G2 X183.716 Y1.6 I-0.01 J-0.3
G1 X183.745 Y1.252
X183.951 Y-1.252 F1000
X183.976 Y-1.551 F200
G2 X183.688 Y-1.875 I-0.299 J-0.025
G1 X183.292
G2 X182.522 Y-1.482 I0.055 J1.059
X181.82 Y0.734 I2.055 J1.87
X182.158 Y1.661 I1.582 J-0.052
G1 X182.317 Y1.776
X182.497 Y1.85
X182.69 Y1.875
X183.058
G2 X183.346 Y1.597 I-0.01 J-0.3
G1 X183.372 Y1.251
X183.558 Y-1.251 F1000
X183.58 Y-1.553 F200
G2 X183.292 Y-1.875 I-0.299 J-0.022
G1 X182.939
G2 X182.157 Y-1.487 I0.038 J1.057
X181.435 Y0.428 I1.984 J1.841
X181.671 Y1.503 I2.097 J0.104
X182.321 Y1.875 I0.655 J-0.391
G1 X182.69
G2 X182.978 Y1.599 I-0.01 J-0.3
G1 X183.006 Y1.252
X183.204 Y-1.252 F1000
X183.227 Y-1.552 F200
G2 X182.939 Y-1.875 I-0.299 J-0.024
G1 X182.585
G2 X181.743 Y-1.44 I0.043 J1.114
X181.231 Y1.373 I2.126 J1.84
X181.951 Y1.877 I0.743 J-0.294
G1 X182.321 Y1.875
G2 X182.61 Y1.6 I-0.01 J-0.3
G1 X182.639 Y1.252
X182.848 Y-1.252 F1000
X182.873 Y-1.55 F200
G2 X182.585 Y-1.875 I-0.299 J-0.025
G1 X182.197
G2 X181.417 Y-1.486 I0.042 J1.06
X180.712 Y0.729 I2.046 J1.872
X181.049 Y1.66 I1.594 J-0.051
G1 X181.209 Y1.775
X181.389 Y1.85
X181.583 Y1.875
X181.951
G2 X182.239 Y1.599 I-0.01 J-0.3
G1 X182.266 Y1.252
X182.462 Y-1.251 F1000
X182.485 Y-1.552 F200
G2 X182.197 Y-1.875 I-0.299 J-0.023
G1 X181.842
G2 X181.002 Y-1.437 I0.049 J1.117
X180.494 Y1.376 I2.128 J1.837
X181.212 Y1.877 I0.741 J-0.296
G1 X181.583 Y1.875
G2 X181.871 Y1.6 I-0.01 J-0.3
G1 X181.9 Y1.252
X182.106 Y-1.252 F1000
X182.13 Y-1.551 F200
G2 X181.842 Y-1.875 I-0.299 J-0.025
G1 X181.433
G2 X180.778 Y-1.584 I0.035 J0.961
X179.963 Y0.29 I1.813 J1.903
X180.195 Y1.508 I2.193 J0.213
X180.844 Y1.875 I0.654 J-0.399
G1 X181.212
G2 X181.501 Y1.596 I-0.01 J-0.3
G1 X181.525 Y1.251
X181.701 Y-1.251 F1000
X181.722 Y-1.554 F200
G2 X181.433 Y-1.875 I-0.299 J-0.021
G1 X181.063
G2 X180.408 Y-1.583 I0.035 J0.959
X179.594 Y0.291 I1.806 J1.898
X179.827 Y1.509 I2.179 J0.214
X180.475 Y1.875 I0.654 J-0.4
G1 X180.844
G2 X181.133 Y1.596 I-0.01 J-0.3
G1 X181.156 Y1.251
X181.33 Y-1.251 F1000
X181.351 Y-1.554 F200
G2 X181.063 Y-1.875 I-0.299 J-0.021
G1 X180.707
G2 X179.935 Y-1.484 I0.05 J1.057
X179.219 Y0.435 I1.992 J1.836
X179.457 Y1.506 I2.093 J0.098
X180.106 Y1.875 I0.653 J-0.394
G1 X180.475
G2 X180.764 Y1.597 I-0.01 J-0.3
G1 X180.789 Y1.251
X180.974 Y-1.251 F1000
X180.996 Y-1.553 F200
G2 X180.707 Y-1.875 I-0.299 J-0.022
G1 X180.348
G2 X179.568 Y-1.487 I0.04 J1.057
X178.85 Y0.43 I1.986 J1.838
X179.087 Y1.505 I2.096 J0.101
X179.737 Y1.875 I0.654 J-0.392
G1 X180.106
G2 X180.394 Y1.598 I-0.01 J-0.3
G1 X180.421 Y1.252
X180.614 Y-1.251 F1000
X180.637 Y-1.552 F200
G2 X180.348 Y-1.875 I-0.299 J-0.023
G1 X179.976
G2 X179.198 Y-1.486 I0.043 J1.058
X178.48 Y0.431 I1.987 J1.836
X178.718 Y1.505 I2.096 J0.099
X179.368 Y1.875 I0.654 J-0.392
G1 X179.737
G2 X180.025 Y1.598 I-0.01 J-0.3
G1 X180.052 Y1.252
X180.241 Y-1.251 F1000
X180.264 Y-1.553 F200
G2 X179.976 Y-1.875 I-0.299 J-0.023
G1 X179.606
G2 X178.828 Y-1.486 I0.043 J1.057
X178.111 Y0.431 I1.986 J1.836
X178.349 Y1.505 I2.096 J0.099
X178.998 Y1.875 I0.654 J-0.392
G1 X179.368
G2 X179.656 Y1.598 I-0.01 J-0.3
G1 X179.683 Y1.252
X179.872 Y-1.251 F1000
X179.895 Y-1.553 F200
G2 X179.606 Y-1.875 I-0.299 J-0.023
G1 X179.252
G2 X178.414 Y-1.437 I0.049 J1.116
X177.91 Y1.377 I2.13 J1.834
X178.627 Y1.877 I0.74 J-0.297
G1 X178.998 Y1.875
G2 X179.287 Y1.599 I-0.01 J-0.3
G1 X179.315 Y1.252
X179.517 Y-1.252 F1000
X179.541 Y-1.551 F200
G2 X179.252 Y-1.875 I-0.299 J-0.024
G1 X178.867
G2 X178.09 Y-1.485 I0.044 J1.058
X177.388 Y0.731 I2.048 J1.868
X177.726 Y1.661 I1.593 J-0.053
G1 X177.885 Y1.775
X178.066 Y1.85
X178.259 Y1.875
X178.627
G2 X178.916 Y1.598 I-0.01 J-0.3
G1 X178.942 Y1.252
X179.133 Y-1.251 F1000
X179.156 Y-1.552 F200
G2 X178.867 Y-1.875 I-0.299 J-0.023
G1 X178.511
G2 X177.674 Y-1.435 I0.054 J1.118
X177.172 Y1.38 I2.132 J1.833
X177.888 Y1.877 I0.738 J-0.299
G1 X178.259 Y1.875
G2 X178.547 Y1.599 I-0.01 J-0.3
G1 X178.575 Y1.252
X178.775 Y-1.252 F1000
X178.799 Y-1.551 F200
G2 X178.511 Y-1.875 I-0.299 J-0.024
G1 X178.129
G2 X177.352 Y-1.485 I0.045 J1.059
X176.649 Y0.731 I2.047 J1.869
X176.987 Y1.66 I1.592 J-0.052
G1 X177.146 Y1.775
X177.326 Y1.85
X177.52 Y1.875
X177.888
G2 X178.177 Y1.598 I-0.01 J-0.3
G1 X178.203 Y1.252
X178.394 Y-1.251 F1000
X178.417 Y-1.552 F200
G2 X178.129 Y-1.875 I-0.299 J-0.023
G1 X177.765
G2 X176.984 Y-1.487 I0.039 J1.057
X176.265 Y0.429 I1.983 J1.838
X176.501 Y1.504 I2.097 J0.102
X177.151 Y1.875 I0.654 J-0.391
G1 X177.52
G2 X177.808 Y1.598 I-0.01 J-0.3
G1 X177.835 Y1.252
X178.03 Y-1.251 F1000
X178.053 Y-1.552 F200
G2 X177.765 Y-1.875 I-0.299 J-0.023
G1 X177.376
G2 X176.609 Y-1.482 I0.058 J1.059
X175.895 Y0.437 I1.994 J1.834
X176.134 Y1.507 I2.091 J0.096
X176.782 Y1.875 I0.652 J-0.394
G1 X177.151
G2 X177.44 Y1.597 I-0.01 J-0.3
G1 X177.465 Y1.251
X177.644 Y-1.251 F1000
X177.665 Y-1.554 F200
G2 X177.376 Y-1.875 I-0.299 J-0.021
G1 X177.021
G2 X176.243 Y-1.486 I0.042 J1.057
X175.526 Y0.431 I1.987 J1.836
X175.763 Y1.505 I2.097 J0.099
X176.413 Y1.875 I0.654 J-0.392
G1 X176.782
G2 X177.071 Y1.598 I-0.01 J-0.3
G1 X177.097 Y1.252
X177.287 Y-1.251 F1000
X177.31 Y-1.552 F200
G2 X177.021 Y-1.875 I-0.299 J-0.023
G1 X176.662
G2 X175.826 Y-1.434 I0.056 J1.12
X175.325 Y1.381 I2.134 J1.831
X176.042 Y1.877 I0.738 J-0.3
G1 X176.413 Y1.875
G2 X176.701 Y1.599 I-0.01 J-0.3
G1 X176.729 Y1.252
X176.927 Y-1.252 F1000
X176.95 Y-1.552 F200
G2 X176.662 Y-1.875 I-0.299 J-0.024
G1 X176.289
G2 X175.455 Y-1.431 I0.064 J1.126
X174.957 Y1.383 I2.133 J1.829
X175.671 Y1.877 I0.733 J-0.297
G1 X176.042 Y1.875
G2 X176.33 Y1.599 I-0.01 J-0.3
G1 X176.357 Y1.252
X176.554 Y-1.252 F1000
X176.578 Y-1.552 F200
G2 X176.289 Y-1.875 I-0.299 J-0.024
G1 X175.92
G2 X175.086 Y-1.431 I0.066 J1.129
X174.587 Y1.383 I2.135 J1.83
X175.3 Y1.877 I0.732 J-0.296
G1 X175.671 Y1.875
G2 X175.959 Y1.599 I-0.01 J-0.3
G1 X175.987 Y1.252
X176.185 Y-1.252 F1000
X176.209 Y-1.552 F200
G2 X175.92 Y-1.875 I-0.299 J-0.024
G1 X175.566
G2 X174.724 Y-1.439 I0.046 J1.119
X174.092 Y0.941 I2.127 J1.839
X174.416 Y1.676 I1.336 J-0.149
G1 X174.571 Y1.783
X174.745 Y1.852
X174.931 Y1.875
X175.3
G2 X175.589 Y1.6 I-0.01 J-0.3
G1 X175.618 Y1.252
X175.83 Y-1.252 F1000
X175.855 Y-1.55 F200
G2 X175.566 Y-1.875 I-0.299 J-0.025
G1 X175.181
G2 X174.399 Y-1.487 I0.039 J1.061
X173.693 Y0.728 I2.046 J1.872
X174.029 Y1.659 I1.587 J-0.046
G1 X174.189 Y1.775
X174.369 Y1.85
X174.563 Y1.875
X174.931
G2 X175.219 Y1.599 I-0.01 J-0.3
G1 X175.247 Y1.252
X175.446 Y-1.252 F1000
X175.47 Y-1.551 F200
G2 X175.181 Y-1.875 I-0.299 J-0.024
G1 X174.824
G2 X173.984 Y-1.438 I0.047 J1.115
X173.475 Y1.375 I2.132 J1.839
X174.193 Y1.877 I0.741 J-0.295
G1 X174.563 Y1.875
G2 X174.852 Y1.6 I-0.01 J-0.3
G1 X174.881 Y1.252
X175.088 Y-1.252 F1000
X175.113 Y-1.55 F200
G2 X174.824 Y-1.875 I-0.299 J-0.025
G1 X174.442
G2 X173.661 Y-1.487 I0.039 J1.059
X172.954 Y0.728 I2.046 J1.873
X173.291 Y1.659 I1.593 J-0.05
G1 X173.451 Y1.775
X173.631 Y1.85
X173.825 Y1.875
X174.193
G2 X174.482 Y1.599 I-0.01 J-0.3
G1 X174.509 Y1.252
X174.707 Y-1.252 F1000
X174.731 Y-1.552 F200
G2 X174.442 Y-1.875 I-0.299 J-0.024
G1 X174.078
G2 X173.242 Y-1.434 I0.057 J1.121
X172.738 Y1.38 I2.133 J1.834
X173.454 Y1.877 I0.739 J-0.3
G1 X173.825 Y1.875
G2 X174.114 Y1.599 I-0.01 J-0.3
G1 X174.142 Y1.252
X174.343 Y-1.252 F1000
X174.367 Y-1.551 F200
G2 X174.078 Y-1.875 I-0.299 J-0.024
G1 X173.69
G2 X172.918 Y-1.483 I0.052 J1.06
X172.216 Y0.733 I2.052 J1.87
X172.554 Y1.661 I1.586 J-0.052
G1 X172.713 Y1.776
X172.893 Y1.85
X173.086 Y1.875
X173.454
G2 X173.743 Y1.598 I-0.01 J-0.3
G1 X173.769 Y1.251
X173.956 Y-1.251 F1000
X173.979 Y-1.553 F200
G2 X173.69 Y-1.875 I-0.299 J-0.022
G1 X173.335
G2 X172.501 Y-1.431 I0.063 J1.124
X172.001 Y1.383 I2.135 J1.832
X172.716 Y1.877 I0.737 J-0.302
G1 X173.086 Y1.875
G2 X173.375 Y1.599 I-0.01 J-0.3
G1 X173.402 Y1.252
X173.6 Y-1.252 F1000
X173.624 Y-1.552 F200
G2 X173.335 Y-1.875 I-0.299 J-0.024
G1 X172.976
G2 X172.137 Y-1.436 I0.053 J1.122
X171.629 Y1.377 I2.127 J1.837
X172.345 Y1.877 I0.736 J-0.292
G1 X172.716 Y1.875
G2 X173.004 Y1.6 I-0.01 J-0.3
G1 X173.033 Y1.252
X173.24 Y-1.252 F1000
X173.264 Y-1.551 F200
G2 X172.976 Y-1.875 I-0.299 J-0.025
G1 X172.603
G2 X171.766 Y-1.434 I0.059 J1.127
X171.26 Y1.379 I2.131 J1.836
X171.975 Y1.877 I0.735 J-0.293
G1 X172.346 Y1.875
G2 X172.634 Y1.6 I-0.01 J-0.3
G1 X172.663 Y1.252
X172.867 Y-1.252 F1000
X172.892 Y-1.551 F200
G2 X172.603 Y-1.875 I-0.299 J-0.024
G1 X172.234
G2 X171.397 Y-1.435 I0.059 J1.127
X170.89 Y1.379 I2.133 J1.836
X171.606 Y1.877 I0.734 J-0.293
G1 X171.975 Y1.875
G2 X172.264 Y1.6 I-0.01 J-0.3
G1 X172.293 Y1.252
X172.498 Y-1.252 F1000
X172.522 Y-1.551 F200
G2 X172.234 Y-1.875 I-0.299 J-0.025
G1 X171.842
G2 X171.071 Y-1.483 I0.055 J1.061
X170.369 Y0.734 I2.054 J1.87
X170.706 Y1.661 I1.578 J-0.048
G1 X170.865 Y1.776
X171.045 Y1.85
X171.238 Y1.875
X171.606
G2 X171.894 Y1.598 I-0.01 J-0.3
G1 X171.92 Y1.251
X172.108 Y-1.251 F1000
X172.13 Y-1.553 F200
G2 X171.842 Y-1.875 I-0.299 J-0.022
G1 X171.495
G2 X170.658 Y-1.435 I0.054 J1.119
X170.151 Y1.379 I2.135 J1.837
X170.868 Y1.877 I0.739 J-0.298
G1 X171.238 Y1.875
G2 X171.527 Y1.6 I-0.01 J-0.3
G1 X171.555 Y1.252
X171.759 Y-1.252 F1000
X171.783 Y-1.551 F200
G2 X171.495 Y-1.875 I-0.299 J-0.024
G1 X171.099
G2 X170.331 Y-1.482 I0.057 J1.059
X169.63 Y0.736 I2.057 J1.869
X169.968 Y1.662 I1.581 J-0.052
G1 X170.127 Y1.776
X170.307 Y1.85
X170.5 Y1.875
X170.868
G2 X171.157 Y1.597 I-0.01 J-0.3
G1 X171.182 Y1.251
X171.365 Y-1.251 F1000
X171.388 Y-1.553 F200
G2 X171.099 Y-1.875 I-0.299 J-0.022
G1 X170.746
G2 X169.966 Y-1.487 I0.04 J1.057
X169.246 Y0.43 I1.986 J1.84
X169.481 Y1.504 I2.096 J0.103
X170.132 Y1.875 I0.655 J-0.392
G1 X170.5
G2 X170.789 Y1.599 I-0.01 J-0.3
G1 X170.816 Y1.252
X171.011 Y-1.251 F1000
X171.035 Y-1.552 F200
G2 X170.746 Y-1.875 I-0.299 J-0.023
G1 X170.392
G2 X169.552 Y-1.438 I0.046 J1.116
X169.042 Y1.375 I2.128 J1.838
X169.761 Y1.877 I0.741 J-0.295
G1 X170.132 Y1.875
G2 X170.42 Y1.6 I-0.01 J-0.3
G1 X170.449 Y1.252
X170.656 Y-1.252 F1000
X170.681 Y-1.55 F200
G2 X170.392 Y-1.875 I-0.299 J-0.025
G1 X170.004
G2 X169.226 Y-1.486 I0.044 J1.059
X168.522 Y0.73 I2.048 J1.871
X168.86 Y1.66 I1.592 J-0.052
G1 X169.019 Y1.775
X169.199 Y1.85
X169.393 Y1.875
X169.761
G2 X170.05 Y1.598 I-0.01 J-0.3
G1 X170.076 Y1.252
X170.269 Y-1.251 F1000
X170.293 Y-1.552 F200
G2 X170.004 Y-1.875 I-0.299 J-0.023
G1 X169.649
G2 X168.811 Y-1.436 I0.052 J1.118
X168.305 Y1.378 I2.13 J1.836
X169.022 Y1.877 I0.74 J-0.297
G1 X169.393 Y1.875
G2 X169.681 Y1.6 I-0.01 J-0.3
G1 X169.71 Y1.252
X169.913 Y-1.252 F1000
X169.938 Y-1.551 F200
G2 X169.649 Y-1.875 I-0.299 J-0.024
G1 X169.241
G2 X168.587 Y-1.583 I0.037 J0.961
X167.773 Y0.291 I1.815 J1.902
X168.006 Y1.509 I2.193 J0.212
X168.654 Y1.875 I0.654 J-0.4
G1 X169.022
G2 X169.311 Y1.596 I-0.01 J-0.3
G1 X169.335 Y1.251
X169.508 Y-1.251 F1000
X169.529 Y-1.554 F200
G2 X169.241 Y-1.875 I-0.299 J-0.021
G1 X168.87
G2 X168.217 Y-1.583 I0.037 J0.958
X167.404 Y0.292 I1.809 J1.898
X167.637 Y1.51 I2.179 J0.213
X168.285 Y1.875 I0.653 J-0.401
G1 X168.654
G2 X168.943 Y1.596 I-0.01 J-0.3
G1 X168.966 Y1.251
X169.138 Y-1.251 F1000
X169.159 Y-1.555 F200
G2 X168.87 Y-1.875 I-0.299 J-0.021
G1 X168.515
G2 X167.744 Y-1.483 I0.053 J1.056
X167.029 Y0.436 I1.995 J1.835
X167.267 Y1.507 I2.093 J0.097
X167.916 Y1.875 I0.653 J-0.394
G1 X168.285
G2 X168.574 Y1.597 I-0.01 J-0.3
G1 X168.599 Y1.251
X168.781 Y-1.251 F1000
X168.803 Y-1.553 F200
G2 X168.515 Y-1.875 I-0.299 J-0.022
G1 X168.155
G2 X167.378 Y-1.486 I0.042 J1.057
X166.66 Y0.431 I1.988 J1.837
X166.897 Y1.505 I2.096 J0.1
X167.547 Y1.875 I0.654 J-0.392
G1 X167.916
G2 X168.205 Y1.598 I-0.01 J-0.3
G1 X168.231 Y1.252
X168.421 Y-1.251 F1000
X168.444 Y-1.552 F200
G2 X168.155 Y-1.875 I-0.299 J-0.023
G1 X167.783
G2 X167.007 Y-1.485 I0.046 J1.057
X166.291 Y0.433 I1.989 J1.836
X166.528 Y1.506 I2.095 J0.098
X167.178 Y1.875 I0.654 J-0.393
G1 X167.547
G2 X167.836 Y1.598 I-0.01 J-0.3
G1 X167.861 Y1.251
X168.049 Y-1.251 F1000
X168.071 Y-1.553 F200
G2 X167.783 Y-1.875 I-0.299 J-0.022
G1 X167.413
G2 X166.637 Y-1.485 I0.046 J1.057
X165.921 Y0.433 I1.989 J1.835
X166.159 Y1.506 I2.096 J0.098
X166.808 Y1.875 I0.654 J-0.393
G1 X167.178
G2 X167.466 Y1.598 I-0.01 J-0.3
G1 X167.492 Y1.251
X167.679 Y-1.251 F1000
X167.701 Y-1.553 F200
G2 X167.413 Y-1.875 I-0.299 J-0.022
G1 X167.06
G2 X166.222 Y-1.435 I0.053 J1.118
X165.721 Y1.379 I2.132 J1.832
X166.437 Y1.877 I0.739 J-0.298
G1 X166.808 Y1.875
G2 X167.097 Y1.599 I-0.01 J-0.3
G1 X167.125 Y1.252
X167.324 Y-1.252 F1000
X167.348 Y-1.551 F200
G2 X167.06 Y-1.875 I-0.299 J-0.024
G1 X166.674
G2 X165.899 Y-1.485 I0.047 J1.058
X165.198 Y0.732 I2.049 J1.867
X165.536 Y1.661 I1.589 J-0.053
G1 X165.696 Y1.775
X165.876 Y1.85
X166.069 Y1.875
X166.437
G2 X166.726 Y1.598 I-0.01 J-0.3
G1 X166.752 Y1.252
X166.94 Y-1.251 F1000
X166.963 Y-1.553 F200
G2 X166.674 Y-1.875 I-0.299 J-0.023
G1 X166.318
G2 X165.483 Y-1.433 I0.058 J1.12
X164.982 Y1.382 I2.134 J1.831
X165.698 Y1.877 I0.737 J-0.3
G1 X166.069 Y1.875
G2 X166.358 Y1.599 I-0.01 J-0.3
G1 X166.385 Y1.252
X166.583 Y-1.252 F1000
X166.606 Y-1.552 F200
G2 X166.318 Y-1.875 I-0.299 J-0.024
G1 X165.963
G2 X165.121 Y-1.44 I0.043 J1.115
X164.609 Y1.372 I2.124 J1.839
X165.328 Y1.877 I0.739 J-0.288
G1 X165.698 Y1.875
G2 X165.986 Y1.6 I-0.01 J-0.3
G1 X166.016 Y1.252
X166.226 Y-1.252 F1000
X166.251 Y-1.55 F200
G2 X165.963 Y-1.875 I-0.299 J-0.025
G1 X165.572
G2 X164.793 Y-1.486 I0.044 J1.06
X164.09 Y0.73 I2.046 J1.87
X164.427 Y1.66 I1.588 J-0.049
G1 X164.586 Y1.775
X164.766 Y1.85
X164.96 Y1.875
X165.328
G2 X165.616 Y1.598 I-0.01 J-0.3
G1 X165.643 Y1.252
X165.837 Y-1.251 F1000
X165.86 Y-1.552 F200
G2 X165.572 Y-1.875 I-0.299 J-0.023
G1 X165.184
G2 X164.418 Y-1.481 I0.061 J1.059
X163.721 Y0.737 I2.055 J1.865
X164.061 Y1.663 I1.575 J-0.053
G1 X164.219 Y1.776
X164.399 Y1.85
X164.591 Y1.875
X164.96
G2 X165.249 Y1.596 I-0.01 J-0.3
G1 X165.273 Y1.251
X165.451 Y-1.251 F1000
X165.472 Y-1.554 F200
G2 X165.184 Y-1.875 I-0.299 J-0.021
G1 X164.829
G2 X164.053 Y-1.485 I0.045 J1.057
X163.336 Y0.432 I1.989 J1.837
X163.573 Y1.505 I2.094 J0.1
X164.222 Y1.875 I0.654 J-0.393
G1 X164.591
G2 X164.88 Y1.598 I-0.01 J-0.3
G1 X164.906 Y1.252
X165.095 Y-1.251 F1000
X165.117 Y-1.553 F200
G2 X164.829 Y-1.875 I-0.299 J-0.023
G1 X164.469
G2 X163.635 Y-1.432 I0.061 J1.123
X163.136 Y1.383 I2.137 J1.83
X163.851 Y1.877 I0.737 J-0.302
G1 X164.222 Y1.875
G2 X164.511 Y1.599 I-0.01 J-0.3
G1 X164.538 Y1.252
X164.734 Y-1.251 F1000
X164.758 Y-1.552 F200
G2 X164.469 Y-1.875 I-0.299 J-0.023
G1 X164.097
G2 X163.316 Y-1.487 I0.04 J1.059
X162.612 Y0.729 I2.046 J1.87
X162.949 Y1.66 I1.594 J-0.051
G1 X163.109 Y1.775
X163.289 Y1.85
X163.483 Y1.875
X163.851
G2 X164.14 Y1.598 I-0.01 J-0.3
G1 X164.167 Y1.252
X164.362 Y-1.251 F1000
X164.385 Y-1.552 F200
G2 X164.097 Y-1.875 I-0.299 J-0.023
G1 X163.727
G2 X162.947 Y-1.487 I0.039 J1.057
X162.228 Y0.429 I1.982 J1.838
X162.464 Y1.504 I2.098 J0.102
X163.114 Y1.875 I0.655 J-0.392
G1 X163.483
G2 X163.771 Y1.598 I-0.01 J-0.3
G1 X163.798 Y1.252
X163.993 Y-1.251 F1000
X164.016 Y-1.552 F200
G2 X163.727 Y-1.875 I-0.299 J-0.023
G1 X163.374
G2 X162.533 Y-1.439 I0.045 J1.115
X162.025 Y1.374 I2.128 J1.837
X162.743 Y1.877 I0.741 J-0.294
G1 X163.114 Y1.875
G2 X163.403 Y1.6 I-0.01 J-0.3
G1 X163.431 Y1.252
X163.637 Y-1.252 F1000
X163.662 Y-1.551 F200
G2 X163.374 Y-1.875 I-0.299 J-0.025
G1 X162.988
G2 X162.208 Y-1.487 I0.041 J1.059
X161.504 Y0.729 I2.045 J1.87
X161.842 Y1.66 I1.594 J-0.052
G1 X162.001 Y1.775
X162.181 Y1.85
X162.375 Y1.875
X162.743
G2 X163.032 Y1.598 I-0.01 J-0.3
G1 X163.059 Y1.252
X163.254 Y-1.251 F1000
X163.277 Y-1.552 F200
G2 X162.988 Y-1.875 I-0.299 J-0.023
G1 X162.632
G2 X161.793 Y-1.437 I0.05 J1.116
X161.287 Y1.377 I2.129 J1.836
X162.004 Y1.877 I0.74 J-0.296
G1 X162.375 Y1.875
G2 X162.664 Y1.6 I-0.01 J-0.3
G1 X162.692 Y1.252
X162.896 Y-1.252 F1000
X162.92 Y-1.551 F200
G2 X162.632 Y-1.875 I-0.299 J-0.024
G1 X162.25
G2 X161.47 Y-1.486 I0.041 J1.059
X160.765 Y0.729 I2.045 J1.87
X161.103 Y1.66 I1.594 J-0.051
G1 X161.262 Y1.775
X161.443 Y1.85
X161.636 Y1.875
X162.004
G2 X162.293 Y1.598 I-0.01 J-0.3
G1 X162.32 Y1.252
X162.515 Y-1.251 F1000
X162.538 Y-1.552 F200
G2 X162.25 Y-1.875 I-0.299 J-0.023
G1 X161.886
G2 X161.051 Y-1.432 I0.061 J1.123
X160.55 Y1.382 I2.134 J1.832
X161.265 Y1.877 I0.737 J-0.301
G1 X161.636 Y1.875
G2 X161.925 Y1.599 I-0.01 J-0.3
G1 X161.952 Y1.252
X162.15 Y-1.252 F1000
X162.174 Y-1.552 F200
G2 X161.886 Y-1.875 I-0.299 J-0.024
G1 X161.497
G2 X160.727 Y-1.483 I0.055 J1.059
X160.027 Y0.734 I2.053 J1.868
X160.365 Y1.661 I1.585 J-0.053
G1 X160.524 Y1.776
X160.704 Y1.85
X160.897 Y1.875
X161.265
G2 X161.554 Y1.597 I-0.01 J-0.3
G1 X161.58 Y1.251
X161.764 Y-1.251 F1000
X161.786 Y-1.553 F200
G2 X161.497 Y-1.875 I-0.299 J-0.022
G1 X161.142
G2 X160.362 Y-1.487 I0.039 J1.057
X159.642 Y0.429 I1.984 J1.839
X159.878 Y1.504 I2.098 J0.102
X160.529 Y1.875 I0.655 J-0.392
G1 X160.897
G2 X161.186 Y1.598 I-0.01 J-0.3
G1 X161.213 Y1.252
X161.408 Y-1.251 F1000
X161.431 Y-1.552 F200
G2 X161.142 Y-1.875 I-0.299 J-0.023
G1 X160.783
G2 X159.945 Y-1.436 I0.053 J1.119
X159.441 Y1.378 I2.131 J1.835
X160.158 Y1.877 I0.74 J-0.298
G1 X160.529 Y1.875
G2 X160.817 Y1.599 I-0.01 J-0.3
G1 X160.845 Y1.252
X161.047 Y-1.252 F1000
X161.072 Y-1.551 F200
G2 X160.783 Y-1.875 I-0.299 J-0.024
G1 X160.41
G2 X159.575 Y-1.433 I0.06 J1.125
X159.072 Y1.381 I2.131 J1.832
X159.787 Y1.877 I0.734 J-0.295
G1 X160.158 Y1.875
G2 X160.446 Y1.599 I-0.01 J-0.3
G1 X160.474 Y1.252
X160.675 Y-1.252 F1000
X160.699 Y-1.551 F200
G2 X160.41 Y-1.875 I-0.299 J-0.024
G1 X160.041
G2 X159.205 Y-1.433 I0.061 J1.127
X158.702 Y1.381 I2.132 J1.833
X159.417 Y1.877 I0.733 J-0.294
G1 X159.787 Y1.875
G2 X160.076 Y1.599 I-0.01 J-0.3
G1 X160.104 Y1.252
X160.306 Y-1.252 F1000
X160.33 Y-1.551 F200
G2 X160.041 Y-1.875 I-0.299 J-0.024
G1 X159.649
G2 X158.88 Y-1.482 I0.057 J1.061
X158.18 Y0.735 I2.055 J1.868
X158.517 Y1.661 I1.578 J-0.05
G1 X158.676 Y1.776
X158.856 Y1.85
X159.049 Y1.875
X159.417
G2 X159.706 Y1.597 I-0.01 J-0.3
G1 X159.731 Y1.251
X159.915 Y-1.251 F1000
X159.938 Y-1.553 F200
G2 X159.649 Y-1.875 I-0.299 J-0.022
G1 X159.302
G2 X158.466 Y-1.434 I0.057 J1.12
X157.963 Y1.381 I2.137 J1.834
X158.679 Y1.877 I0.738 J-0.3
G1 X159.049 Y1.875
G2 X159.338 Y1.599 I-0.01 J-0.3
G1 X159.366 Y1.252
X159.567 Y-1.252 F1000
X159.591 Y-1.551 F200
G2 X159.302 Y-1.875 I-0.299 J-0.024
G1 X158.945
G2 X158.103 Y-1.44 I0.043 J1.116
X157.59 Y1.373 I2.126 J1.841
X158.309 Y1.877 I0.739 J-0.289
G1 X158.679 Y1.875
G2 X158.967 Y1.6 I-0.01 J-0.3
G1 X158.997 Y1.252
X159.209 Y-1.252 F1000
X159.234 Y-1.55 F200
G2 X158.945 Y-1.875 I-0.299 J-0.025
G1 X158.564
G2 X157.728 Y-1.433 I0.062 J1.128
X157.224 Y1.381 I2.134 J1.834
X157.939 Y1.877 I0.734 J-0.295
G1 X158.309 Y1.875
G2 X158.597 Y1.599 I-0.01 J-0.3
G1 X158.626 Y1.252
X158.828 Y-1.252 F1000
X158.852 Y-1.551 F200
G2 X158.564 Y-1.875 I-0.299 J-0.024
G1 X158.199
G2 X157.361 Y-1.436 I0.055 J1.125
X156.853 Y1.377 I2.132 J1.838
X157.569 Y1.877 I0.735 J-0.291
G1 X157.939 Y1.875
G2 X158.227 Y1.6 I-0.01 J-0.3
G1 X158.256 Y1.252
X158.463 Y-1.252 F1000
X158.488 Y-1.55 F200
G2 X158.199 Y-1.875 I-0.299 J-0.025
G1 X157.811
G2 X157.036 Y-1.485 I0.049 J1.061
X156.332 Y0.731 I2.051 J1.871
X156.668 Y1.66 I1.583 J-0.047
G1 X156.828 Y1.775
X157.008 Y1.85
X157.202 Y1.875
X157.569
G2 X157.858 Y1.598 I-0.01 J-0.3
G1 X157.884 Y1.252
X158.077 Y-1.251 F1000
X158.1 Y-1.552 F200
G2 X157.811 Y-1.875 I-0.299 J-0.023
G1 X157.456
G2 X156.62 Y-1.434 I0.057 J1.121
X156.115 Y1.38 I2.136 J1.836
X156.831 Y1.877 I0.738 J-0.3
G1 X157.202 Y1.875
G2 X157.49 Y1.599 I-0.01 J-0.3
G1 X157.518 Y1.252
X157.721 Y-1.252 F1000
X157.745 Y-1.551 F200
G2 X157.456 Y-1.875 I-0.299 J-0.024
G1 X157.097
G2 X156.256 Y-1.439 I0.047 J1.118
X155.743 Y1.374 I2.126 J1.84
X156.461 Y1.877 I0.738 J-0.29
G1 X156.831 Y1.875
G2 X157.12 Y1.6 I-0.01 J-0.3
G1 X157.149 Y1.252
X157.36 Y-1.252 F1000
X157.385 Y-1.55 F200
G2 X157.097 Y-1.875 I-0.299 J-0.025
G1 X156.724
G2 X155.885 Y-1.437 I0.052 J1.124
X155.375 Y1.376 I2.128 J1.839
X156.091 Y1.877 I0.737 J-0.291
G1 X156.461 Y1.875
G2 X156.75 Y1.6 I-0.01 J-0.3
G1 X156.779 Y1.252
X156.988 Y-1.252 F1000
X157.013 Y-1.55 F200
G2 X156.724 Y-1.875 I-0.299 J-0.025
G1 X156.355
G2 X155.515 Y-1.437 I0.053 J1.124
X155.005 Y1.376 I2.13 J1.839
X155.722 Y1.877 I0.736 J-0.29
G1 X156.091 Y1.875
G2 X156.38 Y1.6 I-0.01 J-0.3
G1 X156.409 Y1.252
X156.618 Y-1.252 F1000
X156.643 Y-1.55 F200
G2 X156.355 Y-1.875 I-0.299 J-0.025
G1 X155.963
G2 X155.189 Y-1.484 I0.05 J1.061
X154.485 Y0.732 I2.052 J1.871
X154.821 Y1.66 I1.583 J-0.048
G1 X154.981 Y1.775
X155.161 Y1.85
X155.354 Y1.875
X155.722
G2 X156.01 Y1.598 I-0.01 J-0.3
G1 X156.037 Y1.252
X156.228 Y-1.251 F1000
X156.251 Y-1.552 F200
G2 X155.963 Y-1.875 I-0.299 J-0.023
G1 X155.616
G2 X154.776 Y-1.438 I0.048 J1.116
X154.266 Y1.376 I2.132 J1.84
X154.984 Y1.877 I0.741 J-0.296
G1 X155.354 Y1.875
G2 X155.643 Y1.6 I-0.01 J-0.3
G1 X155.672 Y1.252
X155.88 Y-1.252 F1000
X155.904 Y-1.55 F200
G2 X155.616 Y-1.875 I-0.299 J-0.025
G1 X155.22
G2 X154.449 Y-1.483 I0.053 J1.059
X153.746 Y0.734 I2.054 J1.87
X154.084 Y1.661 I1.583 J-0.051
G1 X154.243 Y1.776
X154.423 Y1.85
X154.616 Y1.875
X154.984
G2 X155.273 Y1.598 I-0.01 J-0.3
G1 X155.299 Y1.251
X155.486 Y-1.251 F1000
X155.509 Y-1.553 F200
G2 X155.22 Y-1.875 I-0.299 J-0.022
G1 X154.867
G2 X154.033 Y-1.432 I0.061 J1.123
X153.53 Y1.382 I2.135 J1.833
X154.246 Y1.877 I0.737 J-0.302
G1 X154.616 Y1.875
G2 X154.905 Y1.599 I-0.01 J-0.3
G1 X154.932 Y1.252
X155.132 Y-1.252 F1000
X155.156 Y-1.551 F200
G2 X154.867 Y-1.875 I-0.299 J-0.024
G1 X154.513
G2 X153.671 Y-1.44 I0.044 J1.117
X153.157 Y1.372 I2.124 J1.841
X153.876 Y1.877 I0.739 J-0.288
G1 X154.246 Y1.875
G2 X154.534 Y1.601 I-0.01 J-0.3
G1 X154.564 Y1.252
X154.776 Y-1.252 F1000
X154.802 Y-1.55 F200
G2 X154.513 Y-1.875 I-0.299 J-0.025
G1 X154.125
G2 X153.345 Y-1.487 I0.041 J1.061
X152.638 Y0.728 I2.044 J1.872
X152.974 Y1.659 I1.589 J-0.047
G1 X153.134 Y1.775
X153.314 Y1.85
X153.508 Y1.875
X153.876
G2 X154.164 Y1.599 I-0.01 J-0.3
G1 X154.192 Y1.252
X154.39 Y-1.252 F1000
X154.414 Y-1.552 F200
G2 X154.125 Y-1.875 I-0.299 J-0.024
G1 X153.77
G2 X152.93 Y-1.438 I0.047 J1.116
X152.419 Y1.375 I2.129 J1.839
X153.138 Y1.877 I0.741 J-0.295
G1 X153.508 Y1.875
G2 X153.797 Y1.6 I-0.01 J-0.3
G1 X153.825 Y1.252
X154.034 Y-1.252 F1000
X154.059 Y-1.55 F200
G2 X153.77 Y-1.875 I-0.299 J-0.025
G1 X153.362
G2 X152.705 Y-1.584 I0.034 J0.962
X151.889 Y0.29 I1.812 J1.904
X152.121 Y1.508 I2.192 J0.215
X152.77 Y1.875 I0.655 J-0.399
G1 X153.138
G2 X153.427 Y1.596 I-0.01 J-0.3
G1 X153.451 Y1.251
X153.629 Y-1.251 F1000
X153.65 Y-1.554 F200
G2 X153.362 Y-1.875 I-0.299 J-0.021
G1 X152.991
G2 X152.335 Y-1.584 I0.033 J0.959
X151.52 Y0.29 I1.806 J1.899
X151.753 Y1.509 I2.179 J0.216
X152.401 Y1.875 I0.654 J-0.4
G1 X152.77
G2 X153.058 Y1.596 I-0.01 J-0.3
G1 X153.083 Y1.251
X153.258 Y-1.251 F1000
X153.28 Y-1.554 F200
G2 X152.991 Y-1.875 I-0.299 J-0.021
G1 X152.636
G2 X151.862 Y-1.484 I0.048 J1.057
X151.146 Y0.434 I1.991 J1.837
X151.383 Y1.506 I2.094 J0.099
X152.032 Y1.875 I0.653 J-0.393
G1 X152.401
G2 X152.689 Y1.598 I-0.01 J-0.3
G1 X152.715 Y1.251
X152.902 Y-1.251 F1000
X152.925 Y-1.553 F200
G2 X152.636 Y-1.875 I-0.299 J-0.022
G1 X152.276
G2 X151.496 Y-1.487 I0.039 J1.057
X150.776 Y0.429 I1.985 J1.838
X151.013 Y1.504 I2.097 J0.102
X151.663 Y1.875 I0.655 J-0.392
G1 X152.032
G2 X152.321 Y1.598 I-0.01 J-0.3
G1 X152.347 Y1.252
X152.542 Y-1.251 F1000
X152.565 Y-1.552 F200
G2 X152.276 Y-1.875 I-0.299 J-0.023
G1 X151.904
G2 X151.125 Y-1.486 I0.042 J1.058
X150.407 Y0.43 I1.985 J1.837
X150.644 Y1.505 I2.096 J0.1
X151.294 Y1.875 I0.654 J-0.392
G1 X151.663
G2 X151.952 Y1.598 I-0.01 J-0.3
G1 X151.978 Y1.252
X152.17 Y-1.251 F1000
X152.193 Y-1.552 F200
G2 X151.904 Y-1.875 I-0.299 J-0.023
G1 X151.535
G2 X150.756 Y-1.486 I0.041 J1.058
X150.037 Y0.43 I1.985 J1.836
X150.275 Y1.505 I2.097 J0.1
X150.925 Y1.875 I0.654 J-0.392
G1 X151.294
G2 X151.582 Y1.598 I-0.01 J-0.3
G1 X151.609 Y1.252
X151.8 Y-1.251 F1000
X151.823 Y-1.552 F200
G2 X151.535 Y-1.875 I-0.299 J-0.023
G1 X151.181
G2 X150.341 Y-1.438 I0.047 J1.115
X149.835 Y1.376 I2.129 J1.835
X150.554 Y1.877 I0.741 J-0.296
G1 X150.925 Y1.875
G2 X151.213 Y1.599 I-0.01 J-0.3
G1 X151.241 Y1.252
X151.445 Y-1.252 F1000
X151.469 Y-1.551 F200
G2 X151.181 Y-1.875 I-0.299 J-0.024
G1 X150.796
G2 X150.017 Y-1.486 I0.042 J1.059
X149.314 Y0.73 I2.046 J1.869
X149.652 Y1.66 I1.594 J-0.053
G1 X149.811 Y1.775
X149.992 Y1.85
X150.185 Y1.875
X150.554
G2 X150.842 Y1.598 I-0.01 J-0.3
G1 X150.869 Y1.252
X151.061 Y-1.251 F1000
X151.084 Y-1.552 F200
G2 X150.796 Y-1.875 I-0.299 J-0.023
G1 X150.439
G2 X149.601 Y-1.436 I0.052 J1.117
X149.097 Y1.378 I2.131 J1.834
X149.814 Y1.877 I0.739 J-0.298
G1 X150.185 Y1.875
G2 X150.474 Y1.599 I-0.01 J-0.3
G1 X150.502 Y1.252
X150.703 Y-1.252 F1000
X150.727 Y-1.551 F200
G2 X150.439 Y-1.875 I-0.299 J-0.024
G1 X150.057
G2 X149.279 Y-1.486 I0.043 J1.059
X148.575 Y0.73 I2.046 J1.869
X148.913 Y1.66 I1.593 J-0.052
G1 X149.072 Y1.775
X149.253 Y1.85
X149.446 Y1.875
X149.814
G2 X150.103 Y1.598 I-0.01 J-0.3
G1 X150.13 Y1.252
X150.322 Y-1.251 F1000
X150.346 Y-1.552 F200
G2 X150.057 Y-1.875 I-0.299 J-0.023
G1 X149.693
G2 X148.911 Y-1.488 I0.037 J1.057
X148.191 Y0.428 I1.981 J1.838
X148.427 Y1.504 I2.099 J0.103
X149.077 Y1.875 I0.655 J-0.391
G1 X149.446
G2 X149.735 Y1.599 I-0.01 J-0.3
G1 X149.762 Y1.252
X149.958 Y-1.251 F1000
X149.981 Y-1.552 F200
G2 X149.693 Y-1.875 I-0.299 J-0.023
G1 X149.305
G2 X148.536 Y-1.482 I0.056 J1.06
X147.821 Y0.436 I1.992 J1.834
X148.06 Y1.507 I2.092 J0.096
X148.708 Y1.875 I0.653 J-0.394
G1 X149.077
G2 X149.366 Y1.597 I-0.01 J-0.3
G1 X149.391 Y1.251
X149.572 Y-1.251 F1000
X149.593 Y-1.554 F200
G2 X149.305 Y-1.875 I-0.299 J-0.022
G1 X148.95
G2 X148.17 Y-1.487 I0.04 J1.057
X147.452 Y0.43 I1.985 J1.837
X147.689 Y1.505 I2.098 J0.1
X148.339 Y1.875 I0.654 J-0.392
G1 X148.708
G2 X148.997 Y1.598 I-0.01 J-0.3
G1 X149.023 Y1.252
X149.215 Y-1.251 F1000
X149.238 Y-1.552 F200
G2 X148.95 Y-1.875 I-0.299 J-0.023
G1 X148.59
G2 X147.753 Y-1.435 I0.054 J1.119
X147.251 Y1.379 I2.133 J1.832
X147.968 Y1.877 I0.739 J-0.299
G1 X148.339 Y1.875
G2 X148.628 Y1.599 I-0.01 J-0.3
G1 X148.655 Y1.252
X148.855 Y-1.252 F1000
X148.879 Y-1.551 F200
G2 X148.59 Y-1.875 I-0.299 J-0.024
G1 X148.218
G2 X147.383 Y-1.432 I0.061 J1.125
X146.883 Y1.382 I2.132 J1.83
X147.597 Y1.877 I0.734 J-0.296
G1 X147.968 Y1.875
G2 X148.257 Y1.599 I-0.01 J-0.3
G1 X148.284 Y1.252
X148.483 Y-1.252 F1000
X148.506 Y-1.551 F200
G2 X148.218 Y-1.875 I-0.299 J-0.024
G1 X147.848
G2 X147.013 Y-1.432 I0.063 J1.128
X146.513 Y1.382 I2.134 J1.831
X147.227 Y1.877 I0.733 J-0.295
G1 X147.597 Y1.875
G2 X147.886 Y1.599 I-0.01 J-0.3
G1 X147.913 Y1.252
X148.113 Y-1.252 F1000
X148.137 Y-1.551 F200
G2 X147.848 Y-1.875 I-0.299 J-0.024
G1 X147.495
G2 X146.652 Y-1.44 I0.043 J1.118
X146.018 Y0.939 I2.126 J1.84
X146.342 Y1.676 I1.337 J-0.148
G1 X146.497 Y1.783
X146.671 Y1.852
X146.857 Y1.875
X147.227
G2 X147.515 Y1.601 I-0.01 J-0.3
G1 X147.545 Y1.252
X147.758 Y-1.252 F1000
X147.783 Y-1.55 F200
G2 X147.495 Y-1.875 I-0.299 J-0.025
G1 X147.109
G2 X146.275 Y-1.432 I0.064 J1.129
X145.773 Y1.383 I2.137 J1.833
X146.487 Y1.877 I0.733 J-0.296
G1 X146.857 Y1.875
G2 X147.146 Y1.599 I-0.01 J-0.3
G1 X147.174 Y1.252
X147.374 Y-1.252 F1000
X147.398 Y-1.551 F200
G2 X147.109 Y-1.875 I-0.299 J-0.024
G1 X146.753
G2 X145.912 Y-1.439 I0.048 J1.12
X145.4 Y1.374 I2.131 J1.841
X146.117 Y1.877 I0.737 J-0.289
G1 X146.487 Y1.875
G2 X146.775 Y1.6 I-0.01 J-0.3
G1 X146.805 Y1.252
X147.016 Y-1.252 F1000
X147.041 Y-1.55 F200
G2 X146.753 Y-1.875 I-0.299 J-0.025
G1 X146.371
G2 X145.536 Y-1.432 I0.065 J1.13
X145.034 Y1.383 I2.138 J1.834
X145.747 Y1.877 I0.733 J-0.296
G1 X146.117 Y1.875
G2 X146.406 Y1.599 I-0.01 J-0.3
G1 X146.434 Y1.252
X146.635 Y-1.252 F1000
X146.659 Y-1.551 F200
G2 X146.371 Y-1.875 I-0.299 J-0.024
G1 X146.007
G2 X145.17 Y-1.435 I0.058 J1.126
X144.662 Y1.379 I2.135 J1.837
X145.378 Y1.877 I0.734 J-0.293
G1 X145.747 Y1.875
G2 X146.036 Y1.6 I-0.01 J-0.3
G1 X146.065 Y1.252
X146.271 Y-1.252 F1000
X146.295 Y-1.551 F200
G2 X146.007 Y-1.875 I-0.299 J-0.025
G1 X145.619
G2 X144.845 Y-1.484 I0.051 J1.061
X144.142 Y0.732 I2.054 J1.872
X144.478 Y1.66 I1.579 J-0.047
G1 X144.637 Y1.775
X144.817 Y1.85
X145.011 Y1.875
X145.378
G2 X145.666 Y1.598 I-0.01 J-0.3
G1 X145.693 Y1.252
X145.884 Y-1.251 F1000
X145.907 Y-1.552 F200
G2 X145.619 Y-1.875 I-0.299 J-0.023
G1 X145.263
G2 X144.428 Y-1.433 I0.06 J1.122
X143.925 Y1.382 I2.138 J1.835
X144.64 Y1.877 I0.738 J-0.301
G1 X145.011 Y1.875
G2 X145.299 Y1.599 I-0.01 J-0.3
G1 X145.327 Y1.252
X145.528 Y-1.252 F1000
X145.552 Y-1.551 F200
G2 X145.263 Y-1.875 I-0.299 J-0.024
G1 X144.904
G2 X144.064 Y-1.437 I0.049 J1.12
X143.553 Y1.375 I2.128 J1.84
X144.27 Y1.877 I0.738 J-0.291
G1 X144.64 Y1.875
G2 X144.929 Y1.6 I-0.01 J-0.3
G1 X144.958 Y1.252
X145.168 Y-1.252 F1000
X145.193 Y-1.55 F200
G2 X144.904 Y-1.875 I-0.299 J-0.025
G1 X144.532
G2 X143.693 Y-1.436 I0.055 J1.125
X143.184 Y1.377 I2.13 J1.838
X143.9 Y1.877 I0.736 J-0.292
G1 X144.27 Y1.875
G2 X144.559 Y1.6 I-0.01 J-0.3
G1 X144.588 Y1.252
X144.795 Y-1.252 F1000
X144.82 Y-1.55 F200
G2 X144.532 Y-1.875 I-0.299 J-0.025
G1 X144.162
G2 X143.324 Y-1.436 I0.055 J1.126
X142.814 Y1.377 I2.131 J1.838
X143.531 Y1.877 I0.736 J-0.291
G1 X143.9 Y1.875
G2 X144.189 Y1.6 I-0.01 J-0.3
G1 X144.218 Y1.252
X144.426 Y-1.252 F1000
X144.451 Y-1.55 F200
G2 X144.162 Y-1.875 I-0.299 J-0.025
G1 X143.77
G2 X142.998 Y-1.484 I0.052 J1.061
X142.294 Y0.732 I2.053 J1.871
X142.631 Y1.66 I1.579 J-0.047
G1 X142.79 Y1.775
X142.97 Y1.85
X143.163 Y1.875
X143.531
G2 X143.819 Y1.598 I-0.01 J-0.3
G1 X143.846 Y1.252
X144.036 Y-1.251 F1000
X144.059 Y-1.552 F200
G2 X143.77 Y-1.875 I-0.299 J-0.023
G1 X143.423
G2 X142.585 Y-1.436 I0.05 J1.117
X142.076 Y1.377 I2.133 J1.839
X142.793 Y1.877 I0.74 J-0.297
G1 X143.163 Y1.875
G2 X143.452 Y1.6 I-0.01 J-0.3
G1 X143.481 Y1.252
X143.687 Y-1.252 F1000
X143.712 Y-1.551 F200
G2 X143.423 Y-1.875 I-0.299 J-0.025
G1 X143.027
G2 X142.257 Y-1.482 I0.055 J1.059
X141.555 Y0.734 I2.055 J1.87
X141.893 Y1.661 I1.582 J-0.052
G1 X142.052 Y1.776
X142.232 Y1.85
X142.425 Y1.875
X142.793
G2 X143.082 Y1.597 I-0.01 J-0.3
G1 X143.108 Y1.251
X143.294 Y-1.251 F1000
X143.316 Y-1.553 F200
G2 X143.027 Y-1.875 I-0.299 J-0.022
G1 X142.674
G2 X141.893 Y-1.487 I0.038 J1.057
X141.171 Y0.428 I1.984 J1.841
X141.406 Y1.503 I2.097 J0.104
X142.057 Y1.875 I0.655 J-0.391
G1 X142.425
G2 X142.714 Y1.599 I-0.01 J-0.3
G1 X142.741 Y1.252
X142.939 Y-1.252 F1000
X142.963 Y-1.552 F200
G2 X142.674 Y-1.875 I-0.299 J-0.024
G1 X142.321
G2 X141.479 Y-1.44 I0.043 J1.114
X140.967 Y1.373 I2.126 J1.84
X141.686 Y1.877 I0.743 J-0.294
G1 X142.057 Y1.875
G2 X142.345 Y1.6 I-0.01 J-0.3
G1 X142.374 Y1.252
X142.584 Y-1.252 F1000
X142.609 Y-1.55 F200
G2 X142.321 Y-1.875 I-0.299 J-0.025
G1 X141.932
G2 X141.153 Y-1.486 I0.041 J1.06
X140.447 Y0.729 I2.046 J1.872
X140.785 Y1.66 I1.594 J-0.051
G1 X140.944 Y1.775
X141.125 Y1.85
X141.318 Y1.875
X141.686
G2 X141.975 Y1.599 I-0.01 J-0.3
G1 X142.002 Y1.252
X142.198 Y-1.251 F1000
X142.221 Y-1.552 F200
G2 X141.932 Y-1.875 I-0.299 J-0.023
G1 X141.577
G2 X140.738 Y-1.437 I0.049 J1.117
X140.229 Y1.376 I2.128 J1.837
X140.948 Y1.877 I0.741 J-0.296
G1 X141.318 Y1.875
G2 X141.607 Y1.6 I-0.01 J-0.3
G1 X141.635 Y1.252
X141.841 Y-1.252 F1000
X141.866 Y-1.551 F200
G2 X141.577 Y-1.875 I-0.299 J-0.025
G1 X141.169
G2 X140.514 Y-1.584 I0.035 J0.961
X139.698 Y0.29 I1.813 J1.903
X139.931 Y1.508 I2.193 J0.213
X140.579 Y1.875 I0.654 J-0.399
G1 X140.948
G2 X141.236 Y1.596 I-0.01 J-0.3
G1 X141.261 Y1.251
X141.436 Y-1.251 F1000
X141.458 Y-1.554 F200
G2 X141.169 Y-1.875 I-0.299 J-0.021
G1 X140.798
G2 X140.143 Y-1.583 I0.035 J0.959
X139.329 Y0.291 I1.806 J1.898
X139.562 Y1.509 I2.179 J0.214
X140.21 Y1.875 I0.654 J-0.4
G1 X140.579
G2 X140.868 Y1.596 I-0.01 J-0.3
G1 X140.892 Y1.251
X141.066 Y-1.251 F1000
X141.087 Y-1.554 F200
G2 X140.798 Y-1.875 I-0.299 J-0.021
G1 X140.443
G2 X139.671 Y-1.484 I0.05 J1.057
X138.955 Y0.435 I1.992 J1.836
X139.193 Y1.506 I2.093 J0.098
X139.841 Y1.875 I0.653 J-0.394
G1 X140.21
G2 X140.499 Y1.597 I-0.01 J-0.3
G1 X140.525 Y1.251
X140.71 Y-1.251 F1000
X140.732 Y-1.553 F200
G2 X140.443 Y-1.875 I-0.299 J-0.022
G1 X140.084
G2 X139.304 Y-1.487 I0.04 J1.057
X138.589 Y0.58 I2.018 J1.855
X138.938 Y1.662 I1.748 J0.034
G1 X139.099 Y1.775
X139.279 Y1.85
X139.472 Y1.875
X139.841
G2 X140.13 Y1.598 I-0.01 J-0.3
G1 X140.157 Y1.252
X140.349 Y-1.251 F1000
X140.372 Y-1.552 F200
G2 X140.084 Y-1.875 I-0.299 J-0.023
G1 X139.711
G2 X138.934 Y-1.486 I0.043 J1.058
X138.22 Y0.581 I2.018 J1.854
X138.569 Y1.662 I1.747 J0.033
G1 X138.73 Y1.776
X138.91 Y1.85
X139.103 Y1.875
X139.472
G2 X139.761 Y1.598 I-0.01 J-0.3
G1 X139.787 Y1.252
X139.977 Y-1.251 F1000
X140 Y-1.553 F200
G2 X139.711 Y-1.875 I-0.299 J-0.023
G1 X139.342
G2 X138.564 Y-1.486 I0.043 J1.057
X137.851 Y0.581 I2.018 J1.853
X138.2 Y1.662 I1.748 J0.033
G1 X138.361 Y1.776
X138.541 Y1.85
X138.734 Y1.875
X139.103
G2 X139.392 Y1.598 I-0.01 J-0.3
G1 X139.418 Y1.252
X139.608 Y-1.251 F1000
X139.63 Y-1.553 F200
G2 X139.342 Y-1.875 I-0.299 J-0.023
G1 X138.988
G2 X138.149 Y-1.437 I0.049 J1.116
X137.645 Y1.377 I2.13 J1.834
X138.363 Y1.877 I0.74 J-0.297
G1 X138.734 Y1.875
G2 X139.023 Y1.599 I-0.01 J-0.3
G1 X139.051 Y1.252
X139.252 Y-1.252 F1000
X139.277 Y-1.551 F200
G2 X138.988 Y-1.875 I-0.299 J-0.024
G1 X138.603
G2 X137.825 Y-1.485 I0.044 J1.058
X137.123 Y0.731 I2.048 J1.868
X137.462 Y1.661 I1.593 J-0.053
G1 X137.621 Y1.775
X137.801 Y1.85
X137.995 Y1.875
X138.363
G2 X138.652 Y1.598 I-0.01 J-0.3
G1 X138.678 Y1.252
X138.869 Y-1.251 F1000
X138.891 Y-1.552 F200
G2 X138.603 Y-1.875 I-0.299 J-0.023
G1 X138.246
G2 X137.41 Y-1.435 I0.054 J1.118
X136.907 Y1.38 I2.132 J1.833
X137.624 Y1.877 I0.738 J-0.299
G1 X137.995 Y1.875
G2 X138.283 Y1.599 I-0.01 J-0.3
G1 X138.311 Y1.252
X138.511 Y-1.252 F1000
X138.535 Y-1.551 F200
G2 X138.246 Y-1.875 I-0.299 J-0.024
G1 X137.864
G2 X137.087 Y-1.485 I0.045 J1.059
X136.385 Y0.731 I2.047 J1.869
X136.722 Y1.66 I1.592 J-0.052
G1 X136.882 Y1.775
X137.062 Y1.85
X137.255 Y1.875
X137.624
G2 X137.912 Y1.598 I-0.01 J-0.3
G1 X137.939 Y1.252
X138.13 Y-1.251 F1000
X138.153 Y-1.552 F200
G2 X137.864 Y-1.875 I-0.299 J-0.023
G1 X137.5
G2 X136.72 Y-1.487 I0.039 J1.057
X136.004 Y0.579 I2.014 J1.855
X136.352 Y1.662 I1.748 J0.036
G1 X136.513 Y1.775
X136.693 Y1.85
X136.887 Y1.875
X137.255
G2 X137.544 Y1.598 I-0.01 J-0.3
G1 X137.571 Y1.252
X137.765 Y-1.251 F1000
X137.789 Y-1.552 F200
G2 X137.5 Y-1.875 I-0.299 J-0.023
G1 X137.112
G2 X136.344 Y-1.482 I0.058 J1.059
X135.635 Y0.586 I2.025 J1.851
X135.984 Y1.664 I1.741 J0.03
G1 X136.146 Y1.776
X136.325 Y1.85
X136.517 Y1.875
X136.887
G2 X137.175 Y1.597 I-0.01 J-0.3
G1 X137.2 Y1.251
X137.379 Y-1.251 F1000
X137.401 Y-1.554 F200
G2 X137.112 Y-1.875 I-0.299 J-0.021
G1 X136.757
G2 X135.979 Y-1.486 I0.042 J1.057
X135.265 Y0.581 I2.018 J1.854
X135.614 Y1.662 I1.748 J0.033
G1 X135.775 Y1.776
X135.955 Y1.85
X136.148 Y1.875
X136.517
G2 X136.806 Y1.598 I-0.01 J-0.3
G1 X136.832 Y1.252
X137.023 Y-1.251 F1000
X137.046 Y-1.552 F200
G2 X136.757 Y-1.875 I-0.299 J-0.023
G1 X136.398
G2 X135.561 Y-1.434 I0.056 J1.12
X135.061 Y1.381 I2.134 J1.831
X135.777 Y1.877 I0.738 J-0.3
G1 X136.148 Y1.875
G2 X136.437 Y1.599 I-0.01 J-0.3
G1 X136.464 Y1.252
X136.662 Y-1.252 F1000
X136.686 Y-1.552 F200
G2 X136.398 Y-1.875 I-0.299 J-0.024
G1 X136.025
G2 X135.191 Y-1.431 I0.064 J1.126
X134.692 Y1.383 I2.133 J1.829
X135.406 Y1.877 I0.733 J-0.297
G1 X135.777 Y1.875
G2 X136.066 Y1.599 I-0.01 J-0.3
G1 X136.093 Y1.252
X136.29 Y-1.252 F1000
X136.314 Y-1.552 F200
G2 X136.025 Y-1.875 I-0.299 J-0.024
G1 X135.656
G2 X134.822 Y-1.431 I0.066 J1.129
X134.322 Y1.383 I2.135 J1.83
X135.036 Y1.877 I0.732 J-0.296
G1 X135.406 Y1.875
G2 X135.695 Y1.599 I-0.01 J-0.3
G1 X135.722 Y1.252
X135.92 Y-1.252 F1000
X135.944 Y-1.552 F200
G2 X135.656 Y-1.875 I-0.299 J-0.024
G1 X135.302
G2 X134.46 Y-1.439 I0.046 J1.119
X133.828 Y0.941 I2.127 J1.839
X134.152 Y1.676 I1.336 J-0.149
G1 X134.307 Y1.783
X134.481 Y1.852
X134.666 Y1.875
X135.036
G2 X135.324 Y1.6 I-0.01 J-0.3
G1 X135.354 Y1.252
X135.565 Y-1.252 F1000
X135.59 Y-1.55 F200
G2 X135.302 Y-1.875 I-0.299 J-0.025
G1 X134.917
G2 X134.135 Y-1.487 I0.039 J1.061
X133.429 Y0.728 I2.046 J1.872
X133.765 Y1.659 I1.587 J-0.046
G1 X133.924 Y1.775
X134.105 Y1.85
X134.299 Y1.875
X134.666
G2 X134.955 Y1.599 I-0.01 J-0.3
G1 X134.982 Y1.252
X135.181 Y-1.252 F1000
X135.205 Y-1.551 F200
G2 X134.917 Y-1.875 I-0.299 J-0.024
G1 X134.56
G2 X133.72 Y-1.438 I0.047 J1.115
X133.21 Y1.375 I2.132 J1.839
X133.929 Y1.877 I0.741 J-0.295
G1 X134.299 Y1.875
G2 X134.587 Y1.6 I-0.01 J-0.3
G1 X134.616 Y1.252
X134.824 Y-1.252 F1000
X134.849 Y-1.55 F200
G2 X134.56 Y-1.875 I-0.299 J-0.025
G1 X134.178
G2 X133.396 Y-1.487 I0.039 J1.059
X132.69 Y0.728 I2.046 J1.873
X133.027 Y1.659 I1.593 J-0.05
G1 X133.186 Y1.775
X133.367 Y1.85
X133.561 Y1.875
X133.929
G2 X134.217 Y1.599 I-0.01 J-0.3
G1 X134.245 Y1.252
X134.443 Y-1.252 F1000
X134.467 Y-1.552 F200
G2 X134.178 Y-1.875 I-0.299 J-0.024
G1 X133.814
G2 X132.978 Y-1.434 I0.057 J1.121
X132.474 Y1.38 I2.133 J1.834
X133.19 Y1.877 I0.739 J-0.3
G1 X133.561 Y1.875
G2 X133.849 Y1.599 I-0.01 J-0.3
G1 X133.877 Y1.252
X134.078 Y-1.252 F1000
X134.103 Y-1.551 F200
G2 X133.814 Y-1.875 I-0.299 J-0.024
G1 X133.426
G2 X132.654 Y-1.483 I0.052 J1.06
X131.952 Y0.733 I2.052 J1.87
X132.29 Y1.661 I1.586 J-0.052
G1 X132.449 Y1.776
X132.629 Y1.85
X132.822 Y1.875
X133.19
G2 X133.479 Y1.598 I-0.01 J-0.3
G1 X133.505 Y1.251
X133.692 Y-1.251 F1000
X133.715 Y-1.553 F200
G2 X133.426 Y-1.875 I-0.299 J-0.022
G1 X133.071
G2 X132.237 Y-1.431 I0.063 J1.124
X131.736 Y1.383 I2.135 J1.832
X132.451 Y1.877 I0.737 J-0.302
G1 X132.822 Y1.875
G2 X133.111 Y1.599 I-0.01 J-0.3
G1 X133.138 Y1.252
X133.336 Y-1.252 F1000
X133.359 Y-1.552 F200
G2 X133.071 Y-1.875 I-0.299 J-0.024
G1 X132.711
G2 X131.873 Y-1.436 I0.053 J1.122
X131.365 Y1.377 I2.127 J1.837
X132.081 Y1.877 I0.736 J-0.292
G1 X132.451 Y1.875
G2 X132.74 Y1.6 I-0.01 J-0.3
G1 X132.769 Y1.252
X132.975 Y-1.252 F1000
X133 Y-1.551 F200
G2 X132.711 Y-1.875 I-0.299 J-0.025
G1 X132.339
G2 X131.502 Y-1.434 I0.059 J1.127
X130.996 Y1.379 I2.131 J1.836
X131.711 Y1.877 I0.735 J-0.293
G1 X132.081 Y1.875
G2 X132.37 Y1.6 I-0.01 J-0.3
G1 X132.398 Y1.252
X132.603 Y-1.252 F1000
X132.627 Y-1.551 F200
G2 X132.339 Y-1.875 I-0.299 J-0.024
G1 X131.969
G2 X131.132 Y-1.435 I0.059 J1.127
X130.626 Y1.379 I2.133 J1.836
X131.341 Y1.877 I0.734 J-0.293
G1 X131.711 Y1.875
G2 X132 Y1.6 I-0.01 J-0.3
G1 X132.028 Y1.252
X132.233 Y-1.252 F1000
X132.258 Y-1.551 F200
G2 X131.969 Y-1.875 I-0.299 J-0.025
G1 X131.577
G2 X130.807 Y-1.483 I0.055 J1.061
X130.105 Y0.734 I2.054 J1.87
X130.441 Y1.661 I1.578 J-0.048
G1 X130.601 Y1.776
X130.781 Y1.85
X130.974 Y1.875
X131.341
G2 X131.63 Y1.598 I-0.01 J-0.3
G1 X131.656 Y1.251
X131.843 Y-1.251 F1000
X131.866 Y-1.553 F200
G2 X131.577 Y-1.875 I-0.299 J-0.022
G1 X131.23
G2 X130.393 Y-1.435 I0.054 J1.119
X129.887 Y1.379 I2.135 J1.837
X130.603 Y1.877 I0.739 J-0.298
G1 X130.974 Y1.875
G2 X131.262 Y1.6 I-0.01 J-0.3
G1 X131.291 Y1.252
X131.495 Y-1.252 F1000
X131.519 Y-1.551 F200
G2 X131.23 Y-1.875 I-0.299 J-0.024
G1 X130.835
G2 X130.066 Y-1.482 I0.057 J1.059
X129.366 Y0.736 I2.057 J1.869
X129.704 Y1.662 I1.581 J-0.052
G1 X129.863 Y1.776
X130.043 Y1.85
X130.236 Y1.875
X130.604
G2 X130.892 Y1.597 I-0.01 J-0.3
G1 X130.918 Y1.251
X131.101 Y-1.251 F1000
X131.123 Y-1.553 F200
G2 X130.835 Y-1.875 I-0.299 J-0.022
G1 X130.482
G2 X129.702 Y-1.487 I0.04 J1.057
X128.985 Y0.579 I2.018 J1.858
X129.332 Y1.662 I1.746 J0.037
G1 X129.494 Y1.775
X129.674 Y1.85
X129.867 Y1.875
X130.236
G2 X130.524 Y1.599 I-0.01 J-0.3
G1 X130.551 Y1.252
X130.747 Y-1.251 F1000
X130.77 Y-1.552 F200
G2 X130.482 Y-1.875 I-0.299 J-0.023
G1 X130.128
G2 X129.288 Y-1.438 I0.046 J1.116
X128.778 Y1.375 I2.128 J1.838
X129.496 Y1.877 I0.741 J-0.295
G1 X129.867 Y1.875
G2 X130.156 Y1.6 I-0.01 J-0.3
G1 X130.184 Y1.252
X130.392 Y-1.252 F1000
X130.416 Y-1.55 F200
G2 X130.128 Y-1.875 I-0.299 J-0.025
G1 X129.74
G2 X128.962 Y-1.486 I0.044 J1.059
X128.257 Y0.73 I2.047 J1.871
X128.595 Y1.66 I1.592 J-0.052
G1 X128.755 Y1.775
X128.935 Y1.85
X129.128 Y1.875
X129.497
G2 X129.785 Y1.598 I-0.01 J-0.3
G1 X129.812 Y1.252
X130.005 Y-1.251 F1000
X130.028 Y-1.552 F200
G2 X129.74 Y-1.875 I-0.299 J-0.023
G1 X129.385
G2 X128.547 Y-1.436 I0.052 J1.118
X128.04 Y1.378 I2.13 J1.836
X128.758 Y1.877 I0.74 J-0.297
G1 X129.128 Y1.875
G2 X129.417 Y1.6 I-0.01 J-0.3
G1 X129.445 Y1.252
X129.649 Y-1.252 F1000
X129.673 Y-1.551 F200
G2 X129.385 Y-1.875 I-0.299 J-0.024
G1 X128.976
G2 X128.323 Y-1.583 I0.037 J0.961
X127.509 Y0.291 I1.815 J1.902
X127.741 Y1.509 I2.193 J0.212
X128.389 Y1.875 I0.654 J-0.4
G1 X128.758
G2 X129.047 Y1.596 I-0.01 J-0.3
G1 X129.07 Y1.251
X129.244 Y-1.251 F1000
X129.265 Y-1.554 F200
G2 X128.976 Y-1.875 I-0.299 J-0.021
G1 X128.605
G2 X127.952 Y-1.583 I0.037 J0.958
X127.139 Y0.292 I1.809 J1.898
X127.373 Y1.51 I2.179 J0.213
X128.021 Y1.875 I0.653 J-0.401
G1 X128.389
G2 X128.678 Y1.596 I-0.01 J-0.3
G1 X128.702 Y1.251
X128.873 Y-1.251 F1000
X128.894 Y-1.555 F200
G2 X128.605 Y-1.875 I-0.299 J-0.021
G1 X128.25
G2 X127.48 Y-1.483 I0.053 J1.056
X126.769 Y0.585 I2.026 J1.852
X127.118 Y1.664 I1.741 J0.032
G1 X127.279 Y1.776
X127.459 Y1.85
X127.652 Y1.875
X128.021
G2 X128.309 Y1.597 I-0.01 J-0.3
G1 X128.334 Y1.251
X128.517 Y-1.251 F1000
X128.539 Y-1.553 F200
G2 X128.25 Y-1.875 I-0.299 J-0.022
G1 X127.891
G2 X127.113 Y-1.486 I0.042 J1.057
X126.399 Y0.581 I2.02 J1.854
X126.748 Y1.662 I1.747 J0.034
G1 X126.909 Y1.776
X127.089 Y1.85
X127.282 Y1.875
X127.652
G2 X127.94 Y1.598 I-0.01 J-0.3
G1 X127.967 Y1.252
X128.157 Y-1.251 F1000
X128.18 Y-1.552 F200
G2 X127.891 Y-1.875 I-0.299 J-0.023
G1 X127.518
G2 X126.743 Y-1.485 I0.046 J1.057
X126.03 Y0.582 I2.02 J1.853
X126.379 Y1.663 I1.746 J0.033
G1 X126.541 Y1.776
X126.72 Y1.85
X126.913 Y1.875
X127.282
G2 X127.571 Y1.598 I-0.01 J-0.3
G1 X127.597 Y1.251
X127.785 Y-1.251 F1000
X127.807 Y-1.553 F200
G2 X127.518 Y-1.875 I-0.299 J-0.022
G1 X127.148
G2 X126.373 Y-1.485 I0.046 J1.057
X125.661 Y0.582 I2.02 J1.852
X126.01 Y1.663 I1.746 J0.032
G1 X126.171 Y1.776
X126.351 Y1.85
X126.544 Y1.875
X126.913
G2 X127.202 Y1.598 I-0.01 J-0.3
G1 X127.228 Y1.251
X127.415 Y-1.251 F1000
X127.437 Y-1.553 F200
G2 X127.148 Y-1.875 I-0.299 J-0.022
G1 X126.795
G2 X125.958 Y-1.435 I0.053 J1.118
X125.456 Y1.379 I2.132 J1.832
X126.173 Y1.877 I0.739 J-0.298
G1 X126.544 Y1.875
G2 X126.833 Y1.599 I-0.01 J-0.3
G1 X126.86 Y1.252
X127.06 Y-1.252 F1000
X127.084 Y-1.551 F200
G2 X126.795 Y-1.875 I-0.299 J-0.024
G1 X126.41
G2 X125.634 Y-1.485 I0.047 J1.058
X124.933 Y0.732 I2.049 J1.867
X125.272 Y1.661 I1.589 J-0.053
G1 X125.431 Y1.775
X125.611 Y1.85
X125.805 Y1.875
X126.173
G2 X126.462 Y1.598 I-0.01 J-0.3
G1 X126.488 Y1.252
X126.676 Y-1.251 F1000
X126.699 Y-1.553 F200
G2 X126.41 Y-1.875 I-0.299 J-0.023
G1 X126.053
G2 X125.218 Y-1.433 I0.058 J1.12
X124.718 Y1.382 I2.134 J1.831
X125.434 Y1.877 I0.737 J-0.3
G1 X125.805 Y1.875
G2 X126.093 Y1.599 I-0.01 J-0.3
G1 X126.121 Y1.252
X126.318 Y-1.252 F1000
X126.342 Y-1.552 F200
G2 X126.053 Y-1.875 I-0.299 J-0.024
G1 X125.698
G2 X124.856 Y-1.44 I0.043 J1.115
X124.345 Y1.372 I2.124 J1.839
X125.063 Y1.877 I0.739 J-0.288
G1 X125.434 Y1.875
G2 X125.722 Y1.6 I-0.01 J-0.3
G1 X125.751 Y1.252
X125.962 Y-1.252 F1000
X125.987 Y-1.55 F200
G2 X125.698 Y-1.875 I-0.299 J-0.025
G1 X125.307
G2 X124.529 Y-1.486 I0.044 J1.06
X123.825 Y0.73 I2.046 J1.87
X124.162 Y1.66 I1.588 J-0.049
G1 X124.322 Y1.775
X124.502 Y1.85
X124.695 Y1.875
X125.063
G2 X125.352 Y1.598 I-0.01 J-0.3
G1 X125.379 Y1.252
X125.573 Y-1.251 F1000
X125.596 Y-1.552 F200
G2 X125.307 Y-1.875 I-0.299 J-0.023
G1 X124.919
G2 X124.154 Y-1.481 I0.061 J1.059
X123.456 Y0.737 I2.054 J1.865
X123.796 Y1.663 I1.575 J-0.053
G1 X123.955 Y1.776
X124.134 Y1.85
X124.327 Y1.875
X124.695
G2 X124.984 Y1.596 I-0.01 J-0.3
G1 X125.009 Y1.251
X125.187 Y-1.251 F1000
X125.208 Y-1.554 F200
G2 X124.919 Y-1.875 I-0.299 J-0.021
G1 X124.564
G2 X123.788 Y-1.485 I0.045 J1.057
X123.075 Y0.582 I2.021 J1.854
X123.424 Y1.663 I1.744 J0.034
G1 X123.585 Y1.776
X123.765 Y1.85
X123.958 Y1.875
X124.327
G2 X124.615 Y1.598 I-0.01 J-0.3
G1 X124.641 Y1.252
X124.83 Y-1.251 F1000
X124.853 Y-1.553 F200
G2 X124.564 Y-1.875 I-0.299 J-0.023
G1 X124.205
G2 X123.37 Y-1.432 I0.061 J1.123
X122.871 Y1.383 I2.137 J1.83
X123.587 Y1.877 I0.737 J-0.302
G1 X123.958 Y1.875
G2 X124.246 Y1.599 I-0.01 J-0.3
G1 X124.274 Y1.252
X124.47 Y-1.251 F1000
X124.493 Y-1.552 F200
G2 X124.205 Y-1.875 I-0.299 J-0.023
G1 X123.832
G2 X123.052 Y-1.487 I0.04 J1.059
X122.347 Y0.729 I2.046 J1.87
X122.685 Y1.66 I1.596 J-0.052
G1 X122.844 Y1.775
X123.025 Y1.85
X123.218 Y1.875
X123.587
G2 X123.875 Y1.598 I-0.01 J-0.3
G1 X123.902 Y1.252
X124.097 Y-1.251 F1000
X124.121 Y-1.552 F200
G2 X123.832 Y-1.875 I-0.299 J-0.023
G1 X123.463
G2 X122.683 Y-1.487 I0.039 J1.057
X121.967 Y0.579 I2.014 J1.855
X122.315 Y1.662 I1.748 J0.036
G1 X122.476 Y1.775
X122.656 Y1.85
X122.85 Y1.875
X123.218
G2 X123.507 Y1.598 I-0.01 J-0.3
G1 X123.534 Y1.252
X123.728 Y-1.251 F1000
X123.752 Y-1.552 F200
G2 X123.463 Y-1.875 I-0.299 J-0.023
G1 X123.109
G2 X122.269 Y-1.439 I0.045 J1.115
X121.76 Y1.374 I2.127 J1.837
X122.479 Y1.877 I0.741 J-0.294
G1 X122.85 Y1.875
G2 X123.138 Y1.6 I-0.01 J-0.3
G1 X123.167 Y1.252
X123.373 Y-1.252 F1000
X123.398 Y-1.551 F200
G2 X123.109 Y-1.875 I-0.299 J-0.025
G1 X122.724
G2 X121.944 Y-1.487 I0.041 J1.059
X121.239 Y0.729 I2.045 J1.87
X121.577 Y1.66 I1.594 J-0.052
G1 X121.737 Y1.775
X121.917 Y1.85
X122.111 Y1.875
X122.479
G2 X122.768 Y1.598 I-0.01 J-0.3
G1 X122.795 Y1.252
X122.989 Y-1.251 F1000
X123.012 Y-1.552 F200
G2 X122.724 Y-1.875 I-0.299 J-0.023
G1 X122.367
G2 X121.529 Y-1.437 I0.05 J1.116
X121.022 Y1.377 I2.129 J1.836
X121.74 Y1.877 I0.74 J-0.296
G1 X122.111 Y1.875
G2 X122.399 Y1.6 I-0.01 J-0.3
G1 X122.428 Y1.252
X122.631 Y-1.252 F1000
X122.656 Y-1.551 F200
G2 X122.367 Y-1.875 I-0.299 J-0.024
G1 X121.985
G2 X121.206 Y-1.486 I0.041 J1.059
X120.501 Y0.729 I2.045 J1.87
X120.838 Y1.66 I1.594 J-0.051
G1 X120.998 Y1.775
X121.178 Y1.85
X121.372 Y1.875
X121.74
G2 X122.029 Y1.598 I-0.01 J-0.3
G1 X122.056 Y1.252
X122.251 Y-1.251 F1000
X122.274 Y-1.552 F200
G2 X121.985 Y-1.875 I-0.299 J-0.023
G1 X121.621
G2 X120.787 Y-1.432 I0.061 J1.123
X120.286 Y1.382 I2.134 J1.832
X121.001 Y1.877 I0.737 J-0.301
G1 X121.372 Y1.875
G2 X121.66 Y1.599 I-0.01 J-0.3
G1 X121.688 Y1.252
X121.886 Y-1.252 F1000
X121.91 Y-1.552 F200
G2 X121.621 Y-1.875 I-0.299 J-0.024
G1 X121.233
G2 X120.463 Y-1.483 I0.055 J1.059
X119.763 Y0.734 I2.053 J1.868
X120.101 Y1.661 I1.585 J-0.053
G1 X120.26 Y1.776
X120.44 Y1.85
X120.633 Y1.875
X121.001
G2 X121.29 Y1.597 I-0.01 J-0.3
G1 X121.315 Y1.251
X121.5 Y-1.251 F1000
X121.522 Y-1.553 F200
G2 X121.233 Y-1.875 I-0.299 J-0.022
G1 X120.878
G2 X120.098 Y-1.487 I0.039 J1.057
X119.382 Y0.579 I2.015 J1.856
X119.729 Y1.662 I1.747 J0.036
G1 X119.891 Y1.775
X120.071 Y1.85
X120.264 Y1.875
X120.633
G2 X120.922 Y1.598 I-0.01 J-0.3
G1 X120.948 Y1.252
X121.143 Y-1.251 F1000
X121.167 Y-1.552 F200
G2 X120.878 Y-1.875 I-0.299 J-0.023
G1 X120.519
G2 X119.681 Y-1.436 I0.053 J1.119
X119.176 Y1.378 I2.131 J1.835
X119.893 Y1.877 I0.74 J-0.298
G1 X120.264 Y1.875
G2 X120.553 Y1.599 I-0.01 J-0.3
G1 X120.581 Y1.252
X120.783 Y-1.252 F1000
X120.807 Y-1.551 F200
G2 X120.519 Y-1.875 I-0.299 J-0.024
G1 X120.146
G2 X119.31 Y-1.433 I0.06 J1.125
X118.808 Y1.381 I2.131 J1.832
X119.523 Y1.877 I0.734 J-0.295
G1 X119.893 Y1.875
G2 X120.182 Y1.599 I-0.01 J-0.3
G1 X120.21 Y1.252
X120.411 Y-1.252 F1000
X120.435 Y-1.551 F200
G2 X120.146 Y-1.875 I-0.299 J-0.024
G1 X119.777
G2 X118.941 Y-1.433 I0.061 J1.127
X118.438 Y1.381 I2.132 J1.833
X119.152 Y1.877 I0.733 J-0.294
G1 X119.523 Y1.875
G2 X119.811 Y1.599 I-0.01 J-0.3
G1 X119.839 Y1.252
X120.041 Y-1.252 F1000
X120.065 Y-1.551 F200
G2 X119.777 Y-1.875 I-0.299 J-0.024
G1 X119.384
G2 X118.616 Y-1.482 I0.057 J1.061
X117.916 Y0.735 I2.055 J1.868
X118.253 Y1.661 I1.578 J-0.05
G1 X118.412 Y1.776
X118.592 Y1.85
X118.785 Y1.875
X119.152
G2 X119.441 Y1.597 I-0.01 J-0.3
G1 X119.467 Y1.251
X119.651 Y-1.251 F1000
X119.673 Y-1.553 F200
G2 X119.384 Y-1.875 I-0.299 J-0.022
G1 X119.038
G2 X118.202 Y-1.434 I0.057 J1.12
X117.699 Y1.381 I2.137 J1.834
X118.414 Y1.877 I0.738 J-0.3
G1 X118.785 Y1.875
G2 X119.073 Y1.599 I-0.01 J-0.3
G1 X119.101 Y1.252
X119.302 Y-1.252 F1000
X119.326 Y-1.551 F200
G2 X119.038 Y-1.875 I-0.299 J-0.024
G1 X118.681
G2 X117.839 Y-1.44 I0.043 J1.116
X117.326 Y1.373 I2.126 J1.841
X118.044 Y1.877 I0.739 J-0.289
G1 X118.414 Y1.875
G2 X118.703 Y1.6 I-0.01 J-0.3
G1 X118.732 Y1.252
X118.944 Y-1.252 F1000
X118.97 Y-1.55 F200
G2 X118.681 Y-1.875 I-0.299 J-0.025
G1 X118.299
G2 X117.463 Y-1.433 I0.062 J1.128
X116.96 Y1.381 I2.134 J1.834
X117.674 Y1.877 I0.734 J-0.295
G1 X118.045 Y1.875
G2 X118.333 Y1.599 I-0.01 J-0.3
G1 X118.361 Y1.252
X118.563 Y-1.252 F1000
X118.588 Y-1.551 F200
G2 X118.299 Y-1.875 I-0.299 J-0.024
G1 X117.935
G2 X117.097 Y-1.436 I0.055 J1.125
X116.588 Y1.377 I2.132 J1.838
X117.304 Y1.877 I0.735 J-0.291
G1 X117.674 Y1.875
G2 X117.963 Y1.6 I-0.01 J-0.3
G1 X117.992 Y1.252
X118.199 Y-1.252 F1000
X118.224 Y-1.55 F200
G2 X117.935 Y-1.875 I-0.299 J-0.025
G1 X117.547
G2 X116.772 Y-1.485 I0.049 J1.061
X116.068 Y0.731 I2.051 J1.871
X116.404 Y1.66 I1.583 J-0.047
G1 X116.563 Y1.775
X116.744 Y1.85
