(280x40faceoff)
(Machine)
(  vendor: Autodesk)
(  description: Generic 3-axis)
(T1  D=3 CR=0 - ZMIN=-4.99 - flat end mill)
G90 G94
G17
G21
G28 G91 Z0
G90

(Adaptive2)
T1
S18000 M3
G54
G0 X-0.298 Y23.508
Z2.51
Z-4.39
G1 Z-4.69 F250
X-0.296 Y23.501 Z-4.757
X-0.29 Y23.479 Z-4.82
X-0.281 Y23.444 Z-4.877
X-0.27 Y23.398 Z-4.925
X-0.256 Y23.343 Z-4.96
X-0.24 Y23.282 Z-4.982
X-0.223 Y23.217 Z-4.99
G2 X0.012 Y21.584 I-7.419 J-1.9
G1 Y21.475
X-0.401 Y21.007
X-0.668 Y20.444
X-0.823 Y19.839
G3 X-0.969 Y17.35 I16.243 J-2.201
G1 X-0.975 Y16.726
X-0.977 Y15.478
X-0.986 Y-10.727
X-0.988 Y-19.151
X-0.908 Y-19.452
X-0.762 Y-19.728
X-0.371 Y-20.214
X0.155 Y-20.55
X0.745 Y-20.755
X1.358 Y-20.867
G3 X4.475 Y-20.966 I2.456 J28.203
G1 X6.347 Y-20.972
X7.595 Y-20.973
X58.134 Y-20.975
X108.674 Y-20.978
X159.213 Y-20.981
X209.753 Y-20.984
X260.292 Y-20.986
X279.011 Y-20.987
X279.32 Y-20.945
X279.609 Y-20.828
X280.128 Y-20.481
X280.496 Y-19.977
X280.728 Y-19.398
X280.857 Y-18.788
G3 X280.975 Y-16.296 I-19.925 J2.194
G1 X280.98 Y-15.672
X280.982 Y-14.425
X280.987 Y9.909
X280.988 Y18.957
X280.958 Y19.267
X280.851 Y19.56
X280.684 Y19.824
X280.263 Y20.284
X279.721 Y20.594
X279.126 Y20.78
X278.51 Y20.88
G3 X275.393 Y20.967 I-2.453 J-32.1
G1 X273.521 Y20.973
X240.452 Y20.975
X189.912 Y20.978
X139.372 Y20.981
X88.833 Y20.984
X38.293 Y20.987
X1.481 Y20.989
X1.181 Y20.901
X0.627 Y20.615
X0.201 Y20.159
X-0.089 Y19.607
X-0.269 Y19.009
G3 X-0.462 Y16.525 I12.585 J-2.228
G1 X-0.472 Y15.901
X-0.475 Y15.277
X-0.478 Y14.029
X-0.48 Y8.414
X-0.488 Y-18.416
X-0.301 Y-19.011
X0.073 Y-19.511
X0.573 Y-19.885
X1.144 Y-20.136
X1.748 Y-20.29
G3 X4.236 Y-20.458 I2.248 J14.769
G1 X4.86 Y-20.467
X5.483 Y-20.47
X6.731 Y-20.472
X22.33 Y-20.473
X72.87 Y-20.476
X123.409 Y-20.479
X173.949 Y-20.482
X224.488 Y-20.484
X275.028 Y-20.487
X278.148
X278.765 Y-20.396
X279.315 Y-20.101
X279.745 Y-19.65
X280.048 Y-19.104
X280.241 Y-18.511
G3 X280.463 Y-16.03 I-11.378 J2.267
G1 X280.475 Y-15.406
X280.479 Y-14.782
X280.482 Y-13.534
X280.484 Y-6.047
X280.488 Y18.287
X280.34 Y18.893
X279.998 Y19.415
X279.519 Y19.815
X278.959 Y20.09
X278.359 Y20.263
G3 X275.875 Y20.456 I-2.254 J-12.911
G1 X275.251 Y20.466
X274.627 Y20.47
X274.003 Y20.471
X271.507 Y20.473
X223.463 Y20.476
X172.924 Y20.479
X122.384 Y20.482
X71.845 Y20.485
X21.305 Y20.488
X2.587 Y20.489
X1.965 Y20.44
X1.391 Y20.195
X0.921 Y19.785
X0.575 Y19.265
X0.343 Y18.686
X0.199 Y18.079
G3 X0.037 Y15.591 I15.864 J-2.286
G1 X0.028 Y14.967
X0.025 Y14.343
X0.022 Y13.095
X0.018 Y1.24
X0.015 Y-9.991
X0.012 Y-17.478
X0.098 Y-18.096
X0.377 Y-18.655
X0.807 Y-19.106
X1.336 Y-19.437
X1.919 Y-19.66
G3 X4.392 Y-19.944 I2.348 J9.53
X7.511 Y-19.972 I2.498 J104.341
G1 X16.871 Y-19.973
X41.828 Y-19.975
X92.368 Y-19.977
X142.908 Y-19.98
X193.447 Y-19.983
X243.987 Y-19.985
X277.056 Y-19.987
X277.68 Y-19.977
X278.286 Y-19.831
X278.815 Y-19.5
X279.23 Y-19.034
X279.526 Y-18.485
X279.721 Y-17.892
G3 X279.96 Y-15.413 I-11.498 J2.362
X279.982 Y-12.293 I-136.94 J2.537
G1 X279.984 Y-4.182
X279.988 Y17.033
X279.983 Y17.656
X279.835 Y18.263
X279.508 Y18.794
X279.045 Y19.212
X278.497 Y19.511
X277.905 Y19.706
G3 X275.426 Y19.948 I-2.338 J-11.137
X272.306 Y19.972 I-2.497 J-122.963
G1 X252.34 Y19.974
X201.8 Y19.977
X151.261 Y19.98
X100.721 Y19.983
X50.181 Y19.986
X3.386 Y19.989
X2.762 Y19.969
X2.166 Y19.784
X1.653 Y19.429
X1.253 Y18.95
X0.969 Y18.394
X0.782 Y17.799
G3 X0.547 Y15.319 I11.695 J-2.363
X0.522 Y12.199 I123.601 J-2.547
G1 X0.518 Y0.968
X0.513 Y-16.502
X0.53 Y-17.126
X0.691 Y-17.729
X1.025 Y-18.255
X1.489 Y-18.673
X2.034 Y-18.976
X2.624 Y-19.179
G3 X5.1 Y-19.444 I2.379 J10.544
X8.22 Y-19.472 I2.533 J108.371
G1 X14.459 Y-19.473
X15.083
X65.623 Y-19.476
X116.163 Y-19.479
X166.702 Y-19.481
X217.242 Y-19.484
X267.781 Y-19.487
X276.516
X277.14 Y-19.468
X277.742 Y-19.304
X278.269 Y-18.97
X278.687 Y-18.506
X278.99 Y-17.961
X279.192 Y-17.371
G3 X279.454 Y-14.894 I-10.734 J2.385
X279.482 Y-11.775 I-108.317 J2.551
G1 X279.484 Y-6.159
X279.488 Y16.303
X279.486 Y16.927
X279.379 Y17.542
X279.095 Y18.098
X278.668 Y18.552
X278.144 Y18.89
X277.565 Y19.123
X276.959 Y19.271
G3 X274.472 Y19.453 I-2.356 J-15.119
X270.729 Y19.473 I-2.845 J-189.293
G1 X226.429 Y19.476
X175.889 Y19.479
X125.35 Y19.482
X74.81 Y19.485
X24.27 Y19.488
X4.304 Y19.489
X3.68 Y19.485
X3.062 Y19.398
X2.495 Y19.137
X2.024 Y18.728
X1.667 Y18.217
X1.416 Y17.645
X1.252 Y17.043
G3 X1.045 Y14.56 I13.53 J-2.383
X1.022 Y11.44 I137.094 J-2.575
G1 X1.018 Y1.457
X1.015 Y-9.15
X1.013 Y-16.014
X1.045 Y-16.637
X1.229 Y-17.233
X1.574 Y-17.753
X2.042 Y-18.165
X2.589 Y-18.466
X3.179 Y-18.67
G3 X5.654 Y-18.94 I2.417 J10.638
X8.774 Y-18.971 I2.526 J98.496
G1 X12.517 Y-18.973
X43.091 Y-18.975
X93.63 Y-18.977
X144.17 Y-18.98
X194.709 Y-18.983
X245.249 Y-18.986
X275.822 Y-18.987
X276.446 Y-18.978
X277.057 Y-18.849
X277.605 Y-18.552
X278.054 Y-18.119
X278.389 Y-17.593
X278.621 Y-17.013
G3 X278.943 Y-14.546 I-9.108 J2.443
X278.982 Y-10.802 I-107.668 J3.004
G1 X278.985 Y-0.819
X278.987 Y16.027
X278.953 Y16.65
X278.765 Y17.245
X278.414 Y17.762
X277.943 Y18.17
X277.395 Y18.468
X276.804 Y18.669
G3 X274.328 Y18.941 I-2.421 J-10.672
X271.209 Y18.971 I-2.525 J-98.706
G1 X267.465 Y18.973
X246.875 Y18.974
X196.335 Y18.977
X145.796 Y18.981
X95.256 Y18.984
X44.717 Y18.987
X4.784 Y18.989
X4.16 Y18.979
X3.546 Y18.868
X2.986 Y18.594
X2.522 Y18.177
X2.169 Y17.662
X1.92 Y17.09
X1.758 Y16.487
G3 X1.547 Y14.004 I13.707 J-2.415
X1.522 Y10.26 I151.988 J-2.863
G1 X1.513 Y-15.321
X1.531 Y-15.945
X1.676 Y-16.552
X1.983 Y-17.095
X2.422 Y-17.539
X2.949 Y-17.871
X3.529 Y-18.103
G3 X5.996 Y-18.43 I2.467 J9.13
X9.739 Y-18.472 I3.014 J102.489
G1 X15.979 Y-18.473
X24.714 Y-18.474
X75.253 Y-18.476
X125.793 Y-18.479
X176.333 Y-18.482
X226.872 Y-18.485
X274.916 Y-18.487
X275.54 Y-18.485
X276.162 Y-18.438
X276.753 Y-18.239
X277.265 Y-17.882
X277.671 Y-17.408
X277.968 Y-16.859
X278.17 Y-16.269
G3 X278.448 Y-13.794 I-10.643 J2.448
X278.483 Y-9.427 I-145.151 J3.349
G1 X278.488 Y14.907
X278.486 Y15.531
X278.439 Y16.153
X278.238 Y16.744
X277.882 Y17.257
X277.409 Y17.663
X276.86 Y17.96
X276.27 Y18.162
G3 X273.794 Y18.438 I-2.451 J-10.743
X269.427 Y18.473 I-3.337 J-144.369
G1 X263.188
X212.648 Y18.476
X162.109 Y18.48
X111.569 Y18.483
X61.029 Y18.486
X10.49 Y18.489
X5.498
X4.874 Y18.485
X4.255 Y18.412
X3.674 Y18.183
X3.178 Y17.805
X2.789 Y17.317
X2.507 Y16.76
X2.316 Y16.166
G3 X2.055 Y13.689 I11.429 J-2.459
X2.021 Y9.322 I151.839 J-3.38
G1 X2.013 Y-14.388
X2.016 Y-15.012
X2.07 Y-15.634
X2.272 Y-16.224
X2.629 Y-16.736
X3.102 Y-17.143
X3.65 Y-17.442
X4.239 Y-17.648
G3 X6.712 Y-17.935 I2.467 J10.443
X10.456 Y-17.971 I2.937 J112.055
G1 X17.319 Y-17.973
X60.995 Y-17.976
X111.535 Y-17.978
X162.075 Y-17.981
X212.614 Y-17.984
X263.154 Y-17.987
X274.385
X275.009 Y-17.985
X275.63 Y-17.934
X276.221 Y-17.732
X276.736 Y-17.38
X277.146 Y-16.91
X277.448 Y-16.363
X277.655 Y-15.775
G3 X277.944 Y-13.302 I-10.44 J2.477
X277.982 Y-9.558 I-114.575 J3.042
G1 X277.985 Y-2.695
X277.987 Y14.776
X277.968 Y15.399
X277.826 Y16.007
X277.523 Y16.552
X277.089 Y17
X276.565 Y17.34
X275.988 Y17.578
X275.385 Y17.736
G3 X272.901 Y17.946 I-2.444 J-14.114
X265.414 Y17.973 I-5.016 J-350.6
G1 X224.857 Y17.976
X174.318 Y17.979
X123.778 Y17.982
X73.239 Y17.985
X22.699 Y17.988
X5.853 Y17.989
X5.229 Y17.973
X4.616 Y17.858
X4.053 Y17.587
X3.584 Y17.177
X3.222 Y16.668
X2.963 Y16.101
X2.789 Y15.502
G3 X2.552 Y13.021 I12.633 J-2.456
X2.519 Y6.782 I251.492 J-4.437
G1 X2.513 Y-13.808
X2.515 Y-14.432
X2.564 Y-15.054
X2.754 Y-15.649
X3.096 Y-16.17
X3.558 Y-16.59
X4.098 Y-16.903
X4.683 Y-17.119
G3 X7.153 Y-17.43 I2.497 J9.886
X10.896 Y-17.47 I2.962 J100.139
G1 X15.888 Y-17.473
X50.829 Y-17.475
X101.368 Y-17.478
X151.908 Y-17.481
X202.448 Y-17.483
X252.987 Y-17.486
X274.201 Y-17.487
X274.825 Y-17.47
X275.436 Y-17.342
X275.99 Y-17.055
X276.45 Y-16.633
X276.803 Y-16.119
X277.054 Y-15.548
X277.223 Y-14.947
G3 X277.452 Y-12.465 I-13.126 J2.467
X277.484 Y-6.226 I-256.303 J4.41
G1 X277.487 Y9.997
Y13.74
X277.485 Y14.364
X277.449 Y14.987
X277.276 Y15.587
X276.95 Y16.118
X276.499 Y16.55
X275.966 Y16.873
X275.384 Y17.1
G3 X272.917 Y17.427 I-2.498 J-9.379
X269.174 Y17.47 I-2.967 J-94.373
G1 X264.806 Y17.473
X232.985 Y17.475
X182.445 Y17.478
X131.906 Y17.481
X81.366 Y17.484
X30.827 Y17.488
X6.493 Y17.489
X5.869 Y17.482
X5.251 Y17.393
X4.677 Y17.149
X4.186 Y16.764
X3.801 Y16.273
X3.52 Y15.716
X3.328 Y15.122
G3 X3.058 Y12.646 I11.378 J-2.493
X3.021 Y8.902 I120.975 J-3.081
G1 X3.018 Y3.287
X3.015 Y-6.696
X3.014 Y-13.56
X3.027 Y-14.184
X3.131 Y-14.799
X3.389 Y-15.367
X3.787 Y-15.848
X4.286 Y-16.222
X4.848 Y-16.494
X5.444 Y-16.678
G3 X7.922 Y-16.937 I2.487 J11.825
X11.665 Y-16.972 I3.05 J126.618
G1 X17.905 Y-16.973
X44.734 Y-16.975
X95.274 Y-16.977
X145.813 Y-16.98
X196.353 Y-16.983
X246.893 Y-16.986
X273.098 Y-16.987
X273.722 Y-16.986
X274.346 Y-16.961
X274.954 Y-16.821
X275.504 Y-16.527
X275.96 Y-16.102
X276.31 Y-15.584
X276.558 Y-15.012
X276.724 Y-14.411
G3 X276.952 Y-11.929 I-13.423 J2.484
X276.984 Y-5.689 I-251.94 J4.425
G1 X276.986 Y4.918
X276.987 Y13.029
Y13.653
X276.97 Y14.277
X276.846 Y14.888
X276.564 Y15.445
X276.148 Y15.91
X275.637 Y16.268
X275.069 Y16.526
X274.47 Y16.699
G3 X271.989 Y16.94 I-2.486 J-12.728
X267.622 Y16.973 I-3.381 J-158.275
G1 X237.049 Y16.975
X186.509 Y16.978
X135.969 Y16.981
X85.43 Y16.984
X34.89 Y16.987
X7.437 Y16.989
X6.813 Y16.988
X6.189 Y16.965
X5.58 Y16.828
X5.027 Y16.539
X4.568 Y16.117
X4.215 Y15.603
X3.961 Y15.033
X3.79 Y14.433
G3 X3.554 Y11.952 I12.908 J-2.483
X3.52 Y7.584 I161.73 J-3.422
G1 X3.516 Y-3.647
X3.514 Y-13.006
X3.526 Y-13.63
X3.621 Y-14.246
X3.871 Y-14.818
X4.26 Y-15.306
X4.752 Y-15.69
X5.309 Y-15.97
X5.903 Y-16.161
G3 X8.379 Y-16.434 I2.508 J11.407
X12.123 Y-16.471 I2.983 J112.523
G1 X17.114 Y-16.473
X42.696 Y-16.475
X93.236 Y-16.477
X143.775 Y-16.48
X194.315 Y-16.483
X244.854 Y-16.486
X272.932 Y-16.487
X273.556 Y-16.479
X274.174 Y-16.399
X274.756 Y-16.172
X275.257 Y-15.8
X275.654 Y-15.319
X275.947 Y-14.768
X276.149 Y-14.178
G3 X276.441 Y-11.704 I-10.704 J2.516
X276.481 Y-7.961 I-104.852 J2.997
G1 X276.484 Y-3.594
X276.486 Y3.894
X276.487 Y12.629
X276.485 Y13.253
X276.454 Y13.876
X276.299 Y14.481
X275.993 Y15.024
X275.559 Y15.472
X275.036 Y15.813
X274.461 Y16.056
G3 X272 Y16.418 I-2.531 J-8.65
X268.257 Y16.47 I-3 J-82.219
G1 X265.137 Y16.473
X237.06 Y16.475
X186.52 Y16.478
X135.981 Y16.481
X85.441 Y16.484
X34.901 Y16.487
X8.072 Y16.489
X7.448 Y16.488
X6.824 Y16.475
X6.209 Y16.368
X5.643 Y16.106
X5.163 Y15.708
X4.787 Y15.21
X4.513 Y14.649
X4.326 Y14.054
G3 X4.059 Y11.577 I11.704 J-2.513
X4.022 Y7.834 I115.061 J-3.016
G1 X4.018 Y2.842
X4.016 Y-4.645
X4.014 Y-12.133
X4.017 Y-12.757
X4.049 Y-13.38
X4.208 Y-13.983
X4.519 Y-14.524
X4.956 Y-14.969
X5.48 Y-15.309
X6.055 Y-15.551
G3 X8.515 Y-15.917 I2.546 J8.663
X13.506 Y-15.973 I3.825 J120.404
G1 X44.704 Y-15.975
X95.243 Y-15.977
X145.783 Y-15.98
X196.322 Y-15.983
X246.862 Y-15.986
X272.444 Y-15.987
X273.068 Y-15.976
X273.686 Y-15.892
X274.264 Y-15.658
X274.763 Y-15.283
X275.159 Y-14.801
X275.449 Y-14.249
X275.65 Y-13.658
G3 X275.94 Y-11.184 I-10.852 J2.526
X275.981 Y-7.441 I-103.904 J3.011
G1 X275.984 Y-3.697
X275.986 Y6.91
X275.987 Y11.901
X275.986 Y12.525
X275.974 Y13.149
X275.87 Y13.764
X275.613 Y14.333
X275.219 Y14.816
X274.723 Y15.196
X274.164 Y15.472
X273.57 Y15.662
G3 X271.093 Y15.933 I-2.516 J-11.533
X267.35 Y15.971 I-2.996 J-112.17
G1 X262.982 Y15.973
X233.033 Y15.975
X182.493 Y15.978
X131.954 Y15.981
X81.414 Y15.984
X30.875 Y15.988
X8.413 Y15.989
X7.789 Y15.987
X7.165 Y15.957
X6.56 Y15.807
X6.012 Y15.508
X5.558 Y15.08
X5.21 Y14.562
X4.96 Y13.991
X4.791 Y13.39
G3 X4.555 Y10.909 I13.101 J-2.499
X4.521 Y7.166 I135.845 J-3.112
G1 X4.518 Y1.55
X4.515 Y-9.681
X4.514 Y-11.553
X4.515 Y-12.177
X4.544 Y-12.8
X4.686 Y-13.407
X4.981 Y-13.957
X5.404 Y-14.416
X5.919 Y-14.769
X6.489 Y-15.023
X7.089 Y-15.195
G3 X9.569 Y-15.437 I2.513 J12.888
X13.312 Y-15.471 I2.997 J125.491
G1 X18.304 Y-15.473
X50.749 Y-15.475
X101.288 Y-15.478
X151.828 Y-15.48
X202.368 Y-15.483
X252.907 Y-15.486
X271.626 Y-15.487
X272.249 Y-15.484
X272.873 Y-15.45
X273.477 Y-15.294
X274.019 Y-14.985
X274.466 Y-14.55
X274.808 Y-14.028
X275.053 Y-13.455
G3 X275.425 Y-10.995 I-8.587 J2.558
X275.483 Y-6.628 I-101.035 J3.513
G1 X275.485 Y-1.012
X275.487 Y11.467
X275.486 Y12.091
X275.465 Y12.714
X275.342 Y13.326
X275.07 Y13.887
X274.663 Y14.36
X274.159 Y14.728
X273.595 Y14.995
X272.998 Y15.177
G3 X270.52 Y15.435 I-2.519 J-12.181
X266.777 Y15.471 I-3.006 J-117.206
G1 X262.409 Y15.473
X224.972 Y15.476
X174.433 Y15.479
X123.893 Y15.482
X73.353 Y15.485
X22.814 Y15.488
X9.087 Y15.489
X8.463 Y15.488
X7.839 Y15.473
X7.225 Y15.363
X6.659 Y15.101
X6.178 Y14.704
X5.801 Y14.207
X5.525 Y13.647
X5.335 Y13.053
G3 X5.061 Y10.577 I11.547 J-2.529
X5.022 Y6.834 I110.3 J-3.034
G1 X5.018 Y3.09
X5.014 Y-11.261
X5.021 Y-11.885
X5.078 Y-12.506
X5.272 Y-13.099
X5.615 Y-13.621
X6.074 Y-14.043
X6.611 Y-14.361
X7.193 Y-14.586
G3 X9.659 Y-14.922 I2.546 J9.48
G1 X10.283 Y-14.945
G3 X16.522 Y-14.973 I4.475 J305.26
G1 X60.822 Y-14.976
X111.362 Y-14.978
X161.901 Y-14.981
X212.441 Y-14.984
X262.981 Y-14.987
X271.092
X271.716 Y-14.985
X272.339 Y-14.951
X272.944 Y-14.799
X273.49 Y-14.497
X273.943 Y-14.068
X274.291 Y-13.55
X274.541 Y-12.978
G3 X274.923 Y-10.52 I-8.427 J2.568
X274.98 Y-6.154 I-91.208 J3.382
G1 X274.985 Y-1.162
X274.987 Y11.317
X274.979 Y11.941
X274.91 Y12.561
X274.703 Y13.149
X274.348 Y13.663
X273.881 Y14.076
X273.339 Y14.385
X272.754 Y14.602
G3 X270.285 Y14.923 I-2.546 J-9.917
X266.542 Y14.97 I-3.02 J-92.111
G1 X263.422 Y14.973
X212.882 Y14.976
X162.343 Y14.979
X111.803 Y14.983
X61.264 Y14.986
X10.724 Y14.989
X9.476
X8.852 Y14.987
X8.229 Y14.959
X7.621 Y14.821
X7.066 Y14.534
X6.603 Y14.116
X6.245 Y13.606
X5.985 Y13.038
X5.808 Y12.44
G3 X5.558 Y9.961 I12.585 J-2.524
X5.522 Y6.217 I120.321 J-3.042
G1 X5.518 Y1.85
X5.514 Y-10.629
X5.517 Y-11.253
X5.559 Y-11.876
X5.724 Y-12.478
X6.039 Y-13.016
X6.477 Y-13.46
X7 Y-13.8
X7.575 Y-14.043
G3 X10.035 Y-14.414 I2.567 J8.678
X14.402 Y-14.469 I3.373 J94.194
G1 X19.394 Y-14.473
X24.385 Y-14.474
X74.925 Y-14.476
X125.464 Y-14.479
X176.004 Y-14.482
X226.543 Y-14.485
X270.844 Y-14.487
X271.467 Y-14.477
X272.087 Y-14.404
X272.674 Y-14.192
X273.184 Y-13.832
X273.594 Y-13.362
X273.9 Y-12.818
X274.115 Y-12.232
X274.258 Y-11.625
X274.348 Y-11.008
X274.404 Y-10.386
G3 X274.479 Y-6.02 I-73.515 J3.449
G1 X274.484 Y-2.9
X274.487 Y10.826
X274.478 Y11.45
X274.408 Y12.07
X274.194 Y12.656
X273.838 Y13.169
X273.369 Y13.581
X272.826 Y13.889
X272.241 Y14.104
G3 X269.772 Y14.423 I-2.553 J-10.034
X266.028 Y14.47 I-3.029 J-91.887
G1 X262.909 Y14.473
X247.31 Y14.474
X196.77 Y14.477
X146.231 Y14.48
X95.691 Y14.484
X45.152 Y14.487
X10.211 Y14.489
X9.587 Y14.488
X8.963 Y14.477
X8.345 Y14.388
X7.767 Y14.155
X7.268 Y13.781
X6.87 Y13.3
X6.575 Y12.75
X6.37 Y12.161
G3 X6.067 Y9.689 I10.568 J-2.549
X6.022 Y5.946 I97.849 J-3.049
G1 X6.018 Y2.826
Y1.578
X6.015 Y-10.277
X6.023 Y-10.901
X6.086 Y-11.522
X6.288 Y-12.112
X6.635 Y-12.63
X7.097 Y-13.05
X7.636 Y-13.365
X8.219 Y-13.588
G3 X10.685 Y-13.921 I2.548 J9.576
X16.924 Y-13.973 I4.526 J167.517
G1 X42.506 Y-13.975
X93.046 Y-13.977
X143.585 Y-13.98
X194.125 Y-13.983
X244.664 Y-13.986
X270.246 Y-13.987
X270.87 Y-13.982
X271.491 Y-13.923
X272.085 Y-13.73
X272.608 Y-13.391
X273.035 Y-12.935
X273.357 Y-12.401
X273.585 Y-11.82
G3 X273.929 Y-9.355 I-9.371 J2.565
X273.983 Y-4.988 I-108.164 J3.529
G1 X273.985 Y0.628
X273.986 Y8.739
X273.987 Y9.987
X273.984 Y10.611
X273.96 Y11.234
X273.827 Y11.844
X273.545 Y12.4
X273.131 Y12.867
X272.624 Y13.23
X272.058 Y13.494
X271.461 Y13.674
G3 X268.983 Y13.933 I-2.532 J-12.216
X265.239 Y13.971 I-3.021 J-115.409
G1 X261.496 Y13.973
X227.179 Y13.976
X176.639 Y13.979
X126.099 Y13.982
X75.56 Y13.985
X25.02 Y13.988
X10.67 Y13.989
X10.046 Y13.988
X9.422 Y13.972
X8.806 Y13.875
X8.232 Y13.631
X7.738 Y13.249
X7.347 Y12.763
X7.058 Y12.21
X6.859 Y11.618
G3 X6.566 Y9.145 I10.96 J-2.552
X6.522 Y5.402 I100.609 J-3.057
G1 X6.518 Y2.282
X6.515 Y-9.573
X6.518 Y-10.197
X6.554 Y-10.82
X6.706 Y-11.425
X7.011 Y-11.969
X7.44 Y-12.422
X7.958 Y-12.771
X8.529 Y-13.022
X9.129 Y-13.192
G3 X11.609 Y-13.436 I2.53 J13.011
X14.105 Y-13.469 I2.299 J79.868
G1 X15.353 Y-13.472
X19.72 Y-13.473
X64.645 Y-13.476
X115.184 Y-13.479
X165.724 Y-13.481
X216.263 Y-13.484
X266.803 Y-13.487
X269.299
X269.923 Y-13.486
X270.546 Y-13.472
X271.164 Y-13.38
X271.742 Y-13.146
X272.239 Y-12.77
X272.635 Y-12.287
X272.929 Y-11.737
X273.134 Y-11.148
G3 X273.436 Y-8.676 I-10.545 J2.544
X273.481 Y-4.933 I-97.868 J3.043
G1 X273.485 Y-1.813
X273.487 Y9.418
X273.486 Y10.042
X273.464 Y10.666
X273.347 Y11.279
X273.079 Y11.842
X272.678 Y12.32
X272.178 Y12.694
X271.618 Y12.968
X271.023 Y13.156
G3 X268.547 Y13.43 I-2.545 J-11.668
X261.684 Y13.473 I-4.86 J-228.079
G1 X253.572 Y13.474
X203.033 Y13.477
X152.493 Y13.48
X101.954 Y13.483
X51.414 Y13.486
X10.858 Y13.489
X10.234 Y13.484
X9.611 Y13.44
X9.01 Y13.272
X8.474 Y12.954
X8.032 Y12.514
X7.694 Y11.989
X7.452 Y11.414
G3 X7.08 Y8.954 I8.733 J-2.578
X7.025 Y5.835 I63.363 J-2.688
G1 X7.02 Y4.587
X7.018 Y0.219
X7.015 Y-9.14
X7.02 Y-9.764
X7.065 Y-10.386
X7.237 Y-10.986
X7.554 Y-11.523
X7.994 Y-11.965
X8.519 Y-12.303
X9.094 Y-12.545
G3 X11.555 Y-12.913 I2.574 J8.794
X15.922 Y-12.969 I3.39 J93.595
G1 X20.289 Y-12.973
X40.255 Y-12.974
X90.795 Y-12.977
X141.335 Y-12.98
X191.874 Y-12.983
X242.414 Y-12.985
X269.243 Y-12.987
X269.867 Y-12.981
X270.488 Y-12.92
X271.081 Y-12.726
X271.605 Y-12.386
X272.03 Y-11.93
X272.353 Y-11.396
X272.581 Y-10.815
G3 X272.928 Y-8.35 I-9.334 J2.57
X272.981 Y-3.983 I-100.688 J3.397
G1 X272.985 Y1.008
X272.986 Y8.496
Y9.119
X272.982 Y9.743
X272.942 Y10.366
X272.775 Y10.967
X272.461 Y11.506
X272.023 Y11.951
X271.5 Y12.292
X270.926 Y12.536
G3 X268.467 Y12.912 I-2.574 J-8.599
X264.1 Y12.969 I-3.389 J-92.453
G1 X259.733 Y12.974
X225.416 Y12.976
X174.876 Y12.979
X124.336 Y12.982
X73.797 Y12.985
X23.257 Y12.988
X11.402 Y12.989
X10.778 Y12.986
X10.156 Y12.945
X9.553 Y12.785
X9.01 Y12.477
X8.56 Y12.045
X8.215 Y11.525
X7.967 Y10.952
G3 X7.583 Y8.495 I8.498 J-2.586
X7.523 Y4.128 I89.322 J-3.415
G1 X7.517 Y-0.24
X7.515 Y-8.351
X7.516 Y-8.975
X7.533 Y-9.599
X7.64 Y-10.214
X7.891 Y-10.784
X8.281 Y-11.272
X8.772 Y-11.657
X9.327 Y-11.941
X9.919 Y-12.138
G3 X12.393 Y-12.427 I2.552 J11.088
X19.256 Y-12.471 I4.762 J207.996
G1 X19.88 Y-12.473
X70.42 Y-12.476
X120.959 Y-12.479
X171.499 Y-12.482
X222.039 Y-12.484
X268.211 Y-12.487
X268.835 Y-12.486
X269.458 Y-12.475
X270.078 Y-12.4
X270.663 Y-12.183
X271.174 Y-11.825
X271.585 Y-11.356
X271.893 Y-10.813
X272.109 Y-10.228
G3 X272.432 Y-7.759 I-10.007 J2.563
X272.485 Y-1.52 I-170.367 J4.559
G1 X272.486 Y8.463
X272.484 Y9.087
X272.46 Y9.71
X272.331 Y10.321
X272.051 Y10.878
X271.64 Y11.348
X271.135 Y11.714
X270.571 Y11.981
X269.974 Y12.165
G3 X267.497 Y12.431 I-2.544 J-11.992
X263.754 Y12.471 I-3.036 J-110.92
G1 X260.01 Y12.473
X243.788 Y12.475
X193.248 Y12.478
X142.709 Y12.481
X92.169 Y12.484
X41.629 Y12.487
X12.304 Y12.489
X11.68 Y12.488
X11.056 Y12.478
X10.437 Y12.403
X9.85 Y12.191
X9.338 Y11.834
X8.926 Y11.365
X8.617 Y10.823
X8.4 Y10.239
G3 X8.072 Y7.771 I9.865 J-2.566
X8.018 Y1.532 I169.192 J-4.578
G1 X8.016 Y-5.956
X8.015 Y-7.827
X8.016 Y-8.451
X8.033 Y-9.075
X8.133 Y-9.691
X8.381 Y-10.263
X8.766 Y-10.755
X9.253 Y-11.144
X9.807 Y-11.432
X10.398 Y-11.631
G3 X12.871 Y-11.926 I2.559 J10.949
X16.614 Y-11.97 I3.044 J98.96
G1 X19.734 Y-11.973
X54.051 Y-11.975
X104.591 Y-11.978
X155.13 Y-11.981
X205.67 Y-11.983
X256.21 Y-11.986
X268.064 Y-11.987
X268.688 Y-11.983
X269.311 Y-11.948
X269.917 Y-11.798
X270.463 Y-11.496
X270.918 Y-11.069
X271.269 Y-10.553
X271.523 Y-9.983
X271.696 Y-9.384
G3 X271.945 Y-6.904 I-12.826 J2.541
X271.982 Y-3.161 I-119.268 J3.049
G1 X271.985 Y0.583
X271.986 Y8.07
X271.982 Y8.694
X271.946 Y9.317
X271.789 Y9.921
X271.486 Y10.467
X271.057 Y10.919
X270.54 Y11.268
X269.969 Y11.52
X269.369 Y11.691
G3 X266.888 Y11.935 I-2.538 J-13.058
X259.401 Y11.972 I-5.109 J-275.001
G1 X258.153 Y11.974
X207.614 Y11.977
X157.074 Y11.98
X106.535 Y11.983
X55.995 Y11.986
X12.319 Y11.988
X11.695 Y11.984
X11.073 Y11.93
X10.476 Y11.749
X9.946 Y11.421
X9.51 Y10.974
X9.179 Y10.445
X8.942 Y9.868
G3 X8.579 Y7.406 I8.974 J-2.582
X8.522 Y3.039 I95.001 J-3.417
G1 X8.517 Y-1.328
X8.515 Y-7.568
X8.519 Y-8.192
X8.555 Y-8.815
X8.711 Y-9.419
X9.015 Y-9.964
X9.445 Y-10.416
X9.962 Y-10.765
X10.533 Y-11.016
G3 X12.989 Y-11.408 I2.587 J8.321
X17.356 Y-11.469 I3.395 J87.405
G1 X21.1 Y-11.473
X41.69 Y-11.475
X92.229 Y-11.477
X142.769 Y-11.48
X193.309 Y-11.483
X243.848 Y-11.485
X267.558 Y-11.487
X268.182 Y-11.484
X268.805 Y-11.447
X269.41 Y-11.296
X269.958 Y-10.996
X270.414 Y-10.571
X270.767 Y-10.057
X271.021 Y-9.487
X271.195 Y-8.887
G3 X271.445 Y-6.408 I-12.844 J2.548
X271.482 Y-2.665 I-118.04 J3.054
G1 X271.485 Y1.079
X271.486 Y7.319
X271.485 Y7.942
X271.471 Y8.566
X271.37 Y9.182
X271.124 Y9.756
X270.74 Y10.248
X270.253 Y10.638
X269.7 Y10.927
X269.11 Y11.128
X268.5 Y11.261
G3 X265.39 Y11.454 I-2.824 J-20.377
X259.774 Y11.473 I-3.949 J-324.187
G1 X217.97 Y11.476
X167.43 Y11.479
X116.891 Y11.482
X66.351 Y11.485
X15.811 Y11.488
X13.316 Y11.489
X12.692 Y11.488
X12.068 Y11.477
X11.448 Y11.405
X10.861 Y11.193
X10.348 Y10.838
X9.934 Y10.372
X9.623 Y9.831
X9.403 Y9.247
G3 X9.073 Y6.779 I9.8 J-2.566
X9.022 Y2.412 I105.528 J-3.42
G1 X9.017 Y-2.579
X9.015 Y-6.947
X9.017 Y-7.571
X9.042 Y-8.194
X9.169 Y-8.805
X9.447 Y-9.364
X9.856 Y-9.836
X10.359 Y-10.204
X10.922 Y-10.474
X11.518 Y-10.659
G3 X13.994 Y-10.93 I2.553 J11.872
X20.857 Y-10.973 I4.869 J228.24
G1 X33.336 Y-10.974
X83.876 Y-10.977
X134.415 Y-10.98
X184.955 Y-10.982
X235.494 Y-10.985
X266.692 Y-10.987
X267.316 Y-10.986
X267.94 Y-10.976
X268.559 Y-10.901
X269.146 Y-10.69
X269.658 Y-10.334
X270.071 Y-9.866
X270.381 Y-9.325
X270.6 Y-8.74
G3 X270.931 Y-6.273 I-9.818 J2.57
X270.981 Y-1.906 I-105.59 J3.404
G1 X270.986 Y3.086
Y5.582
Y6.83
X270.985 Y7.453
X270.968 Y8.077
X270.866 Y8.693
X270.616 Y9.265
X270.231 Y9.756
X269.743 Y10.145
X269.189 Y10.432
X268.598 Y10.631
G3 X266.125 Y10.926 I-2.562 J-10.981
X262.382 Y10.97 I-3.05 J-98.712
G1 X259.262 Y10.973
X224.321 Y10.976
X173.781 Y10.979
X123.242 Y10.982
X72.702 Y10.985
X22.163 Y10.988
X13.427
X12.804 Y10.984
X12.181 Y10.947
X11.576 Y10.792
X11.032 Y10.487
X10.579 Y10.058
X10.23 Y9.541
X9.978 Y8.97
G3 X9.585 Y6.514 I8.324 J-2.593
X9.522 Y2.147 I86.685 J-3.423
G1 X9.517 Y-1.597
X9.516 Y-6.588
X9.52 Y-7.212
X9.56 Y-7.835
X9.722 Y-8.437
X10.03 Y-8.98
X10.463 Y-9.429
X10.983 Y-9.775
X11.555 Y-10.023
X12.155 Y-10.193
G3 X14.636 Y-10.435 I2.538 J13.177
X18.379 Y-10.471 I3.042 J122.166
G1 X22.123 Y-10.473
X28.986 Y-10.474
X79.526 Y-10.477
X130.065 Y-10.479
X180.605 Y-10.482
X231.145 Y-10.485
X266.709 Y-10.486
X267.333 Y-10.481
X267.955 Y-10.423
X268.549 Y-10.235
X269.076 Y-9.901
X269.507 Y-9.449
X269.835 Y-8.918
X270.068 Y-8.339
G3 X270.425 Y-5.876 I-9.144 J2.584
X270.481 Y-1.51 I-96.192 J3.41
G1 X270.485 Y2.234
X270.486 Y6.602
X270.481 Y7.226
X270.441 Y7.848
X270.276 Y8.45
X269.964 Y8.99
X269.528 Y9.437
X269.007 Y9.78
X268.434 Y10.027
G3 X265.976 Y10.41 I-2.588 J-8.529
X261.609 Y10.469 I-3.4 J-89.322
G1 X257.865 Y10.474
X226.668 Y10.476
X176.129 Y10.479
X125.589 Y10.482
X75.049 Y10.485
X24.51 Y10.488
X13.903
X13.279 Y10.484
X12.656 Y10.442
X12.054 Y10.279
X11.512 Y9.97
X11.062 Y9.538
X10.717 Y9.018
X10.469 Y8.446
G3 X10.084 Y5.988 I8.512 J-2.592
X10.022 Y1.621 I88.332 J-3.427
X10.029 Y-7.114 I537.691 J-3.955
G1 X10.146 Y-7.728
X10.405 Y-8.296
X10.798 Y-8.78
X11.292 Y-9.162
X11.848 Y-9.443
X12.441 Y-9.639
G3 X14.915 Y-9.927 I2.559 J11.197
X18.658 Y-9.97 I3.048 J101.336
G1 X21.778 Y-9.973
X28.642 Y-9.974
X79.181 Y-9.977
X129.721 Y-9.979
X180.26 Y-9.982
X230.8 Y-9.985
X265.741 Y-9.987
X266.365 Y-9.986
X266.989 Y-9.973
X267.607 Y-9.889
X268.189 Y-9.664
X268.694 Y-9.298
X269.099 Y-8.823
X269.402 Y-8.277
X269.614 Y-7.691
G3 X269.933 Y-5.221 I-10.131 J2.561
X269.982 Y1.018 I-165.574 J4.443
G1 X269.985 Y2.89
X269.986 Y6.009
X269.984 Y6.633
X269.951 Y7.256
X269.808 Y7.864
X269.516 Y8.415
X269.096 Y8.877
X268.586 Y9.235
X268.019 Y9.495
X267.421 Y9.673
G3 X264.942 Y9.932 I-2.552 J-12.433
X258.079 Y9.974 I-4.874 J-238.676
G1 X225.01 Y9.976
X174.47 Y9.979
X123.931 Y9.982
X73.391 Y9.985
X22.852 Y9.988
X14.74
X14.117 Y9.987
X13.493 Y9.974
X12.875 Y9.884
X12.295 Y9.655
X11.793 Y9.284
X11.392 Y8.806
X11.094 Y8.258
X10.884 Y7.671
G3 X10.57 Y5.2 I10.333 J-2.57
X10.52 Y-1.039 I168.16 J-4.464
G1 X10.516 Y-5.406
X10.518 Y-6.03
X10.54 Y-6.654
X10.661 Y-7.266
X10.929 Y-7.83
X11.328 Y-8.309
X11.826 Y-8.685
X12.386 Y-8.96
X12.98 Y-9.15
G3 X15.456 Y-9.428 I2.559 J11.613
X19.199 Y-9.47 I3.052 J104.659
G1 X22.319 Y-9.473
X32.302 Y-9.474
X82.842 Y-9.477
X133.381 Y-9.479
X183.921 Y-9.482
X234.461 Y-9.485
X265.658 Y-9.486
X266.282 Y-9.481
X266.904 Y-9.43
X267.502 Y-9.255
X268.036 Y-8.932
X268.475 Y-8.488
X268.811 Y-7.962
X269.051 Y-7.387
G3 X269.423 Y-4.926 I-8.805 J2.587
X269.481 Y-0.559 I-92.182 J3.413
G1 X269.486 Y3.184
Y5.68
X269.479 Y6.304
X269.428 Y6.926
X269.243 Y7.522
X268.913 Y8.052
X268.465 Y8.485
X267.935 Y8.816
X267.358 Y9.052
G3 X264.896 Y9.414 I-2.575 J-8.965
X260.529 Y9.469 I-3.403 J-95.231
G1 X256.161 Y9.474
X219.349 Y9.476
X168.809 Y9.479
X118.269 Y9.482
X67.73 Y9.485
X17.19 Y9.488
X14.694
X14.071 Y9.479
X13.451 Y9.404
X12.865 Y9.191
X12.352 Y8.836
X11.938 Y8.369
X11.626 Y7.828
X11.406 Y7.244
G3 X11.073 Y4.777 I9.809 J-2.58
X11.021 Y0.41 I103.759 J-3.425
G1 X11.016 Y-3.957
Y-5.205
X11.023 Y-5.829
X11.082 Y-6.45
X11.269 Y-7.046
X11.605 Y-7.572
X12.058 Y-8.001
X12.59 Y-8.327
X13.169 Y-8.559
G3 X15.632 Y-8.914 I2.582 J9.174
X19.999 Y-8.969 I3.401 J96.703
G1 X24.367 Y-8.974
X39.965
X90.505 Y-8.977
X141.045 Y-8.98
X191.584 Y-8.983
X242.124 Y-8.985
X265.21 Y-8.986
X265.834 Y-8.979
X266.455 Y-8.922
X267.049 Y-8.732
X267.577 Y-8.399
X268.009 Y-7.949
X268.336 Y-7.418
X268.569 Y-6.839
G3 X268.925 Y-4.376 I-9.183 J2.584
X268.981 Y-0.009 I-96.139 J3.417
G1 X268.986 Y4.359
Y4.983
X268.983 Y5.607
X268.955 Y6.23
X268.819 Y6.839
X268.532 Y7.393
X268.116 Y7.858
X267.608 Y8.221
X267.043 Y8.485
X266.446 Y8.666
G3 X263.969 Y8.931 I-2.552 J-12.164
X260.225 Y8.971 I-3.049 J-110.955
G1 X257.105 Y8.974
X209.686 Y8.977
X159.146 Y8.98
X108.606 Y8.983
X58.067 Y8.986
X15.639 Y8.988
X15.015 Y8.987
X14.391 Y8.967
X13.777 Y8.856
X13.207 Y8.603
X12.721 Y8.211
X12.337 Y7.719
X12.054 Y7.163
X11.857 Y6.571
G3 X11.565 Y4.098 I11.06 J-2.556
G1 X11.544 Y3.474
G3 X11.521 Y-5.261 I482.84 J-5.626
G1 X11.57 Y-5.883
X11.744 Y-6.482
X12.065 Y-7.017
X12.506 Y-7.458
X13.031 Y-7.796
X13.606 Y-8.037
G3 X16.066 Y-8.411 I2.591 J8.777
X20.433 Y-8.469 I3.407 J91.101
G1 X24.177 Y-8.474
X51.63 Y-8.475
X102.17 Y-8.478
X152.709 Y-8.481
X203.249 Y-8.483
X253.789 Y-8.486
X264.396
X265.02 Y-8.484
X265.643 Y-8.464
X266.256 Y-8.346
X266.822 Y-8.084
X267.303 Y-7.687
X267.682 Y-7.191
X267.961 Y-6.633
X268.154 Y-6.04
G3 X268.439 Y-3.565 I-11.352 J2.561
X268.484 Y3.298 I-209.156 J4.799
G1 X268.486 Y4.546
X268.482 Y5.17
X268.446 Y5.793
X268.292 Y6.398
X267.993 Y6.945
X267.568 Y7.402
X267.053 Y7.755
X266.484 Y8.009
X265.884 Y8.183
G3 X263.405 Y8.433 I-2.551 J-12.85
X256.542 Y8.474 I-4.879 J-245.625
G1 X246.559
X196.019 Y8.477
X145.48 Y8.481
X94.94 Y8.484
X44.4 Y8.487
X16.323 Y8.488
X15.699
X15.075 Y8.479
X14.456 Y8.404
X13.869 Y8.192
X13.356 Y7.837
X12.941 Y7.371
X12.629 Y6.831
X12.408 Y6.247
G3 X12.073 Y3.78 I9.747 J-2.578
X12.021 Y-0.587 I103.43 J-3.426
G1 X12.016 Y-3.707
X12.017 Y-4.331
X12.029 Y-4.954
X12.109 Y-5.573
X12.328 Y-6.157
X12.69 Y-6.666
X13.162 Y-7.074
X13.706 Y-7.38
X14.291 Y-7.596
G3 X16.76 Y-7.92 I2.566 J9.968
X21.127 Y-7.97 I3.401 J107.413
G1 X26.118 Y-7.974
X67.299 Y-7.976
X117.838 Y-7.979
X168.378 Y-7.981
X218.917 Y-7.984
X263.841 Y-7.986
X264.465 Y-7.985
X265.089 Y-7.967
X265.704 Y-7.864
X266.275 Y-7.612
X266.765 Y-7.226
X267.153 Y-6.737
X267.44 Y-6.183
X267.639 Y-5.592
X267.772 Y-4.982
G3 X267.965 Y-1.872 I-20.534 J2.837
X267.975 Y4.992 I-306.087 J3.88
G1 X267.884 Y5.609
X267.656 Y6.19
X267.286 Y6.693
X266.809 Y7.095
X266.262 Y7.395
X265.675 Y7.606
G3 X263.205 Y7.922 I-2.57 J-10.281
X256.966 Y7.973 I-4.55 J-172.713
G1 X228.888 Y7.975
X178.349 Y7.979
X127.809 Y7.982
X77.27 Y7.985
X26.73 Y7.988
X16.747
X16.123 Y7.987
X15.499 Y7.973
X14.881 Y7.886
X14.302 Y7.655
X13.798 Y7.287
X13.395 Y6.81
X13.095 Y6.264
X12.885 Y5.676
G3 X12.57 Y3.206 I10.355 J-2.574
X12.521 Y-3.657 I182.742 J-4.745
G1 X12.522 Y-4.281
X12.574 Y-4.903
X12.753 Y-5.5
X13.079 Y-6.032
X13.524 Y-6.47
X14.051 Y-6.804
X14.627 Y-7.043
G3 X17.088 Y-7.412 I2.587 J8.864
X21.455 Y-7.469 I3.406 J92.645
G1 X25.199 Y-7.474
X36.43
X86.969 Y-7.477
X137.509 Y-7.48
X188.048 Y-7.482
X238.588 Y-7.485
X263.546 Y-7.486
X264.17 Y-7.482
X264.793 Y-7.448
X265.398 Y-7.297
X265.947 Y-7
X266.404 Y-6.575
X266.758 Y-6.061
X267.014 Y-5.492
X267.19 Y-4.894
G3 X267.444 Y-2.415 I-12.589 J2.545
X267.475 Y4.448 I-204.344 J4.34
G1 X267.396 Y5.067
X267.176 Y5.651
X266.815 Y6.16
X266.345 Y6.57
X265.802 Y6.877
X265.216 Y7.093
G3 X262.748 Y7.42 I-2.577 J-10.004
X257.757 Y7.47 I-3.721 J-122.161
G1 X241.534 Y7.475
X207.217 Y7.477
X156.678 Y7.48
X106.138 Y7.483
X55.599 Y7.486
X16.914 Y7.488
X16.29 Y7.483
X15.667 Y7.443
X15.064 Y7.284
X14.522 Y6.976
X14.071 Y6.544
X13.725 Y6.025
X13.475 Y5.454
G3 X13.084 Y2.997 I8.408 J-2.597
X13.022 Y-1.994 I100.437 J-3.748
G1 X13.017 Y-3.242
X13.026 Y-3.866
X13.088 Y-4.486
X13.289 Y-5.077
X13.631 Y-5.599
X14.089 Y-6.023
X14.624 Y-6.344
X15.205 Y-6.571
G3 X17.671 Y-6.916 I2.579 J9.452
X22.037 Y-6.97 I3.407 J99.341
G1 X26.405 Y-6.974
X60.098 Y-6.976
X110.638 Y-6.978
X161.177 Y-6.981
X211.717 Y-6.984
X262.256 Y-6.986
X262.88
X263.504 Y-6.985
X264.128 Y-6.966
X264.742 Y-6.854
X265.308 Y-6.592
X265.791 Y-6.197
X266.173 Y-5.704
X266.454 Y-5.146
X266.649 Y-4.554
G3 X266.938 Y-2.08 I-11.21 J2.564
X266.965 Y4.159 I-134.357 J3.696
G1 X266.836 Y4.77
X266.568 Y5.334
X266.166 Y5.811
X265.667 Y6.185
X265.106 Y6.46
X264.512 Y6.65
G3 X262.036 Y6.929 I-2.554 J-11.531
X258.293 Y6.971 I-3.053 J-105.334
G1 X255.173 Y6.974
X232.087 Y6.975
X181.548 Y6.978
X131.008 Y6.981
X80.469 Y6.985
X29.929 Y6.988
X17.45
X16.826 Y6.985
X16.204 Y6.948
X15.598 Y6.795
X15.051 Y6.495
X14.595 Y6.07
X14.242 Y5.556
X13.986 Y4.986
X13.812 Y4.387
G3 X13.559 Y1.908 I12.762 J-2.557
X13.538 Y-3.707 I122.01 J-3.246
G1 X13.678 Y-4.316
X13.959 Y-4.873
X14.37 Y-5.342
X14.875 Y-5.709
X15.439 Y-5.976
X16.035 Y-6.16
G3 X18.512 Y-6.43 I2.556 J11.967
X25.375 Y-6.474 I4.877 J227.807
G1 X37.23
X87.769 Y-6.477
X138.309 Y-6.48
X188.848 Y-6.482
X239.388 Y-6.485
X262.474 Y-6.486
X263.098 Y-6.484
X263.721 Y-6.455
X264.33 Y-6.32
X264.888 Y-6.04
X265.357 Y-5.629
X265.723 Y-5.124
X265.991 Y-4.56
X266.174 Y-3.963
G3 X266.442 Y-1.486 I-12.085 J2.557
X266.474 Y3.505 I-120.676 J3.269
G1 X266.382 Y4.122
X266.148 Y4.701
X265.775 Y5.201
X265.296 Y5.601
X264.748 Y5.899
X264.16 Y6.108
G3 X261.69 Y6.422 I-2.571 J-10.359
X255.451 Y6.471 I-4.43 J-167.05
G1 X252.955 Y6.474
X202.416 Y6.477
X151.876 Y6.48
X101.337 Y6.483
X50.797 Y6.486
X18.352 Y6.488
X17.728
X17.104 Y6.478
X16.484 Y6.409
X15.894 Y6.206
X15.376 Y5.857
X14.957 Y5.395
X14.641 Y4.858
X14.416 Y4.276
G3 X14.074 Y1.81 I9.537 J-2.58
X14.04 Y-3.181 I83.445 J-3.066
G1 X14.172 Y-3.791
X14.447 Y-4.351
X14.852 Y-4.825
X15.354 Y-5.197
X15.916 Y-5.468
X16.511 Y-5.654
X17.123 Y-5.777
X17.742 Y-5.855
X18.364 Y-5.903
G3 X22.731 Y-5.969 I3.475 J84.999
G1 X25.851 Y-5.974
X68.903 Y-5.976
X119.442 Y-5.979
X169.982 Y-5.981
X220.522 Y-5.984
X261.702 Y-5.986
X262.326
X262.95 Y-5.975
X263.569 Y-5.896
X264.154 Y-5.68
X264.664 Y-5.321
X265.075 Y-4.852
X265.384 Y-4.309
X265.601 Y-3.724
G3 X265.931 Y-1.257 I-9.906 J2.577
G1 X265.955 Y-0.633
X265.968 Y-0.009
X265.975 Y0.615
G3 X265.964 Y3.11 I-57.57 J0.998
G1 X265.85 Y3.724
X265.592 Y4.292
X265.2 Y4.778
X264.707 Y5.16
X264.151 Y5.443
X263.559 Y5.639
G3 X261.084 Y5.927 I-2.561 J-11.229
X254.845 Y5.974 I-4.553 J-190.031
G1 X219.28 Y5.976
X168.741 Y5.979
X118.201 Y5.982
X67.662 Y5.985
X18.37 Y5.988
X17.746 Y5.984
X17.124 Y5.935
X16.524 Y5.765
X15.987 Y5.446
X15.544 Y5.007
X15.205 Y4.483
X14.961 Y3.909
G3 X14.581 Y1.45 I8.663 J-2.595
X14.527 Y-2.293 I65.552 J-2.819
G1 X14.577 Y-2.915
X14.758 Y-3.512
X15.086 Y-4.042
X15.533 Y-4.478
X16.062 Y-4.809
X16.639 Y-5.047
G3 X19.1 Y-5.413 I2.586 J8.932
X23.467 Y-5.469 I3.405 J93.771
G1 X27.211 Y-5.474
X54.04 Y-5.475
X104.58 Y-5.478
X155.119 Y-5.481
X205.659 Y-5.483
X256.198 Y-5.486
X261.814
X262.438 Y-5.475
X263.057 Y-5.401
X263.643 Y-5.185
X264.155 Y-4.829
X264.569 Y-4.362
X264.879 Y-3.821
X265.098 Y-3.237
G3 X265.43 Y-0.769 I-9.862 J2.581
X265.473 Y2.35 I-57.569 J2.363
G1 X265.411 Y2.971
X265.217 Y3.564
X264.877 Y4.087
X264.421 Y4.512
X263.886 Y4.835
X263.306 Y5.065
G3 X260.842 Y5.415 I-2.583 J-9.313
X256.475 Y5.47 I-3.406 J-97.914
G1 X252.108 Y5.474
X232.141 Y5.475
X181.602 Y5.478
X131.062 Y5.481
X80.523 Y5.485
X29.983 Y5.488
X19.376
X18.752
X18.128 Y5.479
X17.507 Y5.416
X16.916 Y5.216
X16.395 Y4.873
X15.971 Y4.416
X15.65 Y3.88
X15.422 Y3.3
G3 X15.075 Y0.835 I9.407 J-2.579
X15.056 Y-2.284 I32.596 J-1.764
G1 X15.21 Y-2.889
X15.509 Y-3.437
X15.934 Y-3.894
X16.448 Y-4.247
X17.017 Y-4.503
X17.616 Y-4.678
G3 X20.095 Y-4.933 I2.552 J12.662
X26.958 Y-4.974 I4.878 J242.436
G1 X43.18 Y-4.975
X93.72 Y-4.977
X144.26 Y-4.98
X194.799 Y-4.983
X245.339 Y-4.986
X260.937
X261.561 Y-4.984
X262.185 Y-4.959
X262.796 Y-4.832
X263.357 Y-4.56
X263.832 Y-4.155
X264.203 Y-3.654
X264.476 Y-3.092
X264.664 Y-2.497
G3 X264.941 Y-0.021 I-11.673 J2.559
G1 X264.961 Y0.602
X264.971 Y1.226
X264.969 Y1.85
X264.909 Y2.471
X264.713 Y3.063
X264.374 Y3.587
X263.919 Y4.014
X263.385 Y4.337
X262.804 Y4.566
G3 X260.34 Y4.915 I-2.584 J-9.361
X255.973 Y4.97 I-3.409 J-97.824
G1 X251.605 Y4.974
X240.998 Y4.975
X190.459 Y4.978
X139.919 Y4.981
X89.38 Y4.984
X38.84 Y4.987
X19.498 Y4.988
X18.874 Y4.985
X18.25 Y4.955
X17.642 Y4.815
X17.09 Y4.525
X16.626 Y4.107
X16.266 Y3.598
X16.003 Y3.032
X15.823 Y2.435
G3 X15.56 Y-0.043 I12.268 J-2.557
G1 X15.541 Y-0.667
X15.538 Y-1.291
X15.584 Y-1.913
X15.765 Y-2.51
X16.091 Y-3.042
X16.537 Y-3.478
X17.065 Y-3.81
X17.642 Y-4.048
G3 X20.104 Y-4.413 I2.578 J8.916
X24.47 Y-4.469 I3.408 J93.816
G1 X28.214 Y-4.474
X36.325
X86.865 Y-4.477
X137.405 Y-4.48
X187.944 Y-4.482
X238.484 Y-4.485
X260.322 Y-4.486
X260.946 Y-4.485
X261.57 Y-4.47
X262.185 Y-4.369
X262.758 Y-4.122
X263.25 Y-3.738
X263.641 Y-3.252
X263.931 Y-2.699
X264.134 Y-2.109
G3 X264.436 Y0.363 I-10.761 J2.57
G1 X264.456 Y0.987
X264.446 Y1.611
X264.337 Y2.225
X264.082 Y2.794
X263.689 Y3.279
X263.196 Y3.661
X262.639 Y3.943
X262.047 Y4.138
G3 X259.573 Y4.427 I-2.56 J-11.189
X255.829 Y4.471 I-3.054 J-101.129
G1 X252.71 Y4.474
X245.846
X195.307 Y4.477
X144.767 Y4.481
X94.227 Y4.484
X43.688 Y4.487
X19.978 Y4.488
X19.354 Y4.485
X18.731 Y4.451
X18.124 Y4.305
X17.574 Y4.012
X17.112 Y3.592
X16.754 Y3.081
X16.495 Y2.513
X16.317 Y1.915
G3 X16.07 Y-1.187 I12.649 J-2.569
G1 X16.19 Y-1.799
X16.465 Y-2.359
X16.872 Y-2.832
X17.375 Y-3.202
X17.938 Y-3.472
X18.533 Y-3.658
G3 X21.01 Y-3.93 I2.556 J11.852
X27.873 Y-3.974 I4.878 J225.511
G1 X33.488
X84.028 Y-3.977
X134.567 Y-3.98
X185.107 Y-3.982
X235.647 Y-3.985
X259.98 Y-3.986
X260.604 Y-3.983
X261.228 Y-3.954
X261.836 Y-3.817
X262.393 Y-3.536
X262.861 Y-3.123
X263.226 Y-2.617
X263.492 Y-2.052
X263.675 Y-1.456
G3 X263.927 Y1.022 I-10.868 J2.358
G1 X263.848 Y1.641
X263.614 Y2.219
X263.239 Y2.718
X262.758 Y3.116
X262.209 Y3.411
X261.62 Y3.616
G3 X259.148 Y3.923 I-2.569 J-10.573
X252.909 Y3.974 I-4.552 J-177.672
G1 X246.67
X196.13 Y3.977
X145.591 Y3.981
X95.051 Y3.984
X44.511 Y3.987
X20.802 Y3.988
X20.178 Y3.987
X19.554 Y3.976
X18.935 Y3.897
X18.349 Y3.682
X17.839 Y3.323
X17.428 Y2.854
X17.119 Y2.311
X16.902 Y1.727
G3 X16.607 Y-0.742 I7.853 J-2.188
G1 X16.736 Y-1.353
X17.019 Y-1.909
X17.434 Y-2.375
X17.943 Y-2.736
X18.509 Y-2.997
X19.107 Y-3.175
G3 X21.586 Y-3.432 I2.548 J12.501
X28.449 Y-3.474 I4.879 J239.422
G1 X34.688
X85.228 Y-3.477
X135.768 Y-3.48
X186.307 Y-3.482
X236.847 Y-3.485
X259.309 Y-3.486
X259.933 Y-3.485
X260.557 Y-3.472
X261.173 Y-3.372
X261.747 Y-3.128
X262.241 Y-2.747
X262.634 Y-2.263
X262.926 Y-1.712
G3 X263.368 Y0.729 I-6.003 J2.348
G1 X263.25 Y1.342
X262.972 Y1.9
X262.559 Y2.368
X262.051 Y2.73
X261.485 Y2.993
X260.887 Y3.173
G3 X258.409 Y3.433 I-2.541 J-12.284
X251.546 Y3.474 I-4.875 J-240.294
G1 X243.435 Y3.475
X192.895 Y3.478
X142.356 Y3.481
X91.816 Y3.484
X41.277 Y3.487
X20.686 Y3.488
X20.063 Y3.477
X19.443 Y3.402
X18.858 Y3.186
X18.346 Y2.829
X17.932 Y2.362
X17.622 Y1.82
X17.404 Y1.236
X17.259 Y0.629
X17.181 Y0.01
X17.225 Y-0.612
X17.437 Y-1.199
X17.8 Y-1.707
X18.276 Y-2.11
X18.824 Y-2.409
X19.412 Y-2.617
G3 X21.883 Y-2.924 I2.557 J10.473
X28.122 Y-2.974 I4.548 J179.335
G1 X39.977
X90.517 Y-2.977
X141.056 Y-2.98
X191.596 Y-2.983
X242.135 Y-2.985
X258.982 Y-2.986
X259.606 Y-2.983
X260.229 Y-2.955
X260.838 Y-2.817
X261.394 Y-2.535
X261.862 Y-2.122
X262.226 Y-1.616
X262.492 Y-1.051
X262.67 Y-0.453
X262.754 Y0.165
X262.68 Y0.785
X262.431 Y1.357
X262.035 Y1.839
X261.536 Y2.214
X260.974 Y2.484
X260.378 Y2.668
G3 X257.9 Y2.932 I-2.536 J-12.045
X251.037 Y2.974 I-4.874 J-236.748
G1 X236.062 Y2.975
X185.523 Y2.978
X134.983 Y2.981
X84.444 Y2.984
X33.904 Y2.987
X21.425 Y2.988
X20.801 Y2.984
X20.179 Y2.945
X19.574 Y2.788
X19.031 Y2.482
X18.579 Y2.051
X18.231 Y1.533
X17.984 Y0.961
X17.851 Y0.351
X17.894 Y-0.271
X18.13 Y-0.849
X18.52 Y-1.336
X19.017 Y-1.713
X19.579 Y-1.985
X20.175 Y-2.17
G3 X22.652 Y-2.433 I2.519 J11.939
X26.395 Y-2.471 I3.032 J114.513
G1 X30.139 Y-2.474
X49.481 Y-2.475
X100.021 Y-2.478
X150.561 Y-2.48
X201.1 Y-2.483
X251.64 Y-2.486
X258.503
X259.127 Y-2.483
X259.75 Y-2.45
X260.358 Y-2.309
X260.912 Y-2.022
X261.377 Y-1.606
X261.736 Y-1.096
X261.969 Y-0.517
X262.014 Y0.106
X261.851 Y0.708
X261.508 Y1.229
X261.038 Y1.64
X260.49 Y1.938
X259.9 Y2.141
G3 X257.426 Y2.429 I-2.516 J-10.826
X253.683 Y2.471 I-3.033 J-104.079
G1 X250.563 Y2.474
X224.358 Y2.476
X173.818 Y2.479
X123.278 Y2.482
X72.739 Y2.485
X22.199 Y2.488
X21.575 Y2.487
X20.952 Y2.472
X20.335 Y2.374
X19.76 Y2.132
X19.267 Y1.751
X18.882 Y1.259
X18.782 Y0.964
X18.738 Y0.655
X18.752 Y0.343
X18.896 Y-0.264
X19.237 Y-0.786
X19.712 Y-1.191
X20.264 Y-1.481
X20.857 Y-1.675
G3 X23.335 Y-1.936 I2.456 J11.393
X27.078 Y-1.971 I2.999 J120.514
G1 X31.446 Y-1.974
X63.267 Y-1.976
X113.806 Y-1.978
X164.346 Y-1.981
X214.886 Y-1.984
X257.938 Y-1.986
X258.562 Y-1.985
X259.185 Y-1.958
X259.796 Y-1.832
X260.357 Y-1.558
X260.586 Y-1.346
G3 X260.917 Y-0.185 I-1.02 J0.918
G1 X260.837 Y0.117
X260.571 Y0.681
X260.135 Y1.128
X259.599 Y1.448
X259.012 Y1.659
X258.403 Y1.791
G3 X255.29 Y1.958 I-2.716 J-21.485
X248.427 Y1.974 I-4.546 J-479.73
G1 X207.87 Y1.977
X157.331 Y1.98
X106.791 Y1.983
X56.252 Y1.986
G3 X54.015 Y1.95 I12.067 J-827.85
G1 X53.451 Y1.946
X52.827 Y1.943
X51.579 Y1.942
X22.878 Y1.943
X22.254 Y1.942
X21.63 Y1.936
X21.01 Y1.864
G3 X20.17 Y0.557 I0.261 J-1.091
G1 X20.241 Y0.253
X20.542 Y-0.294
X21.006 Y-0.71
X21.56 Y-0.997
X22.157 Y-1.18
G3 X24.639 Y-1.402 I2.357 J12.35
X32.75 Y-1.426 I5.188 J387.055
G1 X33.374 Y-1.429
G3 X37.741 Y-1.474 I3.231 J101.445
G1 X83.289 Y-1.477
X133.828 Y-1.48
X184.368 Y-1.482
X234.907 Y-1.485
G3 X237.144 Y-1.449 I-12.077 J828.073
G1 X237.708 Y-1.445
X238.332 Y-1.442
X239.58 Y-1.441
X257.674
X258.298 Y-1.433
G3 X259.026 Y0.62 I-0.03 J1.166
G1 X258.526 Y0.993
X257.928 Y1.173
G3 X255.447 Y1.4 I-2.397 J-12.511
X249.207 Y1.429 I-4.393 J-271.459
G1 X234.857 Y1.43
X184.317 Y1.433
X133.778 Y1.436
X83.238 Y1.439
X56.408 Y1.441
G2 X51.448 Y1.397 I-4.87 J270.74
G1 X45.833
X32.73
X23.137 Y1.398
G2 X23.005 Y1.962 I0.01 J0.3
G1 X23.064 Y1.994 Z-4.982
X23.12 Y2.023 Z-4.96
X23.17 Y2.05 Z-4.925
X23.212 Y2.073 Z-4.877
X23.243 Y2.089 Z-4.82
X23.263 Y2.1 Z-4.757
X23.27 Y2.103 Z-4.69
G0 Z2
G28 G91 Z0
G90
G28 G91 X0 Y0
G90
M5
M30
