(4050micromhole)
(T2  D=3 CR=1.5 - ZMIN=-8 - ball end mill)
G90 G94
G17
G21
G28 G91 Z0
G90

(Bore1)
T2
S18000 M3
G54
G0 X0 Y0.3
Z2
G1 Z0.3 F20
G18 G2 X0.3 Z0 I0.3 K0
G1 X0.45
G17 G2 X0.75 Y0 I0 J-0.3
X-0.75 Y0 Z-0.05 I-0.75 J0
X0.75 Y0 Z-0.1 I0.75 J0
X-0.75 Y0 Z-0.15 I-0.75 J0
X0.75 Y0 Z-0.2 I0.75 J0
X-0.75 Y0 Z-0.25 I-0.75 J0
X0.75 Y0 Z-0.3 I0.75 J0
X-0.75 Y0 Z-0.35 I-0.75 J0
X0.75 Y0 Z-0.4 I0.75 J0
X-0.75 Y0 Z-0.45 I-0.75 J0
X0.75 Y0 Z-0.5 I0.75 J0
X-0.75 Y0 Z-0.55 I-0.75 J0
X0.75 Y0 Z-0.6 I0.75 J0
X-0.75 Y0 Z-0.65 I-0.75 J0
X0.75 Y0 Z-0.7 I0.75 J0
X-0.75 Y0 Z-0.75 I-0.75 J0
X0.75 Y0 Z-0.8 I0.75 J0
X-0.75 Y0 Z-0.85 I-0.75 J0
X0.75 Y0 Z-0.9 I0.75 J0
X-0.75 Y0 Z-0.95 I-0.75 J0
X0.75 Y0 Z-1 I0.75 J0
X-0.75 Y0 Z-1.05 I-0.75 J0
X0.75 Y0 Z-1.1 I0.75 J0
X-0.75 Y0 Z-1.15 I-0.75 J0
X0.75 Y0 Z-1.2 I0.75 J0
X-0.75 Y0 Z-1.25 I-0.75 J0
X0.75 Y0 Z-1.3 I0.75 J0
X-0.75 Y0 Z-1.35 I-0.75 J0
X0.75 Y0 Z-1.4 I0.75 J0
X-0.75 Y0 Z-1.45 I-0.75 J0
X0.75 Y0 Z-1.5 I0.75 J0
X-0.75 Y0 Z-1.55 I-0.75 J0
X0.75 Y0 Z-1.6 I0.75 J0
X-0.75 Y0 Z-1.65 I-0.75 J0
X0.75 Y0 Z-1.7 I0.75 J0
X-0.75 Y0 Z-1.75 I-0.75 J0
X0.75 Y0 Z-1.8 I0.75 J0
X-0.75 Y0 Z-1.85 I-0.75 J0
X0.75 Y0 Z-1.9 I0.75 J0
X-0.75 Y0 Z-1.95 I-0.75 J0
X0.75 Y0 Z-2 I0.75 J0
X-0.75 Y0 Z-2.05 I-0.75 J0
X0.75 Y0 Z-2.1 I0.75 J0
X-0.75 Y0 Z-2.15 I-0.75 J0
X0.75 Y0 Z-2.2 I0.75 J0
X-0.75 Y0 Z-2.25 I-0.75 J0
X0.75 Y0 Z-2.3 I0.75 J0
X-0.75 Y0 Z-2.35 I-0.75 J0
X0.75 Y0 Z-2.4 I0.75 J0
X-0.75 Y0 Z-2.45 I-0.75 J0
X0.75 Y0 Z-2.5 I0.75 J0
X-0.75 Y0 Z-2.55 I-0.75 J0
X0.75 Y0 Z-2.6 I0.75 J0
X-0.75 Y0 Z-2.65 I-0.75 J0
X0.75 Y0 Z-2.7 I0.75 J0
X-0.75 Y0 Z-2.75 I-0.75 J0
X0.75 Y0 Z-2.8 I0.75 J0
X-0.75 Y0 Z-2.85 I-0.75 J0
X0.75 Y0 Z-2.9 I0.75 J0
X-0.75 Y0 Z-2.95 I-0.75 J0
X0.75 Y0 Z-3 I0.75 J0
X-0.75 Y0 Z-3.05 I-0.75 J0
X0.75 Y0 Z-3.1 I0.75 J0
X-0.75 Y0 Z-3.15 I-0.75 J0
X0.75 Y0 Z-3.2 I0.75 J0
X-0.75 Y0 Z-3.25 I-0.75 J0
X0.75 Y0 Z-3.3 I0.75 J0
X-0.75 Y0 Z-3.35 I-0.75 J0
X0.75 Y0 Z-3.4 I0.75 J0
X-0.75 Y0 Z-3.45 I-0.75 J0
X0.75 Y0 Z-3.5 I0.75 J0
X-0.75 Y0 Z-3.55 I-0.75 J0
X0.75 Y0 Z-3.6 I0.75 J0
X-0.75 Y0 Z-3.65 I-0.75 J0
X0.75 Y0 Z-3.7 I0.75 J0
X-0.75 Y0 Z-3.75 I-0.75 J0
X0.75 Y0 Z-3.8 I0.75 J0
X-0.75 Y0 Z-3.85 I-0.75 J0
X0.75 Y0 Z-3.9 I0.75 J0
X-0.75 Y0 Z-3.95 I-0.75 J0
X0.75 Y0 Z-4 I0.75 J0
X-0.75 Y0 Z-4.05 I-0.75 J0
X0.75 Y0 Z-4.1 I0.75 J0
X-0.75 Y0 Z-4.15 I-0.75 J0
X0.75 Y0 Z-4.2 I0.75 J0
X-0.75 Y0 Z-4.25 I-0.75 J0
X0.75 Y0 Z-4.3 I0.75 J0
X-0.75 Y0 Z-4.35 I-0.75 J0
X0.75 Y0 Z-4.4 I0.75 J0
X-0.75 Y0 Z-4.45 I-0.75 J0
X0.75 Y0 Z-4.5 I0.75 J0
X-0.75 Y0 Z-4.55 I-0.75 J0
X0.75 Y0 Z-4.6 I0.75 J0
X-0.75 Y0 Z-4.65 I-0.75 J0
X0.75 Y0 Z-4.7 I0.75 J0
X-0.75 Y0 Z-4.75 I-0.75 J0
X0.75 Y0 Z-4.8 I0.75 J0
X-0.75 Y0 Z-4.85 I-0.75 J0
X0.75 Y0 Z-4.9 I0.75 J0
X-0.75 Y0 Z-4.95 I-0.75 J0
X0.75 Y0 Z-5 I0.75 J0
X-0.75 Y0 Z-5.05 I-0.75 J0
X0.75 Y0 Z-5.1 I0.75 J0
X-0.75 Y0 Z-5.15 I-0.75 J0
X0.75 Y0 Z-5.2 I0.75 J0
X-0.75 Y0 Z-5.25 I-0.75 J0
X0.75 Y0 Z-5.3 I0.75 J0
X-0.75 Y0 Z-5.35 I-0.75 J0
X0.75 Y0 Z-5.4 I0.75 J0
X-0.75 Y0 Z-5.45 I-0.75 J0
X0.75 Y0 Z-5.5 I0.75 J0
X-0.75 Y0 Z-5.55 I-0.75 J0
X0.75 Y0 Z-5.6 I0.75 J0
X-0.75 Y0 Z-5.65 I-0.75 J0
X0.75 Y0 Z-5.7 I0.75 J0
X-0.75 Y0 Z-5.75 I-0.75 J0
X0.75 Y0 Z-5.8 I0.75 J0
X-0.75 Y0 Z-5.85 I-0.75 J0
X0.75 Y0 Z-5.9 I0.75 J0
X-0.75 Y0 Z-5.95 I-0.75 J0
X0.75 Y0 Z-6 I0.75 J0
X-0.75 Y0 Z-6.05 I-0.75 J0
X0.75 Y0 Z-6.1 I0.75 J0
X-0.75 Y0 Z-6.15 I-0.75 J0
X0.75 Y0 Z-6.2 I0.75 J0
X-0.75 Y0 Z-6.25 I-0.75 J0
X0.75 Y0 Z-6.3 I0.75 J0
X-0.75 Y0 Z-6.35 I-0.75 J0
X0.75 Y0 Z-6.4 I0.75 J0
X-0.75 Y0 Z-6.45 I-0.75 J0
X0.75 Y0 Z-6.5 I0.75 J0
X-0.75 Y0 Z-6.55 I-0.75 J0
X0.75 Y0 Z-6.6 I0.75 J0
X-0.75 Y0 Z-6.65 I-0.75 J0
X0.75 Y0 Z-6.7 I0.75 J0
X-0.75 Y0 Z-6.75 I-0.75 J0
X0.75 Y0 Z-6.8 I0.75 J0
X-0.75 Y0 Z-6.85 I-0.75 J0
X0.75 Y0 Z-6.9 I0.75 J0
X-0.75 Y0 Z-6.95 I-0.75 J0
X0.75 Y0 Z-7 I0.75 J0
X-0.75 Y0 Z-7.05 I-0.75 J0
X0.75 Y0 Z-7.1 I0.75 J0
X-0.75 Y0 Z-7.15 I-0.75 J0
X0.75 Y0 Z-7.2 I0.75 J0
X-0.75 Y0 Z-7.25 I-0.75 J0
X0.75 Y0 Z-7.3 I0.75 J0
X-0.75 Y0 Z-7.35 I-0.75 J0
X0.75 Y0 Z-7.4 I0.75 J0
X-0.75 Y0 Z-7.45 I-0.75 J0
X0.75 Y0 Z-7.5 I0.75 J0
X-0.75 Y0 Z-7.55 I-0.75 J0
X0.75 Y0 Z-7.6 I0.75 J0
X-0.75 Y0 Z-7.65 I-0.75 J0
X0.75 Y0 Z-7.7 I0.75 J0
X-0.75 Y0 Z-7.75 I-0.75 J0
X0.75 Y0 Z-7.8 I0.75 J0
X-0.75 Y0 Z-7.85 I-0.75 J0
X0.75 Y0 Z-7.9 I0.75 J0
X-0.75 Y0 Z-7.95 I-0.75 J0
X0.75 Y0 Z-8 I0.75 J0
X-0.75 Y0 I-0.75 J0
X0.75 Y0 I0.75 J0
X0.45 Y-0.3 I-0.3 J0
G1 X0.3
G18 G3 X0 Z-7.7 I0 K0.3
G0 Z2
G17
G28 G91 Z0
G90
G28 G91 X0 Y0
G90
M5
M30
