(faceoffprop3)
(T1  D=3 CR=0 - ZMIN=0.015 - flat end mill)
G90 G94
G17
G21
G28 G91 Z0
G90

(Adaptive1)
T1
S18000 M3
G54
G0 X-0.299 Y-63.505
Z3
Z0.615
G1 Z0.315 F750
X-0.297 Y-63.498 Z0.248
X-0.291 Y-63.477 Z0.185
X-0.282 Y-63.442 Z0.128
X-0.271 Y-63.396 Z0.08
X-0.256 Y-63.341 Z0.045
X-0.241 Y-63.28 Z0.023
X-0.224 Y-63.215 Z0.015
G3 X0.011 Y-61.582 I-7.419 J1.9
G1 Y-61.363 F675
X-0.357 Y-60.859 F750
X-0.59 Y-60.28
X-0.725 Y-59.671
G2 X-0.861 Y-57.181 I18.617 J2.266
G1 X-0.867 Y-56.557
X-0.869 Y-55.933
X-0.871 Y-54.061
X-0.886 Y-11.633
X-0.889 Y-1.025
X-0.828 Y-0.72
X-0.694 Y-0.438
X-0.317 Y0.06
X0.202 Y0.405
X0.788 Y0.621
X1.399 Y0.744
G2 X4.514 Y0.867 I2.527 J-24.529
G1 X5.762 Y0.875
X12.002
X38.207 Y0.874
X88.747 Y0.872
X119.008 Y0.871
X119.313 Y0.805
X119.593 Y0.668
X120.087 Y0.286
X120.429 Y-0.236
X120.642 Y-0.822
G2 X120.873 Y-3.301 I-10.537 J-2.231
G1 X120.885 Y-3.925
X120.889 Y-4.549
X120.891 Y-5.797
X120.892 Y-12.037
Y-18.276
X120.889 Y-58.833
X120.87 Y-59.144
X120.767 Y-59.438
X120.601 Y-59.702
X120.178 Y-60.161
X119.637 Y-60.471
X119.042 Y-60.66
G2 X116.558 Y-60.859 I-2.226 J12.149
X112.191 Y-60.876 I-3.097 J241.182
G1 X61.651 Y-60.882
X11.112 Y-60.888
X1.752 Y-60.889
X1.451 Y-60.81
X1.17 Y-60.673
X0.667 Y-60.304
X0.301 Y-59.799
X0.058 Y-59.224
X-0.089 Y-58.617
G2 X-0.255 Y-56.13 I15.703 J2.295
G1 X-0.264 Y-55.506
X-0.268 Y-54.882
X-0.271 Y-53.634
X-0.274 Y-47.395
X-0.283 Y-20.565
X-0.289 Y-1.847
X-0.204 Y-1.546
X0.065 Y-0.983
X0.502 Y-0.538
X1.039 Y-0.22
X1.627 Y-0.012
G2 X4.104 Y0.248 I2.35 J-10.472
X7.223 Y0.275 I2.513 J-111.379
G1 X14.087
X30.309
X80.849 Y0.273
X117.662 Y0.271
X118.285 Y0.26
X118.872 Y0.048
X119.355 Y-0.348
X119.71 Y-0.861
X119.949 Y-1.437
X120.099 Y-2.042
G2 X120.274 Y-4.529 I-15.179 J-2.318
X120.29 Y-12.017 I-448.921 J-4.695
G1 X120.289 Y-58.188
X120.103 Y-58.784
X119.729 Y-59.283
X119.228 Y-59.655
X118.658 Y-59.908
X118.054 Y-60.067
X117.438 Y-60.162
X116.816 Y-60.215
G2 X111.825 Y-60.276 I-3.776 J103.802
G1 X66.277 Y-60.282
X15.738 Y-60.287
X2.635 Y-60.289
X2.028 Y-60.145
X1.498 Y-59.815
X1.087 Y-59.346
X0.795 Y-58.794
X0.604 Y-58.2
G2 X0.358 Y-55.722 I11.537 J2.398
X0.33 Y-52.602 I109.829 J2.552
G1 X0.326 Y-47.61
X0.319 Y-23.9
X0.312 Y-2.686
X0.45 Y-2.078
X0.777 Y-1.546
X1.24 Y-1.128
X1.786 Y-0.827
X2.377 Y-0.625
G2 X4.853 Y-0.357 I2.421 J-10.785
X7.972 Y-0.326 I2.53 J-98.589
G1 X11.716 Y-0.325
X28.562
X79.102 Y-0.327
X116.539 Y-0.329
X117.163 Y-0.33
X117.782 Y-0.408
X118.34 Y-0.686
X118.791 Y-1.118
X119.122 Y-1.646
X119.348 Y-2.228
G2 X119.654 Y-4.698 I-9.479 J-2.431
X119.69 Y-11.561 I-232.039 J-4.637
G1 X119.689 Y-57.109
X119.621 Y-57.73
X119.354 Y-58.293
X118.93 Y-58.751
X118.406 Y-59.089
X117.826 Y-59.32
X117.22 Y-59.468
X116.602 Y-59.558
X115.981 Y-59.611
G2 X111.614 Y-59.676 I-3.484 J87.13
G1 X104.127 Y-59.678
X65.442 Y-59.682
X14.902 Y-59.688
X3.671 Y-59.689
X3.049 Y-59.641
X2.469 Y-59.412
X1.984 Y-59.019
X1.615 Y-58.516
X1.356 Y-57.949
X1.185 Y-57.349
G2 X0.958 Y-54.867 I13.024 J2.443
X0.926 Y-48.004 I295.959 J4.774
G1 X0.918 Y-21.798
X0.912 Y-3.704
X0.961 Y-3.082
X1.188 Y-2.5
X1.576 Y-2.012
X2.075 Y-1.638
X2.64 Y-1.372
X3.238 Y-1.195
G2 X5.719 Y-0.956 I2.458 J-12.512
X11.958 Y-0.925 I4.355 J-246.823
G1 X31.924
X82.464 Y-0.928
X116.157 Y-0.929
X116.78 Y-0.947
X117.378 Y-1.127
X117.893 Y-1.478
X118.297 Y-1.954
X118.588 Y-2.506
X118.785 Y-3.098
G2 X119.056 Y-5.574 I-11.102 J-2.467
X119.091 Y-9.317 I-122.327 J-3.022
G1 X119.092 Y-16.181
X119.09 Y-56.113
X119.074 Y-56.737
X118.903 Y-57.337
X118.558 Y-57.857
X118.087 Y-58.265
X117.537 Y-58.561
X116.946 Y-58.762
G2 X114.471 Y-59.039 I-2.473 J10.887
X110.104 Y-59.074 I-3.26 J133.785
G1 X59.564 Y-59.083
X9.025 Y-59.088
X4.657 Y-59.089
X4.033 Y-59.078
X3.424 Y-58.945
X2.882 Y-58.634
X2.446 Y-58.188
X2.123 Y-57.655
X1.899 Y-57.072
G2 X1.575 Y-54.604 I9.583 J2.511
X1.53 Y-50.861 I94.442 J3.006
G1 X1.526 Y-47.117
X1.515 Y-14.672
X1.512 Y-4.689
X1.523 Y-4.065
X1.653 Y-3.455
X1.958 Y-2.911
X2.399 Y-2.47
X2.929 Y-2.14
X3.509 Y-1.91
G2 X5.975 Y-1.574 I2.524 J-9.298
X9.718 Y-1.527 I2.984 J-89.264
G1 X12.838 Y-1.525
X40.292 Y-1.526
X90.831 Y-1.528
X115.165 Y-1.529
X115.789 Y-1.532
X116.407 Y-1.617
X116.974 Y-1.878
X117.444 Y-2.288
X117.802 Y-2.799
X118.056 Y-3.369
X118.225 Y-3.97
G2 X118.459 Y-6.451 I-13.122 J-2.489
X118.491 Y-10.818 I-161.001 J-3.37
G1 Y-25.793
X118.49 Y-55.118
X118.487 Y-55.742
X118.409 Y-56.362
X118.156 Y-56.932
X117.752 Y-57.407
X117.245 Y-57.771
X116.677 Y-58.029
X116.078 Y-58.202
G2 X113.597 Y-58.443 I-2.494 J12.826
X109.854 Y-58.476 I-3.072 J134.481
G1 X103.614 Y-58.478
X99.247
X48.707 Y-58.484
X5.655 Y-58.489
X5.031 Y-58.487
X4.409 Y-58.437
X3.823 Y-58.223
X3.322 Y-57.851
X2.93 Y-57.366
X2.645 Y-56.811
X2.45 Y-56.218
G2 X2.17 Y-53.743 I11.259 J2.527
G1 X2.15 Y-53.119
G2 X2.126 Y-45.632 I456.827 J5.229
G1 X2.113 Y-5.7
X2.114 Y-5.076
X2.159 Y-4.453
X2.363 Y-3.864
X2.726 Y-3.356
X3.205 Y-2.956
X3.756 Y-2.663
X4.346 Y-2.462
G2 X6.819 Y-2.169 I2.536 J-10.826
X10.563 Y-2.127 I3.003 J-101.426
G1 X14.306 Y-2.125
X53.615 Y-2.126
X104.155 Y-2.128
X114.762 Y-2.129
X115.385 Y-2.149
X115.991 Y-2.3
X116.526 Y-2.621
X116.957 Y-3.072
X117.28 Y-3.606
X117.505 Y-4.188
G2 X117.84 Y-6.654 I-9.511 J-2.548
X117.889 Y-10.397 I-87.66 J-3.008
G1 X117.892 Y-13.517
X117.89 Y-40.347
X117.889 Y-54.697
X117.873 Y-55.321
X117.736 Y-55.93
X117.426 Y-56.472
X116.984 Y-56.912
X116.455 Y-57.242
X115.876 Y-57.475
G2 X113.412 Y-57.822 I-2.553 J9.19
X108.421 Y-57.877 I-3.846 J124.576
G1 X83.463 Y-57.88
X32.923 Y-57.886
X6.094 Y-57.888
X5.47 Y-57.88
X4.853 Y-57.782
X4.289 Y-57.517
X3.818 Y-57.108
X3.456 Y-56.599
X3.196 Y-56.032
X3.02 Y-55.433
G2 X2.767 Y-52.954 I12.593 J2.538
X2.729 Y-49.211 I118.008 J3.051
G1 X2.725 Y-44.843
X2.723 Y-36.108
X2.713 Y-6.159
X2.72 Y-5.535
X2.804 Y-4.917
X3.053 Y-4.345
X3.45 Y-3.863
X3.95 Y-3.49
X4.512 Y-3.219
X5.108 Y-3.034
G2 X7.585 Y-2.766 I2.545 J-11.938
X11.328 Y-2.727 I3.018 J-109.863
G1 X15.072 Y-2.725
X21.311
X71.851 Y-2.727
X113.655 Y-2.729
X114.279 Y-2.731
X114.902 Y-2.771
X115.495 Y-2.964
X116.009 Y-3.318
X116.418 Y-3.789
X116.72 Y-4.335
X116.93 Y-4.923
G2 X117.243 Y-7.393 I-10.317 J-2.559
G1 X117.265 Y-8.017
X117.277 Y-8.641
X117.283 Y-9.265
X117.287 Y-9.889
X117.29 Y-11.136
X117.292 Y-14.256
X117.29 Y-53.565
X117.288 Y-54.189
X117.258 Y-54.812
X117.085 Y-55.411
X116.748 Y-55.937
X116.289 Y-56.359
X115.75 Y-56.673
X115.166 Y-56.894
X114.56 Y-57.041
X113.943 Y-57.134
X113.322 Y-57.192
G2 X108.956 Y-57.272 I-3.458 J69.877
G1 X106.46 Y-57.277
X62.784 Y-57.282
X12.244 Y-57.288
X6.628
X6.005 Y-57.272
X5.393 Y-57.149
X4.839 Y-56.863
X4.381 Y-56.439
X4.031 Y-55.922
X3.781 Y-55.351
G2 X3.392 Y-52.894 I8.431 J2.591
X3.331 Y-48.527 I87.648 J3.42
G1 X3.325 Y-44.783
X3.315 Y-14.21
X3.313 Y-6.723
X3.324 Y-6.099
X3.425 Y-5.483
X3.687 Y-4.917
X4.093 Y-4.443
X4.598 Y-4.077
X5.163 Y-3.812
X5.76 Y-3.631
G2 X8.238 Y-3.366 I2.554 J-12.203
X15.101 Y-3.325 I4.844 J-233.05
G1 X44.426 Y-3.326
X94.966 Y-3.328
X113.06 Y-3.329
X113.684 Y-3.331
X114.306 Y-3.378
X114.897 Y-3.58
X115.409 Y-3.937
X115.815 Y-4.41
X116.117 Y-4.956
X116.327 Y-5.544
G2 X116.641 Y-8.014 I-10.317 J-2.567
X116.692 Y-14.253 I-173.5 J-4.523
G1 X116.691 Y-33.595
X116.69 Y-52.937
X116.689 Y-53.561
X116.655 Y-54.184
X116.482 Y-54.784
X116.15 Y-55.312
X115.694 Y-55.738
X115.158 Y-56.057
X114.576 Y-56.281
G2 X112.11 Y-56.621 I-2.573 J9.567
X107.743 Y-56.673 I-3.403 J101.33
G1 X102.751 Y-56.678
X87.776 Y-56.679
X37.237 Y-56.685
X7.287 Y-56.688
X6.664 Y-56.675
X6.05 Y-56.56
X5.49 Y-56.285
X5.023 Y-55.872
X4.663 Y-55.362
X4.404 Y-54.794
X4.227 Y-54.196
G2 X3.969 Y-51.718 I12.612 J2.563
X3.925 Y-44.854 I236.546 J4.94
G1 X3.923 Y-37.991
X3.913 Y-7.418
X3.918 Y-6.794
X4.001 Y-6.175
X4.245 Y-5.601
X4.632 Y-5.112
X5.125 Y-4.729
X5.683 Y-4.449
X6.276 Y-4.257
G2 X8.751 Y-3.972 I2.574 J-11.464
X14.99 Y-3.925 I4.534 J-188.737
G1 X21.853
X72.393 Y-3.927
X112.325 Y-3.929
X112.949 Y-3.93
X113.572 Y-3.963
X114.173 Y-4.134
X114.703 Y-4.462
X115.134 Y-4.914
X115.457 Y-5.447
X115.685 Y-6.028
G2 X116.033 Y-8.493 I-9.455 J-2.591
X116.089 Y-12.236 I-89.276 J-3.2
G1 X116.091 Y-14.731
X116.089 Y-52.792
X116.072 Y-53.416
X115.938 Y-54.025
X115.643 Y-54.575
X115.215 Y-55.029
X114.697 Y-55.376
X114.124 Y-55.625
G2 X111.667 Y-56.01 I-2.603 J8.563
X107.924 Y-56.074 I-3.219 J79.613
G1 X106.052 Y-56.077
X57.384 Y-56.083
X8.093 Y-56.088
X7.469 Y-56.084
X6.849 Y-56.012
X6.268 Y-55.785
X5.769 Y-55.41
X5.374 Y-54.927
X5.084 Y-54.375
X4.882 Y-53.785
G2 X4.579 Y-51.312 I10.901 J2.591
X4.526 Y-45.073 I175.262 J4.609
G1 X4.513 Y-8.261
X4.515 Y-7.637
X4.557 Y-7.014
X4.739 Y-6.417
X5.077 Y-5.893
X5.535 Y-5.469
X6.072 Y-5.152
X6.654 Y-4.928
G2 X9.12 Y-4.584 I2.603 J-9.663
X13.487 Y-4.529 I3.416 J-97.2
G1 X17.23 Y-4.525
X54.667 Y-4.526
X105.207 Y-4.528
X112.07 Y-4.529
X112.694 Y-4.539
X113.309 Y-4.641
X113.875 Y-4.905
X114.35 Y-5.309
X114.72 Y-5.812
X114.988 Y-6.375
X115.173 Y-6.971
G2 X115.446 Y-9.448 I-12.037 J-2.582
X115.491 Y-15.687 I-194.701 J-4.541
G1 X115.49 Y-46.26
Y-51.876
X115.485 Y-52.499
X115.42 Y-53.12
X115.203 Y-53.705
X114.835 Y-54.209
X114.356 Y-54.609
X113.807 Y-54.905
X113.218 Y-55.111
G2 X110.747 Y-55.423 I-2.596 J10.609
X106.38 Y-55.474 I-3.428 J108.009
G1 X102.013 Y-55.478
X72.687 Y-55.481
X22.148 Y-55.487
X9.045 Y-55.488
X8.421 Y-55.487
X7.797 Y-55.467
X7.188 Y-55.33
X6.64 Y-55.033
X6.187 Y-54.603
X5.84 Y-54.085
X5.591 Y-53.513
G2 X5.197 Y-51.056 I8.526 J2.626
X5.131 Y-46.69 I83.419 J3.46
G1 X5.125 Y-43.57
X5.117 Y-20.484
X5.114 Y-8.629
X5.123 Y-8.005
X5.211 Y-7.387
X5.455 Y-6.813
X5.845 Y-6.326
X6.338 Y-5.943
X6.895 Y-5.663
X7.488 Y-5.468
G2 X9.962 Y-5.175 I2.597 J-11.33
X16.201 Y-5.125 I4.554 J-178.901
G1 X41.782 Y-5.126
X92.322 Y-5.128
X111.04 Y-5.129
X111.664 Y-5.13
X112.288 Y-5.157
X112.892 Y-5.311
X113.432 Y-5.624
X113.873 Y-6.065
X114.209 Y-6.591
X114.449 Y-7.167
G2 X114.825 Y-9.627 I-8.905 J-2.62
X114.887 Y-13.994 I-87.438 J-3.428
G1 X114.891 Y-17.113
Y-34.584
X114.89 Y-50.806
X114.889 Y-51.43
X114.877 Y-52.054
X114.775 Y-52.67
X114.516 Y-53.238
X114.115 Y-53.716
X113.615 Y-54.088
X113.053 Y-54.36
X112.458 Y-54.548
G2 X109.983 Y-54.829 I-2.593 J11.787
X103.744 Y-54.877 I-4.58 J187.799
G1 X83.153 Y-54.88
X32.614 Y-54.886
X9.528 Y-54.888
X8.904 Y-54.886
X8.281 Y-54.851
X7.68 Y-54.681
X7.149 Y-54.355
X6.717 Y-53.905
X6.39 Y-53.373
X6.156 Y-52.795
G2 X5.792 Y-50.333 I9.222 J2.624
X5.73 Y-45.966 I90.556 J3.464
G1 X5.725 Y-42.846
X5.72 Y-29.743
X5.714 Y-9.777
Y-9.153
X5.729 Y-8.529
X5.837 Y-7.915
X6.101 Y-7.35
X6.507 Y-6.875
X7.01 Y-6.506
X7.573 Y-6.237
X8.168 Y-6.051
G2 X10.644 Y-5.773 I2.594 J-11.912
X16.883 Y-5.725 I4.556 J-188.688
G1 X33.73 Y-5.726
X84.269 Y-5.728
X110.475 Y-5.729
X111.099 Y-5.73
X111.722 Y-5.765
X112.323 Y-5.931
X112.858 Y-6.253
X113.293 Y-6.7
X113.623 Y-7.229
X113.859 Y-7.807
G2 X114.227 Y-10.268 I-9.102 J-2.619
X114.287 Y-14.635 I-89.74 J-3.431
G1 X114.291 Y-17.755
Y-27.738
X114.29 Y-50.824
X114.276 Y-51.448
X114.174 Y-52.063
X113.915 Y-52.631
X113.515 Y-53.11
X113.015 Y-53.483
X112.454 Y-53.756
X111.86 Y-53.945
G2 X109.384 Y-54.228 I-2.591 J11.696
X103.145 Y-54.277 I-4.586 J185.778
G1 X88.795 Y-54.279
X38.255 Y-54.285
X10.177 Y-54.288
X9.554 Y-54.287
X8.93 Y-54.255
X8.327 Y-54.095
X7.788 Y-53.78
X7.347 Y-53.339
X7.012 Y-52.813
X6.771 Y-52.237
G2 X6.395 Y-49.778 I8.917 J2.624
X6.33 Y-45.411 I87.005 J3.473
G1 X6.325 Y-42.291
X6.322 Y-34.18
X6.314 Y-9.846
X6.322 Y-9.222
X6.41 Y-8.604
X6.655 Y-8.03
X7.041 Y-7.541
X7.532 Y-7.155
X8.088 Y-6.872
X8.68 Y-6.675
G2 X11.153 Y-6.377 I2.606 J-11.229
X15.52 Y-6.328 I3.432 J-111.758
G1 X19.887 Y-6.325
X30.495
X81.034 Y-6.327
X109.736 Y-6.329
X110.36
X110.983 Y-6.35
X111.593 Y-6.482
X112.145 Y-6.773
X112.604 Y-7.196
X112.957 Y-7.71
X113.213 Y-8.279
G2 X113.618 Y-10.733 I-8.311 J-2.633
X113.687 Y-15.1 I-79.857 J-3.445
G1 X113.691 Y-17.596
Y-25.707
X113.69 Y-50.041
X113.685 Y-50.665
X113.619 Y-51.285
X113.403 Y-51.871
X113.04 Y-52.378
X112.565 Y-52.783
X112.019 Y-53.084
X111.432 Y-53.295
G2 X108.963 Y-53.619 I-2.615 J10.358
X104.596 Y-53.674 I-3.452 J102.134
G1 X100.852 Y-53.678
X89.621 Y-53.679
X39.081 Y-53.685
X10.38 Y-53.688
X9.756 Y-53.677
X9.141 Y-53.573
X8.575 Y-53.31
X8.097 Y-52.908
X7.724 Y-52.408
X7.451 Y-51.847
X7.262 Y-51.252
G2 X6.977 Y-48.778 I11.773 J2.611
X6.925 Y-42.539 I181.502 J4.636
G1 X6.922 Y-33.803
X6.914 Y-10.717
X6.916 Y-10.093
X6.957 Y-9.471
X7.132 Y-8.872
X7.462 Y-8.342
X7.913 Y-7.912
X8.445 Y-7.586
X9.025 Y-7.354
G2 X11.487 Y-6.991 I2.63 J-9.305
X15.854 Y-6.929 I3.448 J-89.578
G1 X18.973 Y-6.925
X32.076
X82.616 Y-6.928
X109.445 Y-6.929
X110.069 Y-6.934
X110.69 Y-6.999
X111.277 Y-7.212
X111.785 Y-7.574
X112.19 Y-8.048
X112.492 Y-8.594
X112.705 Y-9.181
G2 X113.033 Y-11.649 I-10.275 J-2.62
X113.088 Y-16.016 I-100.291 J-3.441
G1 X113.091 Y-19.76
Y-28.495
X113.09 Y-49.085
X113.089 Y-49.709
X113.07 Y-50.333
X112.945 Y-50.944
X112.661 Y-51.5
X112.243 Y-51.963
X111.733 Y-52.321
X111.165 Y-52.582
X110.568 Y-52.761
G2 X108.091 Y-53.03 I-2.606 J12.453
X101.852 Y-53.078 I-4.598 J193.025
G1 X85.629 Y-53.08
X35.089 Y-53.085
X11.379 Y-53.088
X10.755 Y-53.086
X10.132 Y-53.056
X9.529 Y-52.896
X8.992 Y-52.578
X8.553 Y-52.135
X8.218 Y-51.609
X7.977 Y-51.033
G2 X7.597 Y-48.574 I8.928 J2.642
X7.53 Y-44.207 I85.105 J3.484
G1 X7.525 Y-41.711
X7.52 Y-28.608
X7.515 Y-11.138
X7.522 Y-10.514
X7.594 Y-9.894
X7.815 Y-9.311
X8.185 Y-8.809
X8.664 Y-8.409
X9.213 Y-8.113
X9.801 Y-7.904
G2 X12.271 Y-7.583 I2.622 J-10.499
X16.638 Y-7.529 I3.445 J-102.251
G1 X20.382 Y-7.525
X38.476 Y-7.526
X89.016 Y-7.528
X108.358 Y-7.529
X108.982
X109.606 Y-7.541
X110.222 Y-7.635
X110.795 Y-7.882
X111.281 Y-8.274
X111.663 Y-8.767
X111.944 Y-9.324
X112.14 Y-9.917
G2 X112.439 Y-12.39 I-11.261 J-2.614
X112.488 Y-16.757 I-110.985 J-3.439
G1 X112.491 Y-20.501
Y-36.099
X112.49 Y-48.578
X112.488 Y-49.202
X112.459 Y-49.825
X112.309 Y-50.431
X112.003 Y-50.975
X111.569 Y-51.422
X111.047 Y-51.765
X110.474 Y-52.012
G2 X108.017 Y-52.405 I-2.641 J8.632
X103.651 Y-52.473 I-3.464 J82.303
G1 X101.155 Y-52.478
X76.821 Y-52.481
X26.281 Y-52.486
X11.931 Y-52.488
X11.307 Y-52.485
X10.684 Y-52.447
X10.085 Y-52.272
X9.554 Y-51.944
X9.123 Y-51.493
X8.796 Y-50.962
X8.562 Y-50.383
G2 X8.194 Y-47.922 I9.209 J2.637
X8.13 Y-43.555 I88.599 J3.483
G1 X8.124 Y-40.435
X8.117 Y-18.597
X8.115 Y-11.734
X8.122 Y-11.11
X8.194 Y-10.49
X8.418 Y-9.908
X8.789 Y-9.406
X9.269 Y-9.007
X9.818 Y-8.711
X10.406 Y-8.503
G2 X12.876 Y-8.182 I2.615 J-10.489
X17.243 Y-8.129 I3.448 J-102.951
G1 X20.986 Y-8.125
X49.688 Y-8.126
X100.227 Y-8.128
X108.339 Y-8.129
X108.962 Y-8.138
X109.581 Y-8.222
X110.157 Y-8.461
X110.651 Y-8.843
X111.041 Y-9.33
X111.328 Y-9.884
X111.53 Y-10.474
G2 X111.837 Y-12.946 I-10.962 J-2.615
X111.888 Y-17.313 I-107.399 J-3.445
G1 X111.891 Y-21.057
X111.89 Y-47.886
X111.889 Y-48.51
X111.868 Y-49.134
X111.74 Y-49.744
X111.455 Y-50.3
X111.038 Y-50.763
X110.527 Y-51.122
X109.96 Y-51.382
X109.362 Y-51.561
G2 X106.885 Y-51.829 I-2.609 J12.514
X100.646 Y-51.878 I-4.605 J192.081
G1 X63.209 Y-51.882
X12.669 Y-51.888
X12.046 Y-51.887
X11.422 Y-51.863
X10.814 Y-51.723
X10.265 Y-51.426
X9.81 Y-50.999
X9.459 Y-50.483
X9.206 Y-49.913
G2 X8.802 Y-47.458 I8.412 J2.647
X8.73 Y-43.092 I79.415 J3.491
G1 X8.724 Y-40.596
X8.715 Y-12.518
X8.717 Y-11.894
X8.76 Y-11.272
X8.938 Y-10.674
X9.269 Y-10.145
X9.721 Y-9.715
X10.253 Y-9.389
X10.832 Y-9.157
G2 X13.295 Y-8.792 I2.635 J-9.3
G1 X13.918 Y-8.764
X14.542 Y-8.748
X15.166 Y-8.739
G2 X20.781 Y-8.725 I4.131 J-541.145
G1 X65.705 Y-8.727
X107.509 Y-8.729
X108.133 Y-8.732
X108.756 Y-8.776
X109.353 Y-8.957
X109.88 Y-9.291
X110.308 Y-9.744
X110.632 Y-10.278
X110.863 Y-10.858
G2 X111.225 Y-13.32 I-9.378 J-2.636
G1 X111.253 Y-13.944
X111.268 Y-14.567
X111.278 Y-15.191
G2 X111.291 Y-20.807 I-544.553 J-4.124
G1 X111.29 Y-47.636
X111.283 Y-48.26
X111.214 Y-48.88
X110.997 Y-49.465
X110.632 Y-49.972
X110.157 Y-50.376
X109.61 Y-50.677
X109.024 Y-50.889
G2 X106.555 Y-51.217 I-2.63 J10.333
X102.188 Y-51.274 I-3.469 J99.462
G1 X99.068 Y-51.278
X95.325 Y-51.279
X44.785 Y-51.284
X12.964 Y-51.287
X12.34 Y-51.281
X11.72 Y-51.211
X11.135 Y-50.993
X10.63 Y-50.628
X10.227 Y-50.151
X9.926 Y-49.605
X9.714 Y-49.018
G2 X9.386 Y-46.549 I10.352 J2.633
X9.329 Y-42.182 I99.549 J3.492
G1 X9.324 Y-39.063
X9.322 Y-34.695
X9.315 Y-13.481
Y-12.857
X9.326 Y-12.233
X9.418 Y-11.616
X9.662 Y-11.042
X10.05 Y-10.553
X10.541 Y-10.167
X11.096 Y-9.883
X11.688 Y-9.685
G2 X14.16 Y-9.38 I2.623 J-11.113
X18.527 Y-9.329 I3.453 J-107.756
G1 X22.27 Y-9.325
X35.997 Y-9.326
X86.537 Y-9.328
X106.503 Y-9.329
X107.127
X107.751 Y-9.339
X108.369 Y-9.424
X108.947 Y-9.66
X109.441 Y-10.041
X109.831 Y-10.527
X110.121 Y-11.08
X110.323 Y-11.67
G2 X110.635 Y-14.141 I-10.862 J-2.625
X110.688 Y-18.508 I-105.048 J-3.452
G1 X110.691 Y-22.252
Y-37.227
X110.69 Y-46.586
X110.689 Y-47.21
X110.674 Y-47.834
X110.567 Y-48.448
X110.307 Y-49.015
X109.907 Y-49.494
X109.407 Y-49.868
X108.847 Y-50.142
X108.253 Y-50.333
G2 X105.779 Y-50.625 I-2.621 J11.608
X101.412 Y-50.674 I-3.467 J113.266
G1 X97.668 Y-50.678
X72.086 Y-50.681
X21.547 Y-50.687
X14.059 Y-50.688
X13.435 Y-50.687
X12.812 Y-50.674
X12.195 Y-50.577
X11.623 Y-50.327
X11.138 Y-49.935
X10.757 Y-49.441
X10.477 Y-48.883
X10.281 Y-48.291
G2 X9.98 Y-45.818 I11.278 J2.626
X9.928 Y-41.451 I109.789 J3.491
G1 X9.923 Y-37.707
X9.915 Y-13.998
X9.916 Y-13.374
X9.933 Y-12.75
X10.044 Y-12.136
X10.308 Y-11.571
X10.712 Y-11.095
X11.214 Y-10.724
X11.775 Y-10.453
X12.37 Y-10.264
G2 X14.845 Y-9.977 I2.616 J-11.741
X19.212 Y-9.929 I3.449 J-115.117
G1 X22.955 Y-9.925
X61.64 Y-9.927
X106.564 Y-9.929
X107.188 Y-9.941
X107.805 Y-10.034
X108.379 Y-10.279
X108.867 Y-10.667
X109.251 Y-11.159
X109.535 Y-11.715
X109.733 Y-12.306
X109.866 Y-12.916
X109.952 Y-13.534
G2 X110.081 Y-17.898 I-44.793 J-3.504
G1 X110.09 Y-19.146
X110.091 Y-22.889
X110.09 Y-46.599
X110.075 Y-47.223
X109.97 Y-47.838
X109.712 Y-48.406
X109.314 Y-48.887
X108.817 Y-49.263
X108.257 Y-49.54
X107.664 Y-49.732
G2 X105.19 Y-50.025 I-2.614 J11.5
X100.823 Y-50.074 I-3.469 J112.843
G1 X97.079 Y-50.078
X94.583 Y-50.079
X44.044 Y-50.084
X14.094 Y-50.087
X13.47 Y-50.078
X12.852 Y-49.995
X12.275 Y-49.758
X11.78 Y-49.379
X11.388 Y-48.893
X11.098 Y-48.341
X10.894 Y-47.751
G2 X10.583 Y-45.28 I10.875 J2.628
X10.528 Y-40.913 I105.109 J3.496
G1 X10.523 Y-37.793
X10.521 Y-31.553
X10.516 Y-14.083
X10.524 Y-13.459
X10.609 Y-12.841
X10.849 Y-12.265
X11.231 Y-11.772
X11.718 Y-11.381
X12.271 Y-11.093
X12.862 Y-10.891
G2 X15.333 Y-10.582 I2.625 J-10.941
X19.7 Y-10.529 I3.457 J-105.575
G1 X23.444 Y-10.525
X41.538 Y-10.526
X92.078 Y-10.528
X105.805 Y-10.529
X106.428 Y-10.533
X107.049 Y-10.596
X107.638 Y-10.803
X108.151 Y-11.158
X108.563 Y-11.627
X108.871 Y-12.169
X109.09 Y-12.753
G2 X109.429 Y-15.22 I-10.002 J-2.632
X109.487 Y-19.587 I-95.701 J-3.46
G1 X109.491 Y-22.707
X109.49 Y-45.169
Y-45.793
X109.485 Y-46.417
X109.421 Y-47.037
X109.214 Y-47.626
X108.858 Y-48.138
X108.389 Y-48.55
X107.846 Y-48.858
X107.261 Y-49.076
G2 X104.795 Y-49.415 I-2.635 J10.025
X100.428 Y-49.474 I-3.476 J95.754
G1 X97.308 Y-49.478
X61.743 Y-49.482
X14.947 Y-49.487
X14.323 Y-49.485
X13.701 Y-49.445
X13.101 Y-49.273
X12.569 Y-48.946
X12.135 Y-48.498
X11.805 Y-47.969
X11.569 Y-47.391
G2 X11.195 Y-44.931 I9.145 J2.648
X11.129 Y-40.564 I86.116 J3.499
G1 X11.123 Y-38.068
X11.116 Y-14.982
X11.118 Y-14.358
X11.151 Y-13.735
X11.314 Y-13.133
X11.632 Y-12.596
X12.075 Y-12.156
X12.601 Y-11.821
X13.177 Y-11.58
G2 X15.635 Y-11.197 I2.648 J-8.915
X20.002 Y-11.13 I3.469 J-83.53
G1 X22.498 Y-11.125
X26.242
X76.781 Y-11.127
X104.859 Y-11.128
X105.483 Y-11.13
X106.106 Y-11.148
X106.718 Y-11.268
X107.278 Y-11.545
X107.746 Y-11.956
X108.111 Y-12.463
X108.377 Y-13.027
X108.561 Y-13.623
G2 X108.841 Y-16.099 I-12.091 J-2.62
X108.888 Y-20.466 I-117.641 J-3.453
G1 X108.891 Y-24.21
Y-31.074
X108.89 Y-44.8
X108.889 Y-45.424
X108.873 Y-46.048
X108.762 Y-46.662
X108.496 Y-47.227
X108.093 Y-47.703
X107.592 Y-48.074
X107.03 Y-48.346
X106.436 Y-48.536
G2 X103.961 Y-48.825 I-2.624 J11.73
X99.594 Y-48.874 I-3.473 J113.767
G1 X95.851 Y-48.878
X74.636 Y-48.881
X24.097 Y-48.887
X15.362
X14.738 Y-48.879
X14.118 Y-48.808
X13.533 Y-48.59
X13.029 Y-48.222
X12.627 Y-47.745
X12.327 Y-47.198
X12.115 Y-46.611
G2 X11.786 Y-44.143 I10.354 J2.638
X11.728 Y-39.776 I98.936 J3.498
G1 X11.723 Y-36.656
X11.716 Y-15.442
X11.721 Y-14.818
X11.775 Y-14.197
X11.973 Y-13.605
X12.323 Y-13.088
X12.788 Y-12.673
X13.328 Y-12.36
X13.911 Y-12.138
X14.517 Y-11.987
X15.133 Y-11.889
X15.753 Y-11.826
G2 X20.743 Y-11.732 I3.857 J-72.72
G1 X23.863 Y-11.725
X66.291 Y-11.727
X104.352 Y-11.729
X104.976 Y-11.73
X105.599 Y-11.758
X106.206 Y-11.901
X106.754 Y-12.199
X107.208 Y-12.628
X107.556 Y-13.146
X107.809 Y-13.716
G2 X108.215 Y-16.17 I-8.411 J-2.652
X108.286 Y-20.537 I-78.64 J-3.467
G1 X108.291 Y-21.785
Y-33.016
X108.29 Y-44.247
X108.289 Y-44.871
X108.268 Y-45.494
X108.146 Y-46.106
X107.871 Y-46.666
X107.459 Y-47.135
X106.952 Y-47.498
X106.387 Y-47.764
X105.791 Y-47.948
G2 X103.315 Y-48.227 I-2.617 J12.083
X98.948 Y-48.275 I-3.471 J118.734
G1 X95.204 Y-48.279
X82.725 Y-48.28
X32.186 Y-48.286
X15.963 Y-48.287
X15.339 Y-48.28
X14.719 Y-48.211
X14.135 Y-47.991
X13.63 Y-47.625
X13.227 Y-47.149
X12.927 Y-46.602
X12.715 Y-46.015
G2 X12.385 Y-43.547 I10.303 J2.629
X12.328 Y-39.18 I99.383 J3.499
G1 X12.323 Y-36.06
X12.316 Y-16.094
X12.318 Y-15.47
X12.366 Y-14.848
X12.553 Y-14.253
X12.89 Y-13.727
X13.346 Y-13.302
X13.881 Y-12.98
X14.461 Y-12.751
G2 X16.924 Y-12.392 I2.637 J-9.466
X21.291 Y-12.33 I3.467 J-89.816
G1 X23.787 Y-12.325
X60.6 Y-12.327
X103.652 Y-12.328
X104.276 Y-12.329
X104.9 Y-12.347
X105.512 Y-12.467
X106.072 Y-12.742
X106.543 Y-13.152
X106.909 Y-13.657
X107.176 Y-14.221
X107.361 Y-14.817
G2 X107.641 Y-17.293 I-12.082 J-2.619
X107.688 Y-21.66 I-117.4 J-3.455
G1 X107.691 Y-25.403
X107.69 Y-44.122
X107.681 Y-44.746
X107.594 Y-45.363
X107.352 Y-45.939
X106.969 Y-46.431
X106.481 Y-46.821
X105.928 Y-47.109
X105.337 Y-47.31
G2 X102.866 Y-47.621 I-2.63 J10.949
X98.499 Y-47.674 I-3.477 J105.325
G1 X95.379 Y-47.678
X86.02 Y-47.68
X35.481 Y-47.685
X16.762 Y-47.687
X16.138 Y-47.685
X15.515 Y-47.646
X14.915 Y-47.477
X14.381 Y-47.154
X13.944 Y-46.708
X13.612 Y-46.18
X13.374 Y-45.604
G2 X12.996 Y-43.144 I9.047 J2.648
X12.928 Y-38.777 I85.059 J3.502
G1 X12.923 Y-36.281
X12.917 Y-18.187
X12.916 Y-16.939
X12.917 Y-16.315
X12.933 Y-15.692
X13.057 Y-15.08
X13.339 Y-14.523
X13.754 Y-14.058
X14.263 Y-13.696
X14.829 Y-13.433
X15.425 Y-13.251
G2 X17.902 Y-12.975 I2.621 J-12.28
X22.269 Y-12.929 I3.459 J-119.082
G1 X26.013 Y-12.925
X59.706 Y-12.927
X103.382 Y-12.929
X104.006 Y-12.934
X104.627 Y-12.993
X105.218 Y-13.194
X105.733 Y-13.545
X106.148 Y-14.011
X106.46 Y-14.552
X106.681 Y-15.135
G2 X107.027 Y-17.601 I-9.857 J-2.64
X107.087 Y-21.968 I-93.272 J-3.466
G1 X107.091 Y-25.087
X107.09 Y-43.182
X107.088 Y-43.806
X107.06 Y-44.429
X106.906 Y-45.034
X106.595 Y-45.575
X106.159 Y-46.02
X105.637 Y-46.362
X105.063 Y-46.608
G2 X102.607 Y-47.003 I-2.655 J8.684
X98.24 Y-47.073 I-3.485 J80.823
G1 X95.744 Y-47.078
X84.513 Y-47.08
X33.974 Y-47.085
X17.127 Y-47.087
X16.503 Y-47.078
X15.884 Y-46.999
X15.304 Y-46.771
X14.805 Y-46.397
X14.408 Y-45.915
X14.113 Y-45.365
X13.906 Y-44.776
G2 X13.584 Y-42.307 I10.601 J2.638
X13.527 Y-37.94 I101.278 J3.501
G1 X13.522 Y-34.82
X13.517 Y-17.35
X13.519 Y-16.726
X13.555 Y-16.103
X13.726 Y-15.503
X14.053 Y-14.971
X14.501 Y-14.537
X15.031 Y-14.208
X15.608 Y-13.971
G2 X18.068 Y-13.596 I2.649 J-9.106
X22.435 Y-13.53 I3.47 J-85.328
G1 X24.931 Y-13.525
X63.616 Y-13.527
X102.3 Y-13.528
X102.924 Y-13.529
X103.548 Y-13.54
X104.166 Y-13.626
X104.744 Y-13.862
X105.237 Y-14.244
X105.628 Y-14.73
X105.917 Y-15.283
X106.12 Y-15.873
G2 X106.434 Y-18.344 I-10.834 J-2.631
X106.487 Y-22.711 I-103.981 J-3.46
G1 X106.491 Y-25.831
X106.49 Y-42.677
X106.487 Y-43.301
X106.446 Y-43.924
X106.267 Y-44.522
X105.935 Y-45.05
X105.483 Y-45.48
X104.951 Y-45.806
X104.372 Y-46.039
G2 X101.911 Y-46.409 I-2.647 J9.244
X97.544 Y-46.474 I-3.48 J87.129
G1 X95.048 Y-46.478
X78.202 Y-46.48
X27.662 Y-46.486
X17.679 Y-46.487
X17.055 Y-46.475
X16.438 Y-46.387
X15.862 Y-46.147
X15.37 Y-45.763
X14.981 Y-45.275
X14.694 Y-44.721
X14.492 Y-44.131
G2 X14.181 Y-41.659 I10.925 J2.63
X14.127 Y-37.292 I105.787 J3.499
G1 X14.122 Y-34.173
X14.117 Y-17.95
X14.118 Y-17.326
X14.157 Y-16.703
X14.33 Y-16.104
X14.654 Y-15.571
X15.102 Y-15.136
X15.631 Y-14.806
X16.209 Y-14.57
G2 X18.669 Y-14.195 I2.639 J-9.072
X21.788 Y-14.132 I2.765 J-59.774
G1 X23.036 Y-14.127
X25.532 Y-14.125
X72.327 Y-14.127
X102.277 Y-14.129
X102.901 Y-14.136
X103.52 Y-14.21
X104.101 Y-14.438
X104.604 Y-14.808
X105.003 Y-15.287
X105.3 Y-15.836
X105.509 Y-16.424
G2 X105.832 Y-18.893 I-10.52 J-2.63
X105.887 Y-23.26 I-100.722 J-3.464
G1 X105.891 Y-26.38
Y-32.619
X105.89 Y-41.979
X105.889 Y-42.602
X105.858 Y-43.226
X105.703 Y-43.83
X105.395 Y-44.373
X104.96 Y-44.82
X104.439 Y-45.163
X103.866 Y-45.41
G2 X101.409 Y-45.803 I-2.65 J8.682
X97.042 Y-45.873 I-3.486 J81.138
G1 X94.547 Y-45.878
X67.093 Y-45.882
X18.425 Y-45.887
X17.801 Y-45.882
X17.18 Y-45.821
X16.591 Y-45.616
X16.077 Y-45.263
X15.663 Y-44.796
X15.352 Y-44.255
X15.132 Y-43.671
G2 X14.788 Y-41.205 I9.926 J2.641
X14.727 Y-36.839 I94.317 J3.502
G1 X14.722 Y-33.719
X14.717 Y-18.744
Y-18.12
X14.734 Y-17.497
X14.857 Y-16.885
X15.138 Y-16.328
X15.552 Y-15.861
X16.06 Y-15.499
X16.625 Y-15.235
X17.222 Y-15.052
G2 X19.698 Y-14.776 I2.62 J-12.24
X24.065 Y-14.729 I3.46 J-118.766
G1 X27.809 Y-14.725
X35.296 Y-14.726
X85.836 Y-14.728
X101.434
X102.058 Y-14.731
X102.681 Y-14.766
X103.283 Y-14.93
X103.82 Y-15.249
X104.26 Y-15.692
X104.595 Y-16.218
X104.836 Y-16.793
G2 X105.219 Y-19.252 I-8.926 J-2.649
X105.286 Y-23.619 I-83.394 J-3.473
G1 X105.291 Y-26.115
X105.29 Y-41.713
X105.281 Y-42.337
X105.194 Y-42.955
X104.955 Y-43.532
X104.573 Y-44.025
X104.087 Y-44.416
X103.534 Y-44.705
X102.944 Y-44.907
X102.335 Y-45.043
X101.717 Y-45.132
G2 X97.978 Y-45.266 I-3.203 J37.063
G1 X97.354 Y-45.274
X96.106 Y-45.277
X92.986 Y-45.279
X51.182 Y-45.283
X19.36 Y-45.287
X18.737 Y-45.286
X18.113 Y-45.268
X17.501 Y-45.147
X16.942 Y-44.87
X16.473 Y-44.459
X16.108 Y-43.952
X15.842 Y-43.388
X15.657 Y-42.792
G2 X15.375 Y-40.317 I12.078 J2.628
X15.326 Y-35.949 I116.861 J3.503
G1 X15.321 Y-32.206
X15.32 Y-29.086
X15.317 Y-19.103
X15.32 Y-18.479
X15.365 Y-17.857
X15.548 Y-17.26
X15.885 Y-16.735
X16.341 Y-16.309
X16.875 Y-15.987
X17.455 Y-15.757
G2 X19.918 Y-15.393 I2.646 J-9.406
X24.284 Y-15.33 I3.471 J-88.399
G1 X26.78 Y-15.326
X53.61
X101.03 Y-15.329
X101.653 Y-15.336
X102.274 Y-15.402
X102.861 Y-15.615
X103.369 Y-15.977
X103.775 Y-16.451
X104.079 Y-16.996
X104.294 Y-17.581
G2 X104.629 Y-20.049 I-10.17 J-2.639
X104.687 Y-24.416 I-96.503 J-3.466
G1 X104.691 Y-27.535
X104.69 Y-40.638
X104.689 Y-41.262
X104.67 Y-41.886
X104.549 Y-42.498
X104.275 Y-43.058
X103.864 Y-43.528
X103.358 Y-43.893
X102.794 Y-44.159
X102.198 Y-44.345
G2 X99.722 Y-44.627 I-2.624 J12.028
X95.355 Y-44.675 I-3.477 J116.686
G1 X91.612 Y-44.679
X81.004 Y-44.68
X30.465 Y-44.686
X19.858 Y-44.687
X19.234 Y-44.685
X18.611 Y-44.657
X18.004 Y-44.511
X17.457 Y-44.21
X17.005 Y-43.78
X16.658 Y-43.262
X16.406 Y-42.691
G2 X16.001 Y-40.236 I8.459 J2.658
X15.928 Y-35.87 I78.794 J3.501
G1 X15.922 Y-33.374
X15.917 Y-19.647
X15.922 Y-19.023
X15.974 Y-18.402
X16.173 Y-17.81
X16.521 Y-17.293
X16.986 Y-16.876
X17.525 Y-16.562
X18.108 Y-16.34
G2 X20.573 Y-15.99 I2.639 J-9.741
X26.187 Y-15.928 I4.33 J-136.697
G1 X44.282 Y-15.926
X76.727 Y-15.927
X100.437 Y-15.928
X101.061 Y-15.935
X101.681 Y-16.001
X102.267 Y-16.218
X102.774 Y-16.58
X103.18 Y-17.055
X103.483 Y-17.6
X103.697 Y-18.186
G2 X104.03 Y-20.654 I-10.18 J-2.629
X104.087 Y-25.021 I-97.77 J-3.465
G1 X104.091 Y-28.14
X104.09 Y-39.995
Y-40.619
X104.073 Y-41.243
X103.963 Y-41.857
X103.698 Y-42.422
X103.297 Y-42.9
X102.797 Y-43.273
X102.236 Y-43.546
X101.641 Y-43.736
G2 X99.167 Y-44.025 I-2.623 J11.722
X94.8 Y-44.075 I-3.479 J113.511
G1 X91.056 Y-44.079
X55.491 Y-44.083
X20.55 Y-44.087
X19.926 Y-44.086
X19.303 Y-44.066
X18.691 Y-43.943
X18.133 Y-43.664
X17.665 Y-43.251
X17.301 Y-42.745
X17.036 Y-42.18
X16.853 Y-41.583
G2 X16.574 Y-39.107 I12.208 J2.625
X16.526 Y-34.74 I118.34 J3.504
G1 X16.521 Y-30.996
X16.517 Y-20.389
X16.519 Y-19.765
X16.554 Y-19.142
X16.716 Y-18.54
X17.033 Y-18.002
X17.474 Y-17.561
X17.999 Y-17.224
X18.574 Y-16.982
G2 X21.033 Y-16.598 I2.648 J-8.883
X25.399 Y-16.53 I3.473 J-83.247
G1 X27.895 Y-16.526
X54.101
X99.649 Y-16.528
X100.273 Y-16.531
X100.895 Y-16.569
X101.496 Y-16.737
X102.031 Y-17.059
X102.468 Y-17.504
X102.802 Y-18.031
X103.041 Y-18.608
X103.204 Y-19.21
G2 X103.461 Y-22.314 I-16.333 J-2.915
X103.491 Y-27.93 I-240.127 J-4.089
G1 X103.49 Y-39.784
X103.485 Y-40.408
X103.422 Y-41.029
X103.216 Y-41.618
X102.861 Y-42.131
X102.393 Y-42.544
X101.851 Y-42.853
X101.267 Y-43.072
G2 X98.8 Y-43.414 I-2.641 J9.978
X94.434 Y-43.474 I-3.484 J94.433
G1 X91.314 Y-43.479
X75.715 Y-43.481
X25.176 Y-43.486
X20.808 Y-43.487
X20.184 Y-43.481
X19.564 Y-43.416
X18.975 Y-43.208
X18.464 Y-42.851
X18.053 Y-42.381
X17.746 Y-41.838
X17.528 Y-41.254
G2 X17.187 Y-38.787 I10.042 J2.644
X17.126 Y-34.42 I94.974 J3.504
G1 X17.121 Y-31.301
X17.118 Y-20.693
X17.127 Y-20.07
X17.213 Y-19.452
X17.45 Y-18.874
X17.831 Y-18.38
X18.317 Y-17.989
X18.87 Y-17.7
X19.46 Y-17.497
G2 X21.931 Y-17.183 I2.633 J-10.852
X26.298 Y-17.129 I3.465 J-103.746
G1 X29.418 Y-17.126
X36.281
X86.821 Y-17.128
X99.3 Y-17.129
X99.923 Y-17.138
X100.542 Y-17.219
X101.122 Y-17.45
X101.619 Y-17.827
X102.014 Y-18.31
X102.307 Y-18.861
X102.513 Y-19.45
G2 X102.832 Y-21.92 I-10.673 J-2.634
X102.887 Y-26.287 I-101.769 J-3.465
G1 X102.891 Y-29.407
X102.89 Y-38.766
X102.889 Y-39.39
X102.875 Y-40.014
X102.771 Y-40.629
X102.513 Y-41.197
X102.116 Y-41.678
X101.619 Y-42.056
X101.06 Y-42.333
X100.467 Y-42.527
G2 X97.994 Y-42.824 I-2.63 J11.453
X91.131 Y-42.875 I-4.862 J189.212
G1 X40.591 Y-42.885
X21.873 Y-42.887
X21.249 Y-42.886
X20.625 Y-42.873
X20.009 Y-42.777
X19.436 Y-42.53
X18.949 Y-42.139
X18.566 Y-41.647
X18.283 Y-41.091
X18.085 Y-40.499
G2 X17.779 Y-38.027 I11.164 J2.634
X17.726 Y-33.66 I107.196 J3.502
G1 X17.721 Y-30.54
X17.718 Y-21.805
X17.719 Y-21.181
X17.735 Y-20.557
X17.846 Y-19.943
X18.11 Y-19.378
X18.514 Y-18.902
X19.015 Y-18.53
X19.576 Y-18.258
X20.17 Y-18.068
G2 X22.645 Y-17.778 I2.623 J-11.692
G1 X23.268 Y-17.756
G2 X30.756 Y-17.726 I5.26 J-377.005
G1 X73.808 Y-17.727
X98.142 Y-17.728
X98.766 Y-17.729
X99.389 Y-17.742
X100.006 Y-17.837
X100.579 Y-18.084
X101.066 Y-18.473
X101.45 Y-18.966
X101.733 Y-19.522
X101.931 Y-20.113
G2 X102.235 Y-22.586 I-11.138 J-2.627
X102.287 Y-26.953 I-107.577 J-3.459
G1 X102.291 Y-30.696
X102.29 Y-38.184
Y-38.808
X102.273 Y-39.431
X102.165 Y-40.046
X101.904 Y-40.613
X101.504 Y-41.091
X101.005 Y-41.466
X100.445 Y-41.741
X99.851 Y-41.932
G2 X97.377 Y-42.225 I-2.62 J11.551
X93.01 Y-42.275 I-3.479 J112.603
G1 X89.266 Y-42.279
X51.206 Y-42.283
X21.88 Y-42.286
X21.256 Y-42.276
X20.639 Y-42.188
X20.063 Y-41.946
X19.57 Y-41.564
X19.181 Y-41.076
X18.893 Y-40.523
X18.691 Y-39.932
G2 X18.38 Y-37.461 I10.94 J2.63
X18.326 Y-33.094 I105.234 J3.504
G1 X18.321 Y-29.974
X18.318 Y-23.111
Y-21.863
X18.329 Y-21.239
X18.419 Y-20.622
X18.666 Y-20.049
X19.052 Y-19.559
X19.542 Y-19.172
X20.096 Y-18.886
X20.688 Y-18.687
G2 X23.16 Y-18.382 I2.628 J-11.11
X27.527 Y-18.329 I3.464 J-106.639
G1 X30.647 Y-18.326
X65.587 Y-18.327
X98.033 Y-18.328
X98.657 Y-18.334
X99.277 Y-18.402
X99.862 Y-18.618
X100.37 Y-18.98
X100.777 Y-19.453
X101.081 Y-19.998
X101.296 Y-20.584
G2 X101.629 Y-23.052 I-10.212 J-2.636
X101.687 Y-27.419 I-97.095 J-3.466
G1 X101.691 Y-30.538
Y-34.282
X101.69 Y-38.026
X101.684 Y-38.65
X101.614 Y-39.27
X101.396 Y-39.854
X101.033 Y-40.361
X100.559 Y-40.767
X100.013 Y-41.07
X99.427 Y-41.284
G2 X96.959 Y-41.616 I-2.637 J10.248
X92.592 Y-41.675 I-3.483 J97.516
G1 X89.472 Y-41.679
X57.027 Y-41.683
X22.71 Y-41.687
X22.086 Y-41.683
X21.464 Y-41.636
X20.868 Y-41.453
X20.341 Y-41.119
X19.913 Y-40.665
X19.589 Y-40.132
X19.357 Y-39.552
G2 X18.992 Y-37.09 I9.366 J2.649
X18.926 Y-32.723 I87.957 J3.506
G1 X18.921 Y-30.228
X18.92 Y-27.732
X18.918 Y-22.74
X18.921 Y-22.116
X18.963 Y-21.494
X19.137 Y-20.895
X19.465 Y-20.364
X19.915 Y-19.931
X20.445 Y-19.603
X21.023 Y-19.368
G2 X23.484 Y-18.996 I2.648 J-9.185
X27.851 Y-18.93 I3.474 J-85.965
G1 X30.347 Y-18.926
X62.168 Y-18.927
X97.109 Y-18.928
X97.733 Y-18.93
X98.356 Y-18.951
X98.966 Y-19.084
X99.518 Y-19.374
X99.978 Y-19.796
X100.334 Y-20.308
X100.592 Y-20.876
G2 X101.011 Y-23.328 I-8.197 J-2.66
X101.085 Y-27.694 I-75.588 J-3.477
G1 X101.091 Y-30.19
Y-32.062
X101.09 Y-37.054
X101.089 Y-37.677
X101.07 Y-38.301
X100.946 Y-38.913
X100.666 Y-39.47
X100.252 Y-39.937
X99.744 Y-40.3
X99.179 Y-40.565
X98.583 Y-40.748
G2 X96.107 Y-41.027 I-2.625 J12.161
X91.74 Y-41.075 I-3.48 J117.634
G1 X87.996 Y-41.079
X58.047 Y-41.083
X23.73 Y-41.087
X23.106 Y-41.086
X22.482 Y-41.076
X21.864 Y-40.992
X21.285 Y-40.759
X20.789 Y-40.38
X20.396 Y-39.895
X20.105 Y-39.344
X19.899 Y-38.754
G2 X19.581 Y-36.284 I10.741 J2.638
X19.525 Y-31.917 I102.491 J3.504
G1 X19.52 Y-28.798
Y-27.55
X19.519 Y-23.182
X19.526 Y-22.558
X19.593 Y-21.938
X19.806 Y-21.351
X20.17 Y-20.844
X20.644 Y-20.439
X21.19 Y-20.136
X21.776 Y-19.922
G2 X24.243 Y-19.587 I2.638 J-10.202
X28.61 Y-19.53 I3.467 J-96.896
G1 X31.73 Y-19.526
X63.551 Y-19.527
X96.62 Y-19.528
X97.244 Y-19.531
X97.867 Y-19.565
X98.47 Y-19.726
X99.008 Y-20.041
X99.45 Y-20.482
X99.787 Y-21.007
X100.03 Y-21.582
G2 X100.418 Y-24.04 I-8.816 J-2.652
X100.486 Y-28.406 I-82.387 J-3.471
G1 X100.491 Y-30.902
Y-34.646
X100.49 Y-36.518
X100.489 Y-37.142
X100.462 Y-37.765
X100.322 Y-38.373
X100.029 Y-38.924
X99.604 Y-39.38
X99.088 Y-39.732
X98.519 Y-39.988
G2 X96.066 Y-40.4 I-2.657 J8.301
X91.7 Y-40.474 I-3.485 J77.233
G1 X89.204 Y-40.479
X54.263 Y-40.483
X23.69 Y-40.486
X23.066 Y-40.475
X22.448 Y-40.389
X21.871 Y-40.151
X21.377 Y-39.77
X20.986 Y-39.283
X20.697 Y-38.731
X20.494 Y-38.141
G2 X20.18 Y-35.67 I10.816 J2.629
X20.125 Y-31.303 I104.606 J3.503
G1 X20.12 Y-28.183
X20.119 Y-23.816
X20.123 Y-23.192
X20.184 Y-22.571
X20.392 Y-21.982
X20.746 Y-21.469
X21.215 Y-21.057
X21.757 Y-20.748
X22.341 Y-20.529
G2 X24.808 Y-20.189 I2.633 J-9.973
X29.174 Y-20.13 I3.469 J-95.03
G1 X32.294 Y-20.126
X69.731 Y-20.127
X95.937 Y-20.128
X96.561 Y-20.129
X97.184 Y-20.155
X97.792 Y-20.297
X98.341 Y-20.592
X98.798 Y-21.017
X99.15 Y-21.532
X99.405 Y-22.102
G2 X99.813 Y-24.556 I-8.362 J-2.653
X99.886 Y-28.922 I-77.726 J-3.476
X99.881 Y-37.033 I-636.444 J-3.693
G1 X99.769 Y-37.648
X99.505 Y-38.213
X99.104 Y-38.692
X98.606 Y-39.067
X98.045 Y-39.342
X97.451 Y-39.533
X96.841 Y-39.66
X96.222 Y-39.743
G2 X91.858 Y-39.868 I-3.524 J46.635
G1 X90.61 Y-39.878
X86.867 Y-39.879
X45.686 Y-39.884
X24.472 Y-39.886
X23.848 Y-39.882
X23.226 Y-39.829
X22.633 Y-39.636
X22.112 Y-39.293
X21.69 Y-38.834
X21.372 Y-38.297
X21.145 Y-37.715
G2 X20.789 Y-35.252 I9.599 J2.645
X20.725 Y-30.885 I90.641 J3.505
G1 X20.72 Y-28.389
X20.719 Y-24.646
X20.72 Y-24.022
X20.748 Y-23.398
X20.895 Y-22.792
X21.2 Y-22.247
X21.632 Y-21.797
X22.151 Y-21.451
X22.723 Y-21.202
G2 X25.178 Y-20.802 I2.653 J-8.554
X30.169 Y-20.731 I3.788 J-91.229
G1 X34.537 Y-20.726
X80.708 Y-20.727
X95.683 Y-20.728
X96.307 Y-20.736
X96.926 Y-20.815
X97.507 Y-21.043
X98.007 Y-21.416
X98.405 Y-21.896
X98.701 Y-22.446
X98.909 Y-23.034
G2 X99.231 Y-25.503 I-10.574 J-2.636
X99.287 Y-29.87 I-100.573 J-3.467
G1 X99.291 Y-32.99
X99.29 Y-35.486
X99.287 Y-36.11
X99.242 Y-36.732
X99.061 Y-37.329
X98.727 Y-37.856
X98.274 Y-38.285
X97.741 Y-38.609
X97.162 Y-38.841
G2 X94.7 Y-39.209 I-2.65 J9.318
X90.333 Y-39.274 I-3.486 J87.23
G1 X87.837 Y-39.279
X82.846 Y-39.28
X32.306 Y-39.286
X25.443
X24.819
X24.195 Y-39.272
X23.58 Y-39.169
X23.011 Y-38.913
X22.528 Y-38.517
X22.15 Y-38.022
X21.871 Y-37.463
X21.676 Y-36.871
G2 X21.377 Y-34.397 I11.395 J2.633
X21.324 Y-30.03 I109.416 J3.505
G1 X21.319 Y-26.287
Y-25.039
X21.325 Y-24.415
X21.381 Y-23.794
X21.58 Y-23.202
X21.931 Y-22.687
X22.397 Y-22.272
X22.938 Y-21.96
X23.521 Y-21.738
G2 X25.986 Y-21.391 I2.643 J-9.823
X30.353 Y-21.33 I3.47 J-92.713
G1 X33.473 Y-21.326
X45.952
X94.619 Y-21.328
X95.243 Y-21.329
X95.867 Y-21.347
X96.481 Y-21.46
X97.045 Y-21.727
X97.519 Y-22.132
X97.89 Y-22.634
X98.161 Y-23.196
X98.35 Y-23.79
G2 X98.638 Y-26.265 I-11.765 J-2.625
X98.687 Y-30.632 I-113.634 J-3.46
G1 X98.691 Y-34.376
X98.69 Y-35
X98.683 Y-35.624
X98.621 Y-36.244
X98.412 Y-36.832
X98.053 Y-37.343
X97.582 Y-37.752
X97.038 Y-38.058
X96.453 Y-38.275
G2 X93.987 Y-38.615 I-2.641 J10.042
X89.62 Y-38.675 I-3.481 J95.292
G1 X86.5 Y-38.679
X64.662 Y-38.682
X25.977 Y-38.686
X25.353 Y-38.685
X24.73 Y-38.666
X24.117 Y-38.548
X23.555 Y-38.278
X23.083 Y-37.87
X22.715 Y-37.366
X22.446 Y-36.803
X22.259 Y-36.208
G2 X21.974 Y-33.732 I11.892 J2.626
X21.924 Y-29.365 I115.66 J3.501
G1 X21.919 Y-26.246
Y-25.622
X21.925 Y-24.998
X21.983 Y-24.377
X22.188 Y-23.787
X22.542 Y-23.273
X23.01 Y-22.861
X23.552 Y-22.552
X24.136 Y-22.332
G2 X26.602 Y-21.989 I2.634 J-9.898
X30.969 Y-21.93 I3.468 J-94.734
G1 X34.089 Y-21.926
X66.534 Y-21.927
X93.987 Y-21.928
X94.611 Y-21.929
X95.235 Y-21.944
X95.85 Y-22.049
X96.417 Y-22.309
X96.898 Y-22.707
X97.275 Y-23.204
X97.551 Y-23.764
X97.744 Y-24.357
G2 X98.037 Y-26.831 I-11.535 J-2.622
X98.087 Y-31.198 I-111.552 J-3.462
G1 X98.09 Y-34.318
X98.087 Y-34.942
X98.037 Y-35.564
X97.846 Y-36.158
X97.507 Y-36.681
X97.049 Y-37.106
X96.514 Y-37.426
X95.933 Y-37.654
G2 X93.47 Y-38.011 I-2.643 J9.542
G1 X92.846 Y-38.04
X92.222 Y-38.055
G2 X86.607 Y-38.079 I-4.281 J343.01
G1 X41.683 Y-38.085
X26.084 Y-38.086
X25.46 Y-38.078
X24.843 Y-37.991
X24.267 Y-37.75
X23.774 Y-37.367
X23.383 Y-36.881
X23.094 Y-36.328
X22.892 Y-35.738
G2 X22.579 Y-33.267 I10.913 J2.635
X22.523 Y-26.404 I179.052 J4.899
G1 X22.521 Y-25.78
X22.554 Y-25.157
X22.713 Y-24.553
X23.027 Y-24.014
X23.466 Y-23.57
X23.99 Y-23.231
X24.564 Y-22.988
G2 X27.022 Y-22.599 I2.649 J-8.792
X31.388 Y-22.531 I3.475 J-82.215
G1 X33.884 Y-22.526
X41.371
X91.911 Y-22.528
X93.783
X94.407 Y-22.533
X95.028 Y-22.594
X95.618 Y-22.796
X96.133 Y-23.148
X96.548 Y-23.614
X96.86 Y-24.154
X97.081 Y-24.738
G2 X97.426 Y-27.204 I-9.873 J-2.64
X97.474 Y-34.69 I-154.536 J-4.73
G1 X97.353 Y-35.302
X97.076 Y-35.861
X96.664 Y-36.33
X96.158 Y-36.695
X95.594 Y-36.961
X94.998 Y-37.146
G2 X92.522 Y-37.427 I-2.627 J12.092
X88.155 Y-37.476 I-3.481 J116.545
G1 X84.411 Y-37.48
X64.445 Y-37.482
X27.008 Y-37.486
X26.384 Y-37.484
X25.761 Y-37.454
X25.157 Y-37.297
X24.618 Y-36.984
X24.174 Y-36.545
X23.834 Y-36.022
X23.589 Y-35.448
G2 X23.196 Y-32.991 I8.749 J2.658
X23.125 Y-28.625 I81.221 J3.506
G1 X23.12 Y-27.377
Y-26.753
X23.128 Y-26.129
X23.202 Y-25.509
X23.424 Y-24.926
X23.793 Y-24.423
X24.271 Y-24.022
X24.819 Y-23.724
X25.406 Y-23.513
G2 X27.875 Y-23.186 I2.637 J-10.419
X32.242 Y-23.13 I3.468 J-99.083
G1 X35.362 Y-23.126
X71.551 Y-23.127
X92.765 Y-23.128
X93.389 Y-23.129
X94.012 Y-23.143
X94.628 Y-23.244
X95.198 Y-23.498
X95.682 Y-23.892
X96.061 Y-24.388
X96.341 Y-24.945
X96.536 Y-25.538
G2 X96.836 Y-28.011 I-11.339 J-2.629
X96.886 Y-33.626 I-153.121 J-4.185
G1 X96.855 Y-34.249
X96.696 Y-34.852
X96.381 Y-35.391
X95.941 Y-35.833
X95.417 Y-36.171
X94.842 Y-36.415
G2 X92.385 Y-36.805 I-2.655 J8.795
X88.018 Y-36.874 I-3.487 J81.919
G1 X85.523 Y-36.879
X82.403 Y-36.88
X31.863 Y-36.886
X27.496
X26.872 Y-36.882
X26.249 Y-36.837
X25.654 Y-36.651
X25.129 Y-36.313
X24.705 Y-35.856
X24.383 Y-35.321
X24.153 Y-34.741
G2 X23.79 Y-32.279 I9.419 J2.65
X23.733 Y-26.664 I103.375 J3.851
G1 X23.818 Y-26.046
X24.056 Y-25.469
X24.438 Y-24.976
X24.925 Y-24.587
X25.478 Y-24.298
X26.069 Y-24.095
G2 X28.539 Y-23.783 I2.629 J-10.86
X32.906 Y-23.73 I3.461 J-104.593
G1 X36.026 Y-23.726
X55.992
X92.181 Y-23.728
X92.805 Y-23.729
X93.429 Y-23.744
X94.044 Y-23.849
X94.612 Y-24.106
X95.094 Y-24.503
X95.471 Y-25
X95.748 Y-25.559
X95.941 Y-26.153
G2 X96.237 Y-28.626 I-11.427 J-2.62
X96.285 Y-32.993 I-107.337 J-3.375
G1 X96.258 Y-33.616
X96.105 Y-34.222
X95.8 Y-34.766
X95.367 Y-35.214
X94.846 Y-35.558
X94.274 Y-35.807
G2 X91.818 Y-36.204 I-2.646 J8.582
X87.451 Y-36.274 I-3.488 J80.523
G1 X84.955 Y-36.279
X45.023 Y-36.284
X28.176 Y-36.286
X27.552 Y-36.284
X26.929 Y-36.247
X26.328 Y-36.081
X25.792 Y-35.762
X25.351 Y-35.32
X25.016 Y-34.794
X24.775 Y-34.218
G2 X24.394 Y-31.759 I8.958 J2.651
X24.329 Y-27.393 I77.434 J3.325
G1 X24.388 Y-26.772
X24.596 Y-26.183
X24.95 Y-25.67
X25.419 Y-25.258
X25.961 Y-24.949
X26.545 Y-24.73
G2 X29.011 Y-24.389 I2.637 J-9.992
X33.378 Y-24.33 I3.468 J-94.829
G1 X36.498 Y-24.326
X45.233
X92.029 Y-24.328
X92.653 Y-24.334
X93.273 Y-24.403
X93.859 Y-24.618
X94.367 Y-24.979
X94.775 Y-25.452
X95.079 Y-25.997
X95.294 Y-26.582
G2 X95.628 Y-29.05 I-10.18 J-2.636
X95.677 Y-32.793 I-65.406 J-2.717
G1 X95.579 Y-33.409
X95.326 Y-33.979
X94.934 Y-34.464
X94.44 Y-34.846
X93.883 Y-35.127
X93.291 Y-35.323
G2 X90.818 Y-35.623 I-2.631 J11.317
X86.451 Y-35.676 I-3.483 J108.537
G1 X83.331 Y-35.68
X53.382 Y-35.683
X29.048 Y-35.686
X28.424 Y-35.685
X27.8 Y-35.674
X27.184 Y-35.574
X26.614 Y-35.319
X26.131 Y-34.925
X25.751 Y-34.43
X25.471 Y-33.872
X25.276 Y-33.28
G2 X24.976 Y-30.807 I11.376 J2.634
X24.943 Y-27.688 I46.617 J2.061
G1 X25.07 Y-27.076
X25.353 Y-26.52
X25.769 Y-26.056
X26.279 Y-25.695
X26.845 Y-25.433
X27.442 Y-25.251
G2 X29.918 Y-24.976 I2.622 J-12.304
X34.285 Y-24.929 I3.461 J-119.128
G1 X38.029 Y-24.926
X39.277
X89.816 Y-24.928
X91.064
X91.688 Y-24.929
X92.312 Y-24.949
X92.924 Y-25.072
X93.482 Y-25.351
X93.949 Y-25.765
X94.312 Y-26.272
X94.577 Y-26.837
X94.76 Y-27.434
G2 X95.04 Y-29.909 I-12.144 J-2.624
X95.057 Y-32.404 I-29.223 J-1.451
G1 X94.908 Y-33.011
X94.604 Y-33.556
X94.172 Y-34.006
X93.653 Y-34.351
X93.081 Y-34.601
G2 X90.626 Y-35.002 I-2.657 J8.543
X86.259 Y-35.074 I-3.488 J79.304
G1 X83.763 Y-35.08
X56.934 Y-35.083
X29.48 Y-35.086
X28.856 Y-35.084
X28.233 Y-35.059
X27.625 Y-34.92
X27.075 Y-34.625
X26.619 Y-34.199
X26.267 Y-33.683
X26.012 Y-33.114
G2 X25.6 Y-30.661 I8.329 J2.661
X25.563 Y-28.167 I22.024 J1.572
G1 X25.72 Y-27.562
X26.03 Y-27.021
X26.468 Y-26.576
X26.991 Y-26.236
X27.565 Y-25.991
G2 X30.022 Y-25.6 I2.651 J-8.726
X34.388 Y-25.531 I3.472 J-81.584
G1 X36.884 Y-25.526
X38.132
X88.672 Y-25.528
X90.544
X91.168 Y-25.53
X91.791 Y-25.557
X92.398 Y-25.701
X92.947 Y-25.997
X93.401 Y-26.425
X93.751 Y-26.942
X94.004 Y-27.512
G2 X94.413 Y-29.966 I-8.374 J-2.655
G1 X94.446 Y-30.589
X94.461 Y-31.213
X94.438 Y-31.836
X94.285 Y-32.441
X93.977 Y-32.983
X93.539 Y-33.429
X93.016 Y-33.769
X92.443 Y-34.014
G2 X89.986 Y-34.405 I-2.648 J8.716
X85.619 Y-34.475 I-3.484 J82.194
G1 X83.123 Y-34.48
X55.67 Y-34.483
X30.088 Y-34.486
X29.464 Y-34.485
X28.84 Y-34.459
X28.232 Y-34.321
X27.681 Y-34.029
X27.222 Y-33.605
X26.869 Y-33.091
X26.613 Y-32.522
G2 X26.199 Y-30.069 I8.246 J2.651
G1 X26.167 Y-29.446
X26.179 Y-28.822
X26.316 Y-28.214
X26.61 Y-27.664
X27.037 Y-27.208
X27.553 Y-26.858
X28.124 Y-26.606
G2 X30.578 Y-26.202 I2.643 J-8.408
X34.945 Y-26.131 I3.473 J-79.167
G1 X37.441 Y-26.126
X41.808
X89.852 Y-26.128
X90.476 Y-26.129
X91.1 Y-26.148
X91.712 Y-26.268
X92.271 Y-26.545
X92.742 Y-26.954
X93.108 Y-27.46
X93.375 Y-28.024
X93.559 Y-28.62
G2 X93.82 Y-31.096 I-10.229 J-2.327
G1 X93.71 Y-31.71
X93.437 Y-32.272
X93.027 Y-32.742
X92.521 Y-33.106
X91.956 Y-33.371
X91.359 Y-33.554
G2 X88.883 Y-33.829 I-2.616 J12.249
X82.644 Y-33.88 I-4.619 J185.275
G1 X49.575 Y-33.884
X30.232 Y-33.885
X29.609 Y-33.876
X28.992 Y-33.778
X28.422 Y-33.525
X27.937 Y-33.133
X27.555 Y-32.639
X27.274 Y-32.082
G2 X26.82 Y-29.639 I6.985 J2.559
G1 X26.885 Y-29.019
X27.122 Y-28.442
X27.505 Y-27.95
X27.995 Y-27.563
X28.55 Y-27.279
X29.142 Y-27.081
G2 X31.615 Y-26.781 I2.619 J-11.222
X35.982 Y-26.729 I3.461 J-109.041
G1 X39.726 Y-26.726
X50.333
X89.641 Y-26.728
X90.265 Y-26.734
X90.885 Y-26.805
X91.47 Y-27.023
X91.977 Y-27.387
X92.382 Y-27.862
X92.684 Y-28.408
X92.897 Y-28.994
X93.041 Y-29.601
X93.128 Y-30.219
X93.111 Y-30.843
X92.922 Y-31.437
X92.572 Y-31.954
X92.104 Y-32.366
X91.56 Y-32.673
X90.974 Y-32.888
X90.367 Y-33.032
X89.75 Y-33.126
X89.129 Y-33.185
G2 X84.139 Y-33.273 I-3.87 J77.735
G1 X81.02 Y-33.28
X38.591 Y-33.285
X31.104 Y-33.286
X30.48 Y-33.283
X29.858 Y-33.236
X29.261 Y-33.053
X28.736 Y-32.717
X28.308 Y-32.262
X27.985 Y-31.729
X27.754 Y-31.149
X27.6 Y-30.544
X27.55 Y-29.922
X27.679 Y-29.312
X27.985 Y-28.768
X28.425 Y-28.326
X28.953 Y-27.994
X29.531 Y-27.758
G2 X31.993 Y-27.393 I2.621 J-9.184
X36.36 Y-27.33 I3.461 J-89.275
G1 X38.856 Y-27.326
X63.813 Y-27.327
X88.771 Y-27.328
X89.395 Y-27.33
X90.018 Y-27.358
X90.624 Y-27.506
X91.168 Y-27.812
X91.618 Y-28.244
X91.963 Y-28.764
X92.211 Y-29.337
X92.342 Y-29.947
X92.28 Y-30.568
X92.021 Y-31.136
X91.61 Y-31.605
X91.098 Y-31.961
X90.527 Y-32.214
G2 X88.071 Y-32.608 I-2.61 J8.437
X83.705 Y-32.675 I-3.469 J83.408
G1 X81.209 Y-32.68
X73.097 Y-32.681
X31.917 Y-32.686
X31.293 Y-32.685
X30.669 Y-32.665
X30.059 Y-32.535
X29.505 Y-32.248
X29.043 Y-31.829
X28.686 Y-31.317
G2 X28.551 Y-30.101 I1.583 J0.791
G1 X28.759 Y-29.513
X29.146 Y-29.024
X29.648 Y-28.653
X30.214 Y-28.391
X30.813 Y-28.215
X31.427 Y-28.103
X32.047 Y-28.033
G2 X35.788 Y-27.934 I3.141 J-48.321
G1 X37.036 Y-27.927
X40.156 Y-27.926
X82.584 Y-27.928
X88.199
X88.823 Y-27.93
X89.446 Y-27.962
X90.05 Y-28.12
X90.592 Y-28.429
X91.032 Y-28.871
G2 X91.167 Y-30.076 I-1.246 J-0.75
G1 X90.929 Y-30.652
X90.513 Y-31.117
X89.991 Y-31.459
X89.412 Y-31.693
G2 X86.946 Y-32.026 I-2.513 J9.319
X82.579 Y-32.076 I-3.419 J106.78
G1 X78.211 Y-32.08
X51.381 Y-32.083
X32.039 Y-32.085
X31.415 Y-32.077
X30.799 Y-31.982
X30.513 Y-31.856
X30.255 Y-31.681
G2 X29.975 Y-30.377 I0.922 J0.88
G1 X30.104 Y-30.093
X30.456 Y-29.578
X30.949 Y-29.195
X31.515 Y-28.934
X32.117 Y-28.768
G2 X34.6 Y-28.555 I2.423 J-13.711
X40.215 Y-28.526 I4.086 J-245.755
G1 X57.062 Y-28.527
G2 X58.661 Y-28.559 I0.072 J-35.461
G3 X61.762 Y-28.58 I2.782 J185.771
G1 X68.626 Y-28.581
X87.344 Y-28.582
X87.968
X88.592 Y-28.594
G2 X89.258 Y-30.474 I-0.104 J-1.095
G1 X89.02 Y-30.676
X88.466 Y-30.962
X87.87 Y-31.148
G2 X85.39 Y-31.391 I-2.447 J12.192
X81.647 Y-31.424 I-3.015 J129.709
G1 X77.279 Y-31.427
X72.912
X32.901 Y-31.431
X32.823
G3 X32.691 Y-31.995 I0.009 J-0.3
G1 X32.749 Y-32.027 Z0.023
X32.805 Y-32.057 Z0.045
X32.855 Y-32.084 Z0.08
X32.897 Y-32.106 Z0.128
X32.929 Y-32.123 Z0.185
X32.948 Y-32.133 Z0.248
X32.955 Y-32.137 Z0.315
G0 Z3
G28 G91 Z0
G90
G28 G91 X0 Y0
G90
M5
M30
