(gearboxmotorconnection)
(Machine)
(  vendor: Autodesk)
(  description: Generic 3-axis)
(T1  D=3 CR=0 - ZMIN=-18 - flat end mill)
G90 G94
G17
G21
G28 G91 Z0
G90

(Adaptive1)
T1
S18000 M3
G54
G0 X-27.306 Y11.244
Z2
Z-9.39
G1 Z-9.69 F80
X-27.304 Y11.237 Z-9.757
X-27.299 Y11.215 Z-9.82
X-27.29 Y11.181 Z-9.877
X-27.278 Y11.135 Z-9.925
X-27.264 Y11.079 Z-9.96
X-27.248 Y11.018 Z-9.982
X-27.232 Y10.953 Z-9.99
G2 X-26.997 Y9.32 I-7.419 J-1.9
G1 Y7.973
X-26.851 Y7.316
G3 X-27.472 Y-1.49 I104.815 J-11.816
G1 X-27.412 Y-2.836
G3 X-25.923 Y-9.384 I25.704 J2.404
G1 X-25.384 Y-10.619
X-24.304 Y-13.087
G3 X-17.468 Y-21.336 I25.027 J13.781
X-10.574 Y-25.508 I18.504 J22.796
X-4.086 Y-27.261 I11.221 J28.639
G1 X-1.407 Y-27.547
G3 X10.439 Y-25.493 I1.363 J27.322
X22.017 Y-16.553 I-9.966 J24.876
G1 X23.587 Y-14.364
X24.216 Y-13.173
G3 X27.105 Y5.089 I-24.223 J13.191
G1 X26.776 Y6.396
X26.465 Y7.707
G3 X23.831 Y13.89 I-29.336 J-8.845
G1 X23.086 Y15.012
X21.586 Y17.25
G3 X14.534 Y23.462 I-24.856 J-21.111
X-4.888 Y27.148 I-14.584 J-23.828
X-12.513 Y24.55 I5.145 J-27.586
G1 X-13.716 Y23.943
G3 X-25.753 Y9.89 I14.026 J-24.196
G1 X-25.98 Y8.564
G2 X-26.153 Y4.385 I-17.051 J-1.386
G3 X-26.353 Y-3.687 I51.869 J-5.327
X-22.723 Y-13.77 I28.618 J4.609
X-17.544 Y-19.938 I23.528 J14.493
X5.05 Y-26.081 I17.573 J20.014
X24.824 Y-9.485 I-5.165 J26.232
X0.224 Y26.563 I-24.856 J9.456
X-24.844 Y9.404 I-0.181 J-26.627
G2 X-25.417 Y-0.016 I-244.492 J10.135
G3 X-23.792 Y-9.227 I21.318 J-0.989
X18.369 Y-17.736 I23.791 J9.173
X8.395 Y24.125 I-18.355 J17.745
X-23.758 Y9.39 I-8.393 J-24.135
X-24.463 Y-1.364 I309.661 J-25.702
G1 X-24.383 Y-2.71
G3 X14.38 Y-19.874 I24.377 J2.699
X10.207 Y22.313 I-14.372 J19.878
X-22.529 Y9.727 I-10.204 J-22.323
G1 X-22.841 Y8.416
G3 X-23.44 Y-2.34 I166.97 J-14.695
X15.249 Y-17.928 I23.445 J2.383
X6.073 Y22.737 I-15.264 J17.923
X-21.664 Y9.165 I-6.061 J-22.742
X-22.369 Y-2.933 I83.127 J-10.918
X-20.989 Y-8.14 I25.693 J4.024
X19.778 Y-10.758 I20.99 J8.128
X-4.57 Y22.052 I-19.777 J10.762
X-20.651 Y8.954 I4.566 J-22.028
X-21.406 Y-1.795 I86.306 J-11.458
X-12.319 Y-17.626 I21.261 J1.68
X21.085 Y4.258 I12.324 J17.624
X-18.198 Y11.462 I-21.083 J-4.258
X-19.91 Y6.963 I7.255 J-5.336
X-21.089 Y0.581 I45.153 J-11.638
X-20.177 Y-6.151 I38.726 J1.819
X-17.321 Y-12.029 I35.146 J13.443
X-13.016 Y-16.574 I25.133 J19.498
X-5.052 Y-20.435 I13.844 J18.41
X0.765 Y-21.026 I5.353 J23.787
X7.724 Y-19.59 I-1.122 J23.028
X13.429 Y-16.235 I-10.202 J23.872
X17.592 Y-11.611 I-19.439 J21.688
X20.415 Y-5.234 I-24.207 J14.528
X21.066 Y1.191 I-36.591 J6.954
X19.855 Y7.154 I-57.693 J-8.612
X16.771 Y12.805 I-51.106 J-24.215
X11.941 Y17.412 I-44.572 J-41.898
X6.257 Y20.154 I-29.34 J-53.559
X-0.152 Y21.11 I-13.286 J-67.057
X-6.504 Y20.087 I15.829 J-118.544
X-12.088 Y17.299 I61.88 J-130.894
X-17.004 Y12.515 I35.153 J-41.043
X-19.916 Y6.966 I52.185 J-30.923
G1 X-19.938 Y6.911
X-19.97 Y6.861
X-20.012 Y6.819
X-20.062 Y6.786
X-20.118 Y6.764
X-20.177 Y6.753
X-20.238 Y6.755
X-20.297 Y6.768
X-20.341 Y6.798 Z-9.985
X-20.383 Y6.827 Z-9.971
X-20.422 Y6.854 Z-9.948
X-20.444 Y6.898 Z-9.911
X-20.463 Y6.934 Z-9.864
X-20.477 Y6.961 Z-9.81
X-20.485 Y6.978 Z-9.752
X-20.488 Y6.984 Z-9.69
G0 Z2
X0.584 Y-0.451
Z0.2
G2 X-0.585 Y0.451 Z0.119 I-0.585 J0.451 F333.3
X0.584 Y-0.451 Z0.038 I0.585 J-0.451
X-0.585 Y0.451 Z-0.043 I-0.585 J0.451
X0.584 Y-0.451 Z-0.124 I0.585 J-0.451
X-0.585 Y0.451 Z-0.205 I-0.585 J0.451
X0.584 Y-0.451 Z-0.286 I0.585 J-0.451
X-0.585 Y0.451 Z-0.367 I-0.585 J0.451
X0.584 Y-0.451 Z-0.448 I0.585 J-0.451
X-0.585 Y0.451 Z-0.529 I-0.585 J0.451
X0.584 Y-0.451 Z-0.61 I0.585 J-0.451
X-0.585 Y0.451 Z-0.691 I-0.585 J0.451
X0.584 Y-0.451 Z-0.772 I0.585 J-0.451
X-0.585 Y0.451 Z-0.853 I-0.585 J0.451
X0.584 Y-0.451 Z-0.934 I0.585 J-0.451
X-0.585 Y0.451 Z-1.015 I-0.585 J0.451
X0.584 Y-0.451 Z-1.096 I0.585 J-0.451
X-0.585 Y0.451 Z-1.177 I-0.585 J0.451
X0.584 Y-0.451 Z-1.258 I0.585 J-0.451
X-0.585 Y0.451 Z-1.339 I-0.585 J0.451
X0.584 Y-0.451 Z-1.42 I0.585 J-0.451
X-0.585 Y0.451 Z-1.501 I-0.585 J0.451
X0.584 Y-0.451 Z-1.582 I0.585 J-0.451
X-0.585 Y0.451 Z-1.663 I-0.585 J0.451
X0.584 Y-0.451 Z-1.744 I0.585 J-0.451
X-0.585 Y0.451 Z-1.825 I-0.585 J0.451
X0.584 Y-0.451 Z-1.906 I0.585 J-0.451
X-0.585 Y0.451 Z-1.987 I-0.585 J0.451
X0.584 Y-0.451 Z-2.068 I0.585 J-0.451
X-0.585 Y0.451 Z-2.149 I-0.585 J0.451
X0.584 Y-0.451 Z-2.23 I0.585 J-0.451
X-0.585 Y0.451 Z-2.311 I-0.585 J0.451
X0.584 Y-0.451 Z-2.392 I0.585 J-0.451
X-0.585 Y0.451 Z-2.473 I-0.585 J0.451
X0.584 Y-0.451 Z-2.554 I0.585 J-0.451
X-0.585 Y0.451 Z-2.635 I-0.585 J0.451
X0.584 Y-0.451 Z-2.716 I0.585 J-0.451
X-0.585 Y0.451 Z-2.797 I-0.585 J0.451
X0.584 Y-0.451 Z-2.878 I0.585 J-0.451
X-0.585 Y0.451 Z-2.959 I-0.585 J0.451
X0.584 Y-0.451 Z-3.04 I0.585 J-0.451
X-0.585 Y0.451 Z-3.121 I-0.585 J0.451
X0.584 Y-0.451 Z-3.202 I0.585 J-0.451
X-0.585 Y0.451 Z-3.283 I-0.585 J0.451
X0.584 Y-0.451 Z-3.364 I0.585 J-0.451
X-0.585 Y0.451 Z-3.445 I-0.585 J0.451
X0.584 Y-0.451 Z-3.526 I0.585 J-0.451
X-0.585 Y0.451 Z-3.607 I-0.585 J0.451
X0.584 Y-0.451 Z-3.688 I0.585 J-0.451
X-0.585 Y0.451 Z-3.769 I-0.585 J0.451
X0.584 Y-0.451 Z-3.85 I0.585 J-0.451
X-0.585 Y0.451 Z-3.931 I-0.585 J0.451
X0.584 Y-0.451 Z-4.012 I0.585 J-0.451
X-0.585 Y0.451 Z-4.093 I-0.585 J0.451
X0.584 Y-0.451 Z-4.174 I0.585 J-0.451
X-0.585 Y0.451 Z-4.255 I-0.585 J0.451
X0.584 Y-0.451 Z-4.336 I0.585 J-0.451
X-0.585 Y0.451 Z-4.417 I-0.585 J0.451
X0.584 Y-0.451 Z-4.498 I0.585 J-0.451
X-0.585 Y0.451 Z-4.579 I-0.585 J0.451
X0.584 Y-0.451 Z-4.66 I0.585 J-0.451
X-0.585 Y0.451 Z-4.741 I-0.585 J0.451
X0.584 Y-0.451 Z-4.822 I0.585 J-0.451
X-0.585 Y0.451 Z-4.903 I-0.585 J0.451
X0.584 Y-0.451 Z-4.984 I0.585 J-0.451
X-0.585 Y0.451 Z-5.065 I-0.585 J0.451
X0.584 Y-0.451 Z-5.146 I0.585 J-0.451
X-0.585 Y0.451 Z-5.227 I-0.585 J0.451
X0.584 Y-0.451 Z-5.309 I0.585 J-0.451
X-0.585 Y0.451 Z-5.39 I-0.585 J0.451
X0.584 Y-0.451 Z-5.471 I0.585 J-0.451
X-0.585 Y0.451 Z-5.552 I-0.585 J0.451
X0.584 Y-0.451 Z-5.633 I0.585 J-0.451
X-0.585 Y0.451 Z-5.714 I-0.585 J0.451
X0.584 Y-0.451 Z-5.795 I0.585 J-0.451
X-0.585 Y0.451 Z-5.876 I-0.585 J0.451
X0.584 Y-0.451 Z-5.957 I0.585 J-0.451
X-0.585 Y0.451 Z-6.038 I-0.585 J0.451
X0.584 Y-0.451 Z-6.119 I0.585 J-0.451
X-0.585 Y0.451 Z-6.2 I-0.585 J0.451
X0.584 Y-0.451 Z-6.281 I0.585 J-0.451
X-0.585 Y0.451 Z-6.362 I-0.585 J0.451
X0.584 Y-0.451 Z-6.443 I0.585 J-0.451
X-0.585 Y0.451 Z-6.524 I-0.585 J0.451
X0.584 Y-0.451 Z-6.605 I0.585 J-0.451
X-0.585 Y0.451 Z-6.686 I-0.585 J0.451
X0.584 Y-0.451 Z-6.767 I0.585 J-0.451
X-0.585 Y0.451 Z-6.848 I-0.585 J0.451
X0.584 Y-0.451 Z-6.929 I0.585 J-0.451
X-0.585 Y0.451 Z-7.01 I-0.585 J0.451
X0.584 Y-0.451 Z-7.091 I0.585 J-0.451
X-0.585 Y0.451 Z-7.172 I-0.585 J0.451
X0.584 Y-0.451 Z-7.253 I0.585 J-0.451
X-0.585 Y0.451 Z-7.334 I-0.585 J0.451
X0.584 Y-0.451 Z-7.415 I0.585 J-0.451
X-0.585 Y0.451 Z-7.496 I-0.585 J0.451
X0.584 Y-0.451 Z-7.577 I0.585 J-0.451
X-0.585 Y0.451 Z-7.658 I-0.585 J0.451
X0.584 Y-0.451 Z-7.739 I0.585 J-0.451
X-0.585 Y0.451 Z-7.82 I-0.585 J0.451
X0.584 Y-0.451 Z-7.901 I0.585 J-0.451
X-0.585 Y0.451 Z-7.982 I-0.585 J0.451
X0.584 Y-0.451 Z-8.063 I0.585 J-0.451
X-0.585 Y0.451 Z-8.144 I-0.585 J0.451
X0.584 Y-0.451 Z-8.225 I0.585 J-0.451
X-0.585 Y0.451 Z-8.306 I-0.585 J0.451
X0.584 Y-0.451 Z-8.387 I0.585 J-0.451
X-0.585 Y0.451 Z-8.468 I-0.585 J0.451
X0.584 Y-0.451 Z-8.549 I0.585 J-0.451
X-0.585 Y0.451 Z-8.63 I-0.585 J0.451
X0.584 Y-0.451 Z-8.711 I0.585 J-0.451
X-0.585 Y0.451 Z-8.792 I-0.585 J0.451
X0.584 Y-0.451 Z-8.873 I0.585 J-0.451
X-0.585 Y0.451 Z-8.954 I-0.585 J0.451
X0.584 Y-0.451 Z-9.035 I0.585 J-0.451
X-0.585 Y0.451 Z-9.116 I-0.585 J0.451
X0.584 Y-0.451 Z-9.197 I0.585 J-0.451
X-0.585 Y0.451 Z-9.278 I-0.585 J0.451
X0.584 Y-0.451 Z-9.359 I0.585 J-0.451
X-0.585 Y0.451 Z-9.44 I-0.585 J0.451
X0.584 Y-0.451 Z-9.521 I0.585 J-0.451
X-0.585 Y0.451 Z-9.602 I-0.585 J0.451
X0.584 Y-0.451 Z-9.683 I0.585 J-0.451
X-0.585 Y0.451 Z-9.764 I-0.585 J0.451
X0.584 Y-0.451 Z-9.845 I0.585 J-0.451
X-0.585 Y0.451 Z-9.926 I-0.585 J0.451
X0.738 Y0 Z-9.99 I0.585 J-0.451
X-0.739 Y0 I-0.738 J0
X0.738 Y0 I0.738 J0
X0 Y0 I-0.369 J0
G1 X-0.048 Y0.375 F80
X-0.038 Y0.511
X0.024 Y0.631
X0.127 Y0.718
X0.257 Y0.758
X0.392 Y0.745
X0.51 Y0.68
X0.71 Y0.51
X0.742 Y0.474
X0.765 Y0.439
X0.798 Y0.357
X0.872 Y-0.069
X0.869 Y-0.146
X0.861 Y-0.184
X0.848 Y-0.222
X0.648 Y-0.575
X0.598 Y-0.642
X0.563 Y-0.676
X0.494 Y-0.722
X0.077 Y-0.874
X0 Y-0.884
X-0.077 Y-0.874
X-0.494 Y-0.722
X-0.563 Y-0.676
X-0.626 Y-0.609
X-0.786 Y-0.337
X-0.848 Y-0.222
X-0.861 Y-0.184
X-0.873 Y-0.107
X-0.868 Y-0.031
X-0.798 Y0.357
X-0.765 Y0.439
X-0.742 Y0.474
X-0.71 Y0.51
X-0.383 Y0.786
X-0.344 Y0.811
X-0.306 Y0.828
X-0.268 Y0.84
X-0.23 Y0.846
X0.153 Y0.849
X0.23 Y0.846
X0.268 Y0.84
X0.306 Y0.828
X0.344 Y0.811
X0.383 Y0.786
X0.51 Y0.68
G2 X0.523 Y0.246 I-0.201 J-0.223
G1 X0.477 Y0.219 Z-9.985
X0.433 Y0.193 Z-9.971
X0.392 Y0.169 Z-9.948
X0.347 Y0.163 Z-9.915
X0.31 Y0.157 Z-9.874
X0.275 Y0.161 Z-9.818
X0.254 Y0.163 Z-9.756
X0.247 Y0.164 Z-9.69
G0 X0.458 Y-0.474
Z-9.79
G2 X-0.46 Y0.475 Z-9.862 I-0.459 J0.475 F333.3
X0.458 Y-0.474 Z-9.935 I0.459 J-0.475
X-0.46 Y0.475 Z-10.007 I-0.459 J0.475
X0.458 Y-0.474 Z-10.08 I0.459 J-0.475
X-0.46 Y0.475 Z-10.152 I-0.459 J0.475
X0.458 Y-0.474 Z-10.225 I0.459 J-0.475
X-0.46 Y0.475 Z-10.297 I-0.459 J0.475
X0.458 Y-0.474 Z-10.369 I0.459 J-0.475
X-0.46 Y0.475 Z-10.442 I-0.459 J0.475
X0.458 Y-0.474 Z-10.514 I0.459 J-0.475
X-0.46 Y0.475 Z-10.587 I-0.459 J0.475
X0.458 Y-0.474 Z-10.659 I0.459 J-0.475
X-0.46 Y0.475 Z-10.732 I-0.459 J0.475
X0.458 Y-0.474 Z-10.804 I0.459 J-0.475
X-0.46 Y0.475 Z-10.876 I-0.459 J0.475
X0.458 Y-0.474 Z-10.949 I0.459 J-0.475
X-0.46 Y0.475 Z-11.021 I-0.459 J0.475
X0.458 Y-0.474 Z-11.094 I0.459 J-0.475
X-0.46 Y0.475 Z-11.166 I-0.459 J0.475
X0.458 Y-0.474 Z-11.238 I0.459 J-0.475
X-0.46 Y0.475 Z-11.311 I-0.459 J0.475
X0.458 Y-0.474 Z-11.383 I0.459 J-0.475
X-0.46 Y0.475 Z-11.456 I-0.459 J0.475
X0.458 Y-0.474 Z-11.528 I0.459 J-0.475
X-0.46 Y0.475 Z-11.601 I-0.459 J0.475
X0.458 Y-0.474 Z-11.673 I0.459 J-0.475
X-0.46 Y0.475 Z-11.745 I-0.459 J0.475
X0.458 Y-0.474 Z-11.818 I0.459 J-0.475
X-0.46 Y0.475 Z-11.89 I-0.459 J0.475
X0.458 Y-0.474 Z-11.963 I0.459 J-0.475
X-0.46 Y0.475 Z-12.035 I-0.459 J0.475
X0.458 Y-0.474 Z-12.108 I0.459 J-0.475
X-0.46 Y0.475 Z-12.18 I-0.459 J0.475
X0.458 Y-0.474 Z-12.252 I0.459 J-0.475
X-0.46 Y0.475 Z-12.325 I-0.459 J0.475
X0.458 Y-0.474 Z-12.397 I0.459 J-0.475
X-0.46 Y0.475 Z-12.47 I-0.459 J0.475
X0.458 Y-0.474 Z-12.542 I0.459 J-0.475
X-0.46 Y0.475 Z-12.615 I-0.459 J0.475
X0.458 Y-0.474 Z-12.687 I0.459 J-0.475
X-0.46 Y0.475 Z-12.759 I-0.459 J0.475
X0.458 Y-0.474 Z-12.832 I0.459 J-0.475
X-0.46 Y0.475 Z-12.904 I-0.459 J0.475
X0.458 Y-0.474 Z-12.977 I0.459 J-0.475
X-0.46 Y0.475 Z-13.049 I-0.459 J0.475
X0.458 Y-0.474 Z-13.122 I0.459 J-0.475
X-0.46 Y0.475 Z-13.194 I-0.459 J0.475
X0.458 Y-0.474 Z-13.266 I0.459 J-0.475
X-0.46 Y0.475 Z-13.339 I-0.459 J0.475
X0.458 Y-0.474 Z-13.411 I0.459 J-0.475
X-0.46 Y0.475 Z-13.484 I-0.459 J0.475
X0.458 Y-0.474 Z-13.556 I0.459 J-0.475
X-0.46 Y0.475 Z-13.628 I-0.459 J0.475
X0.458 Y-0.474 Z-13.701 I0.459 J-0.475
X-0.46 Y0.475 Z-13.773 I-0.459 J0.475
X0.458 Y-0.474 Z-13.846 I0.459 J-0.475
X-0.46 Y0.475 Z-13.918 I-0.459 J0.475
X0.458 Y-0.474 Z-13.991 I0.459 J-0.475
X-0.46 Y0.475 Z-14.063 I-0.459 J0.475
X0.458 Y-0.474 Z-14.135 I0.459 J-0.475
X-0.46 Y0.475 Z-14.208 I-0.459 J0.475
X0.458 Y-0.474 Z-14.28 I0.459 J-0.475
X-0.46 Y0.475 Z-14.353 I-0.459 J0.475
X0.458 Y-0.474 Z-14.425 I0.459 J-0.475
X-0.46 Y0.475 Z-14.498 I-0.459 J0.475
X0.458 Y-0.474 Z-14.57 I0.459 J-0.475
X-0.46 Y0.475 Z-14.642 I-0.459 J0.475
X0.458 Y-0.474 Z-14.715 I0.459 J-0.475
X-0.46 Y0.475 Z-14.787 I-0.459 J0.475
X0.458 Y-0.474 Z-14.86 I0.459 J-0.475
X-0.46 Y0.475 Z-14.932 I-0.459 J0.475
X0.458 Y-0.474 Z-15.005 I0.459 J-0.475
X-0.46 Y0.475 Z-15.077 I-0.459 J0.475
X0.458 Y-0.474 Z-15.149 I0.459 J-0.475
X-0.46 Y0.475 Z-15.222 I-0.459 J0.475
X0.458 Y-0.474 Z-15.294 I0.459 J-0.475
X-0.46 Y0.475 Z-15.367 I-0.459 J0.475
X0.458 Y-0.474 Z-15.439 I0.459 J-0.475
X-0.46 Y0.475 Z-15.512 I-0.459 J0.475
X0.458 Y-0.474 Z-15.584 I0.459 J-0.475
X-0.46 Y0.475 Z-15.656 I-0.459 J0.475
X0.458 Y-0.474 Z-15.729 I0.459 J-0.475
X-0.46 Y0.475 Z-15.801 I-0.459 J0.475
X0.458 Y-0.474 Z-15.874 I0.459 J-0.475
X-0.46 Y0.475 Z-15.946 I-0.459 J0.475
X0.659 Y0 Z-16 I0.459 J-0.475
X-0.661 Y0 I-0.66 J0
X0.659 Y0 I0.66 J0
X-0.001 Y0 I-0.33 J0
G1 X-0.034 Y0.374 F80
X-0.014 Y0.51
X0.067 Y0.623
X0.19 Y0.686
X0.328
X0.451 Y0.623
X0.662 Y0.427
X0.689 Y0.389
X0.725 Y0.313
X0.736 Y0.275
X0.786 Y-0.031
X0.784 Y-0.107
X0.765 Y-0.184
X0.572 Y-0.524
X0.543 Y-0.561
X0.48 Y-0.622
X0.448 Y-0.642
X0.153 Y-0.764
X0.077 Y-0.789
X0 Y-0.799
X-0.077 Y-0.788
X-0.153 Y-0.761
X-0.459 Y-0.637
X-0.501 Y-0.607
X-0.544 Y-0.562
X-0.596 Y-0.487
X-0.684 Y-0.337
X-0.765 Y-0.172
X-0.782 Y-0.102
X-0.785 Y-0.031
X-0.717 Y0.313
X-0.704 Y0.351
X-0.662 Y0.427
X-0.625 Y0.47
X-0.494 Y0.58
X-0.383 Y0.67
X-0.306 Y0.721
X-0.268 Y0.738
X-0.191 Y0.756
X0.191 Y0.758
X0.23 Y0.753
X0.306 Y0.726
X0.383 Y0.682
X0.451 Y0.623
G2 X0.458 Y0.189 I-0.204 J-0.22
G1 X0.412 Y0.162 Z-15.995
X0.368 Y0.137 Z-15.981
X0.327 Y0.113 Z-15.958
X0.284 Y0.107 Z-15.927
X0.248 Y0.102 Z-15.888
X0.212 Y0.106 Z-15.831
X0.189 Y0.109 Z-15.767
X0.182 Y0.11 Z-15.7
G0 Z2
X-27.171 Y12.186
Z-15.4
G1 Z-15.7 F80
X-27.169 Y12.179 Z-15.767
X-27.163 Y12.158 Z-15.83
X-27.154 Y12.123 Z-15.887
X-27.143 Y12.077 Z-15.935
X-27.128 Y12.022 Z-15.97
X-27.113 Y11.96 Z-15.992
X-27.096 Y11.896 Z-16
G2 X-26.861 Y10.262 I-7.419 J-1.9
G1 Y8.579
X-26.687 Y7.928
X-26.728 Y7.179
G3 X-27.357 Y1.84 I22.687 J-5.378
G1 X-27.361 Y-3.548
G3 X-21.697 Y-17.063 I28.386 J3.953
X-13.553 Y-24.029 I22.908 J18.537
X-3.371 Y-27.341 I13.401 J23.889
X8.595 Y-26.204 I3.465 J27.081
X16.898 Y-21.822 I-9.52 J28.094
X25.144 Y-11.33 I-17.744 J22.432
X27.224 Y4.472 I-25.505 J11.395
G1 X26.921 Y5.784
X26.299 Y8.406
X25.802 Y9.658
G3 X21.097 Y17.774 I-25.425 J-9.318
X10.295 Y25.611 I-21.736 J-18.597
X1.11 Y27.577 I-11.009 J-29
X-9.47 Y25.898 I-0.903 J-28.484
G1 X-11.935 Y24.808
X-13.169 Y24.268
G3 X-20.53 Y18.434 I14.853 J-26.305
X-25.549 Y10.495 I22.996 J-20.094
G1 X-25.836 Y9.179
G2 X-25.839 Y6.867 I-6.592 J-1.147
G1 X-26.338 Y5.165
G3 X-26.678 Y-3.089 I40.892 J-5.82
X-24.944 Y-9.941 I46.346 J8.086
X-21.383 Y-16.232 I39.047 J17.947
X-15.72 Y-21.747 I29.292 J24.414
X-9.489 Y-25.096 I20.259 J30.216
X-4.744 Y-26.373 I14.484 J44.352
G1 X-2.907 Y-26.63
X-2.295 Y-26.704
X-1.989 Y-26.736
X1.989
G3 X9.949 Y-24.901 I-2.703 J29.894
X17.935 Y-19.924 I-11.017 J26.575
X21.388 Y-16.237 I-100.832 J97.885
X25.101 Y-9.51 I-30.513 J21.233
X26.769 Y-2.174 I-42.944 J13.617
X26.424 Y4.859 I-69.64 J0.114
X23.941 Y12.205 I-59.771 J-16.112
X19.754 Y18.222 I-59.681 J-37.06
X14.065 Y22.891 I-57.513 J-64.275
X7.497 Y25.805 I-75.087 J-160.411
X0 Y26.875 I-24.791 J-146.857
X-7.498 Y25.81 I12.272 J-113.33
X-14.23 Y22.795 I32.679 J-81.982
X-20.052 Y17.889 I37.896 J-50.882
X-24.062 Y11.957 I84.183 J-61.232
X-25.843 Y6.869 I75.353 J-29.231
G1 X-25.87 Y6.81
X-25.908 Y6.758
X-25.957 Y6.716
X-26.014 Y6.686
X-26.077 Y6.669
X-26.141 Y6.665
X-26.205 Y6.676
X-26.266 Y6.7
X-26.319 Y6.737
X-26.364 Y6.784
X-26.397 Y6.84
X-26.417 Y6.902
X-26.43 Y6.968 Z-15.992
X-26.443 Y7.03 Z-15.97
X-26.454 Y7.086 Z-15.935
X-26.464 Y7.132 Z-15.887
X-26.471 Y7.167 Z-15.83
X-26.475 Y7.189 Z-15.767
X-26.477 Y7.196 Z-15.7
G0 Z2

(Adaptive1 3)
X-19.886 Y9.656
Z2
Z-4.395
G1 Z-4.695 F350
X-19.885 Y9.649 Z-4.762
X-19.879 Y9.627 Z-4.825
X-19.87 Y9.593 Z-4.882
X-19.858 Y9.547 Z-4.93
X-19.844 Y9.492 Z-4.966
X-19.829 Y9.43 Z-4.988
X-19.812 Y9.366 Z-4.995
G2 X-19.577 Y7.732 I-7.419 J-1.9
G1 Y7.576
G2 X-19.366 Y6.303 I-9.476 J-2.228
X-19.572 Y4.124 I-11.205 J-0.037
G3 X-19.992 Y1.033 I44.484 J-7.621
X-19.763 Y-2.698 I19.642 J-0.667
X-18.98 Y-6.35 I15.926 J1.504
X-16.827 Y-10.846 I26.476 J9.918
X-14.481 Y-13.757 I16.72 J11.074
X-9.575 Y-17.561 I13.207 J11.966
X6.728 Y-18.831 I9.569 J17.564
X10.649 Y-16.928 I-6.395 J18.165
X14.911 Y-13.305 I-9.682 J15.711
X17.134 Y-10.304 I-10.976 J10.453
X18.263 Y-8.081 I-15.864 J9.455
X19.78 Y-2.702 I-14.885 J7.1
X20.022 Y0.407 I-25.704 J3.563
X19.371 Y4.718 I-21.284 J-1.007
G1 X19.241 Y5.328
G3 X18.433 Y7.683 I-9.634 J-1.991
X16.666 Y10.98 I-27.928 J-12.843
G1 X16.352 Y11.519
G3 X13.859 Y14.304 I-15.615 J-11.47
X12.021 Y15.993 I-41.169 J-42.942
X8.23 Y18.143 I-11.294 J-15.5
G1 X7.664 Y18.405
G3 X4.713 Y19.388 I-5 J-10.089
X1.632 Y19.868 I-6.139 J-29.249
G1 X1.014 Y19.948
G3 X-1.475 Y19.87 I-0.925 J-10.273
X-5.174 Y19.299 I4.892 J-43.924
X-7.507 Y18.431 I2.5 J-10.291
X-10.864 Y16.775 I37.976 J-81.197
X-13.76 Y14.413 I9.809 J-14.982
X-15.908 Y12.153 I15.538 J-16.925
X-18.098 Y8.381 I20.561 J-14.46
G1 X-18.238 Y7.774
X-18.295 Y7.152
G2 X-18.767 Y2.813 I-37.444 J1.879
G3 X-18.802 Y-2.162 I17.265 J-2.609
X-17.367 Y-7.562 I15.983 J1.357
X-13.996 Y-12.773 I16.009 J6.659
X-10.733 Y-15.66 I13.229 J11.667
X12.441 Y-14.332 I10.723 J15.741
X15.742 Y-10.604 I-13.54 J15.312
X18.324 Y-4.949 I-17.729 J11.513
X18.979 Y-0.008 I-23.739 J5.661
X18.422 Y4.314 I-19.612 J-0.331
X16.934 Y8.403 I-14 J-2.779
G1 X16.649 Y8.958
G3 X13.293 Y13.423 I-14.092 J-7.098
X10.949 Y15.477 I-12.647 J-12.071
X5.944 Y17.993 I-12.871 J-19.368
X0.423 Y18.941 I-6.74 J-22.693
X-5.137 Y18.234 I0.491 J-26.063
X-8.585 Y16.786 I7.188 J-21.945
X-12.234 Y14.419 I5.485 J-12.454
X-14.874 Y11.77 I14.871 J-17.464
X-16.835 Y8.588 I14.375 J-11.05
G1 X-17.025 Y7.994
G3 X-17.39 Y5.527 I19.145 J-4.091
X-17.867 Y1.814 I209.792 J-28.871
X-17.902 Y-0.68 I17.867 J-1.494
X-17.232 Y-4.987 I19.46 J0.821
X-14.859 Y-10.056 I18.982 J5.797
X-10.546 Y-14.53 I15.951 J11.062
X11.479 Y-13.792 I10.535 J14.615
X15.164 Y-9.583 I-11.774 J14.028
X17.215 Y-5.046 I-16.904 J10.373
X17.932 Y0.505 I-19.183 J5.302
X16.883 Y6.004 I-20.512 J-1.063
X14.572 Y10.416 I-20.216 J-7.78
X10.647 Y14.41 I-17.142 J-12.921
X5.08 Y17.169 I-11.314 J-15.835
X0.777 Y17.885 I-5.864 J-21.959
X-4.785 Y17.243 I-0.367 J-21.264
X-9.883 Y14.919 I7.282 J-22.725
X-14.028 Y11.157 I11.343 J-16.661
G1 X-14.4 Y10.655
X-14.756 Y10.143
X-15.094 Y9.618
G3 X-16.055 Y7.329 I5.674 J-3.728
X-16.542 Y4.249 I38.303 J-7.635
X-16.897 Y-0.099 I25.239 J-4.251
X-16.311 Y-4.418 I19.215 J0.408
X-10.609 Y-13.164 I16.563 J4.567
X12.109 Y-11.794 I10.604 J13.194
X16.836 Y1.305 I-12.159 J11.791
X15.93 Y5.567 I-18.115 J-1.623
X13.605 Y9.968 I-17.329 J-6.339
X9.602 Y13.876 I-14.769 J-11.124
X5.132 Y16.064 I-10.254 J-15.293
X0.219 Y16.852 I-5.293 J-17.273
X-4.712 Y16.173 I0.049 J-18.598
X-9.238 Y14.095 I6.486 J-20.093
G1 X-9.75 Y13.738
X-10.252 Y13.366
G3 X-13.729 Y9.811 I10.005 J-13.263
X-15.027 Y6.995 I6.43 J-4.671
X-15.867 Y0.82 I36.023 J-8.048
X-15.312 Y-4.125 I18.227 J-0.457
X-8.952 Y-13.106 I15.483 J4.223
X9.723 Y-12.537 I8.945 J13.163
X10.763 Y11.581 I-9.709 J12.5
X-0.637 Y15.784 I-10.68 J-11.406
X-6.653 Y14.302 I0.572 J-15.266
X-10.327 Y11.969 I5.986 J-13.489
X-13.193 Y8.698 I8.55 J-10.38
X-14.219 Y5.765 I8.494 J-4.618
X-14.841 Y0.194 I27.076 J-5.843
X-14.042 Y-4.714 I16.138 J0.106
X11.99 Y-8.707 I14.044 J4.704
X8.802 Y11.863 I-11.985 J8.674
X-6.55 Y13.203 I-8.763 J-11.782
X-11.805 Y8.891 I6.162 J-12.87
X-13.068 Y6.056 I7.165 J-4.891
G1 X-13.22 Y5.451
X-13.348 Y4.84
G3 X-13.719 Y-1.367 I21.166 J-4.382
X-11.383 Y-7.752 I14.214 J1.582
X13.712 Y1.156 I11.382 J7.737
G1 X13.637 Y1.776
X13.541 Y2.392
G3 X1.073 Y13.686 I-13.552 J-2.432
X-10.156 Y9.256 I-0.975 J-13.974
X-11.974 Y6.018 I6.128 J-5.571
X-12.667 Y-1.39 I18.503 J-5.467
X-10.841 Y-6.657 I13.247 J1.642
X-8.904 Y-9.094 I11.226 J6.935
X12.557 Y1.969 I8.901 J9.08
X3.554 Y12.178 I-12.62 J-2.054
X-0.769 Y12.644 I-3.529 J-12.469
X-9.099 Y8.841 I0.865 J-12.92
X-10.972 Y5.638 I5.762 J-5.519
X-11.558 Y-1.765 I16.032 J-4.994
X-9.413 Y-6.903 I12.115 J2.042
X10.636 Y-4.802 I9.412 J6.896
X0.131 Y11.623 I-10.641 J4.766
X-7.851 Y8.579 I-0.019 J-11.941
X-9.892 Y5.484 I5.15 J-5.618
X-10.466 Y-1.901 I13.958 J-4.799
X-7.197 Y-7.812 I10.824 J2.127
G1 X-6.723 Y-8.218
G3 X10.596 Y0.389 I6.72 J8.207
X3.076 Y10.117 I-10.647 J-0.459
X-6.884 Y8.011 I-3.031 J-10.27
X-8.438 Y6.074 I4.561 J-5.251
X-9.517 Y2.51 I9.273 J-4.755
X-9.068 Y-3.037 I11.948 J-1.824
X-5.35 Y-7.919 I9.272 J3.204
X9.201 Y-2.544 I5.342 J7.922
X1.898 Y9.313 I-9.223 J2.497
G1 X1.282 Y9.41
X0.661 Y9.471
G3 X-5.774 Y7.534 I-0.616 J-9.611
X-7.692 Y5.11 I3.958 J-5.102
X-8.206 Y-2.216 I10.118 J-4.391
X-4.585 Y-7.136 I8.383 J2.378
X8.252 Y-1.91 I4.578 J7.135
X4.349 Y7.226 I-8.293 J1.858
X-5.051 Y6.723 I-4.326 J-7.255
X-6.873 Y4.231 I3.803 J-4.694
X-6.991 Y-2.486 I8.904 J-3.516
X-4.893 Y-5.544 I7.27 J2.739
X7.26 Y-1.34 I4.888 J5.538
X2.832 Y6.778 I-7.289 J1.29
G1 X2.245 Y6.989
X1.643 Y7.153
G3 X-3.769 Y6.279 I-1.615 J-7.204
X-5.782 Y3.952 I2.829 J-4.48
X-5.961 Y-2.132 I7.399 J-3.263
X-3.204 Y-5.418 I6.125 J2.34
X4.315 Y-4.578 I3.199 J5.436
X4.448 Y4.385 I-4.313 J4.546
X-1.286 Y6.089 I-4.418 J-4.367
G1 X-1.89 Y5.932
X-2.473 Y5.708
X-3.024 Y5.416
X-3.532 Y5.054
X-3.985 Y4.624
X-4.371 Y4.134
G3 X-5.273 Y1.826 I4.899 J-3.245
G1 X-5.354 Y1.207
G3 X-4.616 Y-2.412 I6.469 J-0.565
X-2.955 Y-4.248 I4.863 J2.728
X0.604 Y-5.131 I2.96 J4.318
X2.92 Y-4.262 I-0.628 J5.191
X4.561 Y-2.411 I-2.979 J4.295
X5.103 Y0.615 I-4.586 J2.383
X3.824 Y3.412 I-5.169 J-0.674
X1.774 Y4.796 I-3.843 J-3.479
X-0.685 Y5.055 I-1.762 J-4.91
G1 X-1.296 Y4.929
X-1.883 Y4.717
X-2.43 Y4.417
X-2.916 Y4.025
X-3.329 Y3.558
X-3.665 Y3.032
X-3.925 Y2.465
G3 X-4.112 Y-0.607 I5.004 J-1.846
G1 X-3.928 Y-1.203
X-3.668 Y-1.77
X-3.334 Y-2.297
X-2.93 Y-2.772
X-2.459 Y-3.182
X-1.933 Y-3.517
X-1.363 Y-3.771
X-0.76 Y-3.933
X-0.14 Y-4
X0.484 Y-3.973
X1.095 Y-3.849
X1.679 Y-3.63
X2.223 Y-3.324
X2.712 Y-2.937
X3.134 Y-2.477
X3.479 Y-1.957
X3.739 Y-1.39
X3.905 Y-0.788
X3.974 Y-0.168
X3.946 Y0.455
X3.822 Y1.067
X3.603 Y1.651
X3.296 Y2.194
X2.908 Y2.683
X2.448 Y3.104
X1.926 Y3.446
X1.358 Y3.704
X0.756 Y3.867
X0.132 Y3.894
X-0.489 Y3.833
X-0.638 Y3.789
X-0.712 Y3.764
X-1.298 Y3.549
X-1.82 Y3.207
X-2.255 Y2.76
X-2.589 Y2.233
X-2.821 Y1.654
X-2.952 Y1.044
X-2.977 Y0.42
X-2.899 Y-0.199
X-2.715 Y-0.795
X-2.421 Y-1.346
X-2.027 Y-1.829
X-1.54 Y-2.219
X-0.981 Y-2.497
X-0.375 Y-2.643
X0.249 Y-2.65
X0.858 Y-2.512
X1.418 Y-2.239
X1.898 Y-1.84
X2.272 Y-1.341
X2.516 Y-0.766
X2.618 Y-0.151
X2.572 Y0.472
X2.381 Y1.065
X2.054 Y1.597
X1.609 Y2.035
X1.338 Y2.188
X1.194 Y2.248
X1.12 Y2.273
X0.404 Y2.597
X-16.032 Y10.037 F1200
G3 X-18.815 Y9.453 I-0.968 J-2.305
X-19.377 Y8.51 Z-8.995 I1.814 J-1.72
G1 X-19.381 Y8.493
X-19.577 Y7.732 F350
Y7.576
G2 X-19.366 Y6.303 I-9.476 J-2.228
X-19.572 Y4.124 I-11.206 J-0.037
G3 X-19.992 Y1.033 I44.479 J-7.62
X-19.763 Y-2.698 I19.642 J-0.667
X-18.98 Y-6.35 I15.925 J1.504
X-16.827 Y-10.846 I26.477 J9.918
X-14.481 Y-13.757 I16.72 J11.074
X-9.575 Y-17.561 I13.207 J11.966
X6.728 Y-18.831 I9.569 J17.564
X10.649 Y-16.928 I-6.395 J18.165
X14.911 Y-13.305 I-9.682 J15.71
X17.134 Y-10.304 I-10.976 J10.453
X18.263 Y-8.081 I-15.864 J9.454
X19.78 Y-2.702 I-14.885 J7.101
X20.022 Y0.407 I-25.695 J3.563
X19.371 Y4.718 I-21.285 J-1.008
G1 X19.241 Y5.328
G3 X18.433 Y7.683 I-9.634 J-1.991
X16.665 Y10.98 I-27.928 J-12.843
G1 X16.352 Y11.519
G3 X13.859 Y14.304 I-15.615 J-11.47
X12.021 Y15.993 I-41.164 J-42.937
X8.23 Y18.143 I-11.294 J-15.501
G1 X7.664 Y18.405
G3 X4.713 Y19.388 I-5 J-10.089
X1.632 Y19.868 I-6.139 J-29.25
G1 X1.013 Y19.948
G3 X-1.475 Y19.87 I-0.925 J-10.274
X-5.174 Y19.299 I4.892 J-43.926
X-7.507 Y18.431 I2.5 J-10.291
X-10.864 Y16.775 I37.972 J-81.189
X-13.76 Y14.413 I9.81 J-14.982
X-15.908 Y12.153 I15.537 J-16.924
X-18.098 Y8.381 I20.561 J-14.46
G1 X-18.238 Y7.774
X-18.295 Y7.152
G2 X-18.767 Y2.813 I-37.444 J1.879
G3 X-18.802 Y-2.162 I17.265 J-2.609
X-17.367 Y-7.562 I15.983 J1.357
X-13.996 Y-12.773 I16.009 J6.659
X-10.733 Y-15.66 I13.229 J11.667
X12.441 Y-14.332 I10.723 J15.741
X15.742 Y-10.604 I-13.539 J15.312
X18.324 Y-4.949 I-17.729 J11.513
X18.979 Y-0.008 I-23.738 J5.661
X18.422 Y4.314 I-19.613 J-0.331
X16.934 Y8.403 I-14 J-2.779
G1 X16.649 Y8.958
G3 X13.293 Y13.423 I-14.092 J-7.098
X10.949 Y15.477 I-12.647 J-12.071
X5.944 Y17.993 I-12.871 J-19.368
X0.423 Y18.941 I-6.74 J-22.693
X-5.137 Y18.234 I0.491 J-26.063
X-8.585 Y16.786 I7.188 J-21.945
X-12.234 Y14.419 I5.485 J-12.454
X-14.874 Y11.77 I14.871 J-17.464
X-16.835 Y8.588 I14.375 J-11.05
G1 X-17.025 Y7.994
G3 X-17.39 Y5.527 I19.145 J-4.091
X-17.867 Y1.814 I209.818 J-28.874
X-17.902 Y-0.68 I18.121 J-1.501
X-17.232 Y-4.987 I19.506 J0.83
X-14.859 Y-10.056 I18.987 J5.799
X-10.546 Y-14.53 I15.952 J11.063
X11.479 Y-13.792 I10.535 J14.615
X15.164 Y-9.583 I-11.774 J14.028
X17.215 Y-5.046 I-16.903 J10.373
X17.932 Y0.505 I-19.182 J5.302
X16.883 Y6.004 I-20.512 J-1.063
X14.572 Y10.416 I-20.216 J-7.78
X10.647 Y14.41 I-17.142 J-12.921
X5.08 Y17.169 I-11.314 J-15.835
X0.777 Y17.885 I-5.864 J-21.959
X-4.785 Y17.243 I-0.367 J-21.263
X-9.883 Y14.919 I7.282 J-22.725
X-14.028 Y11.157 I11.343 J-16.661
G1 X-14.4 Y10.655
X-14.756 Y10.143
X-15.094 Y9.618
G3 X-16.055 Y7.329 I5.674 J-3.728
X-16.542 Y4.249 I38.303 J-7.635
X-16.897 Y-0.099 I25.238 J-4.251
X-16.311 Y-4.418 I19.215 J0.408
X-10.609 Y-13.164 I16.563 J4.567
X12.109 Y-11.794 I10.604 J13.194
X16.836 Y1.305 I-12.159 J11.791
X15.93 Y5.567 I-18.116 J-1.623
X13.605 Y9.968 I-17.329 J-6.34
X9.602 Y13.876 I-14.769 J-11.124
X5.132 Y16.064 I-10.254 J-15.293
X0.219 Y16.852 I-5.293 J-17.273
X-4.712 Y16.173 I0.049 J-18.598
X-9.238 Y14.095 I6.486 J-20.094
G1 X-9.75 Y13.738
X-10.252 Y13.366
G3 X-13.729 Y9.811 I10.005 J-13.263
X-15.027 Y6.995 I6.43 J-4.671
X-15.867 Y0.82 I36.023 J-8.048
X-15.312 Y-4.125 I18.227 J-0.457
X-8.952 Y-13.106 I15.483 J4.223
X9.723 Y-12.537 I8.945 J13.163
X10.763 Y11.581 I-9.709 J12.5
X-0.637 Y15.784 I-10.68 J-11.406
X-6.653 Y14.302 I0.572 J-15.266
X-10.327 Y11.969 I5.986 J-13.489
X-13.193 Y8.698 I8.55 J-10.38
X-14.219 Y5.765 I8.494 J-4.618
X-14.841 Y0.194 I27.076 J-5.843
X-14.042 Y-4.714 I16.138 J0.106
X11.99 Y-8.707 I14.044 J4.704
X8.802 Y11.863 I-11.985 J8.674
X-6.55 Y13.203 I-8.763 J-11.782
X-11.805 Y8.891 I6.162 J-12.87
X-13.068 Y6.056 I7.165 J-4.891
G1 X-13.22 Y5.451
X-13.348 Y4.84
G3 X-13.719 Y-1.367 I21.166 J-4.382
X-11.383 Y-7.752 I14.214 J1.582
X13.712 Y1.156 I11.382 J7.737
G1 X13.637 Y1.776
X13.541 Y2.392
G3 X1.073 Y13.686 I-13.552 J-2.432
X-10.156 Y9.256 I-0.975 J-13.974
X-11.974 Y6.018 I6.128 J-5.571
X-12.667 Y-1.39 I18.503 J-5.467
X-10.841 Y-6.657 I13.247 J1.642
X-8.904 Y-9.094 I11.226 J6.935
X12.557 Y1.969 I8.901 J9.08
X3.554 Y12.178 I-12.62 J-2.054
X-0.768 Y12.644 I-3.529 J-12.469
X-9.099 Y8.841 I0.865 J-12.92
X-10.972 Y5.638 I5.762 J-5.519
X-11.558 Y-1.765 I16.032 J-4.994
X-9.413 Y-6.903 I12.115 J2.042
X10.636 Y-4.802 I9.412 J6.896
X0.131 Y11.623 I-10.641 J4.766
X-7.851 Y8.579 I-0.019 J-11.941
X-9.892 Y5.485 I5.15 J-5.618
X-10.466 Y-1.901 I13.958 J-4.799
X-7.197 Y-7.812 I10.824 J2.127
G1 X-6.723 Y-8.218
G3 X10.596 Y0.389 I6.72 J8.207
X3.076 Y10.117 I-10.647 J-0.459
X-6.884 Y8.011 I-3.031 J-10.27
X-8.438 Y6.074 I4.561 J-5.251
X-9.517 Y2.51 I9.273 J-4.755
X-9.068 Y-3.037 I11.948 J-1.824
X-5.35 Y-7.919 I9.272 J3.204
X9.201 Y-2.544 I5.342 J7.922
X1.898 Y9.313 I-9.223 J2.497
G1 X1.282 Y9.41
X0.661 Y9.471
G3 X-5.774 Y7.534 I-0.617 J-9.611
X-7.692 Y5.11 I3.958 J-5.102
X-8.206 Y-2.216 I10.118 J-4.391
X-4.585 Y-7.136 I8.383 J2.378
X8.252 Y-1.91 I4.578 J7.135
X4.349 Y7.226 I-8.293 J1.858
X-5.051 Y6.723 I-4.326 J-7.255
X-6.873 Y4.231 I3.803 J-4.694
X-6.991 Y-2.486 I8.904 J-3.516
X-4.893 Y-5.544 I7.27 J2.739
X7.26 Y-1.34 I4.888 J5.538
X2.833 Y6.778 I-7.289 J1.29
G1 X2.245 Y6.989
X1.643 Y7.153
G3 X-3.769 Y6.279 I-1.615 J-7.204
X-5.782 Y3.952 I2.829 J-4.48
X-5.961 Y-2.132 I7.399 J-3.263
X-3.204 Y-5.418 I6.125 J2.339
X4.315 Y-4.578 I3.199 J5.436
X4.448 Y4.385 I-4.313 J4.546
X-1.286 Y6.089 I-4.418 J-4.367
G1 X-1.89 Y5.932
X-2.473 Y5.708
X-3.024 Y5.416
X-3.532 Y5.054
X-3.985 Y4.624
X-4.371 Y4.134
G3 X-5.272 Y1.826 I4.899 J-3.245
G1 X-5.354 Y1.207
G3 X-4.616 Y-2.412 I6.469 J-0.565
X-2.955 Y-4.248 I4.863 J2.728
X0.604 Y-5.131 I2.96 J4.318
X2.92 Y-4.262 I-0.627 J5.191
X4.561 Y-2.411 I-2.979 J4.295
X5.103 Y0.615 I-4.586 J2.383
X3.824 Y3.412 I-5.169 J-0.674
X1.775 Y4.796 I-3.843 J-3.479
X-0.685 Y5.055 I-1.762 J-4.91
G1 X-1.296 Y4.929
X-1.883 Y4.717
X-2.43 Y4.417
X-2.916 Y4.025
X-3.329 Y3.558
X-3.665 Y3.032
X-3.925 Y2.465
G3 X-4.112 Y-0.607 I5.004 J-1.846
G1 X-3.928 Y-1.203
X-3.668 Y-1.77
X-3.334 Y-2.297
X-2.93 Y-2.772
X-2.459 Y-3.182
X-1.933 Y-3.517
X-1.363 Y-3.771
X-0.76 Y-3.933
X-0.14 Y-4
X0.483 Y-3.973
X1.095 Y-3.849
X1.679 Y-3.63
X2.223 Y-3.324
X2.712 Y-2.937
X3.134 Y-2.477
X3.479 Y-1.957
X3.739 Y-1.39
X3.905 Y-0.788
X3.974 Y-0.168
X3.946 Y0.455
X3.822 Y1.067
X3.603 Y1.651
X3.296 Y2.194
X2.909 Y2.683
X2.448 Y3.104
X1.926 Y3.446
X1.358 Y3.704
X0.756 Y3.867
X0.132 Y3.894
X-0.489 Y3.833
X-0.638 Y3.789
X-0.712 Y3.764
X-1.298 Y3.549
X-1.819 Y3.207
X-2.255 Y2.76
X-2.589 Y2.233
X-2.821 Y1.654
X-2.952 Y1.044
X-2.977 Y0.42
X-2.899 Y-0.199
X-2.715 Y-0.795
X-2.421 Y-1.346
X-2.027 Y-1.829
X-1.54 Y-2.219
X-0.981 Y-2.497
X-0.375 Y-2.643
X0.249 Y-2.65
X0.858 Y-2.512
X1.418 Y-2.239
X1.898 Y-1.84
X2.272 Y-1.341
X2.516 Y-0.766
X2.618 Y-0.151
X2.572 Y0.471
X2.381 Y1.065
X2.054 Y1.597
X1.609 Y2.035
X1.338 Y2.188
X1.194 Y2.248
X1.12 Y2.273
G2 X0.949 Y2.672 I0.105 J0.281
G1 X0.981 Y2.713 Z-8.99
X1.013 Y2.754 Z-8.976
X1.042 Y2.792 Z-8.953
X1.087 Y2.811 Z-8.916
X1.124 Y2.827 Z-8.869
X1.152 Y2.84 Z-8.816
X1.169 Y2.847 Z-8.757
X1.175 Y2.849 Z-8.696
G0 Z2
X-25.578 Y10.609
Z-13.395
G1 Z-13.695 F350
X-25.576 Y10.601 Z-13.762
X-25.57 Y10.58 Z-13.825
X-25.561 Y10.545 Z-13.882
X-25.55 Y10.499 Z-13.93
X-25.535 Y10.444 Z-13.966
X-25.52 Y10.383 Z-13.988
X-25.503 Y10.318 Z-13.995
G2 X-25.268 Y8.685 I-7.419 J-1.9
G1 Y8.529
G2 X-25.061 Y7.416 I-15.753 J-3.515
X-25.216 Y5.767 I-6.398 J-0.228
G3 X-25.693 Y-2.316 I38.072 J-6.3
X-24.88 Y-6.603 I27.155 J2.928
X-22.565 Y-12.37 I19.427 J4.449
X-18.068 Y-18.31 I19.388 J10.005
X-12.075 Y-22.743 I16.39 J15.89
X-4.435 Y-25.339 I11.125 J20.2
X-0.716 Y-25.705 I3.562 J17.149
G1 X-0.092 Y-25.713
X0.532 Y-25.716
X1.156
G3 X9.654 Y-23.894 I-0.936 J25.094
X13.006 Y-22.237 I-8.802 J22.026
X17.047 Y-19.322 I-12.094 J21.024
X20.054 Y-16.155 I-72.558 J71.912
X22.482 Y-12.536 I-14.642 J12.446
X24.97 Y-6.171 I-18.255 J10.805
X25.676 Y-2.497 I-28.714 J7.418
X25.531 Y3.111 I-34.746 J1.906
X25.137 Y5.57 I-10.792 J-0.467
X24.001 Y9.134 I-27.659 J-6.855
G1 X23.79 Y9.722
X23.357 Y10.892
G3 X21.831 Y13.609 I-17.059 J-7.79
X19.661 Y16.659 I-64.786 J-43.79
X17.928 Y18.45 I-10.788 J-8.704
X14.055 Y21.595 I-32.927 J-36.603
X11.851 Y22.761 I-8.825 J-14.016
X7.861 Y24.535 I-66.101 J-143.316
X4.816 Y25.201 I-5.921 J-19.763
X1.109 Y25.724 I-11.914 J-71.082
X-1.382 Y25.67 I-0.987 J-12.038
X-6.322 Y24.971 I5.184 J-54.42
X-8.696 Y24.212 I3.19 J-14.075
X-12.11 Y22.68 I16.287 J-40.866
X-14.778 Y21.079 I5.015 J-11.38
X-19.026 Y17.414 I22.303 J-30.148
X-22.283 Y12.845 I31.038 J-25.563
X-23.441 Y10.641 I8.141 J-5.683
G1 X-23.677 Y10.063
X-23.903 Y9.482
X-24.001 Y8.865
G2 X-24.069 Y7.188 I-64.851 J1.791
G1 X-24.079 Y7.133
X-24.092 Y7.078
X-24.211 Y6.624
X-24.749 Y4.267
X-24.819 Y3.796
X-24.873 Y3.325
X-25.055 Y1.439
X-25.099 Y0.968
G3 X-25.008 Y-2.332 I60.587 J0.018
G1 X-24.945 Y-2.804
X-24.871 Y-3.275
X-24.52 Y-5.447
X-24.475 Y-5.632
X-24.343 Y-6.103
X-23.644 Y-8.46
X-23.577 Y-8.665
X-23.462 Y-8.932
X-23.256 Y-9.403
X-22.421 Y-11.289
X-22.188 Y-11.76
X-20.748 Y-14.135
X-20.435 Y-14.588
X-18.931 Y-16.474
X-18.862 Y-16.559
X-18.543 Y-16.945
G3 X-16.504 Y-18.917 I137.904 J140.545
G1 X-16.062 Y-19.302
X-14.146 Y-20.732
X-13.675 Y-21.066
X-13.481 Y-21.188
X-11.317 Y-22.407
X-10.845 Y-22.652
X-10.374 Y-22.855
X-8.488 Y-23.619
X-8.016 Y-23.796
X-7.545 Y-23.948
X-5.187 Y-24.566
X-4.715 Y-24.665
X-4.244 Y-24.74
X-2.358 Y-24.983
X-1.886 Y-25.04
X-1.415 Y-25.072
X-0.943 Y-25.079
X0.943
X1.415 Y-25.072
X1.886 Y-25.04
X2.358 Y-24.983
X4.244 Y-24.74
X4.715 Y-24.665
X5.187 Y-24.566
X7.545 Y-23.948
X8.016 Y-23.796
X8.488 Y-23.619
X10.374 Y-22.855
X10.845 Y-22.652
X11.317 Y-22.407
X13.481 Y-21.188
X13.675 Y-21.066
X14.146 Y-20.732
X16.062 Y-19.302
X16.504 Y-18.916
G3 X18.543 Y-16.946 I-147.674 J154.814
G1 X18.862 Y-16.559
X18.931 Y-16.474
X20.435 Y-14.588
X20.748 Y-14.135
X22.188 Y-11.76
G3 X23.575 Y-8.664 I-59.32 J28.428
G1 X23.644 Y-8.46
X24.343 Y-6.103
X24.475 Y-5.632
G3 X25.009 Y-2.332 I-60.764 J11.518
X25.101 Y0.968 I-66.887 J3.514
G1 X25.055 Y1.439
X24.873 Y3.325
X24.819 Y3.796
X24.749 Y4.267
X24.211 Y6.624
X24.087 Y7.096
X24.049 Y7.233
X23.939 Y7.567
X23.105 Y9.83
X23.066 Y9.924
X22.861 Y10.395
X22.618 Y10.867
X21.691 Y12.644
X21.633 Y12.752
X21.347 Y13.224
G3 X19.696 Y15.583 I-50.83 J-33.825
G1 X19.333 Y16.015
X17.919 Y17.573
X17.578 Y17.938
X17.447 Y18.06
X17.063 Y18.409
X15.402 Y19.823
X15.089 Y20.076
X14.78 Y20.295
X14.618 Y20.407
X12.618 Y21.709
X12.26 Y21.915
X11.789 Y22.155
X9.779 Y23.123
X9.431 Y23.278
X8.959 Y23.446
X6.602 Y24.229
X6.13 Y24.346
X5.658 Y24.442
X3.301 Y24.901
G3 X0 Y25.119 I-11.527 J-149.077
X-3.301 Y24.902 I7.3 J-136.026
G1 X-5.658 Y24.442
X-6.13 Y24.346
X-6.602 Y24.229
X-8.959 Y23.446
X-9.431 Y23.278
X-9.779 Y23.123
X-11.789 Y22.155
X-12.26 Y21.915
X-12.618 Y21.709
X-14.618 Y20.407
X-14.78 Y20.295
X-15.089 Y20.076
X-15.402 Y19.823
X-17.063 Y18.409
X-17.447 Y18.06
X-17.578 Y17.938
X-17.919 Y17.573
X-19.333 Y16.015
X-19.694 Y15.581
G3 X-21.348 Y13.224 I60.707 J-44.37
G1 X-21.633 Y12.752
X-21.691 Y12.644
X-22.634 Y10.836
X-22.861 Y10.395
X-23.066 Y9.924
X-23.105 Y9.83
X-23.939 Y7.567
X-24.049 Y7.233
X-24.092 Y7.078
G2 X-24.479 Y6.882 I-0.287 J0.087
G1 X-24.523 Y6.912 Z-13.99
X-24.565 Y6.94 Z-13.976
X-24.605 Y6.967 Z-13.953
X-24.627 Y7.011 Z-13.916
X-24.646 Y7.047 Z-13.869
X-24.659 Y7.074 Z-13.816
X-24.668 Y7.091 Z-13.757
X-24.671 Y7.096 Z-13.696
G0 Z2
X-0.535 Y-0.073
Z-11.695
G1 Z-13.995 F350
G2 X0.7 Y-0.139 I0.312 J-5.736
G1 X0.774 Y-0.154
X0.825 Y-0.288
X0.823 Y-0.432
X0.767 Y-0.565
X0.689 Y-0.683
X0.676 Y-0.693
X0.381 Y-0.89
X0.368 Y-0.897
X0 Y-0.971
X-0.368 Y-0.897
X-0.381 Y-0.89
X-0.676 Y-0.693
X-0.689 Y-0.683
X-0.885 Y-0.389
X-0.897 Y-0.37
X-0.969 Y-0.006
X-0.97 Y0.004
X-0.899 Y0.362
X-0.896 Y0.373
X-0.692 Y0.678
X-0.673 Y0.695
X-0.372 Y0.897
X0 Y0.971
X0.372 Y0.897
X0.673 Y0.695
X0.692 Y0.678
X0.896 Y0.373
X0.899 Y0.362
X0.97 Y0.004
X0.969 Y-0.006
X0.897 Y-0.37
X0.872 Y-0.408
X0.767 Y-0.565
G2 X0.337 Y-0.625 I-0.243 J0.175
G1 X0.306 Y-0.582 Z-13.99
X0.275 Y-0.541 Z-13.976
X0.246 Y-0.503 Z-13.953
X0.237 Y-0.457 Z-13.918
X0.23 Y-0.419 Z-13.876
X0.224 Y-0.39 Z-13.826
X0.225 Y-0.367 Z-13.762
X0.226 Y-0.36 Z-13.695
G0 X-0.535 Y-0.073
Z-13.7
G1 Z-16 F350
G2 X0.7 Y-0.139 I0.312 J-5.736
G1 X0.774 Y-0.154
X0.825 Y-0.288
X0.823 Y-0.432
X0.767 Y-0.565
X0.689 Y-0.683
X0.676 Y-0.693
X0.381 Y-0.89
X0.368 Y-0.897
X0 Y-0.971
X-0.368 Y-0.897
X-0.381 Y-0.89
X-0.676 Y-0.693
X-0.689 Y-0.683
X-0.885 Y-0.389
X-0.897 Y-0.37
X-0.969 Y-0.006
X-0.97 Y0.004
X-0.899 Y0.362
X-0.896 Y0.373
X-0.692 Y0.678
X-0.673 Y0.695
X-0.372 Y0.897
X0 Y0.971
X0.372 Y0.897
X0.673 Y0.695
X0.692 Y0.678
X0.896 Y0.373
X0.899 Y0.362
X0.97 Y0.004
X0.969 Y-0.006
X0.897 Y-0.37
X0.872 Y-0.408
X0.767 Y-0.565
G2 X0.226 Y-0.36 I-0.243 J0.175
G1 X0.232 Y-0.293 Z-15.992
X0.239 Y-0.23 Z-15.97
X0.244 Y-0.173 Z-15.935
X0.249 Y-0.126 Z-15.887
X0.253 Y-0.091 Z-15.83
X0.255 Y-0.069 Z-15.767
X0.256 Y-0.061 Z-15.7
G0 Z2

(Adaptive1 4)
X-19.886 Y9.656
Z2
Z-9.391
G1 Z-9.691 F500
X-19.885 Y9.649 Z-9.757
X-19.879 Y9.627 Z-9.821
X-19.87 Y9.593 Z-9.878
X-19.858 Y9.547 Z-9.925
X-19.844 Y9.492 Z-9.961
X-19.829 Y9.43 Z-9.983
X-19.812 Y9.366 Z-9.991
G2 X-19.577 Y7.732 I-7.419 J-1.9
G1 Y7.576
G2 X-19.366 Y6.304 I-9.481 J-2.229
X-19.572 Y4.125 I-11.202 J-0.037
G3 X-19.992 Y1.034 I44.547 J-7.63
X-19.763 Y-2.697 I19.638 J-0.668
X-18.98 Y-6.35 I15.929 J1.504
X-16.825 Y-10.846 I28.899 J11.092
X-12.196 Y-15.875 I18.17 J12.078
X-2.491 Y-19.845 I12.228 J16.044
X10.651 Y-16.932 I2.479 J19.921
X14.912 Y-13.306 I-9.894 J15.942
X17.134 Y-10.305 I-11.052 J10.505
X19.341 Y-5.159 I-18.626 J11.035
X19.968 Y-0.842 I-25.441 J5.897
X19.851 Y2.268 I-12.459 J1.091
X19.238 Y5.326 I-34.594 J-5.348
X18.434 Y7.681 I-9.424 J-1.902
X16.667 Y10.979 I-27.515 J-12.622
G1 X16.353 Y11.518
G3 X13.86 Y14.303 I-15.631 J-11.485
X12.023 Y15.992 I-42.606 J-44.479
X8.808 Y17.896 I-10.761 J-14.508
X6.531 Y18.917 I-11.476 J-22.558
X2.259 Y19.787 I-6.478 J-20.872
G1 X1.64 Y19.871
X1.021 Y19.947
G3 X-1.468 Y19.874 I-0.943 J-10.286
X-5.165 Y19.296 I5.072 J-44.586
X-7.509 Y18.454 I2.471 J-10.554
X-10.862 Y16.793 I17.523 J-39.599
X-13.751 Y14.422 I10.403 J-15.621
X-15.9 Y12.164 I15.849 J-17.231
X-18.093 Y8.392 I20.44 J-14.405
G1 X-18.235 Y7.786
X-18.293 Y7.165
G2 X-18.768 Y2.826 I-35.258 J1.665
G3 X-18.804 Y-2.15 I17.482 J-2.613
X-17.852 Y-6.399 I16.011 J1.357
X-15.931 Y-10.316 I23.82 J9.251
X-10.745 Y-15.656 I16.682 J11.013
X3.544 Y-18.633 I10.744 J15.788
X14.604 Y-12.105 I-3.508 J18.576
X17.489 Y-7.312 I-14.121 J11.765
X18.769 Y-2.507 I-15.009 J6.57
X18.55 Y3.69 I-15.986 J2.539
X16.944 Y8.392 I-14.808 J-2.433
G1 X16.657 Y8.947
G3 X14.993 Y11.58 I-14.476 J-7.301
X11.464 Y15.1 I-20.752 J-17.28
X5.966 Y18 I-12.382 J-16.815
X0.443 Y18.942 I-6.846 J-23.473
X-5.117 Y18.237 I0.464 J-25.957
X-9.139 Y16.549 I7.128 J-22.612
X-12.215 Y14.437 I5.901 J-11.894
X-14.857 Y11.791 I14.923 J-17.543
X-16.824 Y8.613 I14.368 J-11.086
G1 X-17.018 Y8.019
G3 X-17.386 Y5.553 I18.405 J-4.013
X-17.865 Y1.84 I224.639 J-30.831
X-17.904 Y-0.654 I18.097 J-1.53
X-17.239 Y-4.962 I19.558 J0.812
X-14.873 Y-10.036 I19.692 J6.094
X-9.531 Y-15.21 I15.258 J10.409
X14.811 Y-10.13 I9.516 J15.261
X17.208 Y-5.073 I-15.943 J10.652
X17.933 Y0.477 I-19.15 J5.326
X16.894 Y5.978 I-20.541 J-1.034
X14.589 Y10.394 I-20.152 J-7.71
X10.671 Y14.396 I-17.328 J-13.041
X5.711 Y16.987 I-11.311 J-15.609
X0.812 Y17.883 I-6.359 J-20.939
X-4.752 Y17.254 I-0.415 J-21.254
X-9.857 Y14.953 I6.134 J-20.426
X-14.002 Y11.19 I11.681 J-17.031
G1 X-14.376 Y10.689
X-14.733 Y10.178
X-15.072 Y9.654
G3 X-16.045 Y7.37 I5.697 J-3.777
X-16.536 Y4.29 I36.736 J-7.43
X-16.898 Y-0.057 I25.619 J-4.324
X-16.321 Y-4.378 I19.266 J0.375
X-13.263 Y-10.475 I17.061 J4.742
X-7.495 Y-15.154 I13.247 J10.438
X12.08 Y-11.824 I7.486 J15.196
X14.639 Y8.357 I-12.049 J11.781
X11.555 Y12.257 I-14.348 J-8.176
X6.925 Y15.382 I-11.042 J-11.368
X2.75 Y16.617 I-6.53 J-14.402
X-2.22 Y16.676 I-2.666 J-15.286
X-6.996 Y15.305 I1.764 J-15.149
X-10.211 Y13.407 I5.62 J-13.195
X-13.696 Y9.858 I10.16 J-13.462
X-15.013 Y7.051 I6.43 J-4.728
X-15.865 Y0.878 I35.917 J-8.102
X-15.325 Y-4.07 I18.168 J-0.522
X-11.8 Y-10.602 I15.753 J4.285
X9.675 Y-12.569 I11.799 J10.607
X11.251 Y11.104 I-9.641 J12.531
X1.919 Y15.69 I-11.046 J-10.69
X-10.28 Y12.025 I-1.893 J-15.831
X-13.157 Y8.762 I8.996 J-10.831
X-14.204 Y5.837 I8.326 J-4.63
X-14.841 Y0.267 I27.303 J-5.946
X-14.246 Y-4.048 I16.438 J0.067
X-5.327 Y-13.838 I14.272 J4.045
X11.953 Y-8.77 I5.312 J13.881
X10.283 Y10.604 I-11.949 J8.729
X-1.716 Y14.65 I-10.174 J-10.357
X-11.756 Y8.965 I1.655 J-14.633
X-13.046 Y6.142 I7.087 J-4.944
G1 X-13.2 Y5.538
X-13.331 Y4.927
G3 X-13.729 Y-1.278 I21.345 J-4.485
X-10.694 Y-8.685 I14.217 J1.499
X13.766 Y-0.181 I10.691 J8.678
X13.557 Y2.303 I-15.203 J-0.023
X5.397 Y12.647 I-13.675 J-2.397
X-10.088 Y9.336 I-5.354 J-12.823
X-11.943 Y6.119 I6.099 J-5.661
X-12.678 Y-1.285 I18.468 J-5.572
X-10.202 Y-7.606 I13.202 J1.526
G1 X-9.816 Y-8.096
X-9.408 Y-8.569
X-8.979 Y-9.021
G3 X12.717 Y-0.002 I8.977 J9.011
X4.842 Y11.741 I-12.822 J-0.086
X-0.656 Y12.653 I-4.804 J-11.943
X-9.443 Y8.473 I0.662 J-12.72
X-10.936 Y5.754 I6.313 J-5.235
X-11.576 Y-1.644 I16.022 J-5.114
X-9.484 Y-6.805 I12.232 J1.953
X10.587 Y-4.914 I9.484 J6.801
X6.688 Y9.519 I-10.614 J4.876
X-5.166 Y10.401 I-6.667 J-9.507
X-8.619 Y7.777 I4.496 J-9.499
X-10.047 Y5.024 I6.281 J-5.006
X-10.491 Y-1.765 I14.26 J-4.341
X-7.737 Y-7.274 I10.95 J2.03
G1 X-7.295 Y-7.715
X-6.83 Y-8.131
G3 X10.6 Y-0.375 I6.826 J8.123
X3.807 Y9.878 I-10.682 J0.299
X-6.775 Y8.119 I-3.768 J-10.038
X-8.365 Y6.21 I4.626 J-5.473
X-9.496 Y2.663 I8.961 J-4.809
X-9.115 Y-2.89 I12.031 J-1.964
X-5.477 Y-7.832 I9.314 J3.046
X9.161 Y-2.695 I5.47 J7.838
X3.257 Y8.942 I-9.209 J2.644
X0.823 Y9.464 I-3.259 J-9.255
X-6.132 Y7.253 I-0.807 J-9.505
X-7.872 Y4.695 I4.547 J-4.963
X-8.074 Y-2.649 I10.376 J-3.96
X-5.709 Y-6.27 I8.39 J2.897
X8.343 Y-1.467 I5.705 J6.266
X4.503 Y7.141 I-8.415 J1.407
X-4.909 Y6.844 I-4.484 J-7.19
X-6.803 Y4.406 I3.649 J-4.788
X-7.053 Y-2.308 I8.843 J-3.691
X-5.033 Y-5.418 I7.332 J2.55
X7.226 Y-1.526 I5.028 J5.415
X3.014 Y6.709 I-7.273 J1.475
G1 X2.432 Y6.934
X1.834 Y7.113
G3 X-3.601 Y6.392 I-1.814 J-7.172
G1 X-4.12 Y6.045
G3 X-5.696 Y4.138 I3.116 J-4.179
X-6.03 Y-1.939 I7.301 J-3.449
X-3.379 Y-5.311 I6.199 J2.144
X5.011 Y-3.802 I3.374 J5.32
X4.595 Y4.237 I-5.016 J3.771
X-1.077 Y6.138 I-4.566 J-4.208
G1 X-1.686 Y6.003
X-2.277 Y5.803
X-2.84 Y5.535
X-3.364 Y5.196
X-3.836 Y4.788
X-4.245 Y4.317
X-4.587 Y3.795
G3 X-5.331 Y1.429 I5.472 J-3.02
X-4.719 Y-2.214 I6.506 J-0.78
X-2.615 Y-4.464 I4.897 J2.471
X0.382 Y-5.153 I2.628 J4.563
X2.734 Y-4.385 I-0.412 J5.241
X4.735 Y-2.05 I-2.754 J4.385
X5.039 Y1.009 I-4.77 J2.019
X3.975 Y3.243 I-5.158 J-1.087
X1.401 Y4.923 I-3.968 J-3.267
X-1.072 Y4.995 I-1.384 J-5.014
G1 X-1.669 Y4.815
X-2.233 Y4.548
X-2.743 Y4.189
X-3.184 Y3.748
X-3.549 Y3.241
X-3.837 Y2.688
X-4.048 Y2.101
G3 X-4.009 Y-0.977 I5.155 J-1.473
G1 X-3.777 Y-1.556
X-3.471 Y-2.1
X-3.094 Y-2.597
X-2.647 Y-3.033
X-2.141 Y-3.397
X-1.587 Y-3.683
X-0.995 Y-3.882
X-0.38 Y-3.986
X0.244 Y-3.995
X0.862 Y-3.909
X1.459 Y-3.726
X2.019 Y-3.452
X2.532 Y-3.096
X2.981 Y-2.664
X3.356 Y-2.165
X3.65 Y-1.614
X3.853 Y-1.024
X3.96 Y-0.41
X3.97 Y0.214
X3.884 Y0.832
X3.702 Y1.429
X3.429 Y1.99
X3.073 Y2.502
X2.64 Y2.951
X2.141 Y3.326
X1.59 Y3.619
X1 Y3.821
X0.379 Y3.888
X-0.244 Y3.87
X-0.321 Y3.854
X-0.929 Y3.715
X-1.495 Y3.452
X-1.986 Y3.068
X-2.387 Y2.589
X-2.684 Y2.041
X-2.879 Y1.448
X-2.973 Y0.831
X-2.964 Y0.207
X-2.848 Y-0.406
X-2.628 Y-0.99
X-2.298 Y-1.519
X-1.872 Y-1.975
X-1.357 Y-2.328
X-0.779 Y-2.563
X-0.163 Y-2.662
X0.459 Y-2.621
X1.055 Y-2.436
X1.593 Y-2.119
X2.039 Y-1.683
X2.372 Y-1.155
X2.569 Y-0.563
X2.623 Y0.058
X2.528 Y0.675
X2.291 Y1.252
X1.923 Y1.756
X1.863 Y1.806
G2 X1.848 Y2.24 I0.199 J0.224
G1 X1.893 Y2.267 Z-9.985
X1.937 Y2.293 Z-9.971
X1.978 Y2.318 Z-9.948
X2.024 Y2.325 Z-9.914
X2.063 Y2.33 Z-9.872
X2.096 Y2.327 Z-9.816
X2.116 Y2.325 Z-9.755
X2.123 Y2.324 Z-9.691
G0 Z2
X-23.907 Y10.426
Z-11.389
G1 Z-11.689 F500
X-23.905 Y10.418 Z-11.755
X-23.9 Y10.397 Z-11.819
X-23.891 Y10.362 Z-11.876
X-23.879 Y10.316 Z-11.923
X-23.865 Y10.261 Z-11.959
X-23.849 Y10.2 Z-11.981
X-23.833 Y10.135 Z-11.989
G2 X-23.598 Y8.502 I-7.419 J-1.9
G1 Y8.346
G2 X-23.399 Y7.065 I-7.837 J-1.873
X-23.642 Y4.856 I-10.254 J0.01
G3 X-24.045 Y1.135 I52.862 J-7.602
X-23.856 Y-3.224 I26.141 J-1.051
X-21.704 Y-10.363 I23.696 J3.247
X-18.724 Y-15.103 I19.383 J8.88
X-17.052 Y-16.952 I12.132 J9.289
X-11.597 Y-21.073 I15.955 J15.449
X-9.347 Y-22.148 I8.991 J15.924
X-0.25 Y-24.041 I9.04 J20.648
X4.099 Y-23.724 I0.487 J23.36
X9.464 Y-22.108 I-4.346 J24.137
X11.704 Y-21.01 I-7.319 J17.765
X16.694 Y-17.302 I-10.129 J18.84
X18.402 Y-15.487 I-9.79 J10.929
X20.584 Y-12.452 I-14.502 J12.729
X21.753 Y-10.249 I-15.464 J9.618
X23.073 Y-6.751 I-19.829 J9.474
X23.662 Y-4.328 I-15.574 J5.069
X23.919 Y2.505 I-22.333 J4.261
X22.687 Y7.965 I-20.297 J-1.708
X19.878 Y13.512 I-20.667 J-6.983
X18.385 Y15.509 I-13.529 J-8.556
X15.739 Y18.15 I-15.073 J-12.456
X10.569 Y21.596 I-13.443 J-14.565
X8.276 Y22.575 I-7.021 J-13.267
X3.455 Y23.829 I-8.064 J-21.108
X-0.279 Y24.064 I-3.737 J-29.686
X-3.39 Y23.842 I0.818 J-33.356
X-5.838 Y23.36 I4.515 J-29.415
X-9.381 Y22.158 I8.243 J-30.114
X-12.175 Y20.772 I14.46 J-32.652
X-15.705 Y18.211 I11.257 J-19.235
X-17.505 Y16.485 I11.92 J-14.232
X-21.134 Y11.436 I15.681 J-15.1
X-22.221 Y9.192 I14.098 J-8.218
G1 X-22.321 Y8.576
X-22.357 Y7.953
G2 X-22.638 Y4.849 I-22.233 J0.446
G3 X-23.038 Y0.502 I41.243 J-5.99
X-20.292 Y-10.897 I23.021 J-0.485
X-15.744 Y-16.8 I19.562 J10.368
X-8.981 Y-21.193 I15.073 J15.801
X0.126 Y-23.021 I8.785 J20.175
X6.284 Y-22.161 I0.127 J21.581
X14.05 Y-18.271 I-6.56 J22.792
X18.424 Y-13.843 I-15.504 J19.69
X23.043 Y0.133 I-18.742 J13.944
X22.484 Y5.086 I-25.319 J-0.349
X17.052 Y15.484 I-22.932 J-5.362
X14.319 Y18.038 I-22.026 J-20.825
X7.806 Y21.658 I-13.811 J-17.183
X0.482 Y23.026 I-7.58 J-20.291
X-9.795 Y20.834 I-0.585 J-22.447
X-15.48 Y17.042 I8.729 J-19.243
X-20.401 Y10.649 I14.984 J-16.626
G1 X-20.693 Y10.098
X-20.941 Y9.525
X-21.113 Y8.926
G3 X-21.429 Y6.451 I23.785 J-4.299
X-21.979 Y1.491 I89.537 J-12.433
G1 X-21.999 Y0.867
G3 X-10.09 Y-19.559 I22.009 J-0.853
X-3.603 Y-21.722 I10.363 J20.27
X5.679 Y-21.272 I3.568 J22.327
X12.964 Y-17.799 I-6.101 J22.173
G1 X13.457 Y-17.416
X13.943 Y-17.025
G3 X21.541 Y-4.458 I-13.869 J16.965
X17.171 Y13.741 I-21.376 J4.492
X14.123 Y16.859 I-16.823 J-13.395
X7.102 Y20.82 I-13.714 J-16.107
X3.478 Y21.737 I-6.543 J-18.233
X-15.427 Y15.692 I-3.47 J-21.73
X-19.485 Y10.191 I15.307 J-15.54
X-20.123 Y8.342 I6.776 J-3.372
G1 X-20.141 Y8.3
G3 X-20.747 Y6.691 I10.417 J-4.839
G1 X-21.219 Y5.008
X-21.282 Y4.739
X-21.386 Y4.267
G3 X-21.765 Y1.439 I42.148 J-7.091
G1 X-21.773 Y0.968
Y-0.918
X-21.77 Y-1.389
G3 X-21.3 Y-4.69 I32.938 J3.006
G1 X-21.219 Y-5.008
X-20.748 Y-6.691
X-20.633 Y-7.046
X-20.474 Y-7.518
G3 X-19.334 Y-10.104 I53.738 J22.135
G1 X-17.919 Y-12.44
G3 X-16.035 Y-14.783 I28.534 J21.007
G1 X-15.768 Y-15.06
X-15.561 Y-15.273
X-14.275 Y-16.474
X-14.146 Y-16.588
X-13.675 Y-16.989
G3 X-11.317 Y-18.649 I33.333 J44.851
G2 X-8.959 Y-19.883 I-410.386 J-786.836
G1 X-8.488 Y-20.083
G3 X-6.13 Y-20.926 I12.027 J29.92
G1 X-5.658 Y-21.058
G3 X-2.829 Y-21.627 I8.086 J32.886
X0 Y-21.814 I5.673 J64.312
X2.829 Y-21.628 I-3.028 J67.733
X6.131 Y-20.93 I-4.652 J30.169
X8.488 Y-20.085 I-12.505 J38.567
G1 X8.959 Y-19.884
X10.374 Y-19.151
G3 X12.259 Y-18.003 I-4.891 J10.153
G1 X13.203 Y-17.339
X13.675 Y-16.989
X14.146 Y-16.588
X14.275 Y-16.474
X15.561 Y-15.273
X15.768 Y-15.06
X16.032 Y-14.78
X16.211 Y-14.588
X17.362 Y-13.174
G3 X18.049 Y-12.233 I-8.437 J6.884
G1 X18.907 Y-10.817
G3 X19.802 Y-9.073 I-8.43 J5.429
G1 X20.276 Y-7.989
X20.474 Y-7.518
X20.633 Y-7.046
X20.748 Y-6.691
X21.219 Y-5.008
X21.293 Y-4.689
X21.397 Y-4.218
G3 X21.77 Y-1.389 I-44.633 J7.328
G1 X21.773 Y-0.918
Y0.968
X21.766 Y1.439
G3 X21.289 Y4.74 I-32.615 J-3.025
G1 X21.219 Y5.008
X20.748 Y6.691
X20.616 Y7.096
X20.457 Y7.567
G3 X19.334 Y10.105 I-62.766 J-26.241
G1 X17.919 Y12.44
G3 X16.165 Y14.636 I-33.043 J-24.579
G1 X15.721 Y15.109
X15.561 Y15.273
X14.222 Y16.524
X13.668 Y16.995
G3 X11.317 Y18.649 I-34.063 J-45.921
G2 X8.959 Y19.883 I381.323 J731.34
G1 X8.488 Y20.083
X8.016 Y20.269
X6.602 Y20.771
X6.13 Y20.927
X5.658 Y21.058
G3 X2.829 Y21.627 I-8.086 J-32.886
X0 Y21.814 I-5.859 J-67.045
X-2.829 Y21.627 I3.123 J-68.851
X-6.131 Y20.93 I4.57 J-29.806
G1 X-6.616 Y20.766
X-8.016 Y20.269
X-8.488 Y20.083
X-8.959 Y19.884
X-10.374 Y19.151
G3 X-12.259 Y18.003 I4.967 J-10.28
G1 X-13.203 Y17.339
X-13.668 Y16.995
X-14.222 Y16.524
X-15.561 Y15.273
X-15.721 Y15.109
X-16.167 Y14.638
G3 X-17.92 Y12.441 I36.122 J-30.62
X-19.425 Y9.928 I53.594 J-33.8
G1 X-19.637 Y9.453
X-19.805 Y9.074
X-20.141 Y8.3
G2 X-20.553 Y8.165 I-0.271 J0.129
G1 X-20.592 Y8.201 Z-11.984
X-20.63 Y8.236 Z-11.969
X-20.665 Y8.268 Z-11.946
X-20.68 Y8.315 Z-11.909
X-20.693 Y8.354 Z-11.863
X-20.703 Y8.382 Z-11.809
X-20.709 Y8.4 Z-11.75
X-20.711 Y8.406 Z-11.689
G0 Z2
X-0.341 Y-0.713
Z-9.689
G1 Z-11.989 F500
G2 X0.17 Y0.856 I7.495 J-1.577
G1 X0.188 Y0.893
X0.223 Y0.916
X0.264 Y0.918
X0.372 Y0.897
X0.673 Y0.695
X0.692 Y0.678
X0.896 Y0.373
X0.899 Y0.362
X0.97 Y0.004
X0.969 Y-0.006
X0.897 Y-0.37
X0.872 Y-0.408
X0.689 Y-0.683
X0.676 Y-0.693
X0.381 Y-0.89
X0.368 Y-0.897
X0 Y-0.971
X-0.368 Y-0.897
X-0.381 Y-0.89
X-0.676 Y-0.693
X-0.689 Y-0.683
X-0.885 Y-0.389
X-0.897 Y-0.37
X-0.969 Y-0.006
X-0.97 Y0.004
X-0.899 Y0.362
X-0.896 Y0.373
X-0.692 Y0.678
X-0.673 Y0.695
X-0.372 Y0.897
X0 Y0.971
X0.264 Y0.918
G2 X0.483 Y0.544 I-0.069 J-0.292
G1 X0.456 Y0.498 Z-11.984
X0.43 Y0.454 Z-11.969
X0.406 Y0.413 Z-11.946
X0.364 Y0.388 Z-11.909
X0.329 Y0.367 Z-11.863
X0.303 Y0.352 Z-11.809
X0.287 Y0.342 Z-11.75
X0.281 Y0.339 Z-11.689
G0 Z-11.687
X-0.341 Y-0.713
G1 Z-13.987 F500
G2 X0.17 Y0.856 I7.495 J-1.577
G1 X0.188 Y0.893
X0.223 Y0.916
X0.264 Y0.918
X0.372 Y0.897
X0.673 Y0.695
X0.692 Y0.678
X0.896 Y0.373
X0.899 Y0.362
X0.97 Y0.004
X0.969 Y-0.006
X0.897 Y-0.37
X0.872 Y-0.408
X0.689 Y-0.683
X0.676 Y-0.693
X0.381 Y-0.89
X0.368 Y-0.897
X0 Y-0.971
X-0.368 Y-0.897
X-0.381 Y-0.89
X-0.676 Y-0.693
X-0.689 Y-0.683
X-0.885 Y-0.389
X-0.897 Y-0.37
X-0.969 Y-0.006
X-0.97 Y0.004
X-0.899 Y0.362
X-0.896 Y0.373
X-0.692 Y0.678
X-0.673 Y0.695
X-0.372 Y0.897
X0 Y0.971
X0.264 Y0.918
G2 X0.483 Y0.544 I-0.069 J-0.292
G1 X0.456 Y0.498 Z-13.982
X0.43 Y0.454 Z-13.967
X0.406 Y0.413 Z-13.944
X0.364 Y0.388 Z-13.907
X0.329 Y0.367 Z-13.861
X0.303 Y0.352 Z-13.807
X0.287 Y0.342 Z-13.748
X0.281 Y0.339 Z-13.687
G0 Z2
X-19.311 Y18.954
Z-13.373
G1 Z-13.673 F500
X-19.305 Y18.95 Z-13.739
X-19.286 Y18.938 Z-13.803
X-19.256 Y18.919 Z-13.86
X-19.216 Y18.893 Z-13.907
X-19.168 Y18.863 Z-13.943
X-19.114 Y18.829 Z-13.965
X-19.058 Y18.793 Z-13.973
G2 X-17.772 Y17.759 I-4.125 J-6.453
G1 X-17.669 Y17.65
G2 X-17.873 Y16.663 I-1.645 J-0.175
G1 X-18.003 Y16.387
X-18.317 Y15.847
G2 X-20.093 Y13.282 I-109.496 J73.895
G3 X-23.729 Y4.056 I21.027 J-13.618
X-24.05 Y0.954 I37.821 J-5.479
X-23.914 Y-2.784 I27.622 J-0.866
X-22.384 Y-8.815 I23.767 J2.819
X-21.068 Y-11.642 I26.291 J10.521
X-18.611 Y-15.244 I19.565 J10.708
X-16.924 Y-17.08 I13.706 J10.9
X-11.981 Y-20.852 I15.323 J14.954
X-8.603 Y-22.454 I10.763 J18.335
G1 X-8.024 Y-22.687
X-7.432 Y-22.885
X-6.835 Y-23.066
G3 X-0.07 Y-24.039 I6.478 J21.039
X6.704 Y-23.113 I0.385 J22.418
X11.869 Y-20.94 I-7.514 J25.083
X14.461 Y-19.208 I-11.584 J20.137
X16.373 Y-17.607 I-9.399 J13.165
X18.917 Y-14.867 I-13.982 J15.537
X20.354 Y-12.83 I-12.074 J10.039
X23.125 Y-6.577 I-20.147 J12.672
X23.695 Y-4.149 I-17.373 J5.353
X23.9 Y2.685 I-22.689 J4.102
X23.512 Y5.148 I-15.126 J-1.121
G1 X23.381 Y5.758
G3 X20.492 Y12.638 I-25.416 J-6.624
X18.679 Y15.175 I-23.918 J-15.183
X15.609 Y18.273 I-17.811 J-14.579
X10.968 Y21.399 I-13.124 J-14.474
X7.518 Y22.84 I-9.496 J-17.887
X4.508 Y23.646 I-6.4 J-17.892
X2.035 Y23.965 I-3.576 J-17.924
X-1.703 Y23.99 I-2.003 J-20.405
X-4.793 Y23.587 I0.763 J-17.891
X-7.203 Y22.944 I3.461 J-17.809
X-10.67 Y21.547 I5.773 J-19.335
X-15.365 Y18.5 I8.476 J-18.195
G1 X-15.849 Y18.106
G2 X-16.233 Y17.598 I-2.674 J1.626
G3 X-18.957 Y14.637 I15.027 J-16.55
X-23.474 Y4.738 I18.835 J-14.575
G1 X-23.577 Y4.285
G3 X-23.941 Y0.968 I34.573 J-5.47
G1 X-23.938 Y0.025
X-23.936 Y-0.447
X-23.89 Y-1.861
G3 X-23.404 Y-5.16 I48.72 J5.491
G1 X-23.01 Y-6.575
X-22.59 Y-7.989
G3 X-21.22 Y-11.142 I53.959 J21.579
G1 X-20.129 Y-12.939
X-19.699 Y-13.646
G3 X-17.452 Y-16.422 I38.142 J28.568
G1 X-16.504 Y-17.331
X-16.414 Y-17.417
X-15.404 Y-18.36
G3 X-12.733 Y-20.305 I32.013 J41.149
X-9.903 Y-21.822 I23.336 J40.145
G1 X-8.488 Y-22.392
X-7.073 Y-22.895
G3 X-3.773 Y-23.658 I8.728 J30.245
X4.244 Y-23.575 I3.762 J24.035
X7.073 Y-22.893 I-6.342 J32.493
G1 X8.488 Y-22.392
X9.902 Y-21.82
G3 X12.826 Y-20.246 I-18.142 J37.198
X15.405 Y-18.361 I-33.8 J48.947
G1 X16.414 Y-17.417
X16.504 Y-17.331
X17.447 Y-16.418
X17.826 Y-16.003
X18.593 Y-15.06
X19.345 Y-14.117
X19.699 Y-13.646
X20.748 Y-11.919
X21.219 Y-11.141
G3 X22.594 Y-7.99 I-57.459 J26.949
G1 X23.01 Y-6.575
X23.405 Y-5.161
G3 X23.893 Y-1.861 I-52.037 J9.369
X23.917 Y1.439 I-39.186 J1.945
G1 X23.822 Y2.382
X23.774 Y2.853
X23.577 Y4.285
G3 X22.731 Y7.568 I-31.963 J-6.489
X20.841 Y11.809 I-23.698 J-8.016
X15.865 Y17.94 I-20.882 J-11.863
G1 X14.756 Y18.881
G3 X11.955 Y20.768 I-21.693 J-29.173
X9.061 Y22.185 I-21.186 J-39.611
X6.132 Y23.171 I-24.141 J-66.842
G1 X4.715 Y23.459
X3.301 Y23.735
G3 X0 Y23.968 I-7.366 J-80.973
X-3.301 Y23.739 I4.5 J-88.992
G1 X-4.715 Y23.459
X-6.13 Y23.166
G3 X-9.432 Y22.03 I12.279 J-41.044
X-12.263 Y20.589 I20.464 J-43.706
X-14.757 Y18.882 I23.695 J-37.29
G1 X-15.864 Y17.938
X-16.032 Y17.787
X-16.234 Y17.599
G2 X-16.666 Y17.639 I-0.197 J0.226
G1 X-16.687 Y17.688 Z-13.968
X-16.708 Y17.735 Z-13.953
X-16.727 Y17.779 Z-13.93
X-16.731 Y17.825 Z-13.896
X-16.724 Y17.867 Z-13.849
X-16.719 Y17.897 Z-13.795
X-16.716 Y17.916 Z-13.735
X-16.715 Y17.923 Z-13.673
G0 Z2
X-0.713 Y0.341
Z-13.685
G1 Z-15.985 F500
G2 X0.856 Y-0.17 I-1.577 J-7.495
G1 X0.893 Y-0.188
X0.916 Y-0.223
X0.918 Y-0.264
X0.897 Y-0.37
X0.872 Y-0.408
X0.689 Y-0.683
X0.676 Y-0.693
X0.381 Y-0.89
X0.368 Y-0.897
X0 Y-0.971
X-0.368 Y-0.897
X-0.381 Y-0.89
X-0.676 Y-0.693
X-0.689 Y-0.683
X-0.885 Y-0.389
X-0.897 Y-0.37
X-0.969 Y-0.006
X-0.97 Y0.004
X-0.899 Y0.362
X-0.896 Y0.373
X-0.692 Y0.678
X-0.673 Y0.695
X-0.372 Y0.897
X0 Y0.971
X0.372 Y0.897
X0.673 Y0.695
X0.692 Y0.678
X0.896 Y0.373
X0.899 Y0.362
X0.97 Y0.004
X0.969 Y-0.006
X0.918 Y-0.264
G2 X0.544 Y-0.483 I-0.292 J0.069
G1 X0.498 Y-0.456 Z-15.98
X0.454 Y-0.43 Z-15.966
X0.413 Y-0.406 Z-15.942
X0.388 Y-0.364 Z-15.905
X0.367 Y-0.329 Z-15.859
X0.352 Y-0.303 Z-15.805
X0.342 Y-0.287 Z-15.747
X0.339 Y-0.281 Z-15.685
G0 Z2
X-20.463 Y20.2
Z-15.371
G1 Z-15.671 F500
X-20.457 Y20.196 Z-15.737
X-20.438 Y20.184 Z-15.801
X-20.407 Y20.166 Z-15.858
X-20.366 Y20.142 Z-15.905
X-20.317 Y20.113 Z-15.941
X-20.262 Y20.081 Z-15.963
X-20.205 Y20.047 Z-15.971
G2 X-18.884 Y19.058 I-3.902 J-6.59
G1 X-18.778 Y18.952
G2 X-18.967 Y18.104 I-1.529 J-0.104
X-19.19 Y17.71 I-1.23 J0.435
G1 X-20.054 Y16.759
X-20.251 Y16.524
X-20.748 Y15.89
X-20.971 Y15.581
X-21.957 Y14.167
G3 X-23.106 Y12.169 I14.008 J-9.381
X-24.175 Y9.925 I17.609 J-9.77
G1 X-24.694 Y8.51
X-24.866 Y8.039
X-25.159 Y7.096
G3 X-25.867 Y3.796 I43.1 J-10.974
G1 X-26.048 Y1.91
X-26.087 Y1.439
X-26.115 Y0.968
X-26.139 Y0.496
G3 X-25.994 Y-2.804 I55.301 J0.767
X-25.424 Y-6.104 I63.251 J9.229
X-24.52 Y-9.079 I145.821 J42.683
X-23.106 Y-12.232 I67.357 J28.309
G1 X-22.248 Y-13.646
X-21.677 Y-14.588
X-21.367 Y-15.06
X-20.748 Y-15.849
X-19.497 Y-17.417
G3 X-16.978 Y-19.884 I41.619 J39.978
G1 X-16.504 Y-20.25
X-16.032 Y-20.612
X-14.618 Y-21.668
X-14.146 Y-21.974
G3 X-11.349 Y-23.55 I25.321 J41.673
X-8.488 Y-24.724 I23.062 J52.131
G1 X-7.734 Y-24.959
X-7.545 Y-25.017
X-5.658 Y-25.512
X-5.187 Y-25.616
X-4.715 Y-25.703
X-4.244 Y-25.783
X-2.358 Y-26.026
X-1.886 Y-26.066
X-1.415 Y-26.095
X-0.943 Y-26.114
X0.943
X1.415 Y-26.095
X1.886 Y-26.066
X2.358 Y-26.026
X4.244 Y-25.783
X4.715 Y-25.703
X5.187 Y-25.616
X5.658 Y-25.512
X7.545 Y-25.017
X8.016 Y-24.871
X8.488 Y-24.724
G3 X11.346 Y-23.546 I-16.744 J44.678
X14.619 Y-21.669 I-16.122 J31.907
X17.107 Y-19.775 I-43.563 J59.797
X19.501 Y-17.42 I-66.651 J70.162
G1 X20.748 Y-15.849
X21.367 Y-15.06
X21.677 Y-14.588
X22.819 Y-12.703
X23.105 Y-12.23
G3 X24.52 Y-9.079 I-59.523 J28.604
X25.464 Y-5.939 I-101.39 J32.222
G1 X25.607 Y-5.161
X25.688 Y-4.689
X25.993 Y-2.804
G3 X26.139 Y0.496 I-52.624 J3.972
G1 X26.115 Y0.968
X26.087 Y1.439
X26.048 Y1.91
X25.866 Y3.796
G3 X25.158 Y7.095 I-43.675 J-7.64
G1 X24.866 Y8.039
X24.694 Y8.51
X24.173 Y9.924
X24.049 Y10.24
X23.766 Y10.867
X23.577 Y11.265
X22.801 Y12.752
G3 X21.957 Y14.166 I-13.724 J-7.234
G1 X20.971 Y15.581
X20.748 Y15.89
X20.251 Y16.524
X20.054 Y16.759
X18.862 Y18.073
X18.545 Y18.409
X17.919 Y19.035
G3 X15.561 Y21.001 I-32.491 J-36.554
X12.731 Y22.829 I-23.083 J-32.642
X9.902 Y24.187 I-22.858 J-44.01
G1 X9.431 Y24.377
X7.527 Y25.009
X6.602 Y25.297
G3 X3.16 Y25.956 I-15.784 J-73.06
G1 X0.943 Y26.093
G3 X-0.943 Y26.092 I-0.937 J-9.557
G1 X-3.159 Y25.952
G3 X-6.602 Y25.297 I10.081 J-62.442
G1 X-7.545 Y25.003
X-9.431 Y24.377
X-9.902 Y24.187
G3 X-12.732 Y22.832 I22.684 J-50.996
X-15.563 Y21.004 I23.718 J-39.839
X-17.917 Y19.034 I33.809 J-42.78
G1 X-18.545 Y18.409
X-18.862 Y18.073
X-19.19 Y17.711
G2 X-19.625 Y17.715 I-0.215 J0.209
G1 X-19.65 Y17.762 Z-15.966
X-19.674 Y17.807 Z-15.951
X-19.697 Y17.849 Z-15.928
X-19.701 Y17.886 Z-15.902
X-19.705 Y17.919 Z-15.87
Y17.92 Z-15.869
X-19.701 Y17.952 Z-15.825
X-19.698 Y17.975 Z-15.777
X-19.697 Y17.989 Z-15.725
X-19.696 Y17.994 Z-15.671
G0 Z2
X0.078 Y-0.825
Z-15.771
G2 X-0.078 Y0.825 Z-15.862 I-0.078 J0.825 F333.3
X0.078 Y-0.825 Z-15.952 I0.078 J-0.825
X-0.078 Y0.825 Z-16.043 I-0.078 J0.825
X0.078 Y-0.825 Z-16.134 I0.078 J-0.825
X-0.078 Y0.825 Z-16.225 I-0.078 J0.825
X0.078 Y-0.825 Z-16.316 I0.078 J-0.825
X-0.078 Y0.825 Z-16.407 I-0.078 J0.825
X0.078 Y-0.825 Z-16.498 I0.078 J-0.825
X-0.078 Y0.825 Z-16.588 I-0.078 J0.825
X0.078 Y-0.825 Z-16.679 I0.078 J-0.825
X-0.078 Y0.825 Z-16.77 I-0.078 J0.825
X0.078 Y-0.825 Z-16.861 I0.078 J-0.825
X-0.078 Y0.825 Z-16.952 I-0.078 J0.825
X0.828 Y0 Z-17 I0.078 J-0.825
X-0.828 Y0 I-0.828 J0
X0.828 Y0 I0.828 J0
X0 Y0 I-0.414 J0
X0.3 Y0.29 I0.3 J-0.01 F500
G1 X0.528
G2 X0.828 Y0 I0 J-0.3
X0.459 Y-0.841 I-0.884 J-0.113
G1 X0.381 Y-0.89
X0.368 Y-0.897
X0 Y-0.971
X-0.368 Y-0.897
X-0.381 Y-0.89
X-0.676 Y-0.693
X-0.689 Y-0.683
X-0.885 Y-0.389
X-0.897 Y-0.37
X-0.969 Y-0.006
X-0.97 Y0.004
X-0.899 Y0.362
X-0.896 Y0.373
X-0.692 Y0.678
X-0.673 Y0.695
X-0.372 Y0.897
X0 Y0.971
X0.372 Y0.897
X0.673 Y0.695
X0.692 Y0.678
X0.896 Y0.373
X0.899 Y0.362
X0.97 Y0.004
X0.969 Y-0.006
X0.897 Y-0.37
X0.872 Y-0.408
X0.689 Y-0.683
X0.676 Y-0.693
X0.458 Y-0.839
G2 X0.038 Y-0.73 I-0.158 J0.255
G1 X0.025 Y-0.679 Z-16.995
X0.012 Y-0.63 Z-16.981
X0 Y-0.584 Z-16.959
X0.012 Y-0.536 Z-16.921
X0.022 Y-0.496 Z-16.875
X0.03 Y-0.466 Z-16.821
X0.034 Y-0.448 Z-16.762
X0.036 Y-0.442 Z-16.7
G0 Z2
X-27.457 Y11.016
Z-16.4
G1 Z-16.7 F500
X-27.455 Y11.008 Z-16.767
X-27.449 Y10.987 Z-16.83
X-27.44 Y10.952 Z-16.887
X-27.429 Y10.906 Z-16.935
X-27.415 Y10.851 Z-16.97
X-27.399 Y10.79 Z-16.992
X-27.382 Y10.725 Z-17
G2 X-27.147 Y9.092 I-7.419 J-1.9
G1 Y8.936
G2 X-26.927 Y7.785 I-22.221 J-4.845
X-27.054 Y5.844 I-9.053 J-0.382
G3 X-27.482 Y2.754 I67.683 J-10.932
X-2.442 Y-27.499 I27.5 J-2.728
X25.498 Y-10.588 I2.431 J27.52
X27.078 Y-5.211 I-23.984 J9.97
X27.583 Y-0.879 I-22.841 J4.859
X27.193 Y4.712 I-26.706 J0.945
X-10.403 Y25.563 I-27.183 J-4.694
G1 X-10.981 Y25.33
X-11.552 Y25.078
G3 X-24.998 Y11.722 I11.617 J-25.142
G1 X-25.247 Y11.15
X-25.496 Y10.577
X-25.729 Y9.999
X-25.857 Y9.388
X-25.893 Y8.765
G2 X-25.936 Y7.462 I-12.38 J-0.247
G1 X-25.958 Y7.39
X-26.049 Y7.096
X-26.184 Y6.624
X-26.303 Y6.153
X-26.648 Y4.267
X-26.733 Y3.796
X-26.806 Y3.325
X-26.858 Y2.853
X-26.972 Y0.968
X-26.998 Y0.496
X-27.012 Y0.025
X-27.004 Y-0.447
X-26.878 Y-2.537
X-26.858 Y-2.804
X-26.814 Y-3.275
G3 X-26.203 Y-6.575 I46.072 J6.829
G1 X-26.067 Y-7.046
X-25.463 Y-8.983
X-25.318 Y-9.403
X-25.146 Y-9.874
X-24.297 Y-11.76
X-24.077 Y-12.231
X-23.843 Y-12.703
X-23.566 Y-13.174
X-22.634 Y-14.717
X-22.418 Y-15.06
X-22.106 Y-15.531
G3 X-20.039 Y-18.124 I44.748 J33.552
G1 X-19.801 Y-18.36
X-18.387 Y-19.774
X-18.153 Y-19.997
X-17.881 Y-20.245
X-17.447 Y-20.61
X-16.032 Y-21.719
X-15.561 Y-22.075
X-15.089 Y-22.408
G3 X-12.367 Y-24.02 I29.588 J46.874
X-9.432 Y-25.316 I22.444 J46.853
G1 X-9.093 Y-25.431
X-7.073 Y-26.06
X-6.602 Y-26.19
X-6.13 Y-26.309
X-5.658 Y-26.397
X-3.772 Y-26.742
X-3.301 Y-26.807
X-2.998 Y-26.845
X-2.829 Y-26.863
X-0.472 Y-27.005
X0 Y-27.01
X0.472 Y-27.005
X2.829 Y-26.863
X2.998 Y-26.845
X3.301 Y-26.807
X3.772 Y-26.742
X5.787 Y-26.373
X6.13 Y-26.309
X6.602 Y-26.19
X7.073 Y-26.06
X9.093 Y-25.431
X9.431 Y-25.312
X9.902 Y-25.129
G3 X12.367 Y-24.019 I-38.113 J87.885
G1 X12.732 Y-23.82
X13.212 Y-23.545
X14.771 Y-22.602
X15.089 Y-22.408
X15.561 Y-22.075
X16.032 Y-21.719
X17.447 Y-20.61
X17.881 Y-20.245
X18.153 Y-19.997
X18.39 Y-19.771
X19.805 Y-18.356
X20.036 Y-18.122
X20.276 Y-17.843
X20.633 Y-17.417
X21.741 Y-16.003
X22.106 Y-15.531
X22.418 Y-15.06
X22.634 Y-14.717
X23.577 Y-13.157
X23.843 Y-12.703
X24.077 Y-12.231
X24.297 Y-11.76
X25.146 Y-9.874
X25.318 Y-9.403
X25.463 Y-8.983
X26.067 Y-7.046
X26.203 Y-6.575
G3 X26.816 Y-3.275 I-48.866 J10.781
G1 X26.858 Y-2.804
X26.878 Y-2.537
X27.004 Y-0.447
X27.012 Y0.025
X26.998 Y0.496
X26.972 Y0.968
X26.858 Y2.853
X26.806 Y3.325
X26.733 Y3.796
X26.648 Y4.267
X26.303 Y6.153
X26.184 Y6.624
X26.049 Y7.096
X25.462 Y8.981
X25.312 Y9.453
X25.114 Y9.924
X24.992 Y10.21
X24.049 Y12.305
X23.807 Y12.752
X23.577 Y13.15
X22.392 Y15.109
X22.162 Y15.442
G3 X20.204 Y17.941 I-66.265 J-49.908
G1 X19.744 Y18.409
X18.33 Y19.823
X17.919 Y20.221
G3 X15.431 Y22.18 I-84.21 J-104.374
G1 X15.089 Y22.396
X14.675 Y22.652
X12.732 Y23.827
X12.249 Y24.066
X11.789 Y24.277
X9.902 Y25.126
X9.431 Y25.313
X8.904 Y25.48
X6.602 Y26.198
G3 X3.3 Y26.816 I-19.24 J-93.601
G1 X2.829 Y26.852
X0.472 Y26.995
X0 Y27.021
X-0.472 Y26.995
X-2.829 Y26.852
X-3.301 Y26.818
G3 X-6.602 Y26.2 I18.672 J-108.956
G1 X-8.959 Y25.463
X-9.431 Y25.313
X-9.902 Y25.126
X-11.789 Y24.277
X-12.26 Y24.061
X-12.732 Y23.827
X-14.675 Y22.652
X-15.089 Y22.396
X-15.431 Y22.18
G3 X-17.919 Y20.221 I83.928 J-109.137
X-20.276 Y17.859 I56.849 J-59.095
X-22.163 Y15.442 I91.673 J-73.494
G1 X-22.392 Y15.109
X-23.577 Y13.15
X-23.807 Y12.752
X-24.049 Y12.305
X-24.992 Y10.21
X-25.114 Y9.924
X-25.312 Y9.453
X-25.463 Y8.976
X-25.958 Y7.39
G2 X-26.241 Y7.189 I-0.283 J0.099
X-26.535 Y7.433 I0 J0.3
G1 X-26.548 Y7.499 Z-16.992
X-26.56 Y7.561 Z-16.97
X-26.57 Y7.617 Z-16.935
X-26.579 Y7.664 Z-16.887
X-26.586 Y7.699 Z-16.83
X-26.59 Y7.72 Z-16.767
X-26.591 Y7.728 Z-16.7
G0 Z2

(Adaptive1 5)
X-20.55 Y10.008
Z2
Z-9.4
G1 Z-9.7 F700
X-20.548 Y10.001 Z-9.766
X-20.543 Y9.979 Z-9.83
X-20.534 Y9.945 Z-9.887
X-20.522 Y9.899 Z-9.934
X-20.508 Y9.844 Z-9.97
X-20.492 Y9.782 Z-9.992
X-20.476 Y9.717 Z-10
G2 X-20.241 Y8.084 I-7.419 J-1.9
G1 Y7.928
X-20.094 Y7.157
G2 X-20.104 Y5.916 I-4.485 J-0.583
G3 X-20.645 Y2.212 I129.942 J-20.836
X-20.729 Y-0.906 I40.756 J-2.665
X-19.935 Y-5.823 I21.984 J1.029
X-14.534 Y-14.824 I20.266 J6.04
X-8.362 Y-18.994 I14.738 J15.162
X2.613 Y-20.587 I8.322 J18.725
X9.144 Y-18.6 I-2.204 J18.976
X13.328 Y-15.908 I-7.472 J16.209
X19.62 Y-6.773 I-13.213 J15.834
X20.306 Y-4.374 I-27.617 J9.197
X20.723 Y-0.035 I-19.64 J4.078
X19.642 Y6.705 I-18.952 J0.416
X17.47 Y11.186 I-19.552 J-6.71
X14.733 Y14.575 I-15.094 J-9.391
X9.763 Y18.301 I-13.672 J-13.061
X5.126 Y20.115 I-9.754 J-18.099
X-2.302 Y20.629 I-5.113 J-19.97
X-7.144 Y19.475 I1.908 J-18.751
X-12.604 Y16.505 I7.026 J-19.42
X-16.923 Y12.032 I13.352 J-17.21
X-18.795 Y8.795 I18.123 J-12.644
G1 X-18.923 Y8.183
G2 X-19.503 Y3.227 I-55.766 J4.014
G3 X-19.5 Y-2.995 I23.529 J-3.097
X-15.598 Y-12.069 I19.535 J3.022
X-3.625 Y-19.4 I15.664 J12.141
X6.82 Y-18.514 I3.603 J19.546
X10.722 Y-16.566 I-8.357 J21.621
X19.606 Y-2.18 I-10.757 J16.579
X19.668 Y1.56 I-26.376 J2.306
X13.177 Y14.657 I-19.622 J-1.568
X-10.554 Y16.661 I-13.182 J-14.591
X-17.307 Y9.455 I10.413 J-16.526
G1 X-17.565 Y8.888
X-17.743 Y8.29
G3 X-18.125 Y5.824 I27.925 J-5.582
X-18.597 Y2.111 I68.37 J-10.586
X-18.246 Y-4.096 I20.816 J-1.935
X5.269 Y-17.945 I18.264 J4.123
X10.857 Y-15.226 I-5.864 J19.154
X18.681 Y0.312 I-10.847 J15.2
X12.304 Y14.046 I-18.534 J-0.257
X-1.528 Y18.632 I-12.292 J-13.924
G1 X-2.149 Y18.575
X-2.768 Y18.495
X-3.383 Y18.392
G3 X-15.558 Y10.368 I3.423 J-18.441
G1 X-15.891 Y9.84
G3 X-16.795 Y7.528 I5.719 J-3.568
X-17.629 Y1.349 I49.751 J-9.867
X-16.993 Y-4.831 I19.208 J-1.146
X-2.868 Y-17.433 I17.047 J4.891
X16.95 Y-4.969 I2.849 J17.457
X16.588 Y6.073 I-17.177 J4.965
X7.554 Y15.958 I-16.713 J-6.204
X-14.919 Y9.442 I-7.56 J-15.935
X-15.797 Y7.113 I7.645 J-4.213
X-16.638 Y0.313 I34.713 J-7.747
X-15.787 Y-5.215 I17.704 J-0.103
X-10.072 Y-13.221 I15.847 J5.269
X16.415 Y-2.603 I10.075 J13.215
X15.272 Y6.563 I-16.461 J2.601
X11.344 Y12.134 I-15.392 J-6.683
X-13.397 Y9.835 I-11.353 J-12.106
X-14.721 Y7.029 I6.731 J-4.89
X-15.597 Y-0.384 I27.207 J-6.972
X-14.198 Y-6.426 I16.129 J0.552
X-11.018 Y-11.019 I14.326 J6.521
X11.565 Y-10.445 I11.019 J11.013
X9.832 Y12.079 I-11.564 J10.439
X-12.382 Y9.457 I-9.839 J-12.054
X-13.721 Y6.657 I7.082 J-5.106
X-14.544 Y-0.755 I23.218 J-6.331
X-11.923 Y-8.327 I14.92 J0.924
X-6.83 Y-12.835 I12.007 J8.435
X6.833 Y12.829 I6.832 J12.832
X2.234 Y14.361 I-6.832 J-12.832
X-11.162 Y9.312 I-2.26 J-14.299
X-12.811 Y5.981 I6.924 J-5.499
X-13.443 Y-1.439 I20.189 J-5.458
X-11.37 Y-7.271 I13.938 J1.669
X4.489 Y-12.729 I11.372 J7.274
X-4.498 Y12.724 I-4.493 J12.727
X-9.724 Y9.362 I4.493 J-12.727
G1 X-10.136 Y8.893
X-10.518 Y8.4
X-10.86 Y7.878
G3 X-11.981 Y4.98 I8.693 J-5.028
X-12.419 Y-1.216 I18.181 J-4.398
X-9.919 Y-7.523 I12.877 J1.454
X12.437 Y-0.448 I9.917 J7.523
X12.011 Y3.258 I-12.511 J0.438
X-8.488 Y9.11 I-12.017 J-3.267
X-10.758 Y5.436 I5.675 J-6.046
X-11.251 Y-1.969 I15.52 J-4.752
X-8.958 Y-7.04 I11.736 J2.252
X-2.791 Y-11.049 I9.007 J7.107
X2.782 Y11.045 I2.786 J11.047
X-7.511 Y8.568 I-2.786 J-11.047
X-9.599 Y5.504 I5.134 J-5.742
X-10.058 Y-2.482 I13.203 J-4.765
X-7.734 Y-6.851 I10.447 J2.754
X7.734 Y6.843 I7.734 J6.847
X3.666 Y9.653 I-7.734 J-6.847
X-6.839 Y7.733 I-3.678 J-9.574
X-8.781 Y4.577 I5.088 J-5.306
X-9.037 Y-2.195 I11.86 J-3.84
X-7.031 Y-6.036 I9.475 J2.503
X9.087 Y1.793 I7.03 J6.034
X-5.063 Y7.764 I-9.095 J-1.801
X-6.853 Y6.042 I3.805 J-5.746
X-8.052 Y3.183 I6.589 J-4.445
X-7.877 Y-2.366 I10.457 J-2.448
X-5.56 Y-6.015 I8.22 J2.661
X7.914 Y-2.098 I5.558 J6.015
X-3.618 Y7.35 I-7.923 J2.091
X-5.593 Y5.849 I2.756 J-5.675
X-6.794 Y3.678 I4.911 J-4.135
X-6.911 Y-1.854 I8.938 J-2.956
X-5.01 Y-5.038 I7.347 J2.225
X1.909 Y-6.84 I5.012 J5.062
X7.055 Y0.766 I-1.911 J6.837
X-2.075 Y6.793 I-7.067 J-0.776
G1 X-2.661 Y6.58
X-3.227 Y6.316
G3 X-5.071 Y4.67 I2.362 J-4.503
X-6.013 Y2.375 I5.315 J-3.522
X-5.737 Y-1.928 I7.603 J-1.673
X-3.993 Y-4.48 I6.071 J2.277
X-1.235 Y-5.868 I4.037 J4.586
X4.834 Y-3.544 I1.227 J5.882
X5.962 Y0.579 I-4.847 J3.541
X-0.535 Y5.971 I-5.976 J-0.589
G1 X-1.152 Y5.88
X-1.757 Y5.726
X-2.325 Y5.469
X-2.862 Y5.15
X-3.352 Y4.764
X-3.785 Y4.316
X-4.15 Y3.81
G3 X-4.95 Y1.464 I4.974 J-3.004
X-4.571 Y-1.6 I6.092 J-0.803
X-3.13 Y-3.61 I4.839 J1.948
G1 X-2.63 Y-3.983
X-2.086 Y-4.289
X-1.507 Y-4.522
X-0.903 Y-4.68
X-0.284 Y-4.757
X0.34 Y-4.752
X0.958 Y-4.666
X1.56 Y-4.502
X2.134 Y-4.258
X2.672 Y-3.942
X3.165 Y-3.559
X3.603 Y-3.115
X3.978 Y-2.616
X4.285 Y-2.073
X4.52 Y-1.495
X4.677 Y-0.891
X4.751 Y-0.272
X4.745 Y0.352
X4.658 Y0.97
X4.491 Y1.571
X4.245 Y2.144
X3.927 Y2.681
X3.543 Y3.173
X3.098 Y3.611
X2.599 Y3.985
X2.055 Y4.291
X1.477 Y4.526
X0.873 Y4.681
X0.253 Y4.754
X-0.371 Y4.746
X-0.985 Y4.635
X-1.572 Y4.423
X-2.115 Y4.116
X-2.591 Y3.713
X-2.99 Y3.233
X-3.307 Y2.696
X-3.54 Y2.117
X-3.692 Y1.512
X-3.71 Y1.357
X-3.718 Y1.279
X-3.766 Y0.657
X-3.729 Y0.034
X-3.61 Y-0.578
X-3.408 Y-1.168
X-3.117 Y-1.72
X-2.746 Y-2.222
X-2.299 Y-2.658
X-1.785 Y-3.011
X-1.218 Y-3.272
X-0.615 Y-3.432
X0.007 Y-3.482
X0.628 Y-3.423
X1.228 Y-3.254
X1.789 Y-2.981
X2.294 Y-2.614
X2.722 Y-2.16
X3.064 Y-1.638
X3.308 Y-1.064
X3.442 Y-0.455
X3.468 Y0.169
X3.38 Y0.787
X3.183 Y1.379
X2.887 Y1.927
X2.494 Y2.413
X2.022 Y2.821
X1.486 Y3.14
X0.9 Y3.354
X0.284 Y3.455
X-0.338 Y3.414
X-0.932 Y3.221
X-1.456 Y2.882
X-1.88 Y2.425
X-1.919 Y2.357
X-2.174 Y2.215
X-2.443 Y2.382
X-2.527 Y2.537
X-11.317 Y18.836 F1200
G3 X-12.26 Y19.68 I-2.084 J-1.381
X-15.622 Y16.308 Z-10.98 I-1.141 J-2.225
G1 X-15.561 Y16.196 Z-11 F700
X-15.223 Y15.634
X-15.116 Y15.527
G2 X-15.294 Y14.68 I-1.662 J-0.094
X-15.74 Y13.845 I-3.26 J1.202
G1 X-15.888 Y13.695
G3 X-17.447 Y11.648 I40.028 J-32.099
G1 X-18.201 Y10.395
X-18.39 Y10.072
X-18.471 Y9.924
X-18.718 Y9.453
X-19.372 Y8.039
G3 X-20.193 Y5.681 I36.918 J-14.177
G1 X-20.276 Y5.326
X-20.613 Y3.796
X-20.714 Y3.325
G3 X-20.952 Y0.968 I45.888 J-5.839
X-20.925 Y-1.39 I29.106 J-0.844
G1 X-20.876 Y-1.861
X-20.721 Y-3.275
X-20.622 Y-3.746
X-20.208 Y-5.632
G3 X-19.396 Y-7.989 I45.43 J14.342
X-18.392 Y-10.073 I29.375 J12.86
G1 X-18.231 Y-10.346
X-17.447 Y-11.648
G3 X-15.936 Y-13.647 I208.302 J155.924
X-14.148 Y-15.482 I27.754 J25.24
G1 X-12.977 Y-16.474
X-12.732 Y-16.662
X-12.349 Y-16.945
X-10.958 Y-17.888
X-10.845 Y-17.954
X-9.431 Y-18.704
X-8.959 Y-18.961
G3 X-6.601 Y-19.908 I14.74 J33.275
X-4.244 Y-20.539 I9.129 J29.405
G1 X-3.772 Y-20.617
X-2.829 Y-20.772
X-2.358 Y-20.843
G3 X0 Y-20.979 I6.526 J92.74
X2.358 Y-20.844 I-4.203 J93.945
X4.716 Y-20.436 I-4.957 J35.682
X7.075 Y-19.738 I-5.818 J24.008
G1 X7.545 Y-19.548
X8.488 Y-19.172
X8.959 Y-18.962
X10.374 Y-18.211
X10.845 Y-17.954
X10.958 Y-17.888
X12.349 Y-16.945
X12.732 Y-16.662
X12.977 Y-16.474
X14.146 Y-15.48
G3 X16.034 Y-13.527 I-21.208 J22.39
G1 X17.016 Y-12.231
X17.369 Y-11.76
G3 X18.498 Y-9.874 I-24.885 J16.183
G1 X18.741 Y-9.403
X19.333 Y-8.122
G3 X20.206 Y-5.631 I-28.47 J11.37
G1 X20.52 Y-4.218
X20.623 Y-3.746
X20.721 Y-3.275
X20.876 Y-1.861
X20.921 Y-1.389
G3 X20.919 Y1.439 I-21.535 J1.402
G1 X20.87 Y1.91
X20.748 Y3.036
X20.714 Y3.325
X20.612 Y3.796
X20.276 Y5.323
X20.195 Y5.682
G3 X19.374 Y8.039 I-43.908 J-13.969
G1 X18.718 Y9.453
X18.471 Y9.924
G3 X17.331 Y11.81 I-30.686 J-17.263
X15.891 Y13.698 I-105.715 J-79.144
X14.148 Y15.482 I-27.529 J-25.142
G1 X13.203 Y16.282
X12.916 Y16.524
G3 X10.874 Y17.936 I-19.127 J-25.471
G1 X9.431 Y18.704
X8.959 Y18.961
G3 X6.601 Y19.908 I-14.74 J-33.275
X4.244 Y20.539 I-9.129 J-29.405
G1 X3.772 Y20.617
X2.829 Y20.772
X2.358 Y20.843
G3 X0 Y20.979 I-6.526 J-92.74
X-2.358 Y20.844 I4.203 J-93.946
X-4.716 Y20.436 I5.044 J-36.196
X-7.075 Y19.738 I5.836 J-24.063
G1 X-7.545 Y19.548
X-8.488 Y19.172
X-8.959 Y18.962
X-10.374 Y18.211
X-10.875 Y17.938
G3 X-12.917 Y16.525 I18.947 J-29.561
G1 X-14.146 Y15.48
X-14.537 Y15.109
X-14.618 Y15.029
X-14.995 Y14.638
X-15.744 Y13.848
G2 X-16.178 Y13.861 I-0.21 J0.214
G1 X-16.202 Y13.908 Z-10.995
X-16.225 Y13.954 Z-10.981
X-16.247 Y13.996 Z-10.958
X-16.251 Y14.031 Z-10.934
X-16.254 Y14.061 Z-10.905
X-16.25 Y14.095 Z-10.86
X-16.246 Y14.121 Z-10.81
X-16.244 Y14.136 Z-10.756
X-16.243 Y14.141 Z-10.7
G0 Z2
X0.789 Y-0.043
Z-8.7
G1 Z-11 F700
G2 X-0.856 Y-0.17 I-1.411 J7.528
G1 X-0.897 Y-0.168
X-0.931 Y-0.145
X-0.949 Y-0.108
X-0.969 Y-0.006
X-0.97 Y0.004
X-0.899 Y0.362
X-0.896 Y0.373
X-0.692 Y0.678
X-0.673 Y0.695
X-0.372 Y0.897
X0 Y0.971
X0.372 Y0.897
X0.673 Y0.695
X0.692 Y0.678
X0.896 Y0.373
X0.899 Y0.362
X0.97 Y0.004
X0.969 Y-0.006
X0.897 Y-0.37
X0.872 Y-0.408
X0.689 Y-0.683
X0.676 Y-0.693
X0.381 Y-0.89
X0.368 Y-0.897
X0 Y-0.971
X-0.368 Y-0.897
X-0.381 Y-0.89
X-0.676 Y-0.693
X-0.689 Y-0.683
X-0.885 Y-0.389
X-0.897 Y-0.37
X-0.949 Y-0.108
G2 X-0.687 Y0.238 I0.296 J0.048
G1 X-0.653 Y0.24 Z-10.998
X-0.6 Y0.227 Z-10.986
X-0.551 Y0.214 Z-10.965
X-0.506 Y0.202 Z-10.934
X-0.47 Y0.172 Z-10.886
X-0.443 Y0.149 Z-10.83
X-0.426 Y0.135 Z-10.767
X-0.421 Y0.13 Z-10.7
G0 Z2
X-16.396 Y16.054
Z-9.9
G1 Z-10.2 F700
X-16.39 Y16.051 Z-10.267
X-16.37 Y16.039 Z-10.33
X-16.34 Y16.021 Z-10.387
X-16.299 Y15.997 Z-10.435
X-16.25 Y15.968 Z-10.47
X-16.195 Y15.936 Z-10.492
X-16.138 Y15.901 Z-10.5
G2 X-14.817 Y14.913 I-3.902 J-6.59
G1 X-14.711 Y14.807
X-14.716 Y14.62
X-14.777 Y14.444
X-14.887 Y14.293
G3 X-16.221 Y12.753 I7.805 J-8.106
G1 X-16.975 Y11.745
X-17.276 Y11.338
G3 X-18.865 Y8.423 I24.339 J-15.16
X-19.868 Y5.681 I31.401 J-13.038
G1 X-19.974 Y5.21
X-20.078 Y4.739
X-20.385 Y3.325
X-20.459 Y2.853
G3 X-20.661 Y0.025 I32.745 J-3.756
X-20.399 Y-3.275 I27.926 J0.558
G1 X-20.189 Y-4.218
X-19.881 Y-5.632
G3 X-18.863 Y-8.422 I28.309 J8.756
X-17.305 Y-11.288 I24.828 J11.635
X-15.565 Y-13.593 I76.083 J55.616
X-13.678 Y-15.487 I41.412 J39.391
G1 X-13.203 Y-15.884
X-13.058 Y-16.003
X-11.789 Y-16.953
G3 X-9.901 Y-18.082 I7.05 J9.645
G1 X-8.959 Y-18.601
X-8.502 Y-18.831
G3 X-6.13 Y-19.731 I25.175 J62.776
G1 X-5.658 Y-19.863
G3 X-2.829 Y-20.463 I6.648 J24.382
X0 Y-20.664 I4.337 J41.13
X2.829 Y-20.466 I-1.7 J44.722
X6.13 Y-19.733 I-4.189 J26.643
X8.502 Y-18.832 I-26.271 J72.738
X11.113 Y-17.42 I-17.246 J35.012
X13.204 Y-15.885 I-18.229 J27.027
G1 X13.675 Y-15.484
G3 X15.56 Y-13.59 I-25.972 J27.741
X17.306 Y-11.288 I-33.934 J27.546
X18.865 Y-8.423 I-24.24 J15.049
X19.882 Y-5.632 I-29.164 J12.208
G1 X20.089 Y-4.689
X20.396 Y-3.275
G3 X20.655 Y0.496 I-24.548 J3.582
G1 X20.551 Y1.91
G3 X20.179 Y4.267 I-12.383 J-0.75
G1 X19.973 Y5.21
G3 X19.55 Y6.623 I-8.529 J-1.782
G1 X19.025 Y8.039
X18.862 Y8.421
G3 X17.274 Y11.337 I-23.824 J-11.084
G1 X16.975 Y11.74
X16.504 Y12.365
X15.861 Y13.224
X15.561 Y13.59
G3 X13.207 Y15.889 I-20.847 J-18.999
G1 X12.992 Y16.052
X11.732 Y16.995
X11.038 Y17.466
X10.845 Y17.582
X10.175 Y17.938
X8.959 Y18.601
X8.488 Y18.837
G3 X6.13 Y19.731 I-25.132 J-62.703
G1 X5.658 Y19.863
G3 X2.829 Y20.463 I-6.648 J-24.382
X0 Y20.664 I-4.337 J-41.13
X-2.829 Y20.466 I1.7 J-44.722
X-6.13 Y19.733 I4.216 J-26.766
X-8.488 Y18.837 I26.479 J-73.279
X-11.039 Y17.468 I18.129 J-36.825
G1 X-11.732 Y16.995
X-12.992 Y16.052
X-13.203 Y15.884
X-13.675 Y15.484
X-14.071 Y15.109
X-14.887 Y14.293
G2 X-15.321 Y14.318 I-0.205 J0.219
G1 X-15.344 Y14.366 Z-10.495
X-15.366 Y14.412 Z-10.481
X-15.386 Y14.456 Z-10.458
X-15.389 Y14.485 Z-10.437
X-15.392 Y14.513 Z-10.413
X-15.386 Y14.55 Z-10.368
X-15.382 Y14.577 Z-10.316
X-15.38 Y14.594 Z-10.259
X-15.379 Y14.6 Z-10.2
G0 Z2
X-22.719 Y10.44
Z-11.4
G1 Z-11.7 F700
X-22.717 Y10.433 Z-11.767
X-22.712 Y10.412 Z-11.83
X-22.703 Y10.377 Z-11.887
X-22.691 Y10.331 Z-11.935
X-22.677 Y10.276 Z-11.97
X-22.661 Y10.215 Z-11.992
X-22.645 Y10.15 Z-12
G2 X-22.41 Y8.517 I-7.419 J-1.9
G1 Y8.361
G2 X-22.225 Y7.276 I-9.458 J-2.168
X-22.404 Y5.207 I-8.556 J-0.302
G3 X-22.851 Y1.493 I27.998 J-5.253
X-22.858 Y-1.626 I36.465 J-1.633
X-21.781 Y-7.124 I23.427 J1.734
X-20.339 Y-10.576 I34.992 J12.588
X-17.952 Y-14.226 I19.546 J10.18
X-15.395 Y-16.953 I16.027 J12.465
X-6.805 Y-21.878 I15.219 J16.592
X5.509 Y-22.245 I6.803 J21.469
X14.859 Y-17.437 I-5.541 J22.269
X18.285 Y-13.817 I-16.819 J19.353
X20.553 Y-10.094 I-17.048 J12.94
X21.545 Y-7.804 I-39.927 J18.644
X21.231 Y8.667 I-21.663 J7.825
X20.154 Y10.916 I-16.15 J-6.351
X14.647 Y17.625 I-19.658 J-10.52
X4.623 Y22.431 I-14.571 J-17.53
X2.156 Y22.793 I-3.435 J-14.835
X-1.581 Y22.84 I-2.11 J-19.296
X-6.484 Y21.975 I0.949 J-19.705
X-13.182 Y18.712 I6.137 J-21.105
X-15.15 Y17.18 I9.669 J-14.449
X-18.506 Y13.503 I12.959 J-15.198
X-20.471 Y10.322 I16.347 J-12.296
G1 X-20.744 Y9.761
X-20.999 Y9.192
X-21.112 Y8.578
X-21.16 Y7.956
G2 X-21.557 Y4.236 I-28.387 J1.147
G3 X-21.84 Y1.131 I28.869 J-4.2
X-20.103 Y-8.608 I21.285 J-1.228
X-13.287 Y-17.371 I19.657 J8.258
X10.242 Y-19.334 I13.284 J17.223
X13.87 Y-16.917 I-9.604 J18.346
X20.15 Y-8.501 I-13.623 J16.717
X20.626 Y7.342 I-20.038 J8.531
X18.437 Y11.814 I-19.294 J-6.674
X3.179 Y21.645 I-18.4 J-11.8
X-6.687 Y20.848 I-3.209 J-21.742
X-16.484 Y14.42 I7.018 J-21.375
X-19.603 Y9.766 I17.374 J-15.014
G1 X-19.82 Y9.18
G2 X-19.913 Y8.85 I-1.851 J0.341
G1 X-20.276 Y8.014
X-20.468 Y7.567
X-20.627 Y7.096
X-20.748 Y6.729
X-21.219 Y5.046
X-21.293 Y4.739
X-21.397 Y4.267
X-21.475 Y3.796
X-21.691 Y2.222
X-21.776 Y1.439
X-21.784 Y0.968
Y-0.918
X-21.78 Y-1.389
G3 X-21.407 Y-4.218 I44.045 J4.371
G1 X-21.304 Y-4.689
X-21.219 Y-5.046
X-20.748 Y-6.729
X-20.644 Y-7.046
X-20.485 Y-7.518
G3 X-19.334 Y-10.127 I53.045 J21.836
G2 X-17.919 Y-12.459 I-734.062 J-447.278
G3 X-16.035 Y-14.799 I28.868 J21.308
G1 X-15.783 Y-15.06
X-15.561 Y-15.287
X-14.29 Y-16.474
X-14.146 Y-16.603
X-13.675 Y-17.003
G3 X-11.317 Y-18.661 I34.901 J47.12
G2 X-8.959 Y-19.895 I-297.943 J-572.574
G1 X-8.488 Y-20.094
G3 X-6.13 Y-20.937 I12.456 J31.131
G1 X-5.658 Y-21.069
G3 X-2.829 Y-21.638 I8.315 J34.033
X0 Y-21.825 I5.804 J66.488
X2.829 Y-21.64 I-3.252 J71.625
X6.131 Y-20.942 I-4.873 J31.204
X8.489 Y-20.096 I-13.518 J41.397
G1 X8.959 Y-19.896
G3 X11.317 Y-18.662 I-56.033 J110.008
X13.675 Y-17.004 I-35.074 J52.375
G1 X14.146 Y-16.603
X14.29 Y-16.474
X15.561 Y-15.287
X15.783 Y-15.06
X16.032 Y-14.796
X16.225 Y-14.588
X17.375 Y-13.174
G3 X18.062 Y-12.234 I-8.785 J7.138
G1 X18.919 Y-10.817
G3 X19.802 Y-9.099 I-8.294 J5.349
G1 X20.287 Y-7.989
X20.485 Y-7.518
X20.644 Y-7.046
X20.748 Y-6.729
X21.219 Y-5.046
X21.304 Y-4.689
X21.408 Y-4.218
G3 X21.781 Y-1.389 I-44.716 J7.33
G1 X21.784 Y-0.918
Y0.968
X21.776 Y1.439
X21.691 Y2.222
X21.475 Y3.796
X21.397 Y4.267
X21.293 Y4.739
X21.219 Y5.046
X20.748 Y6.729
X20.627 Y7.096
X20.468 Y7.567
G3 X19.335 Y10.127 I-60.923 J-25.434
G2 X17.919 Y12.459 I718.198 J437.564
G3 X16.18 Y14.636 I-35.057 J-26.226
G1 X15.736 Y15.109
X15.561 Y15.287
X14.237 Y16.524
X14.146 Y16.603
X13.675 Y17.003
G3 X11.317 Y18.661 I-34.868 J-47.073
G2 X8.959 Y19.895 I342.65 J658.091
G1 X8.488 Y20.094
X8.016 Y20.279
X6.602 Y20.782
X6.13 Y20.938
X5.658 Y21.069
G3 X2.829 Y21.638 I-8.315 J-34.033
X0 Y21.825 I-6.109 J-70.978
X-2.829 Y21.638 I3.32 J-71.853
X-6.131 Y20.942 I4.655 J-30.232
G1 X-6.602 Y20.782
X-8.016 Y20.279
X-8.488 Y20.094
X-8.959 Y19.896
X-10.374 Y19.163
G3 X-12.259 Y18.016 I4.916 J-10.204
G1 X-13.203 Y17.351
X-13.675 Y17.003
X-14.146 Y16.603
X-14.237 Y16.524
X-15.561 Y15.287
X-15.736 Y15.109
X-16.182 Y14.638
G3 X-17.92 Y12.46 I38.189 J-32.264
X-19.437 Y9.928 I52.615 J-33.241
G1 X-19.649 Y9.453
X-19.805 Y9.1
X-19.913 Y8.85
G2 X-20.326 Y8.714 I-0.271 J0.129
G1 X-20.365 Y8.75 Z-11.995
X-20.402 Y8.785 Z-11.981
X-20.437 Y8.818 Z-11.958
X-20.453 Y8.864 Z-11.921
X-20.466 Y8.903 Z-11.874
X-20.475 Y8.931 Z-11.82
X-20.481 Y8.949 Z-11.762
X-20.483 Y8.955 Z-11.7
G0 Z2
X0.789 Y-0.043
Z-9.7
G1 Z-12 F700
G2 X-0.856 Y-0.17 I-1.411 J7.528
G1 X-0.897 Y-0.168
X-0.931 Y-0.145
X-0.949 Y-0.108
X-0.969 Y-0.006
X-0.97 Y0.004
X-0.899 Y0.362
X-0.896 Y0.373
X-0.692 Y0.678
X-0.673 Y0.695
X-0.372 Y0.897
X0 Y0.971
X0.372 Y0.897
X0.673 Y0.695
X0.692 Y0.678
X0.896 Y0.373
X0.899 Y0.362
X0.97 Y0.004
X0.969 Y-0.006
X0.897 Y-0.37
X0.872 Y-0.408
X0.689 Y-0.683
X0.676 Y-0.693
X0.381 Y-0.89
X0.368 Y-0.897
X0 Y-0.971
X-0.368 Y-0.897
X-0.381 Y-0.89
X-0.676 Y-0.693
X-0.689 Y-0.683
X-0.885 Y-0.389
X-0.897 Y-0.37
X-0.949 Y-0.108
G2 X-0.687 Y0.238 I0.296 J0.048
G1 X-0.653 Y0.24 Z-11.998
X-0.6 Y0.227 Z-11.986
X-0.551 Y0.214 Z-11.965
X-0.506 Y0.202 Z-11.934
X-0.47 Y0.172 Z-11.886
X-0.443 Y0.149 Z-11.83
X-0.426 Y0.135 Z-11.767
X-0.421 Y0.13 Z-11.7
G0 Z2
X-17.008 Y16.55
Z-10.9
G1 Z-11.2 F700
X-17.002 Y16.546 Z-11.267
X-16.982 Y16.535 Z-11.33
X-16.951 Y16.518 Z-11.387
X-16.91 Y16.494 Z-11.435
X-16.861 Y16.466 Z-11.47
X-16.806 Y16.435 Z-11.492
X-16.748 Y16.401 Z-11.5
G2 X-15.411 Y15.434 I-3.798 J-6.651
G1 X-15.358 Y15.381
G2 X-15.555 Y14.607 I-0.763 J-0.218
G3 X-16.746 Y13.224 I8.974 J-8.934
G1 X-17.463 Y12.281
X-17.784 Y11.81
X-18.069 Y11.338
X-18.862 Y10.021
G3 X-19.804 Y7.976 I45.296 J-22.122
G1 X-19.965 Y7.567
X-20.441 Y6.153
X-20.58 Y5.682
X-20.7 Y5.21
X-21.012 Y3.796
X-21.089 Y3.325
X-21.149 Y2.853
X-21.303 Y1.439
X-21.327 Y0.968
Y-0.918
X-21.308 Y-1.389
X-21.154 Y-2.804
X-21.095 Y-3.275
X-21.023 Y-3.746
X-20.711 Y-5.161
X-20.594 Y-5.632
X-20.458 Y-6.103
X-19.982 Y-7.518
X-19.805 Y-7.976
X-19.591 Y-8.46
X-18.937 Y-9.874
X-18.862 Y-10.021
X-18.38 Y-10.817
X-17.812 Y-11.76
G3 X-16.032 Y-14.1 I19.427 J12.934
G1 X-15.089 Y-15.096
X-14.869 Y-15.326
X-14.618 Y-15.561
X-14.382 Y-15.778
X-13.203 Y-16.779
G3 X-10.905 Y-18.359 I17.077 J22.378
G1 X-10.374 Y-18.636
X-8.959 Y-19.386
G3 X-6.602 Y-20.311 I15.841 J36.916
X-4.245 Y-20.927 I9.254 J30.571
G1 X-3.772 Y-21.002
X-2.636 Y-21.188
X-2.358 Y-21.226
G3 X0 Y-21.359 I7.122 J105.113
X2.636 Y-21.194 I-1.807 J50.042
G1 X3.772 Y-21.002
X4.244 Y-20.923
G3 X7.074 Y-20.145 I-4.669 J22.502
G1 X7.545 Y-19.96
X8.488 Y-19.584
X8.959 Y-19.386
X9.431 Y-19.142
X10.906 Y-18.36
G3 X13.206 Y-16.783 I-17.553 J28.073
G1 X14.382 Y-15.778
X14.649 Y-15.531
X14.869 Y-15.326
X15.124 Y-15.06
X16.032 Y-14.101
G3 X17.817 Y-11.762 I-18.851 J16.23
G1 X18.099 Y-11.289
X18.862 Y-10.021
X18.937 Y-9.874
X19.591 Y-8.46
X19.805 Y-7.976
X19.982 Y-7.518
X20.458 Y-6.103
X20.594 Y-5.632
X20.711 Y-5.161
X21.023 Y-3.746
G3 X21.332 Y-0.918 I-26.736 J4.352
G1 X21.327 Y0.968
X21.303 Y1.439
X21.149 Y2.853
X21.089 Y3.325
X21.012 Y3.796
X20.7 Y5.21
X20.58 Y5.682
X20.441 Y6.153
X19.965 Y7.567
X19.805 Y7.976
G3 X18.863 Y10.022 I-52.483 J-22.906
G1 X18.634 Y10.395
X17.919 Y11.584
X17.783 Y11.81
G3 X16.033 Y14.101 I-20.371 J-13.746
G1 X15.077 Y15.109
X14.847 Y15.346
G3 X12.735 Y17.139 I-18.128 J-19.223
G1 X12.251 Y17.466
X11.317 Y18.099
X10.845 Y18.391
X10.374 Y18.636
X8.959 Y19.386
G3 X6.602 Y20.31 I-15.7 J-36.568
G1 X6.13 Y20.442
X4.962 Y20.766
G3 X2.357 Y21.224 I-6.194 J-27.616
X0 Y21.359 I-5.857 J-81.405
X-2.358 Y21.227 I4.889 J-108.126
X-4.963 Y20.77 I4.443 J-33.005
G1 X-6.13 Y20.442
G3 X-7.544 Y19.959 I2.494 J-9.611
G1 X-8.488 Y19.584
X-8.959 Y19.386
X-9.431 Y19.142
X-10.845 Y18.392
G3 X-13.205 Y16.782 I15.616 J-25.424
G1 X-14.146 Y15.978
G3 X-15.553 Y14.606 I8.98 J-10.613
G1 X-15.6 Y14.568
X-15.655 Y14.54
X-15.713 Y14.524
X-15.774 Y14.52
X-15.834 Y14.528
X-15.891 Y14.548
X-15.943 Y14.579
X-15.988 Y14.62
X-16.012 Y14.667 Z-11.495
X-16.035 Y14.712 Z-11.481
X-16.057 Y14.755 Z-11.458
X-16.061 Y14.789 Z-11.434
X-16.064 Y14.82 Z-11.405
X-16.06 Y14.854 Z-11.36
X-16.056 Y14.879 Z-11.31
X-16.054 Y14.895 Z-11.256
X-16.053 Y14.9 Z-11.2
G0 Z2
X0.789 Y-0.043
Z-10.7
G1 Z-13 F700
G2 X-0.856 Y-0.17 I-1.411 J7.528
G1 X-0.897 Y-0.168
X-0.931 Y-0.145
X-0.949 Y-0.108
X-0.969 Y-0.006
X-0.97 Y0.004
X-0.899 Y0.362
X-0.896 Y0.373
X-0.692 Y0.678
X-0.673 Y0.695
X-0.372 Y0.897
X0 Y0.971
X0.372 Y0.897
X0.673 Y0.695
X0.692 Y0.678
X0.896 Y0.373
X0.899 Y0.362
X0.97 Y0.004
X0.969 Y-0.006
X0.897 Y-0.37
X0.872 Y-0.408
X0.689 Y-0.683
X0.676 Y-0.693
X0.381 Y-0.89
X0.368 Y-0.897
X0 Y-0.971
X-0.368 Y-0.897
X-0.381 Y-0.89
X-0.676 Y-0.693
X-0.689 Y-0.683
X-0.885 Y-0.389
X-0.897 Y-0.37
X-0.949 Y-0.108
G2 X-0.687 Y0.238 I0.296 J0.048
G1 X-0.653 Y0.24 Z-12.998
X-0.6 Y0.227 Z-12.986
X-0.551 Y0.214 Z-12.965
X-0.506 Y0.202 Z-12.934
X-0.47 Y0.172 Z-12.886
X-0.443 Y0.149 Z-12.83
X-0.426 Y0.135 Z-12.767
X-0.421 Y0.13 Z-12.7
G0 Z2
X18.573 Y-17.989
Z-12.385
G1 Z-12.685 F700
X18.567 Y-17.985 Z-12.752
X18.548 Y-17.973 Z-12.815
X18.518 Y-17.954 Z-12.872
X18.478 Y-17.928 Z-12.92
X18.43 Y-17.898 Z-12.955
X18.377 Y-17.864 Z-12.977
X18.32 Y-17.828 Z-12.985
G2 X17.033 Y-16.796 I4.117 J6.459
G1 X16.981 Y-16.742
G2 X17.12 Y-15.902 I1.581 J0.169
X18.056 Y-14.233 I6.437 J-2.51
G3 X20.07 Y-11.08 I-31.631 J22.434
X21.375 Y-8.246 I-49.619 J24.552
X22.806 Y-2.194 I-20.919 J8.141
X20.669 Y9.946 I-22.918 J2.225
X19.124 Y12.654 I-24.809 J-12.364
X15.937 Y16.483 I-19.039 J-12.605
X11.458 Y19.849 I-16.332 J-17.071
X3.865 Y22.587 I-11.7 J-20.549
X0.139 Y22.914 I-4.308 J-27.697
X-2.975 Y22.735 I0.693 J-39.295
X-11.75 Y19.667 I3.093 J-22.928
X-14.313 Y17.891 I18.274 J-29.106
X-17.048 Y15.338 I15.874 J-19.752
X-19.958 Y11.292 I19.621 J-17.179
X-22.792 Y2.442 I19.671 J-11.177
X-22.836 Y-1.923 I34.332 J-2.53
X-22.367 Y-5.006 I28.783 J2.803
X-20.982 Y-9.141 I21.055 J4.754
G1 X-20.74 Y-9.716
X-20.481 Y-10.283
G3 X-13.724 Y-18.337 I20.462 J10.306
X-3.474 Y-22.634 I13.568 J17.988
X-0.995 Y-22.899 I2.943 J15.804
X4.586 Y-22.451 I1.094 J21.342
X8.754 Y-21.168 I-4.349 J21.536
X15.085 Y-17.236 I-8.525 J20.788
G2 X15.45 Y-16.786 I2.876 J-1.963
G1 X16.289 Y-16.003
X16.504 Y-15.795
X16.77 Y-15.531
X16.975 Y-15.282
X18.306 Y-13.646
X18.68 Y-13.174
X18.862 Y-12.884
X20.118 Y-10.817
X20.276 Y-10.553
X20.373 Y-10.346
X20.581 Y-9.874
X21.4 Y-7.989
X21.578 Y-7.518
X21.718 Y-7.046
X22.246 Y-5.161
X22.37 Y-4.689
X22.447 Y-4.218
X22.515 Y-3.746
X22.774 Y-1.861
X22.805 Y-1.389
X22.817 Y-0.918
Y0.968
X22.81 Y1.439
G3 X22.358 Y4.74 I-43.474 J-4.27
G1 X22.237 Y5.21
X21.691 Y7.16
X21.561 Y7.567
X21.386 Y8.039
X20.568 Y9.924
X20.348 Y10.395
X20.276 Y10.533
X20.099 Y10.867
X18.952 Y12.752
X18.862 Y12.897
X18.634 Y13.224
X18.39 Y13.553
X17.124 Y15.109
X16.975 Y15.291
X16.713 Y15.581
X16.504 Y15.808
X15.089 Y17.129
X14.725 Y17.466
X14.618 Y17.557
X14.154 Y17.938
X12.732 Y18.942
X12.26 Y19.273
X11.789 Y19.58
G3 X8.96 Y21.029 I-28.152 J-51.476
X6.131 Y22.022 I-49.738 J-137.245
X3.064 Y22.653 I-21.432 J-96.372
X0 Y22.858 I-14.798 J-197.458
X-3.064 Y22.653 I16.917 J-274.699
X-6.13 Y22.02 I16.077 J-85.618
X-8.959 Y21.027 I33.628 J-100.421
X-11.788 Y19.579 I21.648 J-45.758
G1 X-12.26 Y19.273
X-12.819 Y18.881
X-14.154 Y17.938
X-14.618 Y17.557
G3 X-16.718 Y15.586 I38.565 J-43.188
X-18.867 Y12.901 I30.943 J-26.976
G1 X-18.952 Y12.752
X-20.099 Y10.867
X-20.276 Y10.533
X-20.348 Y10.395
X-20.568 Y9.924
X-21.386 Y8.039
X-21.561 Y7.567
X-21.691 Y7.16
X-22.237 Y5.21
X-22.352 Y4.739
X-22.446 Y4.267
X-22.705 Y2.382
X-22.764 Y1.91
X-22.81 Y1.439
X-22.817 Y0.968
Y-0.918
X-22.805 Y-1.389
X-22.774 Y-1.861
X-22.515 Y-3.746
X-22.447 Y-4.218
X-22.37 Y-4.689
X-22.246 Y-5.161
X-21.718 Y-7.046
X-21.578 Y-7.518
X-21.4 Y-7.989
X-20.581 Y-9.874
X-20.373 Y-10.346
X-20.276 Y-10.553
X-20.118 Y-10.817
X-18.862 Y-12.884
X-18.68 Y-13.174
X-18.306 Y-13.646
X-16.975 Y-15.282
X-16.77 Y-15.531
X-16.504 Y-15.795
X-16.289 Y-16.003
X-14.618 Y-17.564
X-14.209 Y-17.888
G3 X-11.791 Y-19.577 I37.343 J50.883
G1 X-11.432 Y-19.774
X-9.431 Y-20.811
X-8.959 Y-21.017
X-8.52 Y-21.188
X-6.602 Y-21.87
X-6.13 Y-22.011
X-5.655 Y-22.131
X-3.772 Y-22.522
X-3.374 Y-22.602
X-2.829 Y-22.673
X-2.358 Y-22.711
X-0.472 Y-22.84
X0 Y-22.849
X0.472 Y-22.84
X2.358 Y-22.711
X2.829 Y-22.673
X3.374 Y-22.602
X3.772 Y-22.522
X5.658 Y-22.13
X6.13 Y-22.011
X6.602 Y-21.87
X8.52 Y-21.188
X8.959 Y-21.017
X9.431 Y-20.811
X11.432 Y-19.774
X11.789 Y-19.573
X12.219 Y-19.302
X13.675 Y-18.275
X14.146 Y-17.935
X14.209 Y-17.888
X14.618 Y-17.564
X15.45 Y-16.787
X15.647 Y-16.713
X15.94 Y-16.945
X15.868 Y-17.134
X14.874 Y-19.774 Z-12.981 F1200
G2 X13.675 Y-21.053 Z-12.977 I-2.308 J0.962
G1 X9.902 Y-23.101 Z-12.96
X5.187 Y-24.577 Z-12.931
X0 Y-25.159 Z-12.891
X-4.715 Y-24.675 Z-12.849
X-9.431 Y-23.282 Z-12.801
X-13.675 Y-21.087 Z-12.752
X-16.159 Y-19.302 Z-12.721
X-18.562 Y-16.945 Z-12.687
X-20.276 Y-14.815 Z-12.659
X-22.258 Y-11.76 Z-12.625
X-23.219 Y-9.403 Z-12.602
X-27.333 Y3.796 Z-12.513
G2 X-23.625 Y6.551 Z-12.502 I2.425 J0.609
X-22.559 Y5.26 Z-12.501 I-1.284 J-2.145
X-22.41 Y4.493 Z-12.5 I-2.349 J-0.855 F700
G1 Y4.337
X-22.381 Y4.183
X-22.152 Y3.603
G2 X-22.055 Y3.056 I-0.854 J-0.434
G1 X-22.212 Y1.91
X-22.265 Y1.439
X-22.266 Y0.496
Y-0.918
X-22.265 Y-1.389
X-22.219 Y-1.861
X-21.895 Y-4.218
X-21.809 Y-4.689
X-21.148 Y-7.046
X-21.007 Y-7.518
G3 X-19.769 Y-10.347 I98.373 J41.352
G1 X-18.333 Y-12.703
X-17.984 Y-13.174
X-16.45 Y-15.06
X-16.032 Y-15.492
X-14.146 Y-17.253
X-13.935 Y-17.417
X-11.789 Y-18.932
X-11.317 Y-19.213
X-9.325 Y-20.245
X-8.959 Y-20.433
X-8.488 Y-20.614
X-6.13 Y-21.451
X-5.658 Y-21.566
X-3.301 Y-22.056
X-2.829 Y-22.124
X-0.472 Y-22.286
X0 Y-22.311
X0.472 Y-22.286
X2.829 Y-22.124
X3.301 Y-22.056
X5.658 Y-21.566
X6.13 Y-21.451
X8.488 Y-20.614
X8.959 Y-20.433
X9.431 Y-20.19
X11.317 Y-19.213
X11.789 Y-18.932
X13.935 Y-17.417
X14.146 Y-17.253
X16.032 Y-15.492
X16.45 Y-15.06
X17.984 Y-13.174
X18.333 Y-12.703
X19.766 Y-10.346
X19.805 Y-10.277
X19.985 Y-9.874
X20.804 Y-7.989
X21.007 Y-7.518
X21.148 Y-7.046
X21.809 Y-4.689
X21.895 Y-4.218
X22.219 Y-1.861
X22.265 Y-1.389
X22.266 Y-0.447
Y0.968
X22.265 Y1.439
X22.212 Y1.91
X21.889 Y4.267
X21.796 Y4.739
X21.135 Y7.096
X20.987 Y7.567
G3 X19.743 Y10.398 I-64.695 J-26.758
G1 X18.305 Y12.752
X17.945 Y13.224
X16.411 Y15.109
X16.032 Y15.493
X14.424 Y16.995
X14.146 Y17.251
X13.866 Y17.466
X11.789 Y18.933
X11.317 Y19.213
X9.229 Y20.295
X8.959 Y20.432
X8.488 Y20.613
X6.602 Y21.283
X6.13 Y21.449
X5.658 Y21.565
X3.301 Y22.055
X2.829 Y22.123
X0.472 Y22.284
X0 Y22.313
X-0.472 Y22.284
X-2.829 Y22.123
X-3.301 Y22.055
X-5.658 Y21.565
X-6.13 Y21.449
X-6.73 Y21.238
X-8.488 Y20.613
X-8.959 Y20.432
X-9.229 Y20.295
X-11.317 Y19.213
X-11.789 Y18.933
X-13.866 Y17.466
X-14.146 Y17.251
X-14.424 Y16.995
X-16.032 Y15.493
X-16.411 Y15.109
X-17.945 Y13.224
X-18.305 Y12.752
X-19.738 Y10.395
X-19.805 Y10.273
X-19.965 Y9.924
X-20.784 Y8.039
X-20.987 Y7.567
X-21.135 Y7.096
X-21.796 Y4.739
X-21.889 Y4.267
X-22.055 Y3.056
X-22.58 Y2.472
X-23.934 Y0.968 F1200
G3 X-24.602 Y-0.918 I1.826 J-1.708
G1 X-24.049 Y-5.055
X-23.105 Y-8.5
X-20.738 Y-13.174
X-17.919 Y-16.82
X-13.88 Y-20.245
X-8.959 Y-22.866
X-4.715 Y-24.111
X-0.472 Y-24.57
X3.301 Y-24.376
X6.602 Y-23.68
X8.959 Y-22.866
X13.916 Y-20.245
X16.817 Y-17.888
X18.994 Y-15.531
G3 X19.646 Y-14.588 I-1.675 J1.856
G1 X22.455 Y-8.288
Z-13.17
Z-13.955 F700
X22.57 Y-7.989
X22.989 Y-6.575
X23.385 Y-5.161
G3 X23.873 Y-1.861 I-51.688 J9.327
X23.898 Y1.439 I-39.211 J1.946
G1 X23.802 Y2.382
X23.754 Y2.853
X23.56 Y4.267
G3 X22.71 Y7.568 I-31.493 J-6.35
X20.818 Y11.809 I-23.722 J-8.037
X15.835 Y17.94 I-20.83 J-11.84
G1 X14.726 Y18.881
G3 X12.343 Y20.507 I-23.714 J-32.18
G1 X12.26 Y20.561
G3 X9.002 Y22.184 I-16.377 J-28.79
X6.399 Y23.07 I-28.346 J-79.006
G2 X6.427 Y23.649 I0.091 J0.285
G1 X6.479 Y23.655 F1200
X6.531 Y23.653
X6.582 Y23.641
X6.631 Y23.621
X6.669 Y23.593
X6.699 Y23.557
X6.718 Y23.514
X6.725 Y23.467
X6.719 Y23.421
G2 X6.442 Y23.195 I-0.291 J0.074
X5.658 Y23.244 I-0.167 J3.642 F700
G1 X4.715 Y23.439
X3.301 Y23.715
G3 X0 Y23.948 I-7.328 J-80.342
X-3.301 Y23.719 I4.454 J-88.247
G1 X-4.715 Y23.439
X-6.13 Y23.146
G3 X-8.863 Y22.227 I13.401 J-44.41
G1 X-8.927 Y22.212
X-8.993
X-9.057 Y22.225
X-9.117 Y22.252
X-9.169 Y22.291
X-9.212 Y22.341
X-9.243 Y22.398
X-9.261 Y22.461
X-9.264 Y22.527
X-9.254 Y22.591
X-9.229 Y22.652
X-9.193 Y22.706
G2 X-8.86 Y22.793 I0.228 J-0.195 F1200
G1 X-8.819 Y22.771
X-8.785 Y22.739
X-8.76 Y22.7
X-8.746 Y22.656
X-8.745 Y22.609
X-8.756 Y22.552
X-8.778 Y22.498
X-8.81 Y22.45
X-8.85 Y22.408
G2 X-9.502 Y21.97 I-2.347 J2.789 F700
G3 X-12.262 Y20.565 I17.652 J-38.093
G1 X-12.732 Y20.254
G2 X-13.163 Y20.641 I-0.164 J0.251
X-12.628 Y20.369 I0.267 J-0.136 F1200
X-12.859 Y20.208 I-0.267 J0.136
G1 X-14.068 Y20.06
G2 X-14.141 Y20.655 I-0.036 J0.298
X-13.804 Y20.358 I0.036 J-0.298
G1 Y20.357
X-13.808 Y20.308
X-13.821 Y20.26
G2 X-14.213 Y19.473 I-3.146 J1.077
X-14.726 Y18.881 I-2.753 J1.864 F700
G1 X-15.711 Y18.042
G3 X-18.86 Y14.724 I14.599 J-17.009
G1 X-18.907 Y14.678
X-18.963 Y14.643
X-19.025 Y14.621
X-19.09 Y14.613
X-19.155 Y14.619
X-19.217 Y14.64
X-19.274 Y14.673
X-19.322 Y14.718
X-19.359 Y14.772
X-19.383 Y14.832
X-19.394 Y14.897
X-19.391 Y14.962
G2 X-18.798 Y14.867 I0.296 J-0.048 F1200
X-18.974 Y14.64 I-0.296 J0.048
G1 X-19.434 Y14.438
G2 X-19.675 Y14.988 I-0.12 J0.275
X-19.261 Y14.776 I0.12 J-0.275
G1 X-19.257 Y14.756
G2 X-19.402 Y14.004 I-1.005 J-0.196 F700
G3 X-23.453 Y4.738 I19.214 J-13.919
G1 X-23.56 Y4.267
X-23.754 Y2.853
X-23.802 Y2.382
X-23.861 Y1.768
G2 X-23.99 Y1.549 I-0.299 J0.029
G1 X-24.031 Y1.516
X-24.366 Y1.185
X-24.379 Y1.173 F1200
G3 X-24.421 Y0.797 I0.211 J-0.214
G2 X-24.05 Y0 I-2.802 J-1.79
X-23.906 Y-0.77 I-3.173 J-0.993 F700
G1 X-23.878 Y-1.649
G3 X-23.616 Y-3.746 I18.986 J1.302
G1 X-23.467 Y-4.689
X-23.385 Y-5.161
X-22.989 Y-6.575
X-22.57 Y-7.989
X-22.445 Y-8.312
X-22.43 Y-8.365
X-22.425 Y-8.42
G2 X-22.914 Y-8.654 I-0.3 J0
X-22.537 Y-8.187 I0.188 J0.233 F1200
X-22.426 Y-8.446 I-0.188 J-0.233
G1 X-22.504 Y-9.356
G2 X-23.101 Y-9.306 I-0.299 J0.025
X-22.629 Y-9.086 I0.299 J-0.025
X-21.985 Y-9.686 I-1.925 J-2.711
X-21.563 Y-10.346 I-2.569 J-2.111 F700
G1 X-21.354 Y-10.817
X-21.219 Y-11.102
X-20.249 Y-12.703
X-19.676 Y-13.646
G3 X-17.452 Y-16.395 I40.028 J30.108
G1 X-16.504 Y-17.304
X-16.384 Y-17.417
X-15.561 Y-18.186
X-15.375 Y-18.36
G3 X-12.732 Y-20.282 I33.568 J43.354
G1 X-11.789 Y-20.812
X-11.317 Y-21.076
X-10.374 Y-21.565
X-10.191 Y-21.659
X-9.902 Y-21.799
X-8.7 Y-22.285
X-8.488 Y-22.371
X-7.073 Y-22.874
G3 X-4.928 Y-23.413 I9.152 J31.905
G1 X-4.866 Y-23.432
X-4.81 Y-23.465
X-4.762 Y-23.509
X-4.724 Y-23.562
X-4.476 Y-24.023
X-4.433 Y-24.104 F1200
G2 X-4.696 Y-24.546 I-0.264 J-0.142
G1 X-4.697
G2 X-4.816 Y-23.971 I0 J0.3
X-3.97 Y-23.731 I1.32 J-3.052
X-3.186 Y-23.712 I0.474 J-3.291 F700
G3 X3.677 Y-23.647 I3.211 J23.392
X7.072 Y-22.871 I-4.456 J27.303
G1 X8.016 Y-22.539
X8.488 Y-22.371
X9.902 Y-21.799
G3 X12.625 Y-20.339 I-17.904 J36.665
G1 X12.732 Y-20.281
G3 X15.375 Y-18.36 I-31.357 J45.935
G1 X16.384 Y-17.417
G2 X16.74 Y-17.377 I0.205 J-0.219
G1 X17.088 Y-17.578
X17.198 Y-17.642 F1200
G2 X16.897 Y-18.161 I-0.151 J-0.259
X16.754 Y-17.842 I0.151 J0.259
X17.043 Y-17.011 I3.257 J-0.669
X17.476 Y-16.358 I2.967 J-1.5 F700
G1 X17.801 Y-16.003
X18.568 Y-15.06
X19.333 Y-14.101
X19.676 Y-13.646
X20.535 Y-12.231
X21.219 Y-11.102
X21.354 Y-10.817
G2 X21.771 Y-10.695 I0.267 J-0.138
G1 X21.808 Y-10.732 Z-13.95
X21.845 Y-10.768 Z-13.936
X21.879 Y-10.802 Z-13.913
X21.893 Y-10.849 Z-13.876
X21.904 Y-10.888 Z-13.829
X21.913 Y-10.917 Z-13.775
X21.918 Y-10.935 Z-13.717
X21.92 Y-10.941 Z-13.655
G0 Z2
X0.789 Y-0.043
Z-11.2
G1 Z-13.5 F700
G2 X-0.856 Y-0.17 I-1.411 J7.528
G1 X-0.897 Y-0.168
X-0.931 Y-0.145
X-0.949 Y-0.108
X-0.969 Y-0.006
X-0.97 Y0.004
X-0.899 Y0.362
X-0.896 Y0.373
X-0.692 Y0.678
X-0.673 Y0.695
X-0.372 Y0.897
X0 Y0.971
X0.372 Y0.897
X0.673 Y0.695
X0.692 Y0.678
X0.896 Y0.373
X0.899 Y0.362
X0.97 Y0.004
X0.969 Y-0.006
X0.897 Y-0.37
X0.872 Y-0.408
X0.689 Y-0.683
X0.676 Y-0.693
X0.381 Y-0.89
X0.368 Y-0.897
X0 Y-0.971
X-0.368 Y-0.897
X-0.381 Y-0.89
X-0.676 Y-0.693
X-0.689 Y-0.683
X-0.885 Y-0.389
X-0.897 Y-0.37
X-0.949 Y-0.108
G2 X-0.687 Y0.238 I0.296 J0.048
G1 X-0.653 Y0.24 Z-13.498
X-0.6 Y0.227 Z-13.486
X-0.551 Y0.214 Z-13.465
X-0.506 Y0.202 Z-13.434
X-0.47 Y0.172 Z-13.386
X-0.443 Y0.149 Z-13.33
X-0.426 Y0.135 Z-13.267
X-0.421 Y0.13 Z-13.2
G0 Z2
X18.52 Y-18.031
Z-12.87
G1 Z-13.17 F700
X18.514 Y-18.027 Z-13.237
X18.495 Y-18.015 Z-13.3
X18.464 Y-17.997 Z-13.357
X18.424 Y-17.972 Z-13.405
X18.375 Y-17.942 Z-13.44
X18.321 Y-17.909 Z-13.462
X18.264 Y-17.874 Z-13.47
G2 X16.96 Y-16.864 I4.008 J6.527
G1 X16.907 Y-16.81
G2 X17.126 Y-15.933 I1.128 J0.185
G1 X17.447 Y-15.57
X18.39 Y-14.41
X19.001 Y-13.646
X19.324 Y-13.174
X20.276 Y-11.607
X20.748 Y-10.828
G3 X21.996 Y-7.989 I-102.155 J46.622
X22.815 Y-5.16 I-68.591 J21.399
G1 X22.919 Y-4.689
G3 X23.326 Y-1.861 I-66.287 J10.989
X23.353 Y1.439 I-42.235 J1.995
X22.912 Y4.74 I-37.456 J-3.329
X22.162 Y7.492 I-40.425 J-9.528
G1 X21.961 Y8.039
X21.785 Y8.51
X21.17 Y9.924
X20.955 Y10.395
X20.709 Y10.867
X20.459 Y11.338
X19.599 Y12.752
X19.333 Y13.162
X18.862 Y13.838
G3 X16.977 Y16.094 I-27.81 J-21.319
X14.443 Y18.409 I-23.531 J-23.208
G1 X13.108 Y19.352
X12.732 Y19.61
X12.26 Y19.917
X11.789 Y20.209
X10.374 Y20.942
X9.902 Y21.177
X9.431 Y21.404
X8.959 Y21.612
G3 X6.13 Y22.586 I-22.05 J-59.456
G1 X5.658 Y22.684
X4.244 Y22.978
X3.301 Y23.162
X2.829 Y23.218
G3 X0 Y23.404 I-16.631 J-231.154
X-3.301 Y23.168 I4.767 J-89.663
G1 X-4.244 Y22.978
X-5.814 Y22.652
X-6.13 Y22.585
G3 X-8.959 Y21.612 I18.893 J-59.494
G1 X-9.431 Y21.404
X-9.902 Y21.177
X-10.374 Y20.942
X-11.789 Y20.209
G3 X-14.62 Y18.268 I17.957 J-29.238
X-17.451 Y15.577 I18.463 J-22.259
G1 X-17.836 Y15.109
X-18.603 Y14.167
X-18.862 Y13.838
X-19.333 Y13.162
X-19.599 Y12.752
X-20.459 Y11.338
X-20.748 Y10.793
X-20.955 Y10.395
X-21.17 Y9.924
X-21.785 Y8.51
X-21.961 Y8.039
X-22.162 Y7.492
G3 X-22.905 Y4.739 I32.413 J-10.22
G1 X-23.003 Y4.267
X-23.197 Y2.853
X-23.26 Y2.382
X-23.351 Y1.439
G3 X-23.327 Y-1.861 I41.719 J-1.337
X-22.919 Y-4.689 I70.379 J8.694
G1 X-22.816 Y-5.161
G3 X-21.997 Y-7.989 I74.768 J20.097
G1 X-21.219 Y-9.778
X-20.968 Y-10.346
X-20.753 Y-10.817
X-20.469 Y-11.289
X-19.805 Y-12.383
X-19.324 Y-13.174
X-19.001 Y-13.646
X-18.39 Y-14.41
X-17.447 Y-15.57
X-17.068 Y-16.003
X-16.504 Y-16.549
X-16.032 Y-16.994
X-15.075 Y-17.888
X-14.618 Y-18.258
G3 X-12.262 Y-19.931 I29.787 J39.442
X-9.432 Y-21.411 I21.151 J37.002
X-6.601 Y-22.444 I14.246 J34.637
X-3.301 Y-23.158 I7.897 J28.505
X-0.471 Y-23.385 I3.844 J30.241
G1 X0.472 Y-23.387
X0.943 Y-23.362
X2.358 Y-23.265
X2.829 Y-23.215
X3.301 Y-23.155
G3 X6.601 Y-22.444 I-4.311 J28.052
X9.431 Y-21.409 I-10.762 J33.792
X12.506 Y-19.776 I-13.932 J29.952
G1 X13.841 Y-18.831
X14.146 Y-18.61
X14.618 Y-18.258
X15.075 Y-17.888
G3 X17.131 Y-15.937 I-51.686 J56.493
G1 X17.175 Y-15.897
X17.228 Y-15.867
X17.285 Y-15.848
X17.344 Y-15.841
X17.404 Y-15.846
X17.462 Y-15.864
X17.516 Y-15.892
X17.562 Y-15.931
X17.588 Y-15.977 Z-13.465
X17.613 Y-16.021 Z-13.451
X17.637 Y-16.063 Z-13.428
X17.642 Y-16.104 Z-13.398
X17.647 Y-16.14 Z-13.361
X17.643 Y-16.177 Z-13.303
X17.64 Y-16.2 Z-13.239
X17.639 Y-16.208 Z-13.17
G0 Z2
X0.789 Y-0.043
Z-12.2
G1 Z-14.5 F700
G2 X-0.856 Y-0.17 I-1.411 J7.528
G1 X-0.897 Y-0.168
X-0.931 Y-0.145
X-0.949 Y-0.108
X-0.969 Y-0.006
X-0.97 Y0.004
X-0.899 Y0.362
X-0.896 Y0.373
X-0.692 Y0.678
X-0.673 Y0.695
X-0.372 Y0.897
X0 Y0.971
X0.372 Y0.897
X0.673 Y0.695
X0.692 Y0.678
X0.896 Y0.373
X0.899 Y0.362
X0.97 Y0.004
X0.969 Y-0.006
X0.897 Y-0.37
X0.872 Y-0.408
X0.689 Y-0.683
X0.676 Y-0.693
X0.381 Y-0.89
X0.368 Y-0.897
X0 Y-0.971
X-0.368 Y-0.897
X-0.381 Y-0.89
X-0.676 Y-0.693
X-0.689 Y-0.683
X-0.885 Y-0.389
X-0.897 Y-0.37
X-0.949 Y-0.108
G2 X-0.687 Y0.238 I0.296 J0.048
G1 X-0.653 Y0.24 Z-14.498
X-0.6 Y0.227 Z-14.486
X-0.551 Y0.214 Z-14.465
X-0.506 Y0.202 Z-14.434
X-0.47 Y0.172 Z-14.386
X-0.443 Y0.149 Z-14.33
X-0.426 Y0.135 Z-14.267
X-0.421 Y0.13 Z-14.2
G0 Z2
X-24.946 Y10.588
Z-13.84
G1 Z-14.14 F700
X-24.944 Y10.581 Z-14.207
X-24.939 Y10.559 Z-14.27
X-24.93 Y10.524 Z-14.327
X-24.918 Y10.478 Z-14.375
X-24.904 Y10.423 Z-14.41
X-24.888 Y10.362 Z-14.432
X-24.872 Y10.297 Z-14.44
G2 X-24.637 Y8.664 I-7.419 J-1.9
G1 Y8.508
G2 X-24.442 Y7.447 I-18.402 J-3.921
X-24.574 Y5.446 I-8.872 J-0.419
G3 X-25.092 Y0.485 I38.786 J-6.553
X-24.663 Y-4.48 I25.2 J-0.325
X-24.11 Y-6.911 I16.045 J2.371
X-22.81 Y-10.417 I20.452 J5.591
X-21.672 Y-12.636 I16.967 J7.298
X-19.55 Y-15.713 I18.607 J10.562
X-17.885 Y-17.57 I13.994 J10.867
X-10.82 Y-22.621 I17.023 J16.345
X-7.934 Y-23.803 I15.289 J33.234
X-4.923 Y-24.617 I12.548 J40.431
X0.04 Y-25.053 I4.532 J23.121
G1 X0.664 Y-25.069
X1.288 Y-25.049
X1.91 Y-25.003
G3 X4.389 Y-24.715 I-6.304 J65.116
X16.125 Y-19.228 I-4.408 J24.722
X18.81 Y-16.622 I-24.696 J28.128
X20.729 Y-14.163 I-25.941 J22.228
X23.103 Y-9.78 I-22.392 J14.964
X24.306 Y-6.236 I-42.861 J16.52
X25.021 Y1.805 I-23.339 J6.13
X23.154 Y9.659 I-24.124 J-1.586
X21.786 Y12.461 I-25.007 J-10.471
X18.045 Y17.432 I-20.961 J-11.88
X7.54 Y23.92 I-17.847 J-17.151
X4.515 Y24.67 I-6.754 J-20.759
X1.419 Y25.037 I-4.344 J-23.399
X-1.074 Y25.061 I-1.391 J-15.245
X-11.264 Y22.42 I1.012 J-24.889
X-18.653 Y16.767 I11.024 J-22.065
X-20.606 Y14.338 I15.339 J-14.331
X-23.26 Y9.405 I19.104 J-13.459
G1 X-23.36 Y8.788
G2 X-23.435 Y7.113 I-202.714 J8.231
G1 X-23.445 Y7.051
X-23.46 Y6.99
X-23.577 Y6.571
X-23.686 Y6.153
X-24.049 Y4.567
G3 X-24.297 Y2.853 I14.94 J-3.041
G1 X-24.435 Y1.439
X-24.47 Y0.968
G3 X-24.378 Y-2.332 I44.408 J-0.415
G1 X-24.244 Y-3.275
X-23.939 Y-5.161
G3 X-22.985 Y-8.461 I49.116 J12.409
X-21.694 Y-11.378 I134.096 J57.598
G1 X-20.458 Y-13.41
X-20.276 Y-13.708
X-20.015 Y-14.117
X-18.862 Y-15.564
X-18.39 Y-16.145
X-18.123 Y-16.474
G3 X-15.659 Y-18.832 I37.486 J36.715
X-13.061 Y-20.72 I32.098 J41.429
G1 X-11.385 Y-21.659
X-11.317 Y-21.697
X-10.374 Y-22.185
G3 X-7.545 Y-23.294 I16.929 J39.024
X-4.244 Y-24.117 I9.715 J31.927
G1 X-3.772 Y-24.179
X-2.358 Y-24.361
X-1.886 Y-24.406
X-1.415 Y-24.438
X-0.943 Y-24.463
X0.943
X1.415 Y-24.438
X1.886 Y-24.406
X2.358 Y-24.361
X3.772 Y-24.179
X4.244 Y-24.117
G3 X7.545 Y-23.293 I-6.229 J31.989
X10.373 Y-22.183 I-12.816 J36.801
G1 X11.317 Y-21.697
X11.385 Y-21.659
X13.059 Y-20.717
X13.203 Y-20.628
X13.746 Y-20.245
X14.146 Y-19.959
X15.658 Y-18.831
G3 X18.124 Y-16.476 I-35.634 J39.782
G1 X18.506 Y-16.003
X18.887 Y-15.531
X20.015 Y-14.117
G3 X21.738 Y-11.289 I-140.617 J87.618
G1 X21.949 Y-10.817
X22.575 Y-9.403
X22.984 Y-8.46
G3 X23.941 Y-5.161 I-50.421 J16.406
G1 X24.244 Y-3.275
X24.374 Y-2.332
G3 X24.469 Y0.968 I-41 J2.824
X24.115 Y4.267 I-40.613 J-2.681
G1 X24.049 Y4.567
X23.686 Y6.153
X23.577 Y6.571
X23.43 Y7.096
X23.282 Y7.567
X22.634 Y9.327
X22.581 Y9.453
X22.376 Y9.924
X22.169 Y10.395
X21.431 Y11.81
G3 X20.6 Y13.222 I-11.956 J-6.08
G1 X19.616 Y14.638
X19.333 Y15.021
G3 X17.157 Y17.468 I-24.593 J-19.681
G1 X16.504 Y18.075
X15.004 Y19.352
G3 X12.197 Y21.237 I-24.282 J-33.114
X9.315 Y22.653 I-28.492 J-54.355
X6.132 Y23.712 I-20.944 J-57.684
G1 X5.187 Y23.901
X3.301 Y24.268
G3 X0 Y24.494 I-7.991 J-92.565
X-3.301 Y24.268 I5.911 J-110.617
G1 X-5.187 Y23.901
X-6.13 Y23.706
X-6.545 Y23.595
G3 X-9.432 Y22.606 I22.309 J-69.883
X-12.261 Y21.204 I27.99 J-60.013
X-15.006 Y19.355 I26.478 J-42.286
G1 X-16.504 Y18.075
X-17.156 Y17.466
G3 X-19.333 Y15.021 I21.854 J-21.655
G1 X-19.616 Y14.638
X-20.602 Y13.224
X-20.748 Y12.991
X-21.18 Y12.281
X-21.219 Y12.214
X-21.923 Y10.867
G3 X-22.632 Y9.326 I13.515 J-7.154
G1 X-23.282 Y7.567
X-23.43 Y7.096
X-23.46 Y6.99
X-23.577 Y6.833
X-23.745 Y6.781
X-24.03 Y7.08
X-24.045 Y7.096 F1200
X-22.929 Y14.638
X-22.505 Y17.466 Z-15.41
G2 X-19 Y19.143 I2.431 J-0.582
X-18.355 Y18.701 I-1.073 J-2.258 F700
G1 X-18.25 Y18.594
G2 X-18.478 Y17.637 I-1.15 J-0.231
G1 X-19.805 Y16.181
X-19.919 Y16.052
X-20.276 Y15.573
X-21.691 Y13.545
X-21.901 Y13.224
X-22.162 Y12.735
X-23.137 Y10.867
X-23.376 Y10.395
X-23.562 Y9.924
X-24.429 Y7.567
X-24.52 Y7.301
X-24.576 Y7.096
X-25.222 Y4.267
X-25.291 Y3.796
X-25.564 Y0.968
X-25.568 Y0.496
X-25.477 Y-2.332
X-25.463 Y-2.486
X-25.416 Y-2.804
X-24.992 Y-5.431
X-24.958 Y-5.632
X-24.827 Y-6.103
X-24.049 Y-8.727
