(prop0part2)
(Machine)
(  vendor: Autodesk)
(  description: Generic 3-axis)
(T2  D=3 CR=1.5 - ZMIN=-14.9 - ball end mill)
G90 G94
G17
G21
G28 G91 Z0
G90

(Adaptive1 3)
T2
S18000 M3
G54
G0 X1.535 Y0.589
Z2.01
Z-5.366
G1 Z-5.666 F550
X1.537 Y0.582 Z-5.733
X1.543 Y0.56 Z-5.796
X1.551 Y0.526 Z-5.853
X1.563 Y0.48 Z-5.9
X1.577 Y0.424 Z-5.936
X1.593 Y0.363 Z-5.958
X1.61 Y0.298 Z-5.966
G2 X1.844 Y-1.335 I-7.419 J-1.9
G1 Y-1.777
X2.118 Y-2.673
X2.271 Y-3.407
X2.04 Y-5.162
X2.114 Y-5.598
X2.113 Y-6.907
X1.951 Y-8.67
G2 X1.8 Y-13.083 I-32.95 J-1.082
G1 X1.799 Y-14.857
G2 X2.169 Y-19.264 I-55.165 J-6.85
G1 X2.208 Y-19.483 F495
X2.293 Y-19.688
X2.433 Y-19.859
X2.617 Y-19.982
X2.829 Y-20.046
G2 X8.577 Y-20.028 I3.128 J-79.482 F550
X16.973 Y-20.022 I4.399 J-328.433
G1 X20.953 Y-20.014
X24.933 Y-20.021
X26.703 Y-19.995
X28.472 Y-20.064
X29.354 Y-19.992 F495
X29.568 Y-19.935
X29.756 Y-19.818
X29.901 Y-19.651
X29.991 Y-19.449
X30.019 Y-19.23
X29.891 Y-18.491 F550
X30.004 Y-16.724
X29.945 Y-16.285
X29.906 Y-14.515
X30.011 Y-12.748
G2 X30.002 Y-8.334 I30.42 J2.271
G1 X29.934 Y-6.562
X30.027 Y-4.794
X29.979 Y-4.354
X29.971 Y-3.69 F495
X29.907 Y-3.478
X29.783 Y-3.295
X29.611 Y-3.155
X29.406 Y-3.072
X29.186 Y-3.052
X28.452 Y-3.206 F550
X24.251 Y-3.073
X20.05 Y-2.953
X15.849 Y-2.846
X11.647 Y-2.752
G2 X6.086 Y-2.173 I-0.89 J18.434
G1 X4.582 Y-1.955
X3.725 Y-1.733
X3.508 Y-1.692
X3.065 Y-1.69 F495
X2.849 Y-1.736
X2.656 Y-1.844
X2.502 Y-2.003
X2.401 Y-2.2
X2.363 Y-2.418
G2 X2.495 Y-8.597 I-23.693 J-3.598 F550
G1 X2.449 Y-10.367
X2.454 Y-10.81
X2.332 Y-12.576
X2.33 Y-14.346
X2.3 Y-15.231
X2.454 Y-15.965
X2.546 Y-17.733
X2.647 Y-18.835
X2.672 Y-19.054 F495
X2.76 Y-19.258
X2.903 Y-19.426
X3.089 Y-19.546
X3.302 Y-19.606
X5.072 Y-19.567 F550
X5.811 Y-19.439
X7.58 Y-19.502
X9.35 Y-19.556
X10.092 Y-19.445
X11.861 Y-19.496
X12.744 Y-19.565
X13.487 Y-19.468
X15.257 Y-19.509
G2 X21.678 Y-19.627 I1.988 J-67.147
G1 X22.104 Y-19.521
X22.853 Y-19.475
X24.619 Y-19.6
X25.36 Y-19.487
X27.129 Y-19.552
X28.899 Y-19.49
X29.117 Y-19.455 F495
X29.316 Y-19.357
X29.477 Y-19.206
X29.588 Y-19.014
X29.637 Y-18.798
G2 X29.516 Y-12.364 I35.552 J3.885 F550
G1 X29.419 Y-11.621
X29.457 Y-9.851
X29.558 Y-8.084
X29.413 Y-7.348
X29.496 Y-5.58
X29.524 Y-4.695
X29.485 Y-4.254
X29.471 Y-4.033 F495
X29.393 Y-3.826
X29.258 Y-3.651
X29.077 Y-3.522
X28.867 Y-3.452
X28.646 Y-3.447
X27.923 Y-3.647 F550
X27.175 Y-3.692
X25.407 Y-3.591
G2 X17.915 Y-3.346 I1.733 J168.075
G1 X17.172 Y-3.443
X16.294 Y-3.326
G2 X8.23 Y-3.128 I-0.683 J136.489
G1 X7.252 Y-2.941
X6.399 Y-2.705
X5.65 Y-2.657
X3.699 Y-2.26
X3.479 Y-2.232 F495
X3.26 Y-2.26
X3.058 Y-2.351
X2.891 Y-2.496
X2.774 Y-2.684
X2.717 Y-2.898
X2.725 Y-3.119
X2.969 Y-3.828 F550
X3.13 Y-4.561
X3.094 Y-6.331
X3.104 Y-7.081
G3 X2.764 Y-14.9 I249.781 J-14.779
G2 X3.1 Y-17.998 I-22.944 J-4.054
X3.116 Y-18.597 I-23.28 J-0.956 F495
G1 X3.216 Y-18.802
X3.356 Y-18.973
X3.54 Y-19.096
X3.752 Y-19.159
X4.637 Y-19.155 F550
X5.371 Y-19
X6.117 Y-18.92
X7.88 Y-19.077
X8.321 Y-19.037
X10.091 Y-19.051
X10.83 Y-18.926
X12.592 Y-19.106
X13.33 Y-18.975
X15.101 Y-18.982
X16.868 Y-19.086
X17.61 Y-18.976
X18.513 Y-18.953
X20.28 Y-19.067
X22.05 Y-19.098
X22.785 Y-18.95
X24.546 Y-19.136
X25.28 Y-18.982
X27.049 Y-19.052
X28.376 Y-19.008
X28.597 Y-18.996 F495
X28.805 Y-18.921
X28.982 Y-18.788
X29.112 Y-18.609
X29.184 Y-18.4
X29.201 Y-17.957
X28.978 Y-17.241 F550
X28.993 Y-15.471
X28.903 Y-14.726
X29.002 Y-12.959
X29.046 Y-11.189
X28.899 Y-10.453
X29.082 Y-8.692
G2 X28.985 Y-5.092 I30.059 J2.611
X29.01 Y-4.493 I30.156 J-0.99 F495
G1 X28.921 Y-4.285
X28.786 Y-4.109
X28.606 Y-3.98
X28.397 Y-3.909
X28.176 Y-3.903
X27.452 Y-4.1 F550
X26.71 Y-4.208
X25.832 Y-4.091
G2 X18.15 Y-3.869 I1.146 J172.595
G1 X17.371 Y-3.909
X16.621 Y-3.898
X14.861 Y-3.702
X14.132 Y-3.877
X13.257 Y-3.748
G2 X8.222 Y-3.621 I-0.929 J63.166
G1 X6.909 Y-3.374
X6.06 Y-3.124
X5.31 Y-3.146
G3 X3.585 Y-2.81 I-1.7 J-4.125
G1 X3.181 Y-3.001
G2 X2.808 Y-2.543 I-0.116 J0.287
G1 X2.848 Y-2.495 F1200
X2.896 Y-2.456
X2.951 Y-2.427
X3.011 Y-2.41
G2 X3.585 Y-2.821 I0.084 J-0.489 F550
G1 X3.677 Y-3.566
G3 X3.626 Y-6.973 I12.544 J-1.891
G1 X3.485 Y-8.741
X3.452 Y-10.511
X3.3 Y-12.275
X3.353 Y-12.715
X3.355 Y-13.59
X3.277 Y-14.472
X3.325 Y-16.242
X3.573 Y-16.95
X3.554 Y-17.835
X3.578 Y-18.055 F495
X3.629 Y-18.27
X3.74 Y-18.461
X3.903 Y-18.612
X4.102 Y-18.708
X4.321 Y-18.742
X6.073 Y-18.491 F550
X6.822 Y-18.452
X7.698 Y-18.577
X8.449 Y-18.528
X10.219 Y-18.573
X10.944 Y-18.381
X11.812 Y-18.557
X13.58 Y-18.63
X14.3 Y-18.419
X16.059 Y-18.618
X17.822 Y-18.458
X18.757 Y-18.455
X20.521 Y-18.609
X22.289 Y-18.516
X23.033 Y-18.427
X23.903 Y-18.593
X24.345 Y-18.617
X25.207 Y-18.515
X25.956 Y-18.494
X27.723 Y-18.608
X28.159 Y-18.53 F495
X28.361 Y-18.44
X28.528 Y-18.295
X28.646 Y-18.108
X28.704 Y-17.894
X28.648 Y-16.125 F550
X28.431 Y-15.407
X28.407 Y-14.574
X28.517 Y-12.807
X28.523 Y-11.037
X28.356 Y-10.306
X28.535 Y-9.439
X28.609 Y-7.67
X28.461 Y-6.935
X28.479 Y-5.165
X28.489 Y-4.944 F495
X28.435 Y-4.729
X28.32 Y-4.54
X28.155 Y-4.393
X27.954 Y-4.3
X27.734 Y-4.27
G2 X21.706 Y-4.425 I-3.441 J16.553 F550
G1 X20.959 Y-4.524
X19.203 Y-4.304
X18.47 Y-4.465
X18.034 Y-4.387
X16.97 Y-4.415
X15.917 Y-4.347
X15.043 Y-4.21
X14.304 Y-4.336
X13.554 Y-4.324
X11.793 Y-4.137
X11.359 Y-4.225
X10.143
X8.379 Y-4.065
X7.629 Y-4.069
X6.777 Y-3.832
X5.058 Y-3.406
X4.871 Y-3.416 F495
X4.65 Y-3.403
X4.435 Y-3.454
X4.244 Y-3.566
X4.094 Y-3.729
X3.999 Y-3.929
X3.965 Y-4.148
X4.074 Y-4.89 F550
X4.004 Y-5.772
X4.126 Y-6.512
X4.048 Y-8.281
X3.839 Y-10.039
X3.929 Y-10.472
X3.896 Y-11.434
X3.786 Y-12.312
X3.879 Y-13.056
G3 X3.98 Y-17.308 I16.058 J-1.747
X4.084 Y-17.899 I15.957 J2.505 F495
G1 X4.249 Y-18.067
X4.432 Y-18.191
X4.643 Y-18.257
X4.864 Y-18.258
G2 X7.544 Y-18.044 I1.74 J-4.903 F550
G1 X9.314 Y-18.065
X11.085 Y-18.061
X11.831 Y-17.988
X12.704 Y-18.136
X14.473 Y-18.072
X15.215 Y-17.967
X15.648 Y-18.058
X16.531 Y-18.131
G2 X20.221 Y-18.096 I1.933 J-9.383
G1 X21.992 Y-18.094
X22.726 Y-17.943
X23.476 Y-17.971
X23.906 Y-18.073
X25.675 Y-18.16
X26.394 Y-17.949
X27.262 Y-18.122
X27.483 Y-18.107 F495
X27.703 Y-18.079
X27.905 Y-17.989
X28.072 Y-17.844
X28.189 Y-17.657
X28.247 Y-17.443
X28.218 Y-16.558 F550
X27.994 Y-15.585
X27.893 Y-14.842
X27.993 Y-13.074
X28.074 Y-11.305
X27.904 Y-10.575
X27.901 Y-9.825
X28.125 Y-8.969
G2 X27.954 Y-5.418 I60.234 J4.673
G1 X27.951 Y-5.197 F495
X27.867 Y-4.992
X27.727 Y-4.821
X27.543 Y-4.698
X27.331 Y-4.634
X27.11
X25.981 Y-4.982 F550
X25.248 Y-5.137
X23.482 Y-5.016
X23.039 Y-5.032
X21.272 Y-4.928
X20.528 Y-5.028
X19.665 Y-4.833
X17.895 Y-4.842
X17.15 Y-4.929
G3 X12.874 Y-4.777 I-3.039 J-25.287
G1 X12.006 Y-4.634
X11.264 Y-4.743
X9.494 Y-4.683
X7.736 Y-4.475
X6.986 Y-4.464
X6.157 Y-4.154
X5.658 Y-4.067
X5.067 Y-3.965 F495
X4.848 Y-3.993
X4.646 Y-4.084
X4.479 Y-4.229
X4.363 Y-4.418
X4.306 Y-4.631
X4.322 Y-5.074
X4.6 Y-5.77 F550
X4.603 Y-7.541
X4.456 Y-9.305
X4.383 Y-9.742
X4.425 Y-10.921
X4.384 Y-11.67
X4.318 Y-12.107
X4.361 Y-13.701
X4.249 Y-15.468
X4.396 Y-16.368
X4.427 Y-16.81
X4.449 Y-17.03
X4.478 Y-17.249 F495
X4.57 Y-17.451
X4.717 Y-17.616
X4.906 Y-17.732
X5.12 Y-17.788
X5.341 Y-17.778
X6.049 Y-17.529 F550
X6.793 Y-17.436
X8.554 Y-17.616
X9.3 Y-17.542
X11.07 Y-17.611
X11.806 Y-17.468
X12.676 Y-17.629
X14.446 Y-17.59
X15.185 Y-17.459
X16.054 Y-17.626
X17.823 Y-17.563
X18.553 Y-17.391
X20.305 Y-17.645
X21.052 Y-17.577
X22.822 Y-17.633
X23.178 Y-17.516
X23.928 Y-17.515
X24.803 Y-17.653
X26.573 Y-17.623
X26.947 Y-17.595
X27.168 Y-17.597 F495
X27.382 Y-17.542
X27.571 Y-17.426
X27.718 Y-17.261
X27.81 Y-17.06
X27.839 Y-16.84
X27.553 Y-15.093 F550
X27.35 Y-14.371
G3 X27.513 Y-9.731 I-20.458 J3.043
X27.426 Y-5.841 I-22.249 J1.445
G1 X27.448 Y-5.617 F495
X27.382 Y-5.406
X27.256 Y-5.224
X27.083 Y-5.086
X26.877 Y-5.005
X26.656 Y-4.987
X24.927 Y-5.368 F550
X24.584 Y-5.518
X23.836 Y-5.57
X22.072 Y-5.421
X21.187 Y-5.458
X20.442 Y-5.538
X19.585 Y-5.317
X17.815 Y-5.38
X17.067 Y-5.432
X15.303 Y-5.288
X13.536 Y-5.167
X12.806 Y-5.335
X12.378 Y-5.222
X11.497 Y-5.132
X10.76 Y-5.272
G2 X6.293 Y-4.776 I5.493 J69.838
G1 X5.875 Y-4.63
X5.442 Y-4.54 F495
X5.22 Y-4.545
X5.01 Y-4.615
X4.649 Y-4.87 F550
G2 X4.194 Y-4.494 I-0.169 J0.258
G1 X4.223 Y-4.439 F1200
X4.263 Y-4.391
X4.312 Y-4.352
X4.367 Y-4.324
G2 X5.01 Y-4.615 I0.178 J-0.463 F550
G1 X5.128 Y-4.971
X5.059 Y-5.408
G2 X4.811 Y-11.456 I-42.46 J-1.285
X4.757 Y-15.844 I-30.048 J-1.829
G1 X4.95 Y-16.569
X4.959 Y-16.79
X5.031 Y-16.999 F495
X5.162 Y-17.178
X5.339 Y-17.31
X5.547 Y-17.386
X5.768 Y-17.397
X6.991 Y-17.092 F550
X7.732 Y-16.976
X8.166 Y-17.063
X9.933 Y-17.173
X10.37 Y-17.103
X12.14 Y-17.109
X13.91 Y-17.15
X14.913 Y-17.022
X15.662 Y-16.994
X16.093 Y-17.095
X16.978 Y-17.111
X18.744 Y-16.989
X19.494 Y-16.993
X20.363 Y-17.165
X21.105 Y-17.06
X21.988 Y-17.118
X23.759 Y-17.137
X24.502 Y-17.039
X25.37 Y-17.214
X26.112 Y-17.104
X26.554 Y-17.113
X26.775 Y-17.106 F495
X26.985 Y-17.036
X27.165 Y-16.907
X27.3 Y-16.731
X27.377 Y-16.524
X27.391 Y-16.303
X26.981 Y-14.581 F550
X26.87 Y-13.839
X26.978 Y-13.41
X27.036 Y-11.641
X27.129 Y-9.873
X26.99 Y-9.136
X27.128 Y-8.261
X27.004 Y-7.522
X26.997 Y-6.637
X26.957 Y-6.196
X26.947 Y-5.975 F495
X26.873 Y-5.766
X26.741 Y-5.588
X26.563 Y-5.457
X26.355 Y-5.383
X26.133 Y-5.373
X24.419 Y-5.814 F550
X24.087 Y-5.988
X23.341 Y-6.07
X22.467 Y-5.932
X20.697 Y-5.919
X19.952 Y-6.007
X19.534 Y-5.861
X17.765 Y-5.789
X17.038 Y-5.972
X15.289 Y-5.699
X14.542 Y-5.771
X13.664 Y-5.656
X12.932 Y-5.817
X12.055 Y-5.697
X11.615 Y-5.651
X10.871 Y-5.748
X10.122 Y-5.716
X8.37 Y-5.461
G2 X6.674 Y-5.382 I-0.628 J4.752
X6.099 Y-5.212 I1.067 J4.673 F495
G1 X5.875 Y-5.222 F550
X5.454 Y-5.356
G2 X5.133 Y-4.861 I-0.084 J0.297
G1 X5.178 Y-4.817 F1200
X5.23 Y-4.783
X5.288 Y-4.761
X5.35 Y-4.751
G2 X5.875 Y-5.222 I0.03 J-0.495 F550
G1 X5.88 Y-5.597
X5.775 Y-5.791 F495
X5.645 Y-6.214 F550
G2 X5.271 Y-11.953 I-343.191 J19.47
G1 X5.381 Y-12.692
X5.315 Y-14.462
X5.244 Y-15.344
X5.315 Y-16.226 F495
X5.379 Y-16.438
X5.503 Y-16.622
X5.674 Y-16.761
X5.879 Y-16.845
X6.1 Y-16.865
X7.46 Y-16.581 F550
X8.205 Y-16.495
X9.074 Y-16.661
X10.844 Y-16.634
X11.728 Y-16.59
X13.497 Y-16.661
X15.265 Y-16.557
X16.012 Y-16.496
X16.446 Y-16.582
X17.331 Y-16.624
G2 X20.238 Y-16.61 I1.489 J-7.135
G1 X21.264 Y-16.58
G3 X25.862 Y-16.643 I4.532 J162.754
X26.462 Y-16.641 I-0.066 J162.817 F495
G1 X26.659 Y-16.516
X26.818 Y-16.362
X26.926 Y-16.169
X26.973 Y-15.953
X26.954 Y-15.732
X26.587 Y-14.811 F550
X26.373 Y-14.092
X26.55 Y-12.33
X26.524 Y-11.581
X26.594 Y-10.698
X26.658 Y-8.929
X26.506 Y-7.472
X26.495 Y-6.587
X26.472 Y-6.367 F495
X26.386 Y-6.163
X26.245 Y-5.993
X26.06 Y-5.872
X25.847 Y-5.809
X25.626 Y-5.812
X23.939 Y-6.349 F550
X23.594 Y-6.497
X22.846 Y-6.543
X21.979 Y-6.363
X21.234 Y-6.448
X19.465 Y-6.373
X18.582 Y-6.314
X16.812 Y-6.271
X16.072 Y-6.394
X15.646 Y-6.274
X14.765 Y-6.187
X14.018 Y-6.251
X12.252 Y-6.125
X10.765 Y-6.231
X10.015 Y-6.216
X8.269 Y-5.927
X7.526 Y-6.031
X7.093 Y-5.937
X6.875 Y-5.9 F495
X6.654 Y-5.892
X6.44 Y-5.948
X6.252 Y-6.064
X6.106 Y-6.231
X6.014 Y-6.432
X5.901 Y-7.31 F550
X6.058 Y-8.043
X5.908 Y-9.807
X5.91 Y-10.25
X5.78 Y-12.016
X5.897 Y-12.756
X5.772 Y-14.522
X5.765 Y-15.408
X5.777 Y-15.628
X5.795 Y-15.849 F495
X5.877 Y-16.055
X6.016 Y-16.227
X6.199 Y-16.352
X6.41 Y-16.418
X6.631 Y-16.419
X7.691 Y-16.103 F550
X8.426 Y-15.954
X8.846 Y-16.094
X9.726 Y-16.194
X10.472 Y-16.123
G3 X15.771 Y-16.027 I1.677 J53.453
G1 X17.54 Y-16.095
G2 X21.897 Y-16.236 I1.72 J-14.257
G1 X22.334 Y-16.151
X24.105 Y-16.163
X24.85 Y-16.082
X25.73 Y-16.176 F495
X25.951 Y-16.162
X26.158 Y-16.083
X26.333 Y-15.948
X26.462 Y-15.768
X26.531 Y-15.558
X26.537 Y-15.336
X26.066 Y-13.643 F550
X25.931 Y-12.906
X26.022 Y-12.472
X26.067 Y-10.703
X26.215 Y-8.938
X26.057 Y-8.205
X26.002 Y-7.322
X25.998 Y-6.879 F495
X25.936 Y-6.667
X25.814 Y-6.482
X25.644 Y-6.34
X25.44 Y-6.255
X25.22 Y-6.232
X25.003 Y-6.275
X24.038 Y-6.791 F550
X23.347 Y-7.083
X22.599 Y-7.026
X22.17 Y-6.918
X20.4 Y-6.883
X19.641 Y-6.892
X17.876 Y-6.753
X16.296 Y-6.842
G3 X12.594 Y-6.659 I-3.833 J-39.946
G1 X10.827 Y-6.572
X10.106 Y-6.781
X9.247 Y-6.57
X7.488 Y-6.362
X7.115 Y-6.402 F495
X6.896 Y-6.432
X6.695 Y-6.524
X6.529 Y-6.671
X6.414 Y-6.86
X6.358 Y-7.074
X6.435 Y-8.843 F550
X6.444 Y-9.285
X6.329 Y-11.052
X6.273 Y-12.821
X6.387 Y-13.563
X6.252 Y-14.437
X6.279 Y-15.322 F495
X6.323 Y-15.539
X6.429 Y-15.733
X6.586 Y-15.889
X6.783 Y-15.991
X7 Y-16.032
X8.76 Y-15.835 F550
X9.108 Y-15.696
X10.878 Y-15.649
X11.898 Y-15.604
X13.667 Y-15.684
X14.988 Y-15.544
G3 X19.655 Y-15.481 I1.561 J57.834
G1 X21.408 Y-15.724
X23.178 Y-15.68
X24.923 Y-15.616
X25.365 Y-15.64 F495
X25.586 Y-15.635
X25.797 Y-15.566
X26.159 Y-15.312 F550
G2 X26.613 Y-15.69 I0.169 J-0.259
G1 X26.583 Y-15.745 F1200
X26.543 Y-15.792
X26.495 Y-15.831
X26.439 Y-15.859
G2 X25.797 Y-15.566 I-0.177 J0.463 F550
G1 X25.738 Y-15.388
X25.795 Y-15.174
X25.814 Y-14.732
X25.513 Y-13.303
X25.425 Y-12.558
X25.599 Y-11.69
X25.539 Y-10.942
X25.706 Y-9.18
X25.518 Y-7.672
X25.5 Y-7.23 F495
X25.424 Y-7.022
X25.159 Y-6.668 F550
G2 X25.522 Y-6.202 I0.253 J0.177
G1 X25.577 Y-6.23 F1200
X25.626 Y-6.269
X25.667 Y-6.316
X25.697 Y-6.371
G2 X25.424 Y-7.022 I-0.457 J-0.191 F550
G1 X24.719 Y-7.278
X24.277 Y-7.28
X23.565 Y-7.516
X22.817 Y-7.576
X21.951 Y-7.391
X20.233 Y-7.429
X18.466 Y-7.309
X17.585 Y-7.227
G2 X14.41 Y-7.163 I-1.424 J8.102
G1 X12.706 Y-7.19
X11.823 Y-7.124
X10.054 Y-7.042
X9.688 Y-7.12
X7.928 Y-6.929
X7.487 Y-6.888 F495
X7.269 Y-6.925
X7.071 Y-7.024
X6.911 Y-7.176
X6.802 Y-7.369
X6.754 Y-7.585
X6.892 Y-9.35 F550
X6.91 Y-10.1
X6.737 Y-11.861
G2 X6.824 Y-14.249 I-9.6 J-1.547
X6.754 Y-14.845 I-9.687 J0.841 F495
G1 X6.789 Y-15.067
X6.872 Y-15.273
X7.011 Y-15.445
X7.194 Y-15.569
X7.406 Y-15.634
X7.627
X8.724 Y-15.302 F550
X9.458 Y-15.15
X11.227 Y-15.221
X11.961 Y-15.067
X12.84 Y-15.17
X14.611 Y-15.173
X15.338 Y-14.991
X17.104 Y-15.116
X18.182 Y-15.026
X19.953 Y-15.037
G3 X24.465 Y-15.133 I2.678 J19.791
X25.062 Y-15.069 I-1.835 J19.887 F495
G1 X25.247 Y-14.942
X25.391 Y-14.774
X25.479 Y-14.571
X25.504 Y-14.351
X25.182 Y-12.61 F550
X25.058 Y-12.256
X25.143 Y-10.488
X25.127 Y-9.738
X25.188 Y-9.3
X25.125 Y-8.417
X25.091 Y-8.198 F495
X24.994 Y-7.999
X24.843 Y-7.837
X24.652 Y-7.726
X24.437 Y-7.675
X22.67 Y-7.793 F550
X21.952 Y-8.008
X21.083 Y-7.84
X20.341 Y-7.953
X18.579 Y-7.783
X16.809 Y-7.744
X16.072 Y-7.881
X14.313 Y-7.676
G2 X8.309 Y-7.475 I1.515 J134.995
X7.71 Y-7.44 I7.519 J134.794 F495
G1 X7.497 Y-7.503
X7.311 Y-7.624
X7.169 Y-7.793
X7.082 Y-7.997
X7.059 Y-8.217
X7.344 Y-9.706 F550
X7.419 Y-10.452
X7.267 Y-11.324
X7.224 Y-12.208
G2 X7.353 Y-13.981 I-5.965 J-1.324
X7.279 Y-14.576 I-6.093 J0.449 F495
G1 X7.347 Y-14.793
X7.461 Y-14.983
X7.626 Y-15.131
X7.826 Y-15.225
X8.045 Y-15.256
X8.264 Y-15.222
G2 X11.025 Y-14.727 I1.914 J-2.733 F550
G1 X11.765 Y-14.606
X12.515 Y-14.604
X13.394 Y-14.711
X15.16 Y-14.585
X15.904 Y-14.489
X16.78 Y-14.617
G2 X21.844 Y-14.72 I2.082 J-22.153
G1 X22.77 Y-14.68
X23.655 Y-14.708
X24.397 Y-14.604
X24.615 Y-14.565 F495
X24.812 Y-14.465
X24.972 Y-14.311
X25.079 Y-14.118
X25.126 Y-13.901
X25.107 Y-13.681
X24.715 Y-12.703 F550
X24.5 Y-11.985
X24.655 Y-11.113
X24.623 Y-10.041
X24.677 Y-9.157
X24.645 Y-8.716 F495
X24.56 Y-8.512
X24.418 Y-8.341
X24.233 Y-8.22
G3 X22.065 Y-8.494 I-0.67 J-3.409 F550
X15.999 Y-8.215 I-8.847 J-126.185
G1 X15.262 Y-8.354
X14.401 Y-8.151
G2 X9.004 Y-8.001 I-0.683 J72.631
G1 X8.119 Y-7.967 F495
X7.903 Y-8.016
X7.711 Y-8.126
X7.559 Y-8.287
X7.461 Y-8.486
X7.426 Y-8.704
X7.661 Y-10.459 F550
X7.785 Y-10.813
X7.734 Y-12.582
X7.905 Y-13.313
X7.824 Y-14.194 F495
X7.871 Y-14.41
X8.087 Y-14.797 F550
G2 X7.665 Y-15.21 I-0.275 J-0.141
G1 X7.613 Y-15.174 F1200
X7.57 Y-15.13
X7.536 Y-15.077
X7.514 Y-15.019
G2 X7.871 Y-14.41 I0.479 J0.128 F550
G1 X8.604 Y-14.252
X10.374 Y-14.294
X11.461 Y-14.135
X12.21 Y-14.094
X13.976 Y-14.207
X15.102 Y-14.046
X15.851 Y-14.007
X17.614 Y-14.164
G2 X21.746 Y-14.217 I1.908 J-12.421
G1 X23.518 Y-14.201
X23.959 Y-14.156 F495
X24.177 Y-14.118
X24.374 Y-14.018
X24.533 Y-13.864
X24.641 Y-13.671
X24.687 Y-13.454
X24.669 Y-13.234
X24.216 Y-12.102 F550
X24.109 Y-11.743
X24.184 Y-9.974
X24.164 Y-9.532
Y-9.311
X24.142 Y-9.09 F495
X24.057 Y-8.886
X23.916 Y-8.716
X23.731 Y-8.594
X23.519 Y-8.531
X23.298 Y-8.533
X22.325 Y-8.839 F550
X21.593 Y-8.998
X20.719 Y-8.853
X19.97 Y-8.882
X18.204 Y-8.761
X16.433 Y-8.786
X14.668 Y-8.651
X12.959 Y-8.69
G3 X8.919 Y-8.526 I-4.036 J-49.364
X8.319 Y-8.529 I0.005 J-49.529 F495
G1 X8.118 Y-8.633
X7.952 Y-8.78
X7.837 Y-8.968
X7.781 Y-9.183
X7.791 Y-9.404
X8.148 Y-10.414 F550
X8.333 Y-11.14
X8.215 Y-12.018
X8.262 Y-12.902
X8.356 Y-13.265 F495
X8.473 Y-13.453
X8.639 Y-13.598
X8.841 Y-13.689
X9.716 Y-13.82 F550
X11.484 Y-13.728
X12.215 Y-13.557
X13.093 Y-13.672
X13.978 Y-13.692
X15.298 Y-13.526
X16.048 Y-13.5
X16.925 Y-13.615
X17.809 Y-13.671
X18.531 Y-13.47
X20.287 Y-13.699
X21.021 Y-13.544
X21.879 Y-13.759
X22.626 Y-13.686
X23.51 Y-13.713 F495
X23.729 Y-13.675
X23.926 Y-13.575
X24.086 Y-13.422
X24.194 Y-13.229
X24.241 Y-13.012
X24.222 Y-12.792
X23.786 Y-11.694 F550
X23.573 Y-10.975
X23.72 Y-10.102
X23.675 Y-9.661 F495
X23.641 Y-9.443
X23.545 Y-9.243
X23.395 Y-9.081
X23.204 Y-8.969
X22.988 Y-8.918
X22.767 Y-8.933
X21.774 Y-9.306 F550
X21.413 Y-9.406
G3 X11.817 Y-9.12 I-28.483 J-794.307
X9.119 Y-9.022 I-1.734 J-10.506
X8.523 Y-9.093 I0.964 J-10.604 F495
G1 X8.176 Y-9.386 F550
G2 X7.705 Y-9.031 I-0.181 J0.251
G1 X7.732 Y-8.974 F1200
X7.77 Y-8.925
X7.817 Y-8.884
X7.871 Y-8.853
G2 X8.526 Y-9.115 I0.199 J-0.454 F550
G1 X8.593 Y-9.29
X8.546 Y-9.506
X8.571 Y-11.277
X8.824 Y-11.982
X8.759 Y-12.42
X8.774 Y-12.641 F495
X8.839 Y-12.852
X8.963 Y-13.036
X9.135 Y-13.175
X9.34 Y-13.258
X10.222 Y-13.341 F550
X10.964 Y-13.236
X12.585 Y-13.151
X14.354 Y-13.219
X15.077 Y-13.02
X15.951 Y-13.011
X17.715 Y-13.151
X18.447 Y-12.984
X19.361 Y-13.054
G3 X22.865 Y-13.204 I2.443 J16.03
X23.463 Y-13.154 I-1.06 J16.18 F495
G1 X23.821 Y-12.868 F550
G2 X24.277 Y-13.243 I0.17 J-0.258
G1 X24.247 Y-13.298 F1200
X24.208 Y-13.346
X24.159 Y-13.385
X24.104 Y-13.414
G2 X23.46 Y-13.124 I-0.179 J0.462 F550
G1 X23.223 Y-12.413
X23.259 Y-12.195
X23.225 Y-10.424
X23.2 Y-9.983 F495
X23.129 Y-9.773
X22.999 Y-9.594
X22.823 Y-9.46
X22.615 Y-9.384
X22.394 Y-9.372
X20.734 Y-9.778 F550
X19.993 Y-9.89
X18.232 Y-9.704
X17.795 Y-9.771
X16.128 Y-9.77
X14.365 Y-9.61
X13.62 Y-9.697
X11.86 Y-9.511
X11.117 Y-9.614
X10.247 Y-9.447
X9.875 Y-9.494
X9.654 Y-9.507
X9.433 Y-9.514 F495
X9.224 Y-9.586
X9.044 Y-9.715
X8.911 Y-9.891
X8.834 Y-10.099
X8.821 Y-10.32
X9.191 Y-11.84 F550
X9.224 Y-12.059
X9.249 Y-12.279 F495
X9.337 Y-12.482
X9.481 Y-12.65
X9.668 Y-12.769
X9.881 Y-12.829
X11.651 Y-12.787 F550
X12.384 Y-12.628
X14.15 Y-12.745
X14.877 Y-12.561
G2 X21.742 Y-12.785 I1.672 J-54.14
G1 X22.181 Y-12.73 F495
X22.389 Y-12.655
X22.566 Y-12.522
X22.697 Y-12.343
X22.77 Y-12.134
X22.804 Y-11.25 F550
X22.675 Y-10.287 F495
X22.584 Y-10.085
X22.438 Y-9.919
X22.25 Y-9.802
X22.036 Y-9.746
X21.815 Y-9.754
X20.386 Y-10.249 F550
X19.658 Y-10.43
X18.797 Y-10.222
X17.028 Y-10.178
X16.289 Y-10.306
X14.532 Y-10.086
X13.788 Y-10.184
G3 X10.26 Y-10.029 I-3.48 J-38.786
X9.66 Y-10.034 I0.048 J-38.942 F495
G1 X9.48 Y-10.201 F550
X9.345 Y-10.376 F495
X9.267 Y-10.583
X9.253 Y-10.804
X9.457 Y-11.665
X9.571 Y-11.854
X9.7 Y-12.035
X9.875 Y-12.17
X10.082 Y-12.247
X10.962 Y-12.349 F550
G2 X15.464 Y-12.205 I3.057 J-25.072
G1 X15.819 Y-12.069
X16.568 Y-12.023
X18.331 Y-12.183
X19.068 Y-12.045
X20.829 Y-12.223
X21.271 Y-12.253
X21.713 Y-12.266 F495
X21.923 Y-12.197
X22.104 Y-12.069
X22.24 Y-11.894
X22.318 Y-11.687
X22.348 Y-11.246 F550
X22.25 Y-10.814 F495
X22.178 Y-10.605
X22.049 Y-10.425
X21.873 Y-10.291
X21.665 Y-10.214
X21.445 Y-10.201
X19.724 Y-10.619 F550
X19.385 Y-10.778
X17.617 Y-10.678
X15.847 Y-10.682
X15.097 Y-10.688
X14.661 Y-10.611
X13.702 Y-10.672
X12.953 Y-10.652
G3 X10.606 Y-10.542 I-1.805 J-13.452
X10.007 Y-10.579 I0.542 J-13.562 F495
G1 X9.823 Y-10.718
X9.537 Y-11.057 F550
G2 X9.002 Y-10.808 I-0.229 J0.207
G1 X9.017 Y-10.747 F1200
X9.043 Y-10.691
X9.08 Y-10.641
X9.127 Y-10.599
G2 X9.823 Y-10.718 I0.289 J-0.403 F550
G1 X10.23 Y-11.348 F495
X10.378 Y-11.512
X10.567 Y-11.627
X10.991 Y-11.755
G2 X14.998 Y-11.662 I2.724 J-31.085 F550
G1 X16.084 Y-11.532
X16.831 Y-11.463
X17.705 Y-11.602
X19.473 Y-11.69
X20.212 Y-11.558
X21.079 Y-11.735 F495
X21.3 Y-11.728
X21.51 Y-11.657
X21.69 Y-11.528
X21.824 Y-11.353
X21.979 Y-10.938 F550
G2 X22.567 Y-10.992 I0.286 J-0.118
G1 X22.573 Y-11.054 F1200
X22.567 Y-11.116
X22.549 Y-11.176
X22.519 Y-11.23
G2 X21.824 Y-11.353 I-0.408 J0.282 F550
G1 X21.526 Y-11.125
X21.341 Y-11.003 F495
X21.129 Y-10.94 F550
X20.687 Y-10.93
X20.549 Y-10.887
X20.405 Y-10.63
X20.549 Y-10.373
X20.599 Y-10.357
X31.01 Y-6.875 F1200
G3 X31.01 Y-2.026 I-0.61 J2.424
G1 X30.4 Y-1.874
Z-7.165
Z-7.95 F550
X26.377
X25.735 Y-1.716
X25.678 Y-1.947
X24.945 Y-2.105
G2 X16.987 Y-1.95 I0.072 J208.405
G1 X9.466 Y-1.751
G2 X3.714 Y-0.775 I4.561 J44.292
G1 X3.269 Y-0.805 F495
X2.832 Y-0.876 F550
G3 X1.371 Y-2.962 I1.094 J-2.321
X1.058 Y-9.145 I64.27 J-6.351
G1 X0.979 Y-10.914
X0.839 Y-14.452
X1.001 Y-16.215
X1.133 Y-17.981
X1.194 Y-18.706
X1.244 Y-19.304 F495
X1.424 Y-19.708
X1.709 Y-20.047
X2.063 Y-20.313 F550
X2.854 Y-20.71
X4.597 Y-21.021
G2 X9.472 Y-20.947 I3.02 J-38.387
G1 X11.243 Y-20.933
X13.013 Y-20.94
X28.347 Y-20.969
X28.947 Y-20.97 F495
X29.382 Y-20.892
G3 X30.79 Y-18.771 I-1.169 J2.303 F550
X30.88 Y-12.581 I-63.814 J4.031
G1 X30.896 Y-10.81
X30.917 Y-4.771
X30.919 Y-4.171 F495
X30.796 Y-3.746
X30.55 Y-3.379
X30.22 Y-3.083 F550
X29.459 Y-2.632
X27.728 Y-2.259
G2 X19.952 Y-2.519 I-5.168 J38.223
G1 X18.182 Y-2.495
X13.526 Y-2.362
X8.871 Y-2.216
X7.717 Y-2.051
X5.973 Y-1.749
X4.827 Y-1.51
X4.24 Y-1.388 F495
X3.798 Y-1.418
X3.314 Y-1.566 F550
X2.74 Y-1.741 F495
X2.555 Y-1.863
X2.272 Y-2.203 F550
X1.956 Y-3.03
X1.624 Y-4.769
G2 X1.33 Y-14.304 I-168.807 J0.424
G1 X1.48 Y-16.07
X1.631 Y-17.834
X1.665 Y-18.275
X1.91 Y-19.126
X2.127 Y-19.432 F495
X2.235 Y-19.625
X2.395 Y-19.778
X3.184 Y-20.178 F550
X4.043 Y-20.395
X5.809 Y-20.51
G2 X16.794 Y-20.463 I6.491 J-232.868
G1 X18.565 Y-20.448
X28.302 Y-20.469
X29.147 Y-20.206
X29.355 Y-20.13 F495
X29.545 Y-20.016
X29.693 Y-19.852
X30.097 Y-19.064 F550
X30.48 Y-17.336
G2 X30.434 Y-5.243 I230.187 J6.925
G1 X30.356 Y-4.803
X30.04 Y-3.977
X29.965 Y-3.768 F495
X29.835 Y-3.59
X29.492 Y-3.31 F550
X28.659 Y-3.011
G3 X24.395 Y-3.089 I-1.928 J-11.291
G2 X9.618 Y-2.727 I6.019 J548.618
G1 X8.719 Y-2.674
X7.81 Y-2.565
X6.063 Y-2.278
X4.33 Y-1.918
X3.888 Y-1.942
X3.459 Y-2.051
X3.248 Y-2.116 F495
X3.056 Y-2.226
X2.896 Y-2.379
X2.635 Y-2.737 F550
G3 X2.165 Y-6.828 I6.848 J-2.859
G1 X2.081 Y-8.602
X1.946 Y-10.368
X1.951 Y-10.81
X1.932 Y-12.516
X1.804 Y-14.282
X1.904 Y-15.162
X2.129 Y-17.808
X2.192 Y-18.246
X2.303 Y-18.674
X2.502 Y-19.07 F495
X2.81 Y-19.387
X3.191 Y-19.613 F550
X4.026 Y-19.906
X5.794 Y-20
G2 X11.179 Y-19.989 I2.789 J-46.276
X24.088 Y-19.955 I8.278 J-705.974
G3 X28.506 Y-19.903 I1.749 J38.736
G1 X28.716 Y-19.81 F495
X28.922 Y-19.731
X29.098 Y-19.597
X29.397 Y-19.27 F550
X29.799 Y-18.481
X30.048 Y-16.728
G2 X29.943 Y-11.699 I22.871 J2.992
G3 X29.871 Y-5.061 I-176.602 J1.415
G1 X29.749 Y-4.637
X29.597 Y-4.221 F495
X29.467 Y-4.043
X29.131 Y-3.755
X28.726 Y-3.575 F550
X27.869 Y-3.355
G3 X23.541 Y-3.611 I0.571 J-46.24
G1 X19.731 Y-3.519
X15.922 Y-3.412
X12.112 Y-3.292
X8.303 Y-3.158
G2 X4.236 Y-2.434 I16.043 J101.826
G1 X3.794 Y-2.496 F495
X3.59 Y-2.58
X3.409 Y-2.707
X3.102 Y-3.026
X2.902 Y-3.421 F550
X2.658 Y-4.272
X2.546 Y-6.039
G2 X2.319 Y-11.393 I-23.473 J-1.684
G1 X2.4 Y-12.139
X2.376 Y-13.57
X2.282 Y-14.45
G3 X2.659 Y-17.726 I310.981 J34.174
X2.731 Y-18.322 I310.603 J37.449 F495
G1 X2.824 Y-18.523
X2.943 Y-18.709
X3.248 Y-19.03
X3.644 Y-19.228
X4.061 Y-19.375 F550
X5.821 Y-19.572
G2 X10.55 Y-19.481 I2.831 J-24.323
G1 X16.676 Y-19.467
X22.803 Y-19.464
G3 X27.728 Y-19.434 I1.973 J78.191
X28.328 Y-19.409 I-2.953 J78.16 F495
G1 X28.527 Y-19.29
X28.709 Y-19.164
X29.016 Y-18.845
X29.24 Y-18.463 F550
X29.453 Y-17.604
X29.591 Y-15.839
G2 X29.446 Y-11.519 I15.301 J2.675
G1 X29.424 Y-8.513
X29.394 Y-5.507
X29.338 Y-5.068
X29.275 Y-4.856
X29.186 Y-4.653 F495
X29.062 Y-4.47
X28.9 Y-4.319
X28.529 Y-4.078 F550
X28.108 Y-3.94
X27.233 Y-3.809
X25.466 Y-3.92
G2 X19.7 Y-3.983 I-3.169 J26.088
X7.398 Y-3.558 I1.632 J225.222
G3 X4.893 Y-3.073 I-12.027 J-55.393
X4.301 Y-2.975 I-9.521 J-55.878 F495
G1 X4.081 Y-3.024
X3.88 Y-3.116
X3.706 Y-3.253
X3.422 Y-3.592 F550
X3.106 Y-4.42
G2 X3.044 Y-9.389 I-230.552 J0.406
G3 X3.146 Y-17.605 I30.003 J-3.733
X3.241 Y-18.197 I29.9 J4.482 F495
G1 X3.413 Y-18.371
X3.573 Y-18.524
X3.939 Y-18.772 F550
X4.793 Y-19.006
X6.562 Y-19.068
G2 X11.657 Y-19.072 I2.534 J-19.86
X16.955 Y-19.103 I2.507 J-23.964
X21.673 Y-19.048 I2.573 J-18.111
X27.044 Y-19.001 I3.105 J-48.201
G1 X27.708 Y-18.953
X27.926 Y-18.918 F495
X28.133 Y-18.838
X28.322 Y-18.723
X28.484 Y-18.572
X28.743 Y-18.213 F550
X29.022 Y-17.373
X29.076 Y-15.604
G2 X28.944 Y-11.37 I18.014 J2.678
G1 X28.897 Y-10.221
G3 X28.906 Y-5.955 I-52.04 J2.245
X28.879 Y-5.355 I-52.049 J-2.021 F495
G1 X28.8 Y-5.145
X28.687 Y-4.955
X28.54 Y-4.789
X28.362 Y-4.658
X27.966 Y-4.46 F550
X27.101 Y-4.273
G2 X18.159 Y-4.421 I-5.118 J39.219
X8.737 Y-4.169 I2.13 J255.905
X5.253 Y-3.655 I3.415 J35.232
X4.665 Y-3.533 I6.9 J34.718 F495
G1 X4.443 Y-3.554
X4.237 Y-3.633 F550
X4.062 Y-3.769
X3.791 Y-4.119 F495
X3.64 Y-4.535 F550
X3.482 Y-6.298
G2 X3.221 Y-12.233 I-21.858 J-2.012
G3 X3.575 Y-17.016 I75.284 J3.169
X3.64 Y-17.612 I74.93 J7.952 F495
G1 X3.742 Y-17.814
X3.875 Y-17.991
X4.212 Y-18.278
X4.627 Y-18.432 F550
X5.501 Y-18.572
G2 X9.811 Y-18.437 I6.885 J-150.605
G3 X14.801 Y-18.45 I2.63 J49.536
X19.833 Y-18.477 I2.653 J26.232
G1 X21.603 Y-18.511
X24.449 Y-18.451
G3 X27.16 Y-18.466 I1.452 J17.344
X27.757 Y-18.413 I-1.259 J17.359 F495
G1 X27.94 Y-18.265
X28.095 Y-18.107
X28.342 Y-17.74
X28.489 Y-17.322 F550
X28.653 Y-15.56
G2 X28.432 Y-11.504 I14.176 J2.808
G1 X28.418 Y-9.733
X28.403 Y-8.364
X28.47 Y-6.595
X28.389 Y-5.713 F495
X28.322 Y-5.503
X28.197 Y-5.32
X28.037 Y-5.167
X27.656 Y-4.941
X27.231 Y-4.82 F550
X25.46
G2 X18.465 Y-4.897 I-3.756 J23.52
X12.502 Y-4.699 I-1.64 J40.666
X5.497 Y-4.217 I-1.614 J27.675
X4.909 Y-4.094 I5.392 J27.192 F495
G1 X4.688 Y-4.13
X4.486 Y-4.22
X4.319 Y-4.365
X4.202 Y-4.553
X3.972 Y-5.407 F550
G2 X3.618 Y-13.603 I-40.431 J-2.362
X4.047 Y-16.597 I-18.85 J-4.225
X4.076 Y-17.197 I-19.278 J-1.23 F495
G1 X4.183 Y-17.399
X4.312 Y-17.579
X4.481 Y-17.722
X4.872 Y-17.928 F550
X5.735 Y-18.126
G2 X13.045 Y-18.08 I3.928 J-43.977
G1 X13.792 Y-17.992
X14.542 Y-17.976
X16.312 Y-18.027
X18.079 Y-18.141
G2 X23.111 Y-18.039 I3.071 J-27.209
X26.953 Y-18.01 I2.138 J-28.596
G1 X27.175 Y-17.971 F495
X27.384 Y-17.898
X27.567 Y-17.774
X27.717 Y-17.611
G3 X28.022 Y-14.51 I-4.158 J1.975 F550
G1 X27.943 Y-13.766
G2 X27.969 Y-6.435 I181.053 J3.02
G1 X27.949 Y-6.216 F495
X27.902 Y-6
X27.796 Y-5.806
X27.646 Y-5.643
X27.463 Y-5.518
X27.05 Y-5.36 F550
G3 X22.918 Y-5.594 I-1.168 J-16.013
G1 X22.061 Y-5.585
X20.303 Y-5.543
X18.537 Y-5.415
G2 X11.795 Y-5.055 I-1.488 J35.476
X8.355 Y-5.11 I-1.877 J9.824
G1 X6.833 Y-4.942
X5.523 Y-4.723
X5.306 Y-4.683
X5.084 Y-4.675 F495
X4.871 Y-4.732
X4.683 Y-4.849
X4.537 Y-5.016
X4.447 Y-5.218
X4.336 Y-6.096 F550
X4.478 Y-6.832
X4.535 Y-7.58
X4.546 Y-8.388
G2 X4.113 Y-13.81 I-51.951 J1.421
X4.513 Y-16.315 I-36.864 J-7.171
X4.583 Y-16.911 I-37.264 J-4.666 F495
G1 X4.712 Y-17.096
X4.875 Y-17.245
X5.257 Y-17.469
X5.683 Y-17.589 F550
X7.454 Y-17.585
G2 X12.194 Y-17.592 I2.341 J-19.439
X18.693 Y-17.707 I2.647 J-34.294
X23.626 Y-17.58 I2.914 J-17.305
X26.071 Y-17.481 I1.898 J-16.765
X26.671 Y-17.512 I-0.547 J-16.864 F495
G1 X26.889 Y-17.461
X27.087 Y-17.362
X27.247 Y-17.209
X27.466 Y-16.824 F550
X27.661 Y-15.961
X27.638 Y-14.191
X27.484 Y-13.456
X27.431 Y-12.708
X27.427 Y-10.938
X27.532 Y-9.171
X27.443 Y-8.426
X27.442 Y-6.656
X27.418 Y-6.435 F495
X27.331 Y-6.232
X27.189 Y-6.063
X27.003 Y-5.942
X26.578 Y-5.82 F550
X24.808 Y-5.761
G2 X19.486 Y-6 I-3.429 J16.93
G1 X17.727 Y-5.808
G2 X14.012 Y-5.804 I-1.839 J15.045
G1 X10.487 Y-5.465
X9.759 Y-5.646
G2 X6.013 Y-5.322 I0.105 J22.988
X5.423 Y-5.214 I3.851 J22.663 F495
G1 X5.203 Y-5.269
X5.008 Y-5.373
X4.852 Y-5.53
X4.748 Y-5.725
X4.705 Y-5.942
G2 X4.597 Y-13.494 I-21.467 J-3.469 F550
G3 X4.982 Y-16.045 I18.447 J1.479
X5.122 Y-16.628 I18.062 J4.03 F495
G1 X5.284 Y-16.788
X5.471 Y-16.906
X5.889 Y-17.051 F550
X7.656 Y-17.168
G2 X13.424 Y-17.228 I2.706 J-17.05
X17.904 Y-17.125 I2.537 J-12.867
G1 X18.784 Y-17.227
G2 X24.792 Y-17.18 I3.157 J-19.644
G1 X25.53 Y-17.034
X26.413 Y-16.967 F495
X26.617 Y-16.881
X26.787 Y-16.74
X27.03 Y-16.37
X27.237 Y-15.509 F550
X27.08 Y-13.746
G2 X27.068 Y-8.702 I21.42 J2.57
G1 X26.862 Y-6.943
X26.81 Y-6.728 F495
X26.696 Y-6.538
X26.533 Y-6.389
X26.332 Y-6.294
X25.457 Y-6.166 F550
G2 X18.174 Y-6.369 I-4.235 J21.24
G1 X16.412 Y-6.189
X15.678 Y-6.343
X14.928 Y-6.353
X13.885 Y-6.297
X10.361 Y-5.953
G2 X6.521 Y-5.911 I-1.798 J11.225
X5.933 Y-5.787 I2.042 J11.183 F495
G1 X5.709 Y-5.782
X5.492 Y-5.825
X5.297 Y-5.929
X5.14 Y-6.085
X5.036 Y-6.281
X4.994 Y-6.498
X5.176 Y-8.259 F550
X5.434 Y-8.963
G2 X5.097 Y-13.541 I-21.885 J-0.688
G1 X5.357 Y-15.292
X5.451 Y-15.724
X5.479 Y-15.944 F495
X5.57 Y-16.145
X5.716 Y-16.312
X5.905 Y-16.428
X6.329 Y-16.554 F550
X7.209 Y-16.652
X8.978 Y-16.608
G2 X13.221 Y-16.681 I1.849 J-15.738
X17.025 Y-16.56 I2.577 J-21.039
G1 X18.791 Y-16.683
G2 X25.227 Y-16.677 I3.244 J-28.843
G1 X25.949 Y-16.459
X26.16 Y-16.391 F495
X26.342 Y-16.264
X26.478 Y-16.09
X26.659 Y-15.687 F550
X26.728 Y-14.804
G2 X26.597 Y-8.392 I22.518 J3.668
G1 X26.416 Y-7.662
X26.401 Y-7.442
X26.37 Y-7.222 F495
X26.277 Y-7.022
X26.129 Y-6.857
X25.94 Y-6.742
X25.725 Y-6.688
X23.957 Y-6.774 F550
G2 X20.543 Y-7.036 I-2.46 J9.673
G1 X18.794 Y-6.947
X17.033 Y-6.77
X16.155 Y-6.659
G2 X12.057 Y-6.623 I-1.945 J11.878
G1 X10.296 Y-6.431
G2 X6.458 Y-6.423 I-1.89 J13.691
X5.866 Y-6.325 I1.948 J13.683 F495
G1 X5.656 Y-6.464
X5.491 Y-6.611
X5.375 Y-6.8
X5.32 Y-7.014
X5.33 Y-7.235
G2 X5.823 Y-11.684 I-6.998 J-3.027 F550
G1 X5.65 Y-13.447
X5.682 Y-14.332
X5.871 Y-15.197
X5.906 Y-15.415
X5.976 Y-15.625 F495
X6.105 Y-15.805
X6.28 Y-15.94
X6.695 Y-16.096 F550
X8.456 Y-16.275
G2 X12.88 Y-16.136 I2.594 J-12.085
G1 X14.649 Y-16.22
G2 X18.781 Y-16.182 I2.188 J-13.308
X24.578 Y-16.101 I3.366 J-33.605
X25.176 Y-16.15 I-2.432 J-33.685 F495
G1 X25.61 Y-16.03
X25.799 Y-15.914
X25.945 Y-15.748
X26.141 Y-15.351
X26.206 Y-14.913 F550
G2 X26.06 Y-8.396 I31.562 J3.966
G1 X25.971 Y-7.963
X25.939 Y-7.744 F495
X25.862 Y-7.537
X25.727 Y-7.362
X25.546 Y-7.233
X25.337 Y-7.163
X24.452 Y-7.139 F550
G2 X18.759 Y-7.425 I-3.568 J14.253
G1 X16.995 Y-7.269
X16.116 Y-7.158
G2 X10.396 Y-6.934 I-2.075 J20.104
X6.74 Y-6.968 I-1.985 J16.855
X6.144 Y-6.898 I1.671 J16.889 F495
G1 X5.743 Y-7.131 F550
G2 X5.375 Y-6.683 I-0.124 J0.273
G1 X5.414 Y-6.629 Z-7.942
X5.451 Y-6.577 Z-7.92
X5.484 Y-6.531 Z-7.885
X5.511 Y-6.492 Z-7.837
X5.532 Y-6.463 Z-7.78
X5.545 Y-6.445 Z-7.717
X5.55 Y-6.439 Z-7.65
G0 Z-4.161
X26.52 Y-6.913
Z-7.35
G1 Z-7.65 F550
X26.524 Y-6.906 Z-7.717
X26.536 Y-6.887 Z-7.78
X26.554 Y-6.857 Z-7.837
X26.579 Y-6.816 Z-7.885
X26.608 Y-6.767 Z-7.92
X26.64 Y-6.713 Z-7.942
X26.675 Y-6.656 Z-7.95
G3 X27.003 Y-5.942 I-3.106 J1.863
G1 X25.8 Y-7.799
X25.37 Y-7.693
X24.488 Y-7.623
G2 X17.294 Y-7.779 I-3.985 J17.789
G1 X15.532 Y-7.593
G2 X11.109 Y-7.537 I-2.046 J12.883
G1 X10.232 Y-7.412
G2 X7.128 Y-7.494 I-1.969 J15.762
X6.53 Y-7.44 I1.136 J15.843 F495
G1 X6.319 Y-7.527
X6.139 Y-7.656
X6.004 Y-7.832
X5.927 Y-8.039
X5.913 Y-8.26
X6.119 Y-9.121 F550
X6.357 Y-9.832
G2 X6.118 Y-13.976 I-26.201 J-0.566
G1 X6.3 Y-14.846
X6.349 Y-15.062 F495
X6.459 Y-15.254
X6.62 Y-15.405
G3 X9.508 Y-15.618 I1.723 J3.692 F550
G2 X14.537 Y-15.754 I1.861 J-24.114
X18.544 Y-15.652 I2.361 J-13.936
G1 X20.315 Y-15.634
G2 X24.452 Y-15.584 I2.364 J-24.626
X25.05 Y-15.634 I-1.772 J-24.676 F495
G1 X25.257 Y-15.516
X25.428 Y-15.376
X25.551 Y-15.191
X25.614 Y-14.979
X25.692 Y-14.098 F550
G2 X25.484 Y-9.126 I25.27 J3.548
X25.525 Y-8.528 I25.478 J-1.423 F495
G1 X25.37 Y-8.333
X25.207 Y-8.183
X25.008 Y-8.086
X24.79 Y-8.052
G2 X15.287 Y-8.032 I-4.704 J23.443 F550
X11.747 Y-8.098 I-1.946 J9.402
G1 X9.986 Y-7.907
X9.241 Y-7.99
X8.356 Y-8.016
X7.383 Y-8.015
X7.163 Y-7.995
X6.942 Y-7.98 F495
X6.726 Y-8.031
X6.535 Y-8.142
X6.385 Y-8.304
X6.288 Y-8.503
X6.254 Y-8.722
X6.502 Y-10.475 F550
X6.795 Y-11.165
G3 X6.692 Y-13.744 I25.308 J-2.299
X6.706 Y-14.344 I25.411 J0.279 F495
G1 X6.763 Y-14.56
X6.866 Y-14.756
X7.022 Y-14.913
X7.413 Y-15.122 F550
X8.28 Y-15.3
G2 X14.839 Y-15.28 I3.361 J-25.781
X19.859 Y-15.249 I2.608 J-15.79
X24.034 Y-15.055 I2.902 J-17.44
X24.632 Y-15.108 I-1.273 J-17.634 F495
G1 X24.845 Y-15.029
X25.029 Y-14.906 F550
X25.169 Y-14.735 F495
X25.253 Y-14.53
X25.294 Y-14.089 F550
G2 X24.972 Y-9.657 I16.191 J3.402
X25.02 Y-9.059 I16.512 J-1.03 F495
G1 X24.948 Y-8.845
X24.827 Y-8.66
X24.658 Y-8.518
X24.454 Y-8.432
X24.234 Y-8.409
X22.496 Y-8.747 F550
G2 X18.782 Y-8.936 I-2.335 J9.289
G1 X17.153 Y-8.81
X15.4 Y-8.562
G2 X10.318 Y-8.45 I-2.155 J17.538
G1 X8.548 Y-8.381
X7.821 Y-8.567
X7.381 Y-8.519
X7.161 Y-8.541 F495
X6.957 Y-8.626
X6.786 Y-8.768
X6.665 Y-8.953
X6.602 Y-9.165
X6.605 Y-9.386
X6.872 Y-10.23 F550
X7.192 Y-10.908
X7.255 Y-11.656
X7.219 Y-13.426
X7.189 Y-13.867 F495
X7.215 Y-14.087
X7.304 Y-14.29
X7.448 Y-14.458
X7.635 Y-14.576
X8.051 Y-14.727 F550
X8.933 Y-14.803
G2 X15.193 Y-14.812 I3.096 J-21.529
X20.17 Y-14.769 I2.628 J-15.715
X23.712 Y-14.544 I2.746 J-15.275
X24.311 Y-14.586 I-0.796 J-15.499 F495
G1 X24.522 Y-14.496
X24.701 Y-14.366
X24.835 Y-14.19
X24.912 Y-13.982
X24.924 Y-13.761
X24.834 Y-13.391 F550
X24.598 Y-12.679
X24.514 Y-11.933
X24.458 Y-10.631
X24.5 Y-9.747
X24.503 Y-9.526 F495
X24.468 Y-9.307
X24.371 Y-9.108
X24.22 Y-8.946
X24.029 Y-8.836
X23.813 Y-8.785
X23.592 Y-8.801
G2 X18.593 Y-9.408 I-3.526 J8.139 F550
G1 X17.706 Y-9.357
G3 X13.929 Y-9.181 I-2.499 J-13.008
G2 X9.473 Y-8.917 I0.29 J42.527
G1 X8.588 Y-8.887
X7.861 Y-9.073
X7.641 Y-9.055
X7.425 Y-9.102
X7.039 Y-9.319
G2 X6.649 Y-8.89 I-0.138 J0.267
G1 X6.685 Y-8.834 Z-7.942
X6.719 Y-8.781 Z-7.92
X6.75 Y-8.733 Z-7.885
X6.775 Y-8.693 Z-7.837
X6.795 Y-8.663 Z-7.78
X6.807 Y-8.644 Z-7.717
X6.811 Y-8.638 Z-7.65
G0 Z-4.161
X24.586 Y-14.698
Z-7.35
G1 Z-7.65 F550
X24.592 Y-14.701 Z-7.717
X24.611 Y-14.713 Z-7.78
X24.641 Y-14.732 Z-7.837
X24.682 Y-14.757 Z-7.885
X24.73 Y-14.786 Z-7.92
X24.784 Y-14.82 Z-7.942
X24.841 Y-14.855 Z-7.95
G3 X25.551 Y-15.191 I1.898 J3.085
G1 X24.248 Y-14.326
X24.314 Y-14.115 F495
X24.351 Y-13.674 F550
G2 X23.955 Y-10.292 I13.029 J3.24
X23.975 Y-9.692 I13.425 J-0.142 F495
G1 X23.863 Y-9.49
X23.569 Y-9.159 F550
G2 X23.904 Y-8.687 I0.231 J0.191
X24.087 Y-8.883 I-0.104 J-0.281 F1200
G1 X25.61 Y-14.047
X25.645 Y-14.164 F550
G2 X25.253 Y-14.53 I-0.288 J-0.085
G1 X24.076 Y-14.048
X23.712 Y-13.392
G2 X23.478 Y-10.822 I22.658 J3.356
X23.466 Y-10.222 I22.892 J0.786 F495
G1 X23.427 Y-10.005
X23.32 Y-9.812
X23.161 Y-9.658
X22.964 Y-9.557
X22.746 Y-9.518
X20.988 Y-9.727 F550
G2 X17.568 Y-9.837 I-1.967 J7.953
G3 X12.551 Y-9.642 I-3.274 J-19.585
X8.136 Y-9.433 I-3.783 J-33.284
G1 X7.921 Y-9.504 F495
X7.712 Y-9.578
X7.535 Y-9.71
X7.403 Y-9.888
X7.329 Y-10.096
X7.319 Y-10.318
G2 X7.776 Y-13.088 I-7.728 J-2.698 F550
X7.749 Y-13.688 I-8.185 J0.073 F495
G1 X7.811 Y-13.901
X7.93 Y-14.088
X8.098 Y-14.232
X8.301 Y-14.32
X8.741 Y-14.371 F550
G2 X15.026 Y-14.293 I3.392 J-19.96
X19.903 Y-14.233 I2.68 J-19.715
G1 X21.671 Y-14.124
X22.414 Y-14.025
X22.857 Y-14.042
X23.299 Y-14.047
X23.389 Y-14.052
G2 X23.586 Y-14.565 I-0.014 J-0.3
X23.165 Y-14.137 I-0.21 J0.214 F1200
X23.296 Y-14.062 I0.21 J-0.214
G1 X25.321 Y-13.506
G2 X25.632 Y-13.604 I0.079 J-0.289
X25.384 Y-14.094 I-0.231 J-0.191 F550
G1 X25.294 Y-14.089
X23.311 Y-13.905
X23.169 Y-13.168
X23.068 Y-11.401
X22.908 Y-10.668
X22.904 Y-10.447 F495
X22.836 Y-10.236
X22.71 Y-10.055
X22.536 Y-9.918
X22.329 Y-9.838
X22.109 Y-9.822
X20.382 Y-10.213 F550
X19.653 Y-10.39
G2 X14.571 Y-9.957 I-0.616 J22.839
X9.632 Y-9.913 I-2.312 J17.623
G1 X8.747 Y-9.89
X8.527 Y-9.915 F495
X8.309 Y-9.954
X8.112 Y-10.055
X7.953 Y-10.209
X7.846 Y-10.403
X7.8 Y-10.619
X7.878 Y-11.501 F550
X8.145 Y-12.202
X8.263 Y-12.943
X8.261 Y-13.164
X8.273 Y-13.385 F495
X8.349 Y-13.593
X8.482 Y-13.769
X8.661 Y-13.899
X8.87 Y-13.971
X9.091 Y-13.979
G2 X15.164 Y-13.815 I3.438 J-14.727 F550
X20.167 Y-13.76 I2.699 J-18.012
G1 X21.553 Y-13.619
X22.15 Y-13.559 F495
X22.354 Y-13.474
X22.524 Y-13.333
X22.646 Y-13.148
X22.709 Y-12.936
X22.701 Y-12.051 F550
X22.487 Y-11.163
X22.455 Y-10.944
X22.406 Y-10.728 F495
X22.296 Y-10.536
X22.135 Y-10.384
X21.937 Y-10.286
X21.718 Y-10.25
X21.279 Y-10.308
G2 X18.379 Y-10.87 I-2.335 J4.284 F550
G1 X17.097 Y-10.8
X16.138 Y-10.701
X14.386 Y-10.441
X13.644 Y-10.546
G2 X9.563 Y-10.447 I-1.318 J29.742
X8.966 Y-10.385 I2.763 J29.643 F495
G1 X8.744 Y-10.431
X8.541 Y-10.519
X8.372 Y-10.663
X8.253 Y-10.849
X8.193 Y-11.062
X8.198 Y-11.284
X8.638 Y-12.611 F550
X8.736 Y-13.043 F495
X8.845 Y-13.235
X9.005 Y-13.388
X9.203 Y-13.487
X9.421 Y-13.524
G2 X15.38 Y-13.3 I3.664 J-18.037 F550
G1 X16.116 Y-13.158
G2 X20.398 Y-13.287 I1.196 J-31.434
G1 X21.133 Y-13.136
X21.575 Y-13.109
X21.793 Y-13.071 F495
X21.99 Y-12.971
X22.15 Y-12.817
X22.257 Y-12.624
X22.304 Y-12.408
X22.267 Y-11.967 F550
X21.963 Y-11.281
X21.866 Y-11.082 F495
X21.716 Y-10.919
X21.525 Y-10.808
X21.309 Y-10.758
X21.088 Y-10.772
X19.911 Y-11.217 F550
X19.189 Y-11.419
G2 X14.481 Y-10.971 I1.305 J38.738
X10.02 Y-10.964 I-2.198 J19.08
X9.425 Y-10.884 I2.264 J19.073 F495
G1 X9.201 Y-10.909
X8.993 Y-10.983
X8.814 Y-11.113
X8.682 Y-11.291
X8.607 Y-11.499
X8.596 Y-11.72
X8.65 Y-11.935
X8.879 Y-12.314 F550
X9.004 Y-12.496
X9.12 Y-12.684 F495
X9.285 Y-12.832
X9.486 Y-12.924
X9.925 Y-12.983
G2 X15.232 Y-12.819 I3.058 J-12.972 F550
G1 X15.97 Y-12.679
X17.371 Y-12.605
X19.89 Y-12.699
X20.329 Y-12.753
X21.206 Y-12.634
X21.42 Y-12.579 F495
X21.61 Y-12.465
X21.757 Y-12.3
X21.85 Y-12.099
X21.88 Y-11.879
X21.845 Y-11.661
X21.748 Y-11.462
X21.597 Y-11.3
X21.405 Y-11.19
X21.19 Y-11.14
X20.969 Y-11.155
X20.188 Y-11.454 F550
X19.59 Y-11.907
X18.84 Y-11.91
X17.079 Y-11.734
X16.33 Y-11.772
G3 X12.072 Y-11.609 I-2.524 J-10.226
G1 X10.311 Y-11.472
X9.871 Y-11.423
X9.649 Y-11.416
X9.222 Y-11.531
X8.881 Y-11.652
X8.69 Y-11.84
X8.674 Y-11.994
X8.522 Y-13.445 F1200
X8.771 Y-13.847
X8.791
X9.164 F550
X9.421 Y-13.524
X9.547 Y-12.785
X10.149 Y-12.338
X11.034 Y-12.335
X12.748 Y-11.891
X13.141 Y-12.094
X14.896 Y-12.329
X15.336 Y-12.28
G2 X15.659 Y-12.57 I0.023 J-0.299
G1 Y-12.579
X15.645 Y-12.63 Z-7.943
X15.632 Y-12.68 Z-7.927
X15.62 Y-12.726 Z-7.902
X15.589 Y-12.76 Z-7.865
X15.563 Y-12.788 Z-7.819
X15.544 Y-12.809 Z-7.767
X15.532 Y-12.822 Z-7.71
X15.528 Y-12.826 Z-7.65
G0 Z-7.246
X21.68 Y-12.657
Z-7.35
G1 Z-7.65 F550
X21.686 Y-12.661 Z-7.717
X21.705 Y-12.672 Z-7.78
X21.736 Y-12.691 Z-7.837
X21.776 Y-12.716 Z-7.885
X21.825 Y-12.746 Z-7.92
X21.879 Y-12.779 Z-7.942
X21.936 Y-12.813 Z-7.95
G3 X22.646 Y-13.148 I1.889 J3.09
G1 X21.455 Y-12.362
X21.419 Y-12.143 F495
X21.32 Y-11.945
X21.168 Y-11.785
X20.975 Y-11.676
X20.759 Y-11.627
X20.318 Y-11.661 F550
G2 X20.005 Y-11.362 I-0.013 J0.3
G1 X19.892 Y-11.082
X14.917 Y1.191 F1200
G3 X10.907 Y2.211 I-2.351 J-0.85
X10.08 Y0.605 Z-9.942 I1.659 J-1.87
G1 X10.021 Y-0.059
G2 X10.057 Y-0.422 I-3.285 J-0.516
X10.001 Y-1.203 I-3.321 J-0.154 F550
G1 X9.945 Y-1.446
X9.891 Y-1.641
G2 X6.55 Y-1.271 I-0.869 J7.422
G1 X6.423 Y-1.092
X6.332 Y-0.908
X6.295 Y-0.707
X6.313 Y-0.504
G2 X6.68 Y-0.291 I0.29 J-0.077
G1 X6.984 Y-0.371
X9.404 Y-1.014 F1200
X9.728 Y-1.1 F550
G2 X9.945 Y-1.446 I-0.077 J-0.29
G1 X9.857 Y-1.831
X9.807 Y-2.012
G2 X6.562 Y-1.732 I-1.152 J5.591
G1 X6.389 Y-1.562
X6.264 Y-1.363
X6.206 Y-1.136
X6.222 Y-0.901
G2 X6.588 Y-0.688 I0.29 J-0.077
G1 X6.893 Y-0.767
X9.316 Y-1.4 F1200
X9.639 Y-1.484 F550
G2 X9.857 Y-1.831 I-0.076 J-0.29
G1 X9.817 Y-2.007
X9.774 Y-2.19
G2 X6.354 Y-2.07 I-1.603 J3.134
G1 X6.235 Y-1.913
X6.15 Y-1.739
X6.112 Y-1.55
X6.124 Y-1.358
G2 X6.467 Y-1.129 I0.293 J-0.067
G1 X6.792 Y-1.185
X9.254 Y-1.613 F1200
X9.572 Y-1.668 F550
G2 X9.817 Y-2.007 I-0.051 J-0.296
G1 X9.773 Y-2.25
X9.73 Y-2.433
X9.439 Y-2.67
X8.762 Y-2.993
X8.013 Y-3.001
X7.267 Y-2.917
X6.546 Y-2.712
X6.322 Y-2.542
X6.175 Y-2.395
X6.075 Y-2.214
X6.028 Y-2.011
X6.038 Y-1.804
G2 X6.363 Y-1.572 I0.293 J-0.067
G1 X6.71 Y-1.609
X9.207 Y-1.876 F1200
X9.508 Y-1.908 F550
G2 X9.773 Y-2.25 I-0.032 J-0.298
G1 X9.703 Y-2.635
X9.66 Y-2.817
X9.38 Y-3.067
X8.726 Y-3.435
X7.976 Y-3.457
X7.231 Y-3.377
X6.505 Y-3.189
X6.201 Y-2.969
X6.151 Y-2.915
X6.026 Y-2.732
X5.96 Y-2.521
X5.958 Y-2.3
X6 Y-2.007
X6.038 Y-1.804
G2 X6.399 Y-1.579 I0.293 J-0.067
G1 X6.703 Y-1.65
X9.144 Y-2.222 F1200
X9.474 Y-2.299 F550
G2 X9.703 Y-2.635 I-0.068 J-0.292
G1 X9.67 Y-2.811
X9.64 Y-3.054
X9.607 Y-3.239
X9.334 Y-3.496
X8.689 Y-3.879
X7.94 Y-3.912
X7.194 Y-3.837
X6.464 Y-3.663
X6.207 Y-3.485
X6.055 Y-3.345
X5.948 Y-3.168
X5.892 Y-2.97
Y-2.763
X5.958 Y-2.3
G2 X6.318 Y-2.059 I0.295 J-0.052
G1 X6.613 Y-2.124
X9.062 Y-2.659 F1200
X9.405 Y-2.734 F550
G2 X9.64 Y-3.054 I-0.064 J-0.293
G1 X9.591 Y-3.439
X9.558 Y-3.623
X9.303 Y-3.898
G2 X5.886 Y-3.746 I-1.604 J2.432
G1 X5.844 Y-3.508
X5.836 Y-3.294
X5.892 Y-2.763
G2 X6.244 Y-2.521 I0.295 J-0.052
G1 X6.549 Y-2.579
X9.011 Y-3.052 F1200
X9.349 Y-3.117 F550
G2 X9.591 Y-3.439 I-0.057 J-0.295
G1 X9.569 Y-3.615
X9.55 Y-3.858
X9.526 Y-4.044
X8.997 Y-4.575
G2 X6.01 Y-4.405 I-1.299 J3.485
G1 X5.884 Y-4.224
X5.807 Y-4.024
X5.79 Y-3.81
X5.802 Y-3.615
X5.836 Y-3.294
G2 X6.181 Y-3.039 I0.297 J-0.041
G1 X6.484 Y-3.088
X8.953 Y-3.493 F1200
X9.299 Y-3.549 F550
G2 X9.55 Y-3.858 I-0.048 J-0.296
G1 X9.52 Y-4.243
X9.496 Y-4.429
X9.279 Y-4.734
X8.64 Y-5.127
X7.9 Y-5.246
X7.15 Y-5.219
X6.417 Y-5.06
X6.08 Y-4.898
X6.038 Y-4.864
X5.914 Y-4.736
X5.824 Y-4.582
X5.773 Y-4.412
X5.763 Y-4.235
X5.79 Y-3.81
G2 X6.126 Y-3.541 I0.299 J-0.029
G1 X6.43 Y-3.579
X8.922 Y-3.89 F1200
X9.258 Y-3.932 F550
G2 X9.52 Y-4.243 I-0.037 J-0.298
G1 X9.507 Y-4.419
X9.499 Y-4.662
X9.483 Y-4.849
X9.24 Y-5.134
X8.633 Y-5.575
X7.893 Y-5.693
X7.143 Y-5.676
X6.406 Y-5.538
X6.075 Y-5.362
X6.015 Y-5.312
X5.865 Y-5.143
X5.771 Y-4.938
X5.743 Y-4.714
X5.751 Y-4.419
X5.763 Y-4.235
G2 X6.1 Y-3.966 I0.299 J-0.029
G1 X6.403 Y-4.005
X8.886 Y-4.321 F1200
X9.237 Y-4.365 F550
G2 X9.499 Y-4.662 I-0.038 J-0.298
G1 X9.487 Y-5.047
X9.471 Y-5.233
X9.246 Y-5.533
X8.96 Y-5.776
X8.273 Y-6.078
X7.527 Y-6.149
X6.779 Y-6.084
X6.063 Y-5.863
X5.989 Y-5.8
X5.845 Y-5.633
X5.756 Y-5.431
X5.73 Y-5.212
X5.743 Y-4.714
G2 X6.073 Y-4.434 I0.299 J-0.019
G1 X6.374 Y-4.464
X8.873 Y-4.715 F1200
X9.216 Y-4.749 F550
G2 X9.487 Y-5.047 I-0.03 J-0.299
G1 X9.478 Y-5.415
X9.466 Y-5.602
X9.261 Y-5.916
X8.673 Y-6.382
X7.946 Y-6.566
X7.196 Y-6.587
X6.456 Y-6.465
X6.11 Y-6.322
X6.016 Y-6.256
X5.873 Y-6.125
X5.768 Y-5.961
X5.709 Y-5.775
X5.7 Y-5.58
X5.73 Y-5.212
G2 X6.048 Y-4.931 I0.299 J-0.019
G1 X6.362 Y-4.95
X8.858 Y-5.101 F1200
X9.196 Y-5.122 F550
G2 X9.478 Y-5.415 I-0.018 J-0.299
G1 X9.472 Y-5.835
X9.463 Y-5.979
X9.268 Y-6.299
X9.001 Y-6.562
X8.342 Y-6.92
X7.601 Y-7.037
X6.852 Y-7.001
X6.123 Y-6.821
X5.975 Y-6.712
X5.832 Y-6.577
X5.729 Y-6.41
X5.671 Y-6.222
X5.663 Y-6.026
X5.7 Y-5.58
G2 X6.019 Y-5.316 I0.298 J-0.035
G1 X6.346 Y-5.34
X8.853 Y-5.517 F1200
X9.194 Y-5.542 F550
G2 X9.472 Y-5.835 I-0.021 J-0.299
G1 X9.47 Y-6.026
X9.43 Y-6.27
X9.391 Y-6.453
X9.185 Y-6.766
X8.627 Y-7.267
X7.903 Y-7.462
X7.153 Y-7.489
X6.411 Y-7.377
X6.068 Y-7.225
X5.762 Y-7.009
X5.71 Y-6.947
X5.598 Y-6.767
X5.542 Y-6.564
X5.544 Y-6.352
X5.605 Y-6.15
X5.663 Y-6.026
G2 X5.937 Y-5.862 I0.267 J-0.136
G1 X6.385 Y-5.872
X8.857 Y-5.926 F1200
X9.139 Y-5.932 F550
G2 X9.43 Y-6.27 I-0.007 J-0.3
G1 X9.368 Y-6.654
X9.339 Y-6.83
X9.215 Y-7.184
X8.949 Y-7.449
X8.294 Y-7.813
X7.554 Y-7.936
X6.804 Y-7.907
X6.077 Y-7.723
X5.763 Y-7.519
X5.494 Y-7.257
X5.471 Y-7.218
X5.398 Y-7.052
X5.366 Y-6.873
X5.378 Y-6.691
X5.434 Y-6.518
X5.605 Y-6.15
G2 X5.93 Y-5.992 I0.267 J-0.136
G1 X6.32 Y-6.068
X8.773 Y-6.547 F1200
X9.064 Y-6.604 F550
G2 X9.297 Y-6.973 I-0.058 J-0.294
G1 X9.197 Y-7.312
X9.124 Y-7.523
X8.89 Y-7.816
X8.286 Y-8.261
X7.546 Y-8.382
X6.796 Y-8.362
X6.063 Y-8.205
X5.425 Y-7.81
X5.321 Y-7.664
X5.226 Y-7.486
X5.183 Y-7.288
X5.194 Y-7.086
X5.258 Y-6.895
X5.434 Y-6.518
G2 X5.756 Y-6.358 I0.268 J-0.135
G1 X6.15 Y-6.43
X8.672 Y-6.89 F1200
X8.961 Y-6.943 F550
G2 X9.197 Y-7.312 I-0.054 J-0.295
G1 X9.103 Y-7.634
X8.886 Y-8.047
X8.695 Y-8.37
X8.043 Y-8.741
X7.299 Y-8.832
X6.551 Y-8.778
X5.829 Y-8.574
X5.184 Y-8.191
X5.086 Y-8.028
X5.009 Y-7.857
X4.977 Y-7.672
X4.993 Y-7.485
X5.054 Y-7.307
X5.258 Y-6.895
G2 X5.604 Y-6.748 I0.264 J-0.142
G1 X5.969 Y-6.852
X8.445 Y-7.556 F1200
X8.698 Y-7.628 F550
G2 X8.886 Y-8.047 I-0.082 J-0.289
G1 X8.673 Y-8.451
X8.49 Y-8.778
X8.183 Y-8.994
X7.48 Y-9.255
X6.73 Y-9.264
X5.995 Y-9.115
X5.311 Y-8.807
X5.03 Y-8.56
X4.945 Y-8.445
X4.849 Y-8.268
X4.803 Y-8.073
X4.81 Y-7.872
X4.871 Y-7.681
X5.054 Y-7.307
G2 X5.401 Y-7.161 I0.264 J-0.142
G1 X5.765 Y-7.265
X8.223 Y-7.965 F1200
X8.483 Y-8.039 F550
G2 X8.673 Y-8.451 I-0.082 J-0.289
G1 X8.44 Y-8.921
X8.257 Y-9.248
X7.633 Y-9.665
X6.886 Y-9.73
X6.142 Y-9.631
X5.435 Y-9.381
X4.808 Y-8.969
X4.712 Y-8.812
X4.636 Y-8.644
X4.603 Y-8.462
X4.615 Y-8.277
X4.673 Y-8.101
X4.871 Y-7.681
G2 X5.23 Y-7.533 I0.267 J-0.137
G1 X5.575 Y-7.644
X7.993 Y-8.426 F1200
X8.259 Y-8.512 F550
G2 X8.44 Y-8.921 I-0.092 J-0.285
G1 X8.281 Y-9.242
X8.223 Y-9.376
X8.057 Y-9.712
X7.746 Y-9.921
X7.035 Y-10.16
X6.286 Y-10.125
X5.562 Y-9.93
X4.895 Y-9.585
X4.625 Y-9.326
X4.562 Y-9.234
X4.463 Y-9.021
X4.434 Y-8.789
X4.478 Y-8.558
X4.521 Y-8.438
X4.673 Y-8.101
G2 X5.037 Y-7.954 I0.267 J-0.137
G1 X5.375 Y-8.07
X7.756 Y-8.885 F1200
X8.041 Y-8.982 F550
G2 X8.223 Y-9.376 I-0.097 J-0.284
G1 X7.996 Y-9.899
X7.913 Y-10.067
X7.616 Y-10.295
X6.929 Y-10.596
X6.18 Y-10.557
X5.453 Y-10.372
X4.774 Y-10.052
X4.506 Y-9.796
X4.373 Y-9.626
X4.294 Y-9.426
X4.275 Y-9.211
X4.319 Y-8.999
X4.478 Y-8.558
G2 X4.862 Y-8.389 I0.278 J-0.112
G1 X5.162 Y-8.502
X7.533 Y-9.399 F1200
X7.823 Y-9.509 F550
G2 X7.996 Y-9.899 I-0.106 J-0.281
G1 X7.933 Y-10.046
X7.869 Y-10.223
X7.797 Y-10.396
X7.53 Y-10.66
X7.207 Y-10.85
X6.475 Y-11.011
X5.73 Y-10.919
X5.019 Y-10.681
X4.379 Y-10.29
X4.272 Y-10.147
X4.181 Y-9.99
X4.13 Y-9.816
X4.123 Y-9.635
X4.159 Y-9.458
X4.279 Y-9.108
X4.319 Y-8.999
G2 X4.694 Y-8.827 I0.278 J-0.112
G1 X5.006 Y-8.934
X7.377 Y-9.744 F1200
X7.68 Y-9.848 F550
G2 X7.869 Y-10.223 I-0.097 J-0.284
G1 X7.693 Y-10.712
X7.621 Y-10.886
X7.323 Y-11.112
X6.642 Y-11.428
X5.892 Y-11.41
X5.164 Y-11.229
X4.488 Y-10.905
X4.206 Y-10.658
X4.136 Y-10.568
X4.044 Y-10.41
X3.992 Y-10.235
X3.984 Y-10.053
X4.02 Y-9.874
X4.159 Y-9.458
G2 X4.541 Y-9.28 I0.281 J-0.105
G1 X4.841 Y-9.387
X7.203 Y-10.23 F1200
X7.508 Y-10.339 F550
G2 X7.693 Y-10.712 I-0.101 J-0.283
G1 X7.601 Y-10.983
X7.535 Y-11.159
X7.288 Y-11.441
X6.979 Y-11.654
X6.257 Y-11.855
X5.51 Y-11.785
X4.795 Y-11.56
X4.141 Y-11.193
X4.012 Y-11.04
X3.91 Y-10.881
X3.851 Y-10.702
X3.838 Y-10.514
X3.872 Y-10.329
X4.02 Y-9.874
G2 X4.389 Y-9.692 I0.281 J-0.105
G1 X4.707 Y-9.789
X7.094 Y-10.521 F1200
X7.4 Y-10.615 F550
G2 X7.601 Y-10.983 I-0.088 J-0.287
G1 X7.433 Y-11.507
X7.367 Y-11.682
X7.078 Y-11.921
X6.414 Y-12.269
X5.664 Y-12.27
X4.933 Y-12.101
X4.249 Y-11.794
X3.971 Y-11.563
X3.823 Y-11.398
X3.729 Y-11.196
X3.699 Y-10.976
X3.735 Y-10.757
X3.872 Y-10.329
G2 X4.249 Y-10.146 I0.282 J-0.101
G1 X4.554 Y-10.247
X6.928 Y-11.037 F1200
X7.239 Y-11.14 F550
G2 X7.433 Y-11.507 I-0.095 J-0.285
G1 X7.348 Y-11.787
X7.287 Y-11.965
X7.053 Y-12.257
X6.753 Y-12.483
X6.037 Y-12.705
X5.289 Y-12.65
X4.569 Y-12.44
X3.906 Y-12.089
X3.767 Y-11.934
X3.66 Y-11.781
X3.594 Y-11.606
X3.574 Y-11.42
X3.6 Y-11.235
X3.705 Y-10.85
X3.735 Y-10.757
G2 X4.099 Y-10.57 I0.282 J-0.101
G1 X4.421 Y-10.661
X6.827 Y-11.338 F1200
X7.138 Y-11.426 F550
G2 X7.348 Y-11.787 I-0.081 J-0.289
G1 X7.198 Y-12.311
X7.138 Y-12.488
X6.861 Y-12.741
X6.21 Y-13.113
X5.46 Y-13.132
X4.726 Y-12.98
X4.034 Y-12.69
X3.744 Y-12.465
X3.593 Y-12.307
X3.494 Y-12.113
X3.455 Y-11.899
X3.479 Y-11.682
X3.6 Y-11.235
G2 X3.974 Y-11.037 I0.286 J-0.089
G1 X4.276 Y-11.128
X6.679 Y-11.856 F1200
X6.994 Y-11.951 F550
G2 X7.198 Y-12.311 I-0.087 J-0.287
G1 X7.106 Y-12.644
X7.047 Y-12.822
X6.811 Y-13.113
X6.51 Y-13.337
X5.795 Y-13.561
X5.046 Y-13.514
X4.324 Y-13.312
X3.658 Y-12.967
X3.53 Y-12.827
X3.423 Y-12.675
X3.357 Y-12.501
X3.336 Y-12.316
X3.36 Y-12.132
X3.479 Y-11.682
G2 X3.843 Y-11.478 I0.287 J-0.086
G1 X4.156 Y-11.561
X6.579 Y-12.202 F1200
X6.89 Y-12.285 F550
G2 X7.106 Y-12.644 I-0.077 J-0.29
G1 X6.978 Y-13.115
X6.92 Y-13.294
X6.663 Y-13.566
X6.02 Y-13.953
X5.271 Y-13.993
X4.533 Y-13.859
X3.835 Y-13.585
X3.539 Y-13.372
X3.384 Y-13.222
X3.277 Y-13.034
X3.229 Y-12.823
X3.243 Y-12.608
X3.275 Y-12.457
X3.36 Y-12.132
G2 X3.727 Y-11.929 I0.287 J-0.086
G1 X4.037 Y-12.014
X6.451 Y-12.672 F1200
X6.765 Y-12.758 F550
G2 X6.978 Y-13.115 I-0.079 J-0.289
G1 X6.939 Y-13.261
X6.888 Y-13.504
X6.841 Y-13.686
X6.598 Y-13.972
X6.292 Y-14.188
X5.578 Y-14.416
X4.828 Y-14.38
X4.103 Y-14.189
X3.432 Y-13.854
X3.327 Y-13.74
X3.222 Y-13.595
X3.155 Y-13.43
X3.128 Y-13.254
X3.144 Y-13.076
X3.243 Y-12.608
G2 X3.608 Y-12.389 I0.291 J-0.072
G1 X3.911 Y-12.466
X6.339 Y-13.08 F1200
X6.666 Y-13.163 F550
G2 X6.888 Y-13.504 I-0.074 J-0.291
G1 X6.808 Y-13.889
X6.761 Y-14.071
X6.535 Y-14.37
X5.903 Y-14.773
X5.157 Y-14.852
X4.414 Y-14.75
X3.705 Y-14.505
X3.4 Y-14.314
X3.233 Y-14.173
X3.115 Y-13.989
X3.054 Y-13.779
X3.057 Y-13.56
X3.105 Y-13.261
X3.144 Y-13.076
G2 X3.501 Y-12.856 I0.291 J-0.072
G1 X3.814 Y-12.926
X6.257 Y-13.474 F1200
X6.578 Y-13.546 F550
G2 X6.808 Y-13.889 I-0.066 J-0.293
G1 X6.772 Y-14.065
X6.737 Y-14.308
X6.7 Y-14.492
X6.467 Y-14.785
X6.164 Y-15.007
X5.459 Y-15.263
X4.709 Y-15.256
X3.977 Y-15.091
X3.417 Y-14.842
X3.25 Y-14.739
X3.115 Y-14.597
X3.022 Y-14.426
X2.976 Y-14.235
X2.981 Y-14.04
X3.057 Y-13.56
G2 X3.414 Y-13.324 I0.294 J-0.058
G1 X3.716 Y-13.389
X6.164 Y-13.911 F1200
X6.501 Y-13.982 F550
G2 X6.737 Y-14.308 I-0.063 J-0.293
G1 X6.681 Y-14.693
X6.645 Y-14.877
X6.423 Y-15.179
X5.805 Y-15.605
X5.064 Y-15.715
X4.317 Y-15.642
X3.598 Y-15.427
X3.294 Y-15.253
X3.121 Y-15.117
X2.995 Y-14.937
X2.927 Y-14.728
X2.922 Y-14.509
X2.981 Y-14.04
G2 X3.329 Y-13.802 I0.295 J-0.057
G1 X3.642 Y-13.858
X6.106 Y-14.305 F1200
X6.436 Y-14.365 F550
G2 X6.681 Y-14.693 I-0.054 J-0.295
G1 X6.626 Y-15.112
X6.594 Y-15.297
X6.37 Y-15.598
X6.075 Y-15.829
X5.381 Y-16.113
X4.631 Y-16.136
X3.893 Y-16.001
X3.331 Y-15.777
X3.161 Y-15.682
X3.022 Y-15.547
X2.921 Y-15.381
X2.867 Y-15.194
X2.863 Y-15
X2.922 Y-14.509
G2 X3.268 Y-14.261 I0.296 J-0.047
G1 X3.575 Y-14.313
X6.043 Y-14.734 F1200
X6.378 Y-14.791 F550
G2 X6.626 Y-15.112 I-0.05 J-0.296
G1 X6.579 Y-15.497
X6.547 Y-15.682
X6.338 Y-15.993
X5.738 Y-16.442
X5 Y-16.58
X4.252 Y-16.537
X3.525 Y-16.351
X3.211 Y-16.185
X3.032 Y-16.053
X2.899 Y-15.874
X2.825 Y-15.664
X2.816 Y-15.442
X2.863 Y-15
G2 X3.201 Y-14.745 I0.297 J-0.042
G1 X3.513 Y-14.788
X5.995 Y-15.129 F1200
X6.321 Y-15.174 F550
G2 X6.579 Y-15.497 I-0.041 J-0.297
G1 X6.558 Y-15.673
X6.538 Y-15.916
X6.513 Y-16.102
X6.302 Y-16.412
X6.016 Y-16.655
X5.334 Y-16.966
X4.586 Y-17.018
X3.843 Y-16.913
X3.267 Y-16.708
X3.094 Y-16.619
X2.949 Y-16.489
X2.843 Y-16.326
X2.782 Y-16.142
X2.771 Y-15.947
X2.791 Y-15.673
X2.816 Y-15.442
G2 X3.152 Y-15.187 I0.297 J-0.042
G1 X3.466 Y-15.229
X5.941 Y-15.559 F1200
X6.278 Y-15.604 F550
G2 X6.538 Y-15.916 I-0.04 J-0.297
G1 X6.506 Y-16.301
X6.481 Y-16.487
X6.286 Y-16.807
X5.704 Y-17.28
X4.973 Y-17.448
X4.223 Y-17.434
X3.49 Y-17.276
X3.131 Y-17.167
X3.114 Y-17.157
X2.947 Y-17.029
X2.822 Y-16.859
X2.749 Y-16.66
X2.735 Y-16.45
X2.771 Y-15.947
G2 X3.098 Y-15.681 I0.298 J-0.032
G1 X3.414 Y-15.712
X5.908 Y-15.956 F1200
X6.236 Y-15.988 F550
G2 X6.506 Y-16.301 I-0.029 J-0.299
G1 X6.477 Y-16.72
X6.456 Y-16.906
X6.261 Y-17.226
X5.987 Y-17.482
X5.318 Y-17.821
X4.572 Y-17.902
X3.826 Y-17.825
X3.278 Y-17.69
X3.086 Y-17.613
X2.922 Y-17.487
X2.799 Y-17.32
X2.726 Y-17.127
X2.709 Y-16.921
X2.735 Y-16.45
G2 X3.055 Y-16.183 I0.298 J-0.032
G1 X3.378 Y-16.206
X5.871 Y-16.389 F1200
X6.199 Y-16.413 F550
G2 X6.477 Y-16.72 I-0.022 J-0.299
G1 X6.454 Y-17.105
X6.433 Y-17.291
X6.257 Y-17.622
X5.697 Y-18.121
X4.973 Y-18.316
X4.223 Y-18.331
X3.481 Y-18.223
X3.116 Y-18.137
X3.098 Y-18.127
X2.923 Y-18.006
X2.789 Y-17.84
X2.708 Y-17.644
X2.684 Y-17.432
X2.709 Y-16.921
G2 X3.022 Y-16.648 I0.299 J-0.027
G1 X3.348 Y-16.663
X5.848 Y-16.782 F1200
X6.168 Y-16.797 F550
G2 X6.454 Y-17.105 I-0.014 J-0.3
G1 X6.434 Y-17.524
X6.418 Y-17.711
X6.243 Y-18.042
X5.981 Y-18.311
X5.327 Y-18.677
X4.585 Y-18.786
X3.836 Y-18.749
X3.282 Y-18.646
X3.081 Y-18.578
X2.907 Y-18.456
X2.774 Y-18.291
X2.693 Y-18.095
X2.669 Y-17.884
X2.684 Y-17.432
G2 X2.99 Y-17.153 I0.299 J-0.02
G1 X3.318 Y-17.16
X5.821 Y-17.216 F1200
X6.141 Y-17.224 F550
G2 X6.434 Y-17.524 I-0.007 J-0.3
G1 X6.421 Y-17.909
X6.405 Y-18.095
X6.252 Y-18.438
X6.001 Y-18.803
X5.697 Y-19.021
X4.99 Y-19.272
X4.24 Y-19.282
X3.493 Y-19.213
X3.132 Y-19.113
X3.105 Y-19.1
X2.934 Y-18.988
X2.799 Y-18.834
X2.711 Y-18.65
X2.676 Y-18.449
X2.663 Y-18.085
X2.669 Y-17.884
G2 X2.969 Y-17.604 I0.299 J-0.02
G1 X3.303
X5.807 Y-17.608 F1200
X6.121 F550
G2 X6.421 Y-17.909 I0 J-0.3
G1 X6.414 Y-18.085
X6.444 Y-18.328
X6.471 Y-18.702
X6.349 Y-19.056
X5.821 Y-19.589
G2 X2.999 Y-19.56 I-1.365 J4.373
G1 X2.868 Y-19.396
X2.768 Y-19.228
X2.714 Y-19.04
G2 X2.953 Y-18.713 I0.298 J0.033
G1 X2.993 Y-18.705
X3.058 Y-18.692 Z-9.935
X3.121 Y-18.679 Z-9.913
X3.176 Y-18.668 Z-9.877
X3.223 Y-18.658 Z-9.829
X3.258 Y-18.651 Z-9.772
X3.28 Y-18.647 Z-9.709
X3.287 Y-18.646 Z-9.642
G0 Z2.01
X3.76 Y-20.502
Z-9.642
G1 Z-9.942 F550
X3.291 Y-20.474
G2 X3.041 Y-20.307 I0.018 J0.299
G1 X2.81 Y-19.692
X2.714 Y-19.04
G2 X2.953 Y-18.713 I0.298 J0.033
G1 X3.287 Y-18.646
X5.793 Y-18.14 F1200
X6.088 Y-18.08 F550
G2 X6.444 Y-18.328 I0.059 J-0.294
G1 X6.512 Y-18.888
X6.558 Y-19.261
X6.277 Y-19.956
G2 X5.704 Y-19.865 I-0.274 J0.122
G1 Y-19.805 F1200
X5.716 Y-19.747
X5.938 Y-19.015
X5.96 Y-18.941 F550
G2 X6.512 Y-18.888 I0.287 J-0.087
G1 X6.902 Y-19.692
X7.064 Y-20.333
G2 X6.808 Y-20.684 I-0.295 J-0.053
G1 X6.769 Y-20.686 Z-9.94
X6.75 Z-9.937
X6.685 Y-20.682 Z-9.916
X6.626 Y-20.678 Z-9.881
X6.577 Y-20.675 Z-9.833
X6.54 Y-20.673 Z-9.775
X6.517 Y-20.671 Z-9.71
X6.509 Z-9.642
G0 Z2.01
X33.446 Y-4.252
Z-9.342
G1 Z-9.642 F550
X33.44 Y-4.256 Z-9.709
X33.42 Y-4.267 Z-9.772
X33.389 Y-4.284 Z-9.829
X33.348 Y-4.308 Z-9.877
X33.299 Y-4.336 Z-9.913
X33.243 Y-4.367 Z-9.935
X33.185 Y-4.4 Z-9.942
G2 X31.594 Y-4.835 I-1.644 J2.89
G1 X31.191 Y-4.827
X31.004 Y-4.815
X30.935 Y-3.932 F495
X30.764 Y-3.524
X30.487 Y-3.179
X30.139 Y-2.905 F550
X29.357 Y-2.49
X27.622 Y-2.137
G2 X19.203 Y-2.009 I-2.066 J141.355
G1 X12.724 Y-1.838
X12.124 Y-1.822 F495
X11.686 Y-1.887
G3 X10.737 Y-2.549 I2.952 J-5.241 F550
X10.301 Y-2.96 I3.901 J-4.579 F495
G1 X10.133 Y-3.37
X9.857 Y-5.119 F550
G2 X9.412 Y-8.038 I-4.716 J-0.776
G3 X6.924 Y-18.298 I18.019 J-9.802
X8.633 Y-20.678 I2.624 J0.08
G1 X9.884 Y-20.945
X10.074 Y-21.013
X10.239 Y-21.13
X10.367 Y-21.286
X10.448 Y-21.471
G2 X9.941 Y-21.752 I-0.291 J-0.073
G1 X9.895 Y-21.704 Z-9.935
X9.851 Y-21.658 Z-9.913
X9.811 Y-21.618 Z-9.877
X9.778 Y-21.583 Z-9.829
X9.753 Y-21.558 Z-9.772
X9.738 Y-21.542 Z-9.709
X9.733 Y-21.536 Z-9.642
G0 Z2.01
X32.209 Y-4.471
Z-9.342
G1 Z-9.642 F550
X32.203 Y-4.475 Z-9.709
X32.184 Y-4.486 Z-9.772
X32.152 Y-4.503 Z-9.829
X32.111 Y-4.527 Z-9.877
X32.062 Y-4.555 Z-9.913
X32.007 Y-4.587 Z-9.935
X31.949 Y-4.62 Z-9.942
G2 X31.191 Y-4.827 I-0.784 J1.375
G1 X30.789 Y-4.82
X30.602 Y-4.807
X30.276 Y-3.985
X30.061 Y-3.677 F495
X29.918 Y-3.508 F550
X29.176 Y-3.025
G3 X24.538 Y-2.68 I-3.254 J-12.397
G1 X22.767 Y-2.6
X20.997 Y-2.562
X19.227 Y-2.51
X13.033 Y-2.346
X12.592 Y-2.385
X11.737 Y-2.615
X11.321 Y-2.765 F495
X10.961 Y-3.023
X10.83 Y-3.201
X10.636 Y-3.599 F550
X10.446 Y-4.463
X10.234 Y-6.221
X10.231 Y-6.971
X10.046 Y-7.698
X9.773 Y-8.397
X8.319 Y-11.625
X8.187 Y-12.363
G3 X7.421 Y-18.49 I19.81 J-5.587
G1 X7.563 Y-18.908 F495
X7.745 Y-19.312
X8.016 Y-19.661
X8.381 Y-19.912 F550
X9.866 Y-20.495
X10.025 Y-20.581
X10.159 Y-20.702
X10.26 Y-20.853
X10.322 Y-21.023
X10.089 Y-21.374
X9.748 Y-21.502
X8.077 Y-22.127 F1200
G2 X4.646 Y-19.404 I-0.966 J2.306
G1 X6.268 Y-11.438
X9.019 Y-1.402
G2 X11.296 Y0.628 I2.457 J-0.463
G1 X27.504 Y0.605
X28.999 Y0.418
G2 X30.573 Y-0.599 I-0.47 J-2.455
G1 X31.962 Y-2.205
X32.217 Y-2.611
X32.328 Y-3.008
G2 X31.546 Y-4.612 I-1.566 J-0.23
G1 X30.789 Y-4.82 F550
X30.608 Y-4.817
X30.421 Y-4.804
G3 X28.309 Y-3.276 I-3.177 J-2.166
G1 X26.545 Y-3.12
G2 X15.525 Y-2.906 I1.476 J360.907
G1 X13.755 Y-2.85
X12.87 Y-2.852
X12.007 Y-3.046
X11.802 Y-3.13 F495
X11.607 Y-3.234
X11.441 Y-3.381
X11.306 Y-3.556
X11.101 Y-3.949 F550
X10.865 Y-4.802
G2 X9.454 Y-10.334 I-11.358 J-0.049
G1 X8.699 Y-11.936
X8.593 Y-12.678
G3 X7.927 Y-18.375 I19.891 J-5.213
G1 X8.074 Y-18.796 F495
X8.184 Y-18.988 F550
G3 X9.96 Y-20.037 I2.958 J2.983
G1 X10.103 Y-20.245
X10.192 Y-20.463
X10.089 Y-20.752
X9.615 Y-20.683
X9.534 Y-20.671 F1200
X6.065 Y-19.245
X5.938 Y-19.065
X5.821 Y-17.861
X6.125 Y-14.65
X6.997 Y-10.234
X8.958 Y-1.804
G2 X11.296 Y0.045 I2.414 J-0.65
G1 X26.987 Y0.135
G2 X28.327 Y-0.198 I0.091 J-2.498
G1 X31.413 Y-1.889
G2 X31.359 Y-4.612 I-0.832 J-1.346
X31.01 Y-4.758 I-0.779 J1.378 F550
G1 X30.608 Y-4.817
X30.387 Y-4.813
X30.012 Y-4.788
G3 X27.637 Y-3.661 I-3.262 J-3.81
G2 X22.281 Y-3.592 I5.466 J630.706
G1 X20.52 Y-3.406
X19.774 Y-3.487
G2 X13.425 Y-3.316 I1.701 J180.943
G1 X12.543 Y-3.392 F495
X12.127 Y-3.542
G3 X11.269 Y-5.812 I1.71 J-1.944 F550
G2 X10.146 Y-10.002 I-10.258 J0.504
G1 X9.416 Y-11.616
X9.037 Y-12.416
X8.966 Y-13.162
G3 X8.447 Y-17.823 I16.013 J-4.14
X8.477 Y-18.422 I16.532 J0.521 F495
G1 X8.634 Y-18.612
X8.773 Y-18.783
X9.869 Y-19.722 F550
X9.978 Y-19.837
X10.06 Y-19.972
X10.112 Y-20.121
X10.192 Y-20.463
X10.197 Y-20.521
X10.089 Y-20.752
X9.686 Y-20.814
X9.622 Y-20.811
X7.674 Y-20.747 F1200
G2 X5.157 Y-18.263 I-0.017 J2.5
G1 X5.084 Y-16.657
X5.788 Y-11.84
X7.715 Y-6.22
X8.243 Y-3.811
X9.669 Y-1.402
G2 X11.698 Y-0.369 I2.025 J-1.467
G1 X20.549 Y-0.116
X30.608 Y-1.668
G2 X31.137 Y-4.609 I-0.249 J-1.563
X30.387 Y-4.813 I-0.778 J1.378 F550
G1 X29.803 Y-4.804
X29.055 Y-4.755
X28.675 Y-4.528
X27.856 Y-4.192
X26.091 Y-4.057
G2 X20.175 Y-3.868 I-2.098 J27.001
X13.317 Y-3.803 I-3.007 J44.463
G1 X12.875 Y-3.863 F495
X12.662 Y-3.923
X12.471 Y-4.034
X12.305 Y-4.18
X12.037 Y-4.533
X11.868 Y-4.942 F550
X11.582 Y-6.689
G2 X10.769 Y-9.785 I-7.95 J0.432
G1 X10.073 Y-11.414
X9.684 Y-12.209
X9.404 Y-13.049
G3 X8.922 Y-17.145 I52.218 J-8.229
X8.878 Y-17.743 I52.7 J-4.133 F495
G1 X8.957 Y-17.962
X9.046 Y-18.165
X9.957 Y-19.513 F550
X10.028 Y-19.645
X10.071 Y-19.788
X10.086 Y-19.937
G2 X9.52 Y-20.065 I-0.3 J0.012
G1 X9.489 Y-20.005 Z-9.935
X9.46 Y-19.949 Z-9.913
X9.433 Y-19.899 Z-9.877
X9.411 Y-19.857 Z-9.829
X9.395 Y-19.825 Z-9.772
X9.384 Y-19.806 Z-9.709
X9.381 Y-19.799 Z-9.642
G0 Z2.01
X30.82 Y-4.445
Z-9.342
G1 Z-9.642 F550
X30.814 Y-4.448 Z-9.709
X30.794 Y-4.459 Z-9.772
X30.763 Y-4.477 Z-9.829
X30.722 Y-4.501 Z-9.877
X30.673 Y-4.529 Z-9.913
X30.618 Y-4.561 Z-9.935
X30.56 Y-4.594 Z-9.942
G2 X29.803 Y-4.804 I-0.788 J1.372
G1 X28.777 Y-4.789
X28.174 Y-4.751
X26.42 Y-4.509
G2 X19.822 Y-4.331 I-2.572 J27.046
X13.816 Y-4.366 I-3.216 J37.227
X13.218 Y-4.316 I2.79 J37.261 F495
G1 X13.006 Y-4.408
X12.818 Y-4.526
X12.66 Y-4.681
X12.534 Y-4.863 F550
X12.168 Y-5.669
G2 X10.742 Y-11.107 I-12.83 J0.458
G1 X10.005 Y-12.718
G3 X9.411 Y-17.092 I23.01 J-5.354
G1 X9.403 Y-17.534 F495
X9.543 Y-17.954 F550
X9.984 Y-18.69
X10.042 Y-18.812
X10.078 Y-18.943
X10.09 Y-19.079
X10.086 Y-19.937
G2 X9.52 Y-20.065 I-0.3 J0.012
G1 X9.489 Y-20.005 Z-9.935
X9.46 Y-19.949 Z-9.913
X9.433 Y-19.899 Z-9.877
X9.411 Y-19.857 Z-9.829
X9.395 Y-19.825 Z-9.772
X9.384 Y-19.806 Z-9.709
X9.381 Y-19.799 Z-9.642
G0 Z-6.146
X29.793 Y-4.427
Z-9.342
G1 Z-9.642 F550
X29.787 Y-4.43 Z-9.709
X29.768 Y-4.442 Z-9.772
X29.737 Y-4.459 Z-9.829
X29.695 Y-4.483 Z-9.877
X29.646 Y-4.512 Z-9.913
X29.591 Y-4.543 Z-9.935
X29.534 Y-4.577 Z-9.942
G2 X28.777 Y-4.789 I-0.792 J1.37
G3 X18.537 Y-4.903 I-3.41 J-152.892
G2 X14.269 Y-4.876 I-1.895 J37.397
X13.67 Y-4.833 I2.373 J37.37 F495
G1 X13.451 Y-4.878
X13.254 Y-4.978
X12.934 Y-5.283
X12.724 Y-5.673
G2 X11.913 Y-9.602 I-23.795 J2.861 F550
G1 X11.464 Y-10.713
X10.753 Y-12.334
X10.356 Y-13.125
G3 X9.954 Y-17.521 I27.931 J-4.772
G1 X10.128 Y-17.929
X10.174 Y-18.078
X10.188 Y-18.233
X10.17 Y-18.388
X10.092 Y-18.739
X10.09 Y-19.079
X9.79 Y-19.367
X9.686 Y-19.348
X9.544 Y-19.126
X7.272 Y-15.588 F1200
G2 X7.004 Y-13.445 I2.104 J1.351
G1 X9.793 Y-4.212
X10.261 Y-3.41
X11.296 Y-2.282
X12.1 Y-1.828
G2 X13.307 Y-1.593 I1.066 J-2.261
G1 X18.538 Y-1.776
G2 X19.26 Y-4.623 I-0.21 J-1.569
X18.94 Y-4.804 I-0.933 J1.278 F550
G1 X18.538 Y-4.913
X18.135 Y-4.953
X17.088 Y-5.14 F495
X17.073 Y-5.155 F550
X16.94 Y-5.286
G2 X14.371 Y-5.397 I-2.069 J18.089
X13.772 Y-5.371 I0.499 J18.201 F495
G1 X13.579 Y-5.514
X13.425 Y-5.673
X13.202 Y-6.055 F550
X12.763 Y-7.77
G2 X11.871 Y-10.996 I-9.058 J0.767
G1 X11.174 Y-12.624
X10.971 Y-13.017
X10.693 Y-13.858
X10.519 Y-15.62
G2 X10.428 Y-17.303 I-5.947 J-0.523
G1 X10.378 Y-17.46
X10.17 Y-18.388
X10.089 Y-18.528
X9.88 Y-18.612
X9.686 Y-18.541
X9.592 Y-18.374
X7.728 Y-15.051 F1200
G2 X7.522 Y-13.044 I2.172 J1.237
G1 X10.076 Y-5.015
G2 X10.934 Y-3.811 I2.374 J-0.784
G1 X13.307 Y-2.011
G2 X17.337 Y-4.418 I1.573 J-1.943
X17.088 Y-5.127 I-2.456 J0.464 F550
G1 X17.073 Y-5.155
X16.928 Y-5.399
X16.825 Y-5.555
X16.123 Y-5.821
X14.356 Y-5.922
X14.138 Y-5.964 F495
X13.943 Y-6.067
X13.786 Y-6.223
X13.577 Y-6.613 F550
X13.133 Y-8.327
G2 X11.322 Y-13.448 I-15.697 J2.67
G1 X11.091 Y-14.307
X11.033 Y-15.625
X11.014 Y-15.765
X10.968 Y-15.899
X10.898 Y-16.023
X10.795 Y-16.171
X10.491 Y-17.092
X10.426 Y-17.303
X10.301 Y-17.46
X9.984
X9.835 Y-17.237
X8.371 Y-15.051 F1200
G2 X8.16 Y-12.642 I2.075 J1.395
G1 X12.503 Y-3.074
G2 X17.192 Y-4.662 I2.233 J-1.124
X16.996 Y-5.266 I-2.456 J0.464 F550
G1 X16.928 Y-5.399
X16.91 Y-5.429 F495
X16.903 Y-5.517 F550
X16.883 Y-5.703
G2 X15.424 Y-6.374 I-1.768 J1.923
X14.825 Y-6.376 I-0.308 J2.594 F495
G1 X14.604 Y-6.417
X14.403 Y-6.508
X14.236 Y-6.653
X14.003 Y-7.029 F550
X13.508 Y-8.729
G2 X11.803 Y-13.616 I-15.549 J2.684
G1 X11.56 Y-14.47
X11.551 Y-14.87
X11.534 Y-15.016
X11.488 Y-15.156
X11.416 Y-15.284
X10.898 Y-16.023
G2 X10.659 Y-16.142 I-0.24 J0.181
G1 X10.491 Y-16.091
X10.372 Y-15.78
X9.284 Y-12.949 F1200
G2 X9.324 Y-11.037 I2.33 J0.907
G1 X12.1 Y-4.464
G2 X12.503 Y-3.812 I2.304 J-0.97
G1 Y-3.811
G2 X16.806 Y-4.741 I1.901 J-1.624
X16.904 Y-5.435 I-2.402 J-0.694 F550
G1 X16.903 Y-5.517
X16.886 Y-5.818
X16.866 Y-6.005
G2 X15.428 Y-6.868 I-2.028 J1.749
X14.833 Y-6.934 I-0.59 J2.612 F495
G1 X14.66 Y-7.113
X14.41 Y-7.478 F550
X13.863 Y-9.162
G2 X12.214 Y-13.93 I-15.026 J2.529
G1 X12.109 Y-14.371
X12.038 Y-14.544
X11.927 Y-14.695
X11.782 Y-14.814
X11.73 Y-14.846
X11.698 Y-14.881
X11.416 Y-15.284
X11.176 Y-15.403
X10.893 Y-15.203
X10.852 Y-15.037
X10.089 Y-11.997 F1200
G2 X10.089 Y-10.692 I2.34 J0.652
G1 X10.923 Y-7.619
X11.296 Y-6.51
G2 X12.728 Y-5.015 I2.303 J-0.773
G1 X14.917 Y-4.248
G2 X16.712 Y-5.06 I0.387 J-1.534
X16.886 Y-5.782 I-1.408 J-0.722 F550
G1 Y-5.818
X16.873 Y-6.039
X16.853 Y-6.225
X16.677 Y-6.556
X16.158 Y-7.098
X15.458 Y-7.368
X15.255 Y-7.454 F495
X15.085 Y-7.597
X14.821 Y-7.951 F550
X14.163 Y-9.595
G2 X13.237 Y-12.862 I-8.694 J0.7
X12.556 Y-14.309 I-4.486 J1.226
G1 X12.428 Y-14.409
X11.782 Y-14.814
X11.632 Y-14.854
X11.347 Y-14.65
X11.296 Y-14.374
X10.674 Y-11.037 F1200
X11.027 Y-9.03
X11.761 Y-7.022
G2 X12.688 Y-5.818 I2.145 J-0.692
G1 X14.514 Y-4.624
G2 X16.526 Y-5.013 I0.777 J-1.379
G1 X16.528 Y-5.015
G2 X16.7 Y-5.281 I-1.236 J-0.988
X16.873 Y-6.039 I-1.408 J-0.722 F550
G1 X16.85 Y-6.44
X16.81 Y-6.813
X16.414 Y-7.45
X15.761 Y-7.819
X15.58 Y-7.946 F495
X15.277 Y-8.269 F550
X14.887 Y-9.064
X14.306 Y-10.736
G2 X13.241 Y-13.944 I-7.076 J0.569
G1 X13.084 Y-14.023
G2 X12.591 Y-13.623 I-0.147 J0.322
G1 X12.603 Y-13.583 F1200
X12.619 Y-13.544
X16.178 Y-6.277
X16.208 Y-6.227
X16.245 Y-6.183
X16.289 Y-6.145
G2 X16.85 Y-6.44 I0.207 J-0.287 F550
G1 X16.84 Y-6.621
X16.853 Y-7.022
Y-7.21
X16.708 Y-7.556
X16.083 Y-8.182
X15.766 Y-8.492
X15.322 Y-9.258
X14.779 Y-10.943
G2 X13.892 Y-13.653 I-6.525 J0.637
G1 X13.708 Y-13.731
G2 X13.322 Y-13.328 I-0.113 J0.278
G1 X13.351 Y-13.266
X16.282 Y-6.921 F1200
G2 X16.853 Y-7.022 I0.272 J-0.126 F550
G1 X16.872 Y-7.424
Y-7.611
X16.578 Y-8.301
X16.028 Y-8.995
X15.621 Y-9.781
G2 X14.698 Y-13.13 I-37.67 J8.586
G1 X14.576 Y-13.3
X14.423 Y-13.438
X14.238 Y-13.528
G2 X13.878 Y-13.125 I-0.084 J0.288
G1 X13.92 Y-13.023
X16.296 Y-7.333 F1200
X16.302 Y-7.321
G2 X16.872 Y-7.424 I0.271 J-0.128 F550
G1 X16.901 Y-8.046
X16.899 Y-8.421
X16.072 Y-9.986
G2 X15.193 Y-13.089 I-20.465 J4.124
G1 X15.009 Y-13.246
X14.8 Y-13.349
G2 X14.44 Y-12.953 I-0.079 J0.289
G1 X14.485 Y-12.836
X16.322 Y-7.964 F1200
X16.332 Y-7.941
G2 X16.901 Y-8.046 I0.271 J-0.129 F550
G1 X16.926 Y-8.628
X16.92 Y-9.378
X16.439 Y-10.445
X16.193 Y-10.992 F495
G2 X15.575 Y-13.1 I-3.608 J-0.087 F550
G1 X15.345 Y-13.179
G2 X14.98 Y-12.798 I-0.079 J0.289
G1 X15.023 Y-12.664
X16.342 Y-8.559 F1200
X16.349 Y-8.54
X16.357 Y-8.522
G2 X16.926 Y-8.628 I0.271 J-0.13 F550
G1 X16.957 Y-9.431
X16.959 Y-9.652
X16.926 Y-10.401
X16.425 Y-12.099
X16.368 Y-12.356
X16.306 Y-12.532
X16.202 Y-12.687
X16.062 Y-12.812
G2 X15.61 Y-12.483 I-0.162 J0.252
G1 X15.627 Y-12.419
X16.369 Y-9.588 F1200
X16.379 Y-9.556
X16.393 Y-9.525
G2 X16.959 Y-9.652 I0.266 J-0.139 F550
G1 X16.968 Y-11.037
X16.949 Y-11.477
X16.905 Y-11.909
X16.853 Y-12.115
X16.746 Y-12.299
X16.591 Y-12.445
G2 X16.133 Y-12.132 I-0.164 J0.251
G1 X16.149 Y-12.056
G2 X16.403 Y-10.91 I3.25 J-0.118 F1200
X16.968 Y-11.037 I0.266 J-0.139 F550
G1 X16.973 Y-12.055
X16.966 Y-12.098
X16.951 Y-12.141
X16.928 Y-12.184
X16.881 Y-12.241
X15.721 Y-13.048
G3 X12.421 Y-14.397 I3.018 J-12.094
G1 X12.369 Y-14.422
X12.313 Y-14.437
X12.254 Y-14.44
X12.196 Y-14.431
X12.14 Y-14.41
X12.09 Y-14.378
X12.046 Y-14.337
X12.012 Y-14.287
X12 Y-14.24 Z-9.938
X11.989 Y-14.193 Z-9.926
X11.978 Y-14.15 Z-9.906
X11.993 Y-14.095 Z-9.866
X12.004 Y-14.051 Z-9.815
X12.012 Y-14.02 Z-9.754
X12.017 Y-14.003 Z-9.688
X12.019 Y-14 Z-9.642
G0 Z2.01
X33.195 Y12.448
Z-11.332
G1 Z-11.632 F550
X33.189 Y12.444 Z-11.699
X33.17 Y12.433 Z-11.763
X33.14 Y12.414 Z-11.819
X33.099 Y12.388 Z-11.867
X33.051 Y12.358 Z-11.903
X32.997 Y12.325 Z-11.925
X32.941 Y12.289 Z-11.932
G2 X31.368 Y11.791 I-1.76 J2.821
G1 X31.205 Y11.787
X30.99 Y11.793
X30.845 Y12.529
X30.795 Y13.529
X30.787 Y14.79
X30.822 Y15.02
X30.925 Y15.228
X31.087 Y15.395
X31.292 Y15.504
X31.521 Y15.545
G2 X31.815 Y15.214 I-0.004 J-0.3
G1 X31.786 Y14.928
X31.524 Y12.416 F1200
X31.487 Y12.055 F550
G2 X31.205 Y11.787 I-0.298 J0.031
G1 X30.962 Y11.782
X30.774 Y11.787
X30.418 Y12.447
X30.333 Y13.192
X30.304 Y13.942
X30.309 Y14.692
X30.401 Y14.999
X30.502 Y15.212
X30.665 Y15.382
X30.872 Y15.494
X31.103 Y15.536
G2 X31.399 Y15.221 I-0.004 J-0.3
G1 X31.384 Y14.918
X31.261 Y12.412 F1200
X31.244 Y12.067 F550
G2 X30.962 Y11.782 I-0.3 J0.015
G1 X30.577 Y11.774
X30.389 Y11.779
X29.982 Y12.409
X29.869 Y13.15
X29.825 Y13.899
X29.842 Y14.649
X29.96 Y15.01
X30.065 Y15.215
X30.227 Y15.379
X30.43 Y15.486
X30.657 Y15.526
G2 X30.953 Y15.217 I-0.004 J-0.3
G1 X30.943 Y14.908
X30.87 Y12.404 F1200
X30.86 Y12.064 F550
G2 X30.577 Y11.774 I-0.3 J0.009
G1 X30.157 Y11.764
X29.97 Y11.77
X29.542 Y12.386
X29.407 Y13.124
X29.354 Y13.872
X29.377 Y14.622
X29.507 Y15.007
X29.612 Y15.209
X29.773 Y15.371
X29.976 Y15.477
X30.201 Y15.516
G2 X30.497 Y15.211 I-0.004 J-0.3
G1 X30.491 Y14.898
X30.446 Y12.395 F1200
X30.44 Y12.059 F550
G2 X30.157 Y11.764 I-0.3 J0.005
G1 X29.772 Y11.756
X29.584 Y11.762
X29.102 Y12.336
X28.95 Y13.07
X28.888 Y13.818
X28.906 Y14.568
X29.139 Y15.281
X29.295 Y15.402
X29.47 Y15.477
X29.658 Y15.505
X30.201 Y15.516
G2 X30.494 Y15.175 I-0.004 J-0.3
G1 X30.456 Y14.901
X30.104 Y12.383 F1200
X30.052 Y12.014 F550
G2 X29.772 Y11.756 I-0.297 J0.042
G1 X29.352 Y11.747
X29.165 Y11.753
G2 X28.697 Y15.242 I2.466 J2.107
G1 X28.872 Y15.373
X29.062 Y15.462
X29.269 Y15.496
X29.658 Y15.505
G2 X29.952 Y15.175 I-0.004 J-0.3
G1 X29.923 Y14.888
X29.67 Y12.376 F1200
X29.634 Y12.017 F550
G2 X29.352 Y11.747 I-0.298 J0.03
G1 X28.967 Y11.739
X28.78 Y11.744
X28.283 Y12.306
X28.054 Y13.02
X27.962 Y13.765
X28.002 Y14.514
X28.2 Y15.237
X28.215 Y15.252
X28.368 Y15.376
X28.547 Y15.455
X28.742 Y15.485
X29.269 Y15.496
G2 X29.563 Y15.167 I-0.004 J-0.3
G1 X29.535 Y14.88
X29.285 Y12.368 F1200
X29.249 Y12.009 F550
G2 X28.967 Y11.739 I-0.299 J0.03
G1 X28.548 Y11.73
X28.36 Y11.735
X27.831 Y12.267
X27.606 Y12.982
X27.509 Y13.726
X27.534 Y14.476
X27.699 Y15.207
X27.863 Y15.353
X28.052 Y15.441
X28.257 Y15.474
X28.742 Y15.485
G2 X29.037 Y15.165 I-0.004 J-0.3
G1 X29.017 Y14.867
X28.853 Y12.36 F1200
X28.83 Y12.01 F550
G2 X28.548 Y11.73 I-0.299 J0.02
G1 X28.162 Y11.722
X27.975 Y11.727
X27.678 Y11.956
G2 X27.383 Y15.331 I2.467 J1.916
G1 X27.626 Y15.424
X27.858 Y15.466
X28.257 Y15.474
G2 X28.553 Y15.164 I-0.004 J-0.3
G1 X28.542 Y14.857
X28.457 Y12.352 F1200
X28.445 Y12.011 F550
G2 X28.162 Y11.722 I-0.3 J0.01
G1 X27.743 Y11.713
X27.555 Y11.718
X26.992 Y12.213
X26.718 Y12.911
X26.603 Y13.652
X26.614 Y14.402
X26.766 Y15.137
X26.807 Y15.185
X26.965 Y15.328
X27.157 Y15.421
X27.367 Y15.455
X27.858 Y15.466
G2 X28.154 Y15.154 I-0.004 J-0.3
G1 X28.141 Y14.848
X28.04 Y12.343 F1200
X28.026 Y12 F550
G2 X27.743 Y11.713 I-0.3 J0.012
G1 X27.358 Y11.704
X27.17 Y11.71
X26.854 Y11.911
X26.404 Y12.511
X26.2 Y13.233
X26.139 Y13.98
X26.207 Y14.727
X26.329 Y15.081
X26.35 Y15.114
X26.467 Y15.25
X26.613 Y15.354
X26.78 Y15.421
X26.957 Y15.447
X27.367 Y15.455
G2 X27.663 Y15.153 I-0.004 J-0.3
G1 X27.661 Y14.837
X27.643 Y12.335 F1200
X27.641 Y12.002 F550
G2 X27.358 Y11.704 I-0.3 J0.002
G1 X26.938 Y11.695
X26.751 Y11.701
X26.446 Y11.919
X25.956 Y12.487
X25.753 Y13.209
X25.685 Y13.956
X25.737 Y14.704
X25.879 Y15.051
X25.922 Y15.113
X26.084 Y15.284
X26.292 Y15.395
X26.523 Y15.437
X26.957 Y15.447
G2 X27.253 Y15.143 I-0.004 J-0.3
G1 X27.25 Y14.828
X27.225 Y12.326 F1200
X27.221 Y11.992 F550
G2 X26.938 Y11.695 I-0.3 J0.003
G1 X26.553 Y11.687
X26.366 Y11.692
X26.046 Y11.889
X25.515 Y12.418
X25.308 Y13.139
X25.228 Y13.885
X25.26 Y14.634
X25.388 Y14.955
X25.497 Y15.144
X25.657 Y15.294
X25.853 Y15.391
X26.068 Y15.427
X26.523 Y15.437
G2 X26.819 Y15.139 I-0.004 J-0.3
G1 X26.821 Y14.819
X26.834 Y12.318 F1200
X26.836 Y11.988 F550
G2 X26.553 Y11.687 I-0.3 J-0.002
G1 X26.133 Y11.678
X25.946 Y11.683
X25.614 Y11.858
X25.338 Y12.112
X24.959 Y12.759
X24.801 Y13.492
X24.77 Y14.242
X24.913 Y14.978
X24.991 Y15.091
X25.108 Y15.225
X25.253 Y15.327
X25.418 Y15.392
X25.594 Y15.417
X26.068 Y15.427
G2 X26.364 Y15.132 I-0.004 J-0.3
G1 X26.37 Y14.809
X26.411 Y12.308 F1200
X26.417 Y11.982 F550
G2 X26.133 Y11.678 I-0.3 J-0.005
G1 X25.748 Y11.67
X25.561 Y11.675
X25.219 Y11.829
X24.686 Y12.357
X24.426 Y13.06
X24.319 Y13.803
X24.362 Y14.551
X24.473 Y14.91
X24.536 Y15.023
X24.652 Y15.179
X24.804 Y15.301
X24.983 Y15.379
X25.175 Y15.408
X25.594 Y15.417
G2 X25.889 Y15.131 I-0.004 J-0.3
G1 X25.904 Y14.799
X26.017 Y12.3 F1200
X26.031 Y11.983 F550
G2 X25.748 Y11.67 I-0.3 J-0.014
G1 X25.393 Y11.662
X25.018 Y11.673
X24.695 Y11.864
X24.198 Y12.425
X23.96 Y13.136
X23.872 Y13.881
X23.923 Y14.629
X24.067 Y14.976
X24.125 Y15.064
X24.242 Y15.201
X24.388 Y15.306
X24.555 Y15.373
X24.734 Y15.399
X25.175 Y15.408
G2 X25.471 Y15.128 I-0.004 J-0.3
G1 X25.492 Y14.791
X25.655 Y12.292 F1200
X25.675 Y11.981 F550
G2 X25.393 Y11.662 I-0.299 J-0.019
G1 X24.767 Y11.649
X24.58 Y11.654
X24.262 Y11.853
X23.745 Y12.396
X23.513 Y13.109
X23.421 Y13.854
X23.456 Y14.603
X23.595 Y14.931
X23.706 Y15.115
X23.865 Y15.26
X24.058 Y15.353
X24.27 Y15.389
X24.734 Y15.399
G2 X25.03 Y15.101 I-0.004 J-0.3
G1 X25.032 Y14.781
X25.048 Y12.279 F1200
X25.051 Y11.95 F550
G2 X24.767 Y11.649 I-0.3 J-0.002
G1 X24.354 Y11.64
X24.167 Y11.645
X23.839 Y11.827
X23.295 Y12.344
X23.067 Y13.058
X22.967 Y13.801
X22.986 Y14.551
X23.125 Y14.904
X23.234 Y15.094
X23.394 Y15.244
X23.59 Y15.342
X23.807 Y15.379
X24.27 Y15.389
G2 X24.565 Y15.096 I-0.004 J-0.3
G1 X24.573 Y14.771
X24.63 Y12.27 F1200
X24.637 Y11.946 F550
G2 X24.354 Y11.64 I-0.3 J-0.007
G1 X23.963 Y11.631
X23.775 Y11.637
X23.432 Y11.788
X23.141 Y12.024
X22.735 Y12.655
X22.554 Y13.382
X22.505 Y14.131
X22.632 Y14.87
X22.724 Y15.017
X22.841 Y15.161
X22.99 Y15.271
X23.161 Y15.342
X23.344 Y15.369
X23.807 Y15.379
G2 X24.102 Y15.092 I-0.004 J-0.3
G1 X24.117 Y14.761
X24.231 Y12.262 F1200
X24.246 Y11.944 F550
G2 X23.963 Y11.631 I-0.3 J-0.014
G1 X23.55 Y11.622
X23.362 Y11.628
X23.013 Y11.764
X22.46 Y12.27
X22.183 Y12.968
X22.062 Y13.708
X22.093 Y14.457
X22.2 Y14.817
X22.274 Y14.958
X22.389 Y15.121
X22.543 Y15.247
X22.725 Y15.329
X22.922 Y15.36
X23.344 Y15.369
G2 X23.639 Y15.087 I-0.004 J-0.3
G1 X23.66 Y14.751
X23.813 Y12.252 F1200
X23.832 Y11.94 F550
G2 X23.55 Y11.622 I-0.299 J-0.018
G1 X23.158 Y11.614
X22.783 Y11.625
X22.456 Y11.807
X21.955 Y12.365
X21.708 Y13.074
X21.614 Y13.818
X21.663 Y14.566
X21.792 Y14.883
X21.902 Y15.07
X22.062 Y15.218
X22.257 Y15.314
X22.471 Y15.35
X22.922 Y15.36
G2 X23.217 Y15.081 I-0.004 J-0.3
G1 X23.241 Y14.742
X23.419 Y12.244 F1200
X23.44 Y11.935 F550
G2 X23.158 Y11.614 I-0.299 J-0.021
G1 X22.53 Y11.6
X22.342 Y11.606
X22.022 Y11.8
X21.5 Y12.339
X21.261 Y13.05
X21.164 Y13.794
X21.197 Y14.543
X21.331 Y14.872
X21.441 Y15.06
X21.6 Y15.208
X21.795 Y15.304
X22.01 Y15.34
X22.471 Y15.35
G2 X22.767 Y15.054 I-0.004 J-0.3
G1 X22.771 Y14.732
X22.808 Y12.231 F1200
X22.813 Y11.904 F550
G2 X22.53 Y11.6 I-0.3 J-0.004
G1 X22.11 Y11.591
X21.923 Y11.597
X21.593 Y11.776
X21.048 Y12.291
X20.814 Y13.004
X20.711 Y13.747
X20.728 Y14.497
X20.865 Y14.85
X20.974 Y15.042
X21.134 Y15.194
X21.331 Y15.293
X21.549 Y15.33
X22.01 Y15.34
G2 X22.305 Y15.048 I-0.004 J-0.3
G1 X22.315 Y14.722
X22.384 Y12.222 F1200
X22.393 Y11.899 F550
G2 X22.11 Y11.591 I-0.3 J-0.008
G1 X21.725 Y11.583
X21.537 Y11.588
X21.193 Y11.736
X20.898 Y11.968
X20.487 Y12.595
X20.301 Y13.322
X20.248 Y14.07
X20.371 Y14.81
X20.466 Y14.963
X20.582 Y15.109
X20.731 Y15.221
X20.904 Y15.293
X21.088 Y15.32
X21.549 Y15.33
G2 X21.844 Y15.046 I-0.004 J-0.3
G1 X21.861 Y14.712
X21.991 Y12.213 F1200
X22.008 Y11.898 F550
G2 X21.725 Y11.583 I-0.3 J-0.016
G1 X21.305 Y11.574
X21.118 Y11.579
X20.767 Y11.713
X20.21 Y12.215
X19.931 Y12.911
X19.807 Y13.651
X19.835 Y14.4
X19.941 Y14.76
X20.017 Y14.906
X20.132 Y15.07
X20.286 Y15.198
X20.469 Y15.28
X20.667 Y15.311
X21.088 Y15.32
G2 X21.384 Y15.04 I-0.004 J-0.3
G1 X21.405 Y14.703
X21.568 Y12.204 F1200
X21.588 Y11.893 F550
G2 X21.305 Y11.574 I-0.299 J-0.019
G1 X20.92 Y11.566
X20.545 Y11.576
X20.214 Y11.753
X19.706 Y12.304
X19.456 Y13.012
X19.358 Y13.755
X19.404 Y14.504
X19.535 Y14.83
X19.644 Y15.019
X19.804 Y15.168
X19.999 Y15.265
X20.215 Y15.301
X20.667 Y15.311
G2 X20.962 Y15.034 I-0.004 J-0.3
G1 X20.988 Y14.694
X21.179 Y12.195 F1200
X21.202 Y11.888 F550
G2 X20.92 Y11.566 I-0.299 J-0.023
G1 X20.331 Y11.553
X20.143 Y11.558
X19.812 Y11.733
X19.259 Y12.24
X19.014 Y12.949
X18.907 Y13.691
X18.93 Y14.441
X19.068 Y14.806
X19.176 Y15
X19.336 Y15.154
X19.535 Y15.254
X19.754 Y15.292
X20.215 Y15.301
G2 X20.511 Y15.011 I-0.004 J-0.3
G1 X20.521 Y14.683
X20.603 Y12.184 F1200
X20.614 Y11.862 F550
G2 X20.331 Y11.553 I-0.3 J-0.01
G1 X19.939 Y11.545
X19.752 Y11.55
X19.405 Y11.692
X19.108 Y11.922
X18.689 Y12.544
X18.499 Y13.269
X18.448 Y14.018
X18.571 Y14.758
X18.669 Y14.919
X18.786 Y15.067
X18.935 Y15.181
X19.109 Y15.254
X19.295 Y15.282
X19.754 Y15.292
G2 X20.049 Y15.008 I-0.004 J-0.3
G1 X20.067 Y14.674
X20.205 Y12.175 F1200
X20.222 Y11.861 F550
G2 X19.939 Y11.545 I-0.3 J-0.016
G1 X19.526 Y11.536
X19.339 Y11.541
X18.985 Y11.664
X18.42 Y12.158
X18.133 Y12.851
X18.008 Y13.591
X18.035 Y14.34
X18.147 Y14.73
X18.247 Y14.944
X18.41 Y15.117
X18.618 Y15.23
X18.851 Y15.272
X19.295 Y15.282
G2 X19.59 Y15.002 I-0.004 J-0.3
G1 X19.614 Y14.664
X19.787 Y12.166 F1200
X19.808 Y11.856 F550
G2 X19.526 Y11.536 I-0.299 J-0.021
G1 X18.891 Y11.522
X18.704 Y11.527
X18.382 Y11.72
X17.895 Y12.29
X17.649 Y12.999
X17.558 Y13.743
X17.614 Y14.491
X17.75 Y14.841
X17.802 Y14.92
X17.919 Y15.06
X18.066 Y15.168
X18.235 Y15.237
X18.415 Y15.263
X18.851 Y15.272
G2 X19.147 Y14.975 I-0.004 J-0.3
G1 X19.15 Y14.654
X19.171 Y12.153 F1200
X19.174 Y11.824 F550
G2 X18.891 Y11.522 I-0.3 J-0.003
G1 X18.506 Y11.514
X18.319 Y11.519
X17.992 Y11.704
X17.451 Y12.223
X17.208 Y12.932
X17.107 Y13.676
X17.138 Y14.425
X17.272 Y14.773
X17.381 Y14.965
X17.541 Y15.117
X17.738 Y15.216
X17.956 Y15.253
X18.415 Y15.263
G2 X18.711 Y14.97 I-0.004 J-0.3
G1 X18.719 Y14.645
X18.781 Y12.144 F1200
X18.789 Y11.821 F550
G2 X18.506 Y11.514 I-0.3 J-0.007
G1 X18.086 Y11.505
X17.899 Y11.51
X17.562 Y11.674
X17.279 Y11.92
X16.873 Y12.551
X16.691 Y13.278
X16.651 Y14.027
X16.787 Y14.765
X16.875 Y14.9
X16.992 Y15.04
X17.14 Y15.148
X17.309 Y15.217
X17.49 Y15.243
X17.956 Y15.253
G2 X18.251 Y14.964 I-0.004 J-0.3
G1 X18.264 Y14.635
X18.357 Y12.135 F1200
X18.369 Y11.816 F550
G2 X18.086 Y11.505 I-0.3 J-0.011
G1 X17.701 Y11.497
X17.514 Y11.502
X17.166 Y11.641
X16.611 Y12.146
X16.328 Y12.84
X16.208 Y13.581
X16.241 Y14.33
X16.346 Y14.69
X16.42 Y14.831
X16.535 Y14.995
X16.69 Y15.122
X16.872 Y15.204
X17.07 Y15.235
X17.49 Y15.243
G2 X17.785 Y14.962 I-0.005 J-0.3
G1 X17.806 Y14.625
X17.964 Y12.126 F1200
X17.984 Y11.815 F550
G2 X17.701 Y11.497 I-0.299 J-0.019
G1 X17.282 Y11.488
X16.907 Y11.499
X16.585 Y11.692
X16.095 Y12.26
X15.85 Y12.969
X15.76 Y13.713
X15.815 Y14.461
X15.96 Y14.807
X16.018 Y14.894
X16.135 Y15.03
X16.282 Y15.135
X16.449 Y15.201
X16.627 Y15.226
X17.07 Y15.235
G2 X17.365 Y14.954 I-0.005 J-0.3
G1 X17.386 Y14.617
X17.545 Y12.117 F1200
X17.565 Y11.807 F550
G2 X17.282 Y11.488 I-0.299 J-0.019
G1 X16.72 Y11.477
X16.533 Y11.473
X16.207 Y11.659
X15.659 Y12.171
X15.413 Y12.879
X15.307 Y13.622
X15.335 Y14.371
X15.475 Y14.737
X15.585 Y14.93
X15.746 Y15.083
X15.944 Y15.181
X16.162 Y15.218
X16.627 Y15.226
G2 X16.922 Y14.924 I-0.005 J-0.3
G1 X16.919 Y14.607
X16.898 Y12.194 F1200
X16.894 Y11.747 F550
G2 X16.72 Y11.477 I-0.3 J0.003
G1 X16.587 Y11.421
X16.41 Y11.357
X16.046 Y11.447
X15.72 Y11.631
X15.196 Y12.168
X14.958 Y12.879
X14.856 Y13.622
X14.877 Y14.372
X14.995 Y14.679
X15.085 Y14.846
X15.215 Y14.986
X15.376 Y15.088
X15.558 Y15.147
X15.916 Y15.214
X16.162 Y15.218
G2 X16.456 Y14.946 I-0.005 J-0.3
G1 X16.488 Y14.6
X16.72 Y12.135 F1200
X16.759 Y11.721 F550
G2 X16.587 Y11.421 I-0.299 J-0.028
G1 X16.242 Y11.276
X16.12 Y11.231
X15.749 Y11.282
X15.094 Y11.647
X14.693 Y12.281
X14.481 Y13.001
X14.4 Y13.746
X14.457 Y14.494
X14.493 Y14.569
X14.563 Y14.684
X14.653 Y14.784
X14.759 Y14.867
G2 X15.192 Y14.719 I0.154 J-0.257
G1 X15.289 Y14.473
X16.274 Y11.967 F1200
X16.395 Y11.658 F550
G2 X16.242 Y11.276 I-0.279 J-0.11
G1 X15.916 Y11.138
X15.548 Y11.067
X15.191 Y11.183
X14.59 Y11.631
G2 X14.05 Y14.341 I2.673 J1.942
G1 X14.203 Y14.479
G2 X14.668 Y14.383 I0.196 J-0.227
G1 X14.772 Y14.17
X15.924 Y11.819 F1200
X16.059 Y11.543 F550
G2 X15.916 Y11.138 I-0.269 J-0.132
G1 X15.437 Y11.02
X15.255 Y10.985
X14.888 Y11.061
X14.552 Y11.229
G2 X13.616 Y13.902 I1.579 J2.054
G1 X13.66 Y13.952
X13.712 Y13.992
X13.771 Y14.02
X13.834 Y14.036
X13.898 Y14.038
X13.96 Y14.028
X14.019 Y14.006
X14.072 Y13.972
X14.116 Y13.929
X14.15 Y13.879
X14.248 Y13.718
X15.491 Y11.664 F1200
X15.612 Y11.464 F550
G2 X15.437 Y11.02 I-0.257 J-0.155
G1 X15.111 Y10.94
X14.469 Y11.098
X14.306 Y11.138
X14.112 Y11.296
X13.704 Y11.662
X13.649 Y11.717
X13.6 Y11.777
X13.558 Y11.841
G2 X13.979 Y12.239 I0.264 J0.143
G1 X14.028 Y12.201 F1200
X14.5 Y11.753
X14.54 Y11.706
X14.569 Y11.652
G2 X14.112 Y11.296 I-0.276 J-0.117 F550
G1 X13.665 Y11.659
X13.502 Y11.937
X13.433 Y12.096
X13.345 Y12.298
X13.298 Y12.441
X13.282 Y12.537
X13.278 Y12.634
G2 X13.847 Y12.748 I0.299 J-0.02
G1 X13.862 Y12.712 F1200
X13.872 Y12.674
X13.91 Y12.486
X13.914 Y12.459
X13.916 Y12.431
X13.915 Y12.403
G2 X13.345 Y12.298 I-0.299 J0.024 F550
G1 X13.273 Y12.463
X13.298 Y13.267
G2 X15.555 Y15.161 I2.904 J-1.168
G1 X15.523 Y15.331
X16.199 Y15.656
G2 X28.56 Y15.959 I16.579 J-424.053
G1 X29.445 Y15.999 F495
X29.655 Y16.069
G3 X30.713 Y18.182 I-1.728 J2.187 F550
G1 X30.763 Y19.066 F495
X30.688 Y19.502
G3 X28.573 Y20.913 I-2.293 J-1.146 F550
X22.383 Y20.98 I-3.775 J-62.609
G1 X20.612 Y20.989
X11.76 Y20.983
X2.634 Y20.974
X2.405 Y21.01
X2.198 Y21.113
X2.032 Y21.276
X1.924 Y21.481
X1.884 Y21.709
X2.042 Y21.969
X2.497 Y22.124
X7.272 Y23.755 F1200
X8.881 Y23.822
X28.596 Y23.841
G2 X29.803 Y23.638 I0.202 J-2.492
G1 X32.028 Y22.684
G2 X33.481 Y20.275 I-1.043 J-2.272
G1 X33.865 Y1.408
G2 X32.183 Y-1.151 I-2.492 J-0.194
X31.815 Y-1.247 I-0.811 J2.365 F550
G1 X31.413 Y-1.286
X31.191 Y-1.282
X30.987 Y-1.268
X30.869 Y-0.527
X30.818 Y0.637
X30.819 Y2.407
X30.802 Y8.889
X30.8 Y9.489 F495
X30.666 Y9.91
X30.265 Y10.477 F550
X29.918 Y10.966 F495
X29.743 Y11.102
X29.537 Y11.181
X27.776 Y11.368 F550
X27.037 Y11.241
G2 X16.983 Y10.999 I-13.613 J356.142
G1 X16.325 Y10.78
X15.606 Y10.565
X14.856 Y10.551
X14.13 Y10.736
X13.517 Y11.168
X13.084 Y11.78
X12.839 Y12.49
X12.837 Y13.24
G2 X15.437 Y15.78 I4.124 J-1.619
G1 X16.123 Y16.087
G2 X24.291 Y16.352 I7.389 J-101.834
G3 X28.556 Y16.481 I-2.29 J147.017
X29.155 Y16.509 I-6.555 J146.888 F495
G1 X29.354 Y16.614
X29.525 Y16.755
X29.77 Y17.123 F550
X30.084 Y17.951 F495
X30.099 Y18.393 F550
X29.905 Y19.257
X29.873 Y19.476 F495
X29.778 Y19.676
X29.629 Y19.84
X29.249 Y20.066 F550
X28.407 Y20.339
X26.655 Y20.598
G2 X19.043 Y20.491 I-5.369 J111.503
G1 X3.245 Y20.474
X2.496 Y20.523
X2.375 Y20.568
X2.175 Y20.679
X2.017 Y20.847
X1.918 Y21.054
X1.885 Y21.281
X2.042 Y21.53
X2.451 Y21.802
X4.858 Y23.396 F1200
G2 X6.065 Y23.762 I1.306 J-2.132
G1 X27.792 Y23.766
X29.43 Y23.486
X31.413 Y22.566
G2 X32.62 Y21.169 I-1.154 J-2.218
G1 X33.334 Y19.071
X33.681 Y10.239
X32.745 Y0.203
G2 X31.942 Y-1.079 I-1.58 J0.097
X31.191 Y-1.282 I-0.776 J1.379 F550
G1 X30.789 Y-1.274
X30.602 Y-1.261
G2 X30.337 Y3.583 I15.898 J3.298
G1 X30.303 Y5.354
X30.31 Y7.125
X30.299 Y8.895
X30.03 Y9.738
X29.857 Y10.146 F495
X29.737 Y10.332
X29.57 Y10.477
X29.175 Y10.676 F550
X28.304 Y10.834
X26.535 Y10.906
X25.807 Y10.724
G2 X18.735 Y10.555 I-6.76 J134.889
G1 X16.965 Y10.484
G2 X14.034 Y10.282 I-1.73 J3.74
X13.677 Y15.208 I1.18 J2.561
X17.801 Y16.72 I3.91 J-4.286
X28.511 Y16.95 I22.179 J-785.066
G1 X28.73 Y16.988 F495
X28.932 Y17.078
X29.1 Y17.222
X29.37 Y17.573 F550
X29.457 Y17.776
X29.512 Y17.99
X29.544 Y18.432
X29.473 Y18.869 F495
X29.421 Y19.084
X29.308 Y19.274
X28.984 Y19.575
X28.169 Y19.922 F550
X26.407 Y20.096
G2 X17.251 Y19.988 I-6.309 J146.976
G1 X6.629 Y19.979
X3.973 Y19.976
X3.223 Y19.99
X2.477 Y20.062
X2.267 Y20.177
X2.103 Y20.299
X1.977 Y20.46
X1.9 Y20.65
X1.877 Y20.853
X2.042 Y21.104
X2.45 Y21.366
X4.858 Y22.908 F1200
G2 X6.065 Y23.262 I1.286 J-2.144
G1 X28.194 Y23.213
G2 X29.401 Y22.914 I0.021 J-2.5
G1 X31.01 Y22.105
G2 X32.056 Y21.078 I-1.152 J-2.219
G1 X32.474 Y20.275
X32.816 Y19.071
X33.594 Y8.232
X33.604 Y4.619
X32.263 Y-0.198
G2 X31.539 Y-1.071 I-1.499 J0.506
X30.789 Y-1.274 I-0.776 J1.379 F550
G1 X30.387 Y-1.267
X30.2 Y-1.254
X29.975 Y-0.538
G2 X29.877 Y5.174 I30.935 J3.391
G1 X29.801 Y6.424
X29.829 Y8.194
X29.805 Y8.636
X29.613 Y9.5 F495
X29.512 Y9.697
X29.371 Y9.867
X29.197 Y10.003
X28.802 Y10.203 F550
X27.941 Y10.411
X26.171 Y10.381
G2 X21.138 Y10.096 I-3.873 J23.788
G1 X19.367 Y10.078
X17.599 Y9.985
X16.714 Y9.983 F495
G2 X11.99 Y12.192 I-1.509 J2.929 F550
X13.912 Y15.969 I3.702 J0.494
X17.393 Y17.18 I3.509 J-4.481
G1 X18.716 Y17.275
X20.486 Y17.309
X22.254 Y17.227
G2 X27.865 Y17.414 I4.161 J-40.665
G1 X28.086 Y17.432
X28.306 Y17.457 F495
X28.509 Y17.544
X28.686 Y17.677
X28.818 Y17.855 F550
X28.906 Y18.058
X28.947 Y18.276
X28.955 Y18.497 F495
X28.903 Y18.712
X28.79 Y18.902
X28.469 Y19.207
X28.067 Y19.392 F550
X27.194 Y19.539
X25.427 Y19.639
X24.701 Y19.448
X22.935 Y19.564
X22.19 Y19.474
G3 X17.326 Y19.484 I-2.64 J-98.313
G1 X12.525 Y19.479
X7.725 Y19.484
X2.924 Y19.498
X2.197 Y19.714
X2.129 Y19.772
X1.983 Y19.939
X1.893 Y20.141
X1.866 Y20.361
X2.129 Y20.676
X2.439 Y20.886
X4.497 Y22.282 F1200
G2 X6.065 Y22.775 I1.492 J-2.006
G1 X26.987 Y22.89
X27.792 Y22.813
X29.401 Y22.377
G2 X30.608 Y21.646 I-0.639 J-2.417
G1 X31.413 Y20.811
G2 X32.108 Y19.472 I-1.768 J-1.768
G1 X33.107 Y8.232
X33.223 Y4.619
X32.446 Y1.809
X31.858 Y-0.198
G2 X31.137 Y-1.064 I-1.497 J0.514
X30.387 Y-1.267 I-0.776 J1.379 F550
G1 X30.206 Y-1.263
X30.019 Y-1.25
X29.558 Y-0.659
G2 X29.41 Y5.089 I21.554 J3.429
X29.308 Y8.127 I30.065 J2.534
X29.324 Y8.726 I30.167 J-0.503 F495
G1 X29.186 Y9.151
X29.06 Y9.332
X28.899 Y9.485
X28.524 Y9.719
X28.101 Y9.851 F550
X27.22 Y9.937
G2 X18.166 Y9.589 I-6.976 J63.502
G1 X16.399 Y9.437
G2 X12.5 Y15.32 I-1.292 J3.377
X17.666 Y17.717 I5.137 J-4.303
G1 X19.436 Y17.778
X20.408 Y17.816
X22.176 Y17.725
G2 X27.345 Y17.932 I4.894 J-57.585
X27.945 Y17.926 I-0.275 J-57.792 F495
G1 X28.146 Y18.045
X28.311 Y18.192 F550
G2 X28.742 Y18.143 I0.192 J-0.231
G1 X28.763 Y18.094 Z-11.927
X28.782 Y18.046 Z-11.913
X28.8 Y18.002 Z-11.89
X28.803 Y17.962 Z-11.861
X28.795 Y17.918 Z-11.814
X28.789 Y17.885 Z-11.759
X28.786 Y17.865 Z-11.697
X28.785 Y17.858 Z-11.633
G0 Z2.01
X31.224 Y-0.908
Z-11.332
G1 Z-11.632 F550
X31.217 Y-0.911 Z-11.699
X31.198 Y-0.922 Z-11.763
X31.167 Y-0.94 Z-11.819
X31.126 Y-0.964 Z-11.867
X31.076 Y-0.992 Z-11.903
X31.021 Y-1.023 Z-11.925
X30.963 Y-1.056 Z-11.932
G2 X30.206 Y-1.263 I-0.783 J1.375
G1 X29.984 Y-1.259
X29.797 Y-1.246
X29.479 Y-1.048
X29.072 Y-0.418
G2 X28.89 Y4.864 I19.337 J3.312
G1 X28.851 Y6.635
X28.804 Y8.405
X28.767 Y8.623 F495
X28.671 Y8.823
X28.532 Y8.995
X28.356 Y9.129
X27.958 Y9.323 F550
X27.086 Y9.472
G2 X18.68 Y9.09 I-6.386 J47.807
G1 X16.912 Y8.984
G2 X13.863 Y8.939 I-1.618 J6.284
X12.189 Y15.649 I1.246 J3.874
X17.283 Y18.2 I5.339 J-4.299
X22.452 Y18.202 I2.606 J-56.767
G1 X23.186 Y18.358
X24.956 Y18.363
X25.949 Y18.435
X27.276 Y18.414
X27.718 Y18.443
X28 Y18.268
X28.189 Y17.856
X31.815 Y9.956 F1200
G2 X32.052 Y8.633 I-2.252 J-1.086
G1 X31.537 Y0.203
G2 X30.735 Y-1.056 I-1.578 J0.12
X29.984 Y-1.259 I-0.776 J1.379 F550
G1 X29.582 Y-1.251
X29.395 Y-1.239
X29.095 Y-1.014
X28.624 Y-0.43
G2 X28.363 Y4.5 I17.001 J3.372
G1 X28.431 Y6.27
X28.303 Y7.655
X28.247 Y8.253 F495
X28.163 Y8.457
X28.022 Y8.628
G3 X25.801 Y8.832 I-1.327 J-2.253 F550
G2 X18.1 Y8.606 I-5.435 J53.777
G1 X16.336 Y8.426
G2 X11.973 Y16.108 I-1.186 J4.407
X17.609 Y18.718 I5.557 J-4.609
X22.338 Y18.725 I2.493 J-97.271
G1 X23.08 Y18.833
X24.294 Y18.89
X26.062 Y18.8
X26.793 Y18.971
X26.987 Y18.944
X27.234 Y18.408
X31.183 Y9.838 F1200
X31.562 Y8.633
X31.532 Y7.028
X31.134 Y0.203
G2 X30.332 Y-1.048 I-1.577 J0.128
X29.582 Y-1.251 I-0.776 J1.379 F550
G1 X29.18 Y-1.244
X28.993 Y-1.231
X28.682 Y-1.021
X28.177 Y-0.467
G2 X27.962 Y6.24 I20.538 J4.014
G1 X27.856 Y7.189
X27.789 Y7.785 F495
X27.705 Y7.99
X27.565 Y8.161
X27.381 Y8.284
X26.957 Y8.412 F550
X26.073 Y8.458
G2 X20.01 Y8.107 I-4.465 J24.575
G3 X14.985 Y7.805 I-0.175 J-39.185
G2 X11.836 Y16.629 I0.181 J5.038
X14.882 Y18.755 I4.999 J-3.916
G1 X15.222 Y18.669
X15.599 Y18.464
X29.401 Y10.932 F1200
X30.158 Y10.239
G2 X30.608 Y9.438 I-1.917 J-1.605
G1 X30.741 Y8.633
X30.731 Y0.203
G2 X29.93 Y-1.041 I-1.577 J0.135
X29.18 Y-1.244 I-0.776 J1.379 F550
G1 X28.777 Y-1.236
X28.59 Y-1.223
X28.264 Y-1.038
X27.995 Y-0.776
X27.643 Y-0.114
G2 X27.462 Y6.211 I19.982 J3.739
G1 X27.35 Y7.093
X27.33 Y7.313 F495
X27.247 Y7.518
X27.107 Y7.69
X26.924 Y7.814
X26.501 Y7.943 F550
X24.731 Y7.875
G2 X20.27 Y7.595 I-3.277 J16.503
G3 X15.369 Y7.342 I-0.849 J-31.093
G2 X11.012 Y16.435 I-0.21 J5.49
X13.761 Y18.808 I5.852 J-4.001
G1 X13.895 Y18.842
X14.459 Y18.525
X29.178 Y10.239 F1200
X29.89 Y9.436
G2 X30.497 Y8.232 I-1.847 J-1.685
G1 X30.788 Y6.225
X30.328 Y0.203
G2 X29.528 Y-1.033 I-1.576 J0.143
X28.777 Y-1.236 I-0.776 J1.379 F550
G1 X28.375 Y-1.229
X28.188 Y-1.216
X27.855 Y-1.043
X27.347 Y-0.492
G2 X26.855 Y4.267 I11.297 J3.572
G1 X26.929 Y6.036
X26.907 Y6.479
X26.886 Y6.699
X26.858 Y6.918 F495
X26.768 Y7.12
X26.622 Y7.287
X26.434 Y7.404
X26.22 Y7.461
X24.451 Y7.399 F550
G2 X20.357 Y7.085 I-3.161 J14.38
G3 X15.328 Y6.861 I-0.933 J-35.574
G2 X10.484 Y16.533 I-0.148 J5.975
X12.483 Y18.637 I6.45 J-4.125
G1 X12.905 Y18.534
X13.218 Y18.364
X28.194 Y10.232 F1200
G2 X28.596 Y9.991 I-1.081 J-2.254
G1 X29.401 Y9.104
X29.722 Y8.633
G2 X30.099 Y7.429 I-2.12 J-1.325
G1 X29.925 Y0.203
G2 X29.125 Y-1.026 I-1.575 J0.15
X28.375 Y-1.229 I-0.776 J1.379 F550
G1 X27.973 Y-1.221
X27.786 Y-1.208
X27.449 Y-1.043
X26.892 Y-0.541
G2 X26.35 Y3.622 I10.159 J3.44
G1 X26.374 Y5.393
X26.453 Y6.275 F495
X26.413 Y6.492
X26.312 Y6.689
X26.158 Y6.848
X25.964 Y6.955
X25.748 Y7
G2 X21.116 Y6.568 I-8.573 J66.809 F550
G1 X19.345 Y6.591
X17.576 Y6.67
G2 X10.574 Y8.281 I-2.056 J7.085
X10.361 Y17.171 I4.763 J4.562
X11.868 Y18.795 I5.724 J-3.803
G1 X12.1 Y18.859
X12.57 Y18.586
X27.792 Y9.739 F1200
X28.631 Y9.035
X28.983 Y8.633
G2 X29.494 Y7.028 I-1.988 J-1.516
G1 X29.522 Y0.203
G2 X28.723 Y-1.018 I-1.575 J0.158
X27.973 Y-1.221 I-0.776 J1.379 F550
G1 X27.57 Y-1.214
X27.196 Y-1.188
X26.873 Y-0.998
X26.391 Y-0.423
G2 X25.853 Y3.905 I10.937 J3.556
G1 X25.887 Y5.675
X25.911 Y5.895 F495
X25.877 Y6.114
X25.782 Y6.314
X25.632 Y6.476
X25.441 Y6.588
X25.226 Y6.64
X24.342 Y6.585 F550
G2 X20.824 Y6.094 I-2.897 J7.903
G1 X19.052 Y6.099
X17.285 Y6.193
G2 X8.252 Y13.362 I-2.005 J6.749
X10.996 Y18.692 I8.971 J-1.247
G1 X11.296 Y18.755
X11.709 Y18.51
X27.389 Y9.231 F1200
G2 X28.445 Y8.232 I-1.116 J-2.237
G1 X29.05 Y7.028
X29.221 Y6.225
X29.119 Y0.203
G2 X28.321 Y-1.011 I-1.574 J0.165
X27.57 Y-1.214 I-0.776 J1.379 F550
G1 X26.987 Y-1.203
X26.8 Y-1.19
X26.475 Y-1.002
X25.942 Y-0.474
G2 X25.384 Y5.257 I13.71 J4.228
G1 X25.377 Y5.48
X25.366 Y5.701 F495
X25.291 Y5.91
X25.158 Y6.087
X24.98 Y6.217
X24.771 Y6.29
X24.55 Y6.299
G2 X18.34 Y5.631 I-4.638 J13.922 F550
G1 X17.456 Y5.694
G2 X8.217 Y10.247 I-2.049 J7.492
X9.383 Y17.527 I7.545 J2.525
G1 X9.785 Y18.162
X10.401 Y18.798
X10.61 Y18.883
X11.085 Y18.588
X27.127 Y8.633 F1200
G2 X28.346 Y6.626 I-1.277 J-2.149
G1 X28.528 Y0.605
G2 X27.738 Y-0.999 I-1.567 J-0.225
X27.389 Y-1.144 I-0.777 J1.379 F550
G1 X26.987 Y-1.203
X26.585 Y-1.195
X26.397 Y-1.182
X26.058 Y-1.023
X25.489 Y-0.534
G2 X24.833 Y4.567 I13.574 J4.34
X24.877 Y5.166 I14.23 J-0.761 F495
G1 X24.832 Y5.388
X24.745 Y5.591
X24.602 Y5.76
X24.415 Y5.879
X24.202 Y5.94
X23.981 Y5.935
X23.561 Y5.797 F550
G2 X20.638 Y5.121 I-2.467 J4.007
G1 X19.284 Y5.092
G3 X15.139 Y4.968 I-1.207 J-29.029
G2 X8.488 Y16.974 I0.069 J7.883
G1 X8.836 Y17.654
X9.251 Y18.278
X9.538 Y18.615
X9.76 Y18.712
X10.223 Y18.428
X26.8 Y8.232 F1200
X27.389 Y7.567
G2 X28.038 Y5.823 I-1.85 J-1.681
G1 X28.127 Y0.605
G2 X27.336 Y-0.991 I-1.568 J-0.217
X26.987 Y-1.136 I-0.777 J1.379 F550
G1 X26.585 Y-1.195
X26.182 Y-1.187
X25.808 Y-1.162
X25.478 Y-0.983
X24.986 Y-0.417
G2 X24.343 Y4.19 I12.715 J4.125
X24.378 Y4.789 I13.359 J-0.482 F495
G1 X24.331 Y5.011
X24.243 Y5.214
X23.957 Y5.552 F550
G2 X24.303 Y6.016 I0.235 J0.186
X24.48 Y5.824 I-0.111 J-0.279 F1200
G1 X26.398 Y-0.579
X26.465 Y-0.801 F550
G2 X26.182 Y-1.187 I-0.287 J-0.086
G1 X25.559 Y-1.176
X25.371 Y-1.163
X25.049 Y-0.972
X24.528 Y-0.432
G2 X23.822 Y3.957 I12.561 J4.27
X23.841 Y4.556 I13.267 J-0.119 F495
G1 X23.775 Y4.771
X23.657 Y4.958
X23.491 Y5.104
X23.288 Y5.194
X23.069 Y5.221
X21.325 Y4.918 F550
X20.617 Y4.669
X19.869 Y4.617
X18.731 Y4.609
X16.962 Y4.676
G2 X8.096 Y17.273 I-1.736 J8.197
G1 X8.509 Y18.084
X8.761 Y18.448
X9.038 Y18.793
X9.284 Y18.897
X9.711 Y18.603
X25.377 Y7.816 F1200
X26.182 Y7.035
G2 X26.975 Y5.422 I-1.697 J-1.835
G1 X27.103 Y0.605
G2 X26.309 Y-0.973 I-1.57 J-0.198
X25.559 Y-1.176 I-0.776 J1.379 F550
G1 X25.156 Y-1.168
X24.969 Y-1.155
X24.634 Y-0.988
X24.075 Y-0.487
G2 X23.331 Y3.728 I12.778 J4.43
X23.334 Y4.328 I13.522 J0.215 F495
G1 X23.192 Y4.523
X23.034 Y4.679
X22.838 Y4.781
X22.62 Y4.822
X22.18 Y4.773
G2 X19.279 Y4.127 I-2.617 J4.923 F550
G1 X17.509 Y4.133
X15.742 Y4.245
G2 X12.083 Y4.636 I-1.253 J5.578
X7.498 Y17.145 I3.018 J8.201
X8.349 Y18.714 I4.92 J-1.653
G1 X8.586 Y18.839
X9.008 Y18.543
X24.975 Y7.374 F1200
X25.35 Y7.028
G2 X26.278 Y5.422 I-1.546 J-1.965
G1 X26.702 Y0.605
G2 X26.182 Y-0.769 I-1.571 J-0.191
G1 X25.903 Y-0.949
X25.78 Y-1.029 F550
X25.156 Y-1.168
X24.754 Y-1.16
X24.38 Y-1.135
X24.056 Y-0.945
X23.569 Y-0.375
G2 X22.838 Y3.393 I13.121 J4.499
X22.82 Y3.992 I13.851 J0.731 F495
G1 X22.641 Y4.171
X22.464 Y4.304
X22.256 Y4.379
X22.035 Y4.391
X20.317 Y3.964 F550
X19.614 Y3.701
G2 X14.532 Y3.84 I-1.836 J25.931
X11.625 Y4.303 I-0.777 J4.475
X6.844 Y16.918 I3.472 J8.53
G1 X7.139 Y17.691
X7.49 Y18.354
X7.741 Y18.718
X8.077 Y18.825
X8.426 Y18.569
X25 Y6.453 F1200
X25.377 Y5.973
G2 X26.029 Y4.619 I-1.823 J-1.711
G1 X26.3 Y0.605
G2 X25.504 Y-0.957 I-1.572 J-0.183
X24.754 Y-1.16 I-0.776 J1.379 F550
G1 X24.17 Y-1.15
X23.983 Y-1.137
X23.657 Y-0.951
X23.121 Y-0.427
G2 X22.379 Y2.873 I11.105 J4.228
X22.348 Y3.472 I11.846 J0.927 F495
G1 X22.237 Y3.672
X22.088 Y3.836
X21.898 Y3.949
X21.683 Y4.002
X21.462 Y3.99
X20.631 Y3.686 F550
X19.966 Y3.339
G2 X14.455 Y3.352 I-2.714 J18.434
X10.192 Y4.494 I-0.508 J6.63
X6.362 Y17.014 I4.876 J8.337
G1 X6.629 Y17.776
X6.901 Y18.306
X7.124 Y18.689
X7.378 Y18.829
X7.774 Y18.533
X24.573 Y5.955 F1200
G2 X25.403 Y4.218 I-1.667 J-1.864
G1 X25.718 Y0.605
G2 X24.922 Y-0.946 I-1.573 J-0.172
X24.573 Y-1.091 I-0.777 J1.379 F550
G1 X24.17 Y-1.15
X23.768 Y-1.142
X23.581 Y-1.129
X23.24 Y-0.973
X22.667 Y-0.489
G2 X21.915 Y2.519 I11.335 J4.432
X21.86 Y3.117 I12.087 J1.423 F495
G1 X21.724 Y3.305
X21.561 Y3.455
X21.361 Y3.55
X21.142 Y3.583
X20.923 Y3.55
X20.57 Y3.383 F550
X20.001 Y2.894
G2 X14.942 Y2.792 I-2.86 J16.361
G1 X13.178 Y2.952
G2 X6.548 Y7.383 I1.324 J9.157
X5.757 Y16.842 I8.443 J5.469
X6.563 Y18.707 I7.283 J-2.04
G1 X6.87 Y18.852
X7.223 Y18.582
X23.912 Y5.823 F1200
X24.578 Y5.021
X24.881 Y4.218
X25.317 Y0.605
G2 X24.519 Y-0.938 I-1.574 J-0.164
X24.17 Y-1.083 I-0.777 J1.379 F550
G1 X23.768 Y-1.142
X23.366 Y-1.134
X22.992 Y-1.109
X22.659 Y-0.935
X22.156 Y-0.378
G2 X21.398 Y2.651 I10.835 J4.321
G1 X21.189 Y3.042
G2 X21.629 Y3.42 I0.271 J0.13
G1 X21.67 Y3.386 F1200
X21.704 Y3.346
X21.731 Y3.301
X23.552 Y-0.538
X23.632 Y-0.706 F550
G2 X23.366 Y-1.134 I-0.271 J-0.129
G1 X22.742 Y-1.123
X22.555 Y-1.11
X22.228 Y-0.927
X21.695 Y-0.398
G2 X20.916 Y2.312 I11.166 J4.676
G1 X20.691 Y2.693
G2 X21.11 Y3.093 I0.263 J0.144
G1 X21.156 Y3.059 F1200
X21.194 Y3.016
X21.224 Y2.968
X22.927 Y-0.527
X23.007 Y-0.691 F550
G2 X22.742 Y-1.123 I-0.27 J-0.131
G1 X22.34 Y-1.115
X22.153 Y-1.102
X21.812 Y-0.945
X21.242 Y-0.458
X20.951 Y0.233
X20.602 Y1.35
X20.424 Y1.923 F495
X20.299 Y2.106
X20.127 Y2.245
X19.922 Y2.327
X19.04 Y2.403 F550
G2 X15.267 Y2.265 I-2.277 J10.615
X11.307 Y2.874 I0.1 J13.836
X5.442 Y17.367 I3.855 J9.993
G1 X5.658 Y18.09
X5.973 Y18.674
X6.232 Y18.823
X6.624 Y18.535
X6.87 Y18.354 F1200
X22.442 Y4.619
G2 X23.157 Y3.415 I-1.705 J-1.828
G1 X23.802 Y1.006
G2 X23.09 Y-0.912 I-1.488 J-0.539
X22.34 Y-1.115 I-0.776 J1.379 F550
G1 X21.937 Y-1.107
X21.563 Y-1.082
X21.232 Y-0.905
G2 X20.237 Y0.735 I3.035 J2.963
X20.091 Y1.317 I4.03 J1.323 F495
G1 X19.983 Y1.514
X19.832 Y1.676
X19.641 Y1.787
X19.425 Y1.838
X17.655 Y1.88 F550
G2 X13.681 Y1.899 I-1.93 J12.145
X4.012 Y13.304 I1.171 J10.793
X5.47 Y18.796 I13.791 J-0.722
G1 X5.505 Y18.845
X5.55 Y18.887
X5.602 Y18.918
X5.659 Y18.939
X5.719 Y18.947
X5.78 Y18.944
X5.839 Y18.928
X5.893 Y18.901
X5.929 Y18.862 Z-11.927
X5.964 Y18.825 Z-11.913
X5.997 Y18.79 Z-11.89
X6.009 Y18.742 Z-11.853
X6.019 Y18.703 Z-11.807
X6.027 Y18.674 Z-11.753
X6.031 Y18.656 Z-11.694
X6.033 Y18.65 Z-11.633
G0 Z-11.228
X22.956 Y-0.752
Z-11.332
G1 Z-11.632 F550
X22.949 Y-0.756 Z-11.699
X22.93 Y-0.767 Z-11.763
X22.899 Y-0.784 Z-11.819
X22.858 Y-0.808 Z-11.867
X22.808 Y-0.836 Z-11.903
X22.753 Y-0.867 Z-11.925
X22.695 Y-0.9 Z-11.932
G2 X21.937 Y-1.107 I-0.783 J1.375
G1 X21.354 Y-1.096
X21.167 Y-1.084
X20.832 Y-0.915
G2 X19.833 Y0.428 I2.116 J2.618
X19.656 Y1 I3.115 J1.276 F495
G1 X19.478 Y1.157
X19.287 Y1.269
X18.857 Y1.372 F550
X17.086 Y1.368
G2 X8.637 Y3.153 I-1.726 J12.718
X4.365 Y17.33 I6.648 J9.736
G1 X4.593 Y18.106
X4.681 Y18.309
X4.869 Y18.71
X5.136 Y18.874
X5.437 Y18.669
X5.513 Y18.593
X22.561 Y1.479 F1200
G2 X22.105 Y-0.893 I-1.232 J-0.993
X21.756 Y-1.038 I-0.777 J1.379 F550
G1 X21.354 Y-1.096
X20.952 Y-1.089
X20.578 Y-1.063
X19.933 Y-0.68
X19.497 Y0.09
X19.404 Y0.291
X19.296 Y0.485 F495
X19.137 Y0.638
X18.939 Y0.738
X18.08 Y0.951 F550
G2 X9.095 Y2.292 I-2.394 J14.725
X3.625 Y16.684 I6.176 J10.583
G1 X3.981 Y17.908
X4.144 Y18.319
X4.325 Y18.723
X4.595 Y18.891
X4.953 Y18.591
X5.26 Y18.334 F1200
X22.159 Y1.486
G2 X21.703 Y-0.885 I-1.232 J-0.993
X21.354 Y-1.03 I-0.777 J1.379 F550
G1 X20.952 Y-1.089
X20.328 Y-1.077
X20.141 Y-1.064
X19.793 Y-0.925
X19.266 Y-0.392
X19.018 Y-0.025
X18.666 Y0.243 F495
X18.246 Y0.385
X16.478 Y0.475 F550
G2 X9.889 Y1.405 I-1.705 J11.726
X3.126 Y16.665 I5.204 J11.435
G1 X3.558 Y18.243
X3.65 Y18.444
X3.679 Y18.664
X3.607 Y19.1
G2 X4.136 Y19.33 I0.297 J0.039
G1 X4.143 Y19.322
X20.483 Y-0.5 F1200
X20.555 Y-0.586 F550
G2 X20.328 Y-1.077 I-0.231 J-0.191
G1 X19.926 Y-1.07
X19.552 Y-1.044
X18.915 Y-0.648
X18.593 Y-0.344 F495
X18.192 Y-0.156
G3 X14.051 Y-0.126 I-2.219 J-20.323 F550
G2 X2.685 Y16.838 I0.966 J12.937
G1 X3.004 Y18.13
X3.071 Y18.341
X3.096 Y18.561 F495
X3.056 Y18.778
X2.955 Y18.975
X2.08 Y19.872 F550
X1.961 Y20.031
X1.888 Y20.216
X1.867 Y20.413
G2 X2.396 Y20.589 I0.299 J-0.018
G1 X2.441 Y20.535
X20.08 Y-0.493 F1200
X20.151 Y-0.577 F550
G2 X19.926 Y-1.07 I-0.23 J-0.193
G1 X19.342 Y-1.059
X18.968 Y-1.033
X18.137 Y-0.729
X17.283 Y-0.496
G2 X12.525 Y-0.403 I-2.027 J17.977
X1.956 Y15.975 I2.451 J13.18
G1 X2.157 Y16.966
X2.294 Y17.454
X2.457 Y18.031 F495
X2.508 Y18.247
G3 X1.835 Y19.5 I-2.623 J-0.601 F550
G1 X1.849 Y19.717
X1.866 Y20.361
G2 X2.398 Y20.533 I0.299 J-0.018
G1 X2.439 Y20.482
X19.498 Y-0.481 F1200
X19.57 Y-0.569 F550
G2 X19.342 Y-1.059 I-0.233 J-0.189
G1 X16.928 Y-1.013
X13.307 Y-0.906
G2 X2.763 Y6.25 I1.133 J13.015
X1.842 Y8.381 I6.783 J4.199
X1.461 Y14.655 I17.883 J4.234
G1 X1.639 Y16.399
G3 X1.915 Y18.268 I-12.958 J2.867
G1 X1.856 Y18.404
X1.832 Y18.49
X1.819 Y18.579
X1.817 Y18.669
G2 X2.386 Y18.781 I0.299 J-0.02
G1 X2.405 Y18.731 F1200
X2.415 Y18.679
Y18.625
X2.238 Y16.358
X2.23 Y16.308
X2.213 Y16.261
X2.189 Y16.216
G2 X1.639 Y16.399 I-0.251 J0.165 F550
G1 X1.737 Y17.465
X1.817 Y18.669
X1.849 Y19.717
G2 X2.411 Y19.843 I0.299 J-0.019
G1 X2.417 Y19.832
X13.488 Y-0.316 F1200
X13.568 Y-0.461 F550
G2 X13.307 Y-0.906 I-0.263 J-0.144
G1 X11.074 Y-0.843
G2 X7.604 Y0.444 I0.626 J7.011
X1.825 Y7.067 I7.001 J11.941
G1 X1.856 Y8.385
G2 X2.368 Y8.59 I0.3 J-0.006
G1 X2.428 Y8.53
X11.227 Y-0.274 F1200
X11.284 Y-0.331 F550
G2 X11.074 Y-0.843 I-0.212 J-0.212
G1 X9.686 Y-0.799
X8.939 Y-0.734
G2 X1.812 Y5.998 I5.184 J12.625
G1 X1.864 Y6.626
X1.863 Y7.083
X2.042 Y7.347
X2.163 Y7.373
X2.453 Y7.191
X10.491 Y2.148 F1200
G2 X10.893 Y1.811 I-0.801 J-1.365
G1 X10.895 Y1.809
G2 X10.44 Y-0.61 I-1.205 J-1.026
X9.69 Y-0.799 I-0.75 J1.393 F550
G1 X9.686
X8.881 Y-0.769
X8.258 Y-0.699
G2 X5.624 Y0.623 I0.764 J4.807
X1.832 Y4.922 I8.287 J11.13
G1 X1.847 Y5.075
X2.042 Y5.342 Z-11.908
X2.147 Y5.361 Z-11.891
X2.366 Y5.11 Z-11.802
X2.444 Y5.021 Z-11.771 F1200
X1.943 Y0.86 Z-9.942
X1.938 Y0.817
X1.844 Y0.037 F550
Y-1.155
G3 X1.198 Y-5.286 I7.269 J-3.253
G1 X0.99 Y-10.593
X0.835 Y-10.834
X0.69 Y-10.871
X0.417 Y-10.651
X0.397 Y-10.635 F1200
X-1.277 Y-5.417
G2 X-0.775 Y-3.085 I1.948 J0.8
G1 X0.397 Y-1.804
G2 X1.083 Y-1.327 I1.521 J-1.456
X1.844 Y-1.155 I0.835 J-1.933 F550
G1 X2.066
X1.988 Y-1.901
X1.706 Y-3.649
X1.691 Y-5.419
X1.571 Y-8.515
X1.866 Y-9.638
X1.991 Y-10.377
X1.786 Y-12.136
X1.845 Y-12.574
G3 X2.051 Y-17.434 I30.719 J-1.131
G1 X2.047 Y-17.5
X2.029 Y-17.564
X1.997 Y-17.622
X1.953 Y-17.672
X1.9 Y-17.711
X1.84 Y-17.738
X1.775 Y-17.751
X1.709 Y-17.75
X1.645 Y-17.734
X1.586 Y-17.705
X1.535 Y-17.664
X1.494 Y-17.613
X1.472 Y-17.571 F1200
X1.456 Y-17.526
X1.447 Y-17.479
X0.752 Y-10.32
X0.724 Y-10.037 F550
G2 X1.024 Y-9.708 I0.299 J0.029
G1 X2.022 Y-9.748
X2.172 Y-9.86
X2.391 Y-10.165
X2.482 Y-10.909
G3 X2.367 Y-13.431 I6.627 J-1.567
G1 X2.337 Y-13.877
G2 X1.771 Y-14.001 I-0.3 J0.014
G1 X1.75 Y-13.95 F1200
X0.783 Y-10.753
X0.718 Y-10.537 F550
G2 X1.007 Y-10.151 I0.287 J0.087
G1 X2.454 Y-10.207
X3.135 Y-10.521
X2.998 Y-10.942
X2.898 Y-11.373
G2 X2.325 Y-11.395 I-0.29 J0.078
G1 X2.318 Y-11.373
X1.374 Y-8.672 F1200
X1.304 Y-8.472 F550
G2 X1.588 Y-8.073 I0.283 J0.099
G1 X1.776 Y-8.08
X2.212 Y-8.69
X2.238 Y-8.91
