(prop3)
(T1  D=3 CR=0 - ZMIN=-17.318 - flat end mill)
G90 G94
G17
G21
G28 G91 Z0
G90

(Adaptive1)
T1
S18000 M3
G54
G0 X-3.378 Y-13.799
Z2.21
Z-9.39
G1 Z-9.69 F30
X-3.371 Y-13.795 Z-9.757
X-3.352 Y-13.784 Z-9.82
X-3.322 Y-13.765 Z-9.877
X-3.281 Y-13.74 Z-9.925
X-3.233 Y-13.711 Z-9.96
X-3.178 Y-13.678 Z-9.982
X-3.121 Y-13.643 Z-9.99
G2 X-1.544 Y-13.159 I1.732 J-2.838
G1 X-1.362 Y-13.157
X-1.175 Y-13.164
G2 X-1.04 Y-16.249 I-6.849 J-1.846
G1 X-1.199 Y-16.467
X-1.383 Y-16.654
X-1.602 Y-16.795
X-1.848 Y-16.883
X-2.108 Y-16.915
G2 X-2.392 Y-16.545 I0.008 J0.3
G1 X-2.333 Y-16.3
X-1.732 Y-13.775 F300
X-1.64 Y-13.388 F30
G2 X-1.362 Y-13.157 I0.292 J-0.069
G1 X-0.982 Y-13.153
X-0.794 Y-13.16
G2 X-0.581 Y-16.151 I-4.943 J-1.855
G1 X-0.715 Y-16.399
X-0.9 Y-16.611
X-1.13 Y-16.773
X-1.392 Y-16.874
X-1.67 Y-16.911
G2 X-1.956 Y-16.546 I0.008 J0.3
G1 X-1.9 Y-16.295
X-1.345 Y-13.772 F300
X-1.261 Y-13.388 F30
G2 X-0.982 Y-13.153 I0.293 J-0.064
G1 X-0.619 Y-13.149
X-0.432 Y-13.156
G2 X-0.294 Y-16.497 I-3.392 J-1.814
G1 X-0.511 Y-16.658
X-0.726 Y-16.792
X-0.964 Y-16.875
X-1.216 Y-16.906
G2 X-1.503 Y-16.55 I0.007 J0.3
G1 X-1.454 Y-16.29
X-0.972 Y-13.77 F300
X-0.9 Y-13.392 F30
G2 X-0.619 Y-13.149 I0.295 J-0.056
G1 X-0.271 Y-13.144
X-0.084 Y-13.151
X0.3 Y-13.795
X0.431 Y-14.534
X0.463 Y-15.283
X0.39 Y-16.029
X0.283 Y-16.247
X0.145 Y-16.464
X-0.037 Y-16.645
X-0.254 Y-16.783
X-0.496 Y-16.869
X-0.751 Y-16.9
G2 X-1.041 Y-16.555 I0.007 J0.3
G1 X-0.999 Y-16.283
X-0.611 Y-13.768 F300
X-0.553 Y-13.398 F30
G2 X-0.271 Y-13.144 I0.296 J-0.046
G1 X0.109 Y-13.139
X0.297 Y-13.146
X0.738 Y-13.752
X0.885 Y-14.488
X0.925 Y-15.237
X0.867 Y-15.984
X0.757 Y-16.221
X0.621 Y-16.444
X0.438 Y-16.631
X0.219 Y-16.773
X-0.026 Y-16.862
X-0.285 Y-16.895
G2 X-0.576 Y-16.557 I0.006 J0.3
G1 X-0.54 Y-16.277
X-0.22 Y-13.765 F300
X-0.174 Y-13.401 F30
G2 X0.109 Y-13.139 I0.298 J-0.038
G1 X0.472 Y-13.134
X0.659 Y-13.141
X0.918 Y-13.412
X1.251 Y-14.084
X1.371 Y-14.825
X1.374 Y-15.575
X1.207 Y-16.306
X1.147 Y-16.392
X0.964 Y-16.597
X0.737 Y-16.753
X0.481 Y-16.852
X0.208 Y-16.888
X-0.285 Y-16.895
G2 X-0.57 Y-16.524 I0.006 J0.3
G1 X-0.511 Y-16.282
X0.101 Y-13.752 F300
X0.195 Y-13.363 F30
G2 X0.472 Y-13.134 I0.292 J-0.071
G1 X0.819 Y-13.129
X1.007 Y-13.136
X1.532 Y-13.671
X1.762 Y-14.385
X1.84 Y-15.131
X1.775 Y-15.878
X1.709 Y-16.081
X1.585 Y-16.342
X1.402 Y-16.564
X1.169 Y-16.735
X0.902 Y-16.843
X0.616 Y-16.882
X0.208 Y-16.888
G2 X-0.08 Y-16.53 I0.006 J0.3
G1 X-0.029 Y-16.273
X0.465 Y-13.751 F300
X0.54 Y-13.371 F30
G2 X0.819 Y-13.129 I0.294 J-0.058
G1 X1.2 Y-13.124
X1.387 Y-13.13
X1.685 Y-13.359
X2.094 Y-13.987
X2.262 Y-14.718
X2.279 Y-15.468
X2.137 Y-16.204
X2.066 Y-16.32
X1.883 Y-16.548
X1.649 Y-16.723
X1.378 Y-16.835
X1.089 Y-16.876
X0.616 Y-16.882
G2 X0.328 Y-16.527 I0.006 J0.3
G1 X0.377 Y-16.267
X0.849 Y-13.746 F300
X0.92 Y-13.368 F30
G2 X1.2 Y-13.124 I0.295 J-0.055
G1 X1.563 Y-13.118
X1.75 Y-13.125
X2.049 Y-13.352
X2.531 Y-13.926
X2.706 Y-14.656
X2.74 Y-15.405
X2.631 Y-16.147
X2.55 Y-16.287
X2.409 Y-16.481
X2.231 Y-16.643
X2.024 Y-16.764
X1.796 Y-16.841
X1.557 Y-16.869
X1.089 Y-16.876
G2 X0.798 Y-16.53 I0.006 J0.3
G1 X0.84 Y-16.259
X1.224 Y-13.743 F300
X1.281 Y-13.373 F30
G2 X1.563 Y-13.118 I0.297 J-0.045
G1 X1.91 Y-13.113
X2.098 Y-13.12
X2.42 Y-13.311
X2.692 Y-13.57
X3.054 Y-14.227
X3.182 Y-14.966
X3.163 Y-15.715
X2.968 Y-16.44
X2.948 Y-16.463
X2.769 Y-16.629
X2.56 Y-16.754
X2.329 Y-16.832
X2.087 Y-16.861
X1.557 Y-16.869
G2 X1.265 Y-16.535 I0.006 J0.3
G1 X1.298 Y-16.251
X1.586 Y-13.74 F300
X1.627 Y-13.379 F30
G2 X1.91 Y-13.113 I0.298 J-0.034
G1 X2.291 Y-13.108
X2.478 Y-13.114
X2.814 Y-13.281
X3.332 Y-13.823
X3.57 Y-14.534
X3.638 Y-15.281
X3.552 Y-16.026
X3.527 Y-16.094
X3.399 Y-16.343
X3.216 Y-16.554
X2.988 Y-16.716
X2.727 Y-16.818
X2.45 Y-16.856
X2.087 Y-16.861
G2 X1.794 Y-16.541 I0.006 J0.3
G1 X1.814 Y-16.242
X1.983 Y-13.736 F300
X2.006 Y-13.387 F30
G2 X2.291 Y-13.108 I0.299 J-0.02
G1 X2.654 Y-13.103
X2.841 Y-13.109
X3.187 Y-13.255
X3.479 Y-13.489
X3.893 Y-14.115
X4.06 Y-14.846
X4.067 Y-15.596
X3.902 Y-16.328
X3.855 Y-16.389
X3.673 Y-16.579
X3.452 Y-16.724
X3.205 Y-16.815
X2.944 Y-16.849
X2.45 Y-16.856
G2 X2.157 Y-16.536 I0.006 J0.3
G1 X2.177 Y-16.236
X2.346 Y-13.73 F300
X2.369 Y-13.382 F30
G2 X2.654 Y-13.103 I0.299 J-0.02
G1 X3.079 Y-13.096
X3.266 Y-13.103
X3.615 Y-13.24
X4.173 Y-13.742
X4.439 Y-14.443
X4.529 Y-15.187
X4.462 Y-15.934
X4.331 Y-16.295
X4.148 Y-16.52
X3.915 Y-16.693
X3.647 Y-16.802
X3.359 Y-16.843
X2.944 Y-16.849
G2 X2.65 Y-16.535 I0.006 J0.3
G1 X2.664 Y-16.229
X2.778 Y-13.725 F300
X2.794 Y-13.382 F30
G2 X3.079 Y-13.096 I0.3 J-0.014
G1 X3.573 Y-13.089
X3.761 Y-13.096
X4.103 Y-13.249
X4.651 Y-13.761
X4.891 Y-14.471
X4.975 Y-15.217
X4.917 Y-15.964
X4.834 Y-16.148
X4.7 Y-16.375
X4.517 Y-16.566
X4.296 Y-16.711
X4.049 Y-16.803
X3.787 Y-16.836
X3.359 Y-16.843
G2 X3.066 Y-16.522 I0.006 J0.3
G1 X3.087 Y-16.223
X3.264 Y-13.717 F300
X3.289 Y-13.368 F30
G2 X3.573 Y-13.089 I0.299 J-0.021
G1 X4.092 Y-13.082
X4.279 Y-13.088
X4.611 Y-13.263
X5.129 Y-13.806
X5.349 Y-14.523
X5.423 Y-15.269
X5.364 Y-16.017
X5.262 Y-16.208
X5.123 Y-16.415
X4.943 Y-16.587
X4.731 Y-16.717
X4.495 Y-16.8
X4.248 Y-16.83
X3.787 Y-16.836
G2 X3.494 Y-16.507 I0.006 J0.3
G1 X3.523 Y-16.218
X3.773 Y-13.709 F300
X3.808 Y-13.352 F30
G2 X4.092 Y-13.082 I0.299 J-0.03
G1 X4.473 Y-13.076
X4.66 Y-13.083
X5 Y-13.24
X5.287 Y-13.482
X5.684 Y-14.119
X5.847 Y-14.851
X5.865 Y-15.6
X5.695 Y-16.331
X5.656 Y-16.379
X5.475 Y-16.563
X5.257 Y-16.702
X5.014 Y-16.79
X4.758 Y-16.822
X4.248 Y-16.83
G2 X3.955 Y-16.508 I0.006 J0.3
G1 X3.977 Y-16.21
X4.162 Y-13.704 F300
X4.188 Y-13.354 F30
G2 X4.473 Y-13.076 I0.299 J-0.022
G1 X4.835 Y-13.071
X5.023 Y-13.077
X5.38 Y-13.193
X5.936 Y-13.696
X6.211 Y-14.394
X6.318 Y-15.136
X6.265 Y-15.884
X6.147 Y-16.248
X5.964 Y-16.481
X5.729 Y-16.66
X5.455 Y-16.775
X5.162 Y-16.816
X4.758 Y-16.822
G2 X4.464 Y-16.514 I0.006 J0.3
G1 X4.473 Y-16.202
X4.541 Y-13.699 F300
X4.55 Y-13.362 F30
G2 X4.835 Y-13.071 I0.3 J-0.008
G1 X5.334 Y-13.064
X5.522 Y-13.07
X5.867 Y-13.216
X6.419 Y-13.723
X6.668 Y-14.431
X6.763 Y-15.175
X6.715 Y-15.923
X6.638 Y-16.104
X6.504 Y-16.337
X6.321 Y-16.533
X6.099 Y-16.682
X5.848 Y-16.776
X5.583 Y-16.81
X5.162 Y-16.816
G2 X4.869 Y-16.499 I0.006 J0.3
G1 X4.886 Y-16.197
X5.03 Y-13.692 F300
X5.05 Y-13.346 F30
G2 X5.334 Y-13.064 I0.3 J-0.017
G1 X5.723 Y-13.058
X6.098 Y-13.071
X6.424 Y-13.257
X6.915 Y-13.823
X7.137 Y-14.54
X7.211 Y-15.286
X7.142 Y-16.033
X7.048 Y-16.203
X6.907 Y-16.403
X6.728 Y-16.57
X6.519 Y-16.695
X6.287 Y-16.775
X6.044 Y-16.804
X5.583 Y-16.81
G2 X5.289 Y-16.496 I0.006 J0.3
G1 X5.304 Y-16.191
X5.422 Y-13.686 F300
X5.439 Y-13.343 F30
G2 X5.723 Y-13.058 I0.3 J-0.014
G1 X6.274 Y-13.05
X6.461 Y-13.057
X6.794 Y-13.23
X7.073 Y-13.48
X7.467 Y-14.118
X7.632 Y-14.85
X7.649 Y-15.6
X7.477 Y-16.33
X7.446 Y-16.368
X7.265 Y-16.546
X7.051 Y-16.68
X6.812 Y-16.765
X6.56 Y-16.796
X6.044 Y-16.804
G2 X5.751 Y-16.481 I0.006 J0.3
G1 X5.774 Y-16.184
X5.963 Y-13.678 F300
X5.989 Y-13.327 F30
G2 X6.274 Y-13.05 I0.299 J-0.023
G1 X6.654 Y-13.044
X6.842 Y-13.051
X7.187 Y-13.197
X7.732 Y-13.712
X8.002 Y-14.412
X8.104 Y-15.155
X8.046 Y-15.903
X8.014 Y-15.996
X7.89 Y-16.254
X7.707 Y-16.475
X7.475 Y-16.644
X7.209 Y-16.752
X6.925 Y-16.791
X6.56 Y-16.796
G2 X6.266 Y-16.486 I0.006 J0.3
G1 X6.276 Y-16.176
X6.358 Y-13.673 F300
X6.369 Y-13.334 F30
G2 X6.654 Y-13.044 I0.3 J-0.01
G1 X7.183 Y-13.037
X7.371 Y-13.043
X7.701 Y-13.22
X8.218 Y-13.763
X8.462 Y-14.473
X8.548 Y-15.218
X8.489 Y-15.965
X8.398 Y-16.145
X8.26 Y-16.357
X8.079 Y-16.534
X7.864 Y-16.669
X7.626 Y-16.753
X7.374 Y-16.784
X6.925 Y-16.791
G2 X6.632 Y-16.466 I0.006 J0.3
G1 X6.657 Y-16.172
X6.869 Y-13.664 F300
X6.899 Y-13.311 F30
G2 X7.183 Y-13.037 I0.299 J-0.025
G1 X7.516 Y-13.032
X7.703 Y-13.039
X8.051 Y-13.179
X8.349 Y-13.407
X8.772 Y-14.026
X8.957 Y-14.753
X8.99 Y-15.502
X8.842 Y-16.238
X8.794 Y-16.303
X8.611 Y-16.499
X8.389 Y-16.648
X8.138 Y-16.742
X7.872 Y-16.777
X7.374 Y-16.784
G2 X7.081 Y-16.47 I0.006 J0.3
G1 X7.095 Y-16.164
X7.215 Y-13.66 F300
X7.231 Y-13.317 F30
G2 X7.516 Y-13.032 I0.3 J-0.014
G1 X7.905 Y-13.026
X8.093 Y-13.033
X8.453 Y-13.137
X9.026 Y-13.621
X9.316 Y-14.313
X9.435 Y-15.053
X9.396 Y-15.802
X9.285 Y-16.16
X9.132 Y-16.379
X8.953 Y-16.542
X8.745 Y-16.665
X8.516 Y-16.743
X8.276 Y-16.771
X7.872 Y-16.777
G2 X7.578 Y-16.473 I0.006 J0.3
G1 X7.582 Y-16.157
X7.616 Y-13.655 F300
X7.62 Y-13.322 F30
G2 X7.905 Y-13.026 I0.3 J-0.004
G1 X8.456 Y-13.018
X8.643 Y-13.025
X8.989 Y-13.17
X9.528 Y-13.691
X9.784 Y-14.396
X9.881 Y-15.14
X9.832 Y-15.888
X9.758 Y-16.061
X9.624 Y-16.292
X9.441 Y-16.488
X9.219 Y-16.636
X8.968 Y-16.731
X8.703 Y-16.765
X8.276 Y-16.771
G2 X7.983 Y-16.453 I0.006 J0.3
G1 X8.001 Y-16.152
X8.15 Y-13.646 F300
X8.171 Y-13.3 F30
G2 X8.456 Y-13.018 I0.299 J-0.018
G1 X8.836 Y-13.013
X9.211 Y-13.026
X9.534 Y-13.217
X10.024 Y-13.784
X10.252 Y-14.499
X10.328 Y-15.245
X10.26 Y-15.992
X10.167 Y-16.159
X10.027 Y-16.359
X9.848 Y-16.525
X9.638 Y-16.65
X9.407 Y-16.729
X9.165 Y-16.758
X8.703 Y-16.765
G2 X8.41 Y-16.452 I0.006 J0.3
G1 X8.423 Y-16.145
X8.536 Y-13.641 F300
X8.551 Y-13.299 F30
G2 X8.836 Y-13.013 I0.3 J-0.013
G1 X9.365 Y-13.005
X9.552 Y-13.012
X9.887 Y-13.18
X10.17 Y-13.426
X10.573 Y-14.059
X10.744 Y-14.789
X10.766 Y-15.539
X10.605 Y-16.271
X10.571 Y-16.314
X10.389 Y-16.495
X10.173 Y-16.632
X9.931 Y-16.719
X9.677 Y-16.751
X9.165 Y-16.758
G2 X8.872 Y-16.439 I0.006 J0.3
G1 X8.891 Y-16.139
X9.057 Y-13.633 F300
X9.08 Y-13.285 F30
G2 X9.365 Y-13.005 I0.299 J-0.02
G1 X9.698 Y-13
X9.885 Y-13.007
X10.243 Y-13.118
X10.807 Y-13.613
X11.096 Y-14.305
X11.213 Y-15.046
X11.174 Y-15.795
X11.066 Y-16.16
X10.925 Y-16.356
X10.747 Y-16.518
X10.539 Y-16.64
X10.311 Y-16.717
X10.072 Y-16.745
X9.677 Y-16.751
G2 X9.383 Y-16.448 I0.006 J0.3
G1 X9.386 Y-16.131
X9.409 Y-13.629 F300
X9.413 Y-13.297 F30
G2 X9.698 Y-13 I0.3 J-0.003
G1 X10.29 Y-12.992
X10.477 Y-12.998
X10.811 Y-13.169
X11.322 Y-13.718
X11.571 Y-14.426
X11.659 Y-15.17
X11.602 Y-15.918
X11.539 Y-16.057
X11.404 Y-16.282
X11.221 Y-16.471
X11.002 Y-16.615
X10.755 Y-16.706
X10.495 Y-16.739
X10.072 Y-16.745
G2 X9.779 Y-16.424 I0.006 J0.3
G1 X9.8 Y-16.126
X9.98 Y-13.619 F300
X10.005 Y-13.27 F30
G2 X10.29 Y-12.992 I0.299 J-0.022
G1 X10.637 Y-12.987
X10.825 Y-12.993
X11.17 Y-13.139
X11.463 Y-13.373
X11.884 Y-13.994
X12.07 Y-14.72
X12.101 Y-15.47
X11.954 Y-16.205
X11.909 Y-16.266
X11.726 Y-16.459
X11.505 Y-16.605
X11.256 Y-16.698
X10.993 Y-16.732
X10.495 Y-16.739
G2 X10.201 Y-16.425 I0.006 J0.3
G1 X10.216 Y-16.119
X10.336 Y-13.615 F300
X10.352 Y-13.272 F30
G2 X10.637 Y-12.987 I0.3 J-0.014
G1 X11.018 Y-12.981
X11.205 Y-12.988
X11.564 Y-13.097
X12.135 Y-13.583
X12.427 Y-14.274
X12.546 Y-15.015
X12.509 Y-15.764
X12.4 Y-16.122
X12.249 Y-16.335
X12.071 Y-16.498
X11.863 Y-16.62
X11.634 Y-16.697
X11.394 Y-16.726
X10.993 Y-16.732
G2 X10.699 Y-16.429 I0.006 J0.3
G1 X10.702 Y-16.112
X10.729 Y-13.61 F300
X10.733 Y-13.277 F30
G2 X11.018 Y-12.981 I0.3 J-0.003
G1 X11.547 Y-12.973
X11.734 Y-12.98
X12.081 Y-13.121
X12.63 Y-13.632
X12.89 Y-14.336
X12.993 Y-15.079
X12.95 Y-15.828
X12.877 Y-16.003
X12.745 Y-16.239
X12.562 Y-16.437
X12.338 Y-16.589
X12.086 Y-16.684
X11.818 Y-16.72
X11.394 Y-16.726
G2 X11.101 Y-16.411 I0.006 J0.3
G1 X11.117 Y-16.106
X11.244 Y-13.602 F300
X11.262 Y-13.258 F30
G2 X11.547 Y-12.973 I0.3 J-0.015
G1 X12.109 Y-12.965
X12.296 Y-12.971
X12.623 Y-13.155
X13.124 Y-13.713
X13.357 Y-14.426
X13.441 Y-15.171
X13.383 Y-15.919
X13.287 Y-16.098
X13.147 Y-16.302
X12.968 Y-16.473
X12.756 Y-16.602
X12.522 Y-16.683
X12.277 Y-16.713
X11.818 Y-16.72
G2 X11.525 Y-16.391 I0.006 J0.3
G1 X11.553 Y-16.101
X11.791 Y-13.592 F300
X11.825 Y-13.236 F30
G2 X12.109 Y-12.965 I0.299 J-0.028
G1 X12.472 Y-12.959
X12.659 Y-12.966
X12.996 Y-13.13
X13.279 Y-13.376
X13.683 Y-14.008
X13.857 Y-14.738
X13.883 Y-15.487
X13.719 Y-16.219
X13.683 Y-16.264
X13.503 Y-16.446
X13.286 Y-16.584
X13.045 Y-16.672
X12.79 Y-16.705
X12.277 Y-16.713
G2 X11.983 Y-16.393 I0.006 J0.3
G1 X12.003 Y-16.093
X12.165 Y-13.587 F300
X12.187 Y-13.24 F30
G2 X12.472 Y-12.959 I0.299 J-0.019
G1 X12.819 Y-12.954
X13.006 Y-12.96
X13.363 Y-13.076
X13.924 Y-13.573
X14.212 Y-14.266
X14.329 Y-15.007
X14.287 Y-15.756
X14.176 Y-16.119
X14.036 Y-16.312
X13.859 Y-16.472
X13.653 Y-16.593
X13.426 Y-16.669
X13.189 Y-16.698
X12.79 Y-16.705
G2 X12.496 Y-16.401 I0.005 J0.3
G1 X12.499 Y-16.085
X12.531 Y-13.583 F300
X12.535 Y-13.249 F30
G2 X12.819 Y-12.954 I0.3 J-0.004
G1 X13.36 Y-12.944
X13.547 Y-12.95
X13.888 Y-13.107
X14.421 Y-13.634
X14.677 Y-14.339
X14.775 Y-15.082
X14.727 Y-15.831
X14.661 Y-15.985
X14.528 Y-16.216
X14.346 Y-16.412
X14.124 Y-16.56
X13.874 Y-16.655
X13.609 Y-16.69
X13.189 Y-16.698
G2 X12.895 Y-16.38 I0.005 J0.3
G1 X12.912 Y-16.079
X13.056 Y-13.573 F300
X13.076 Y-13.226 F30
G2 X13.36 Y-12.944 I0.3 J-0.017
G1 X13.728 Y-12.937
X14.103 Y-12.949
X14.423 Y-13.145
X14.912 Y-13.713
X15.143 Y-14.427
X15.222 Y-15.173
X15.161 Y-15.92
X15.07 Y-16.082
X14.931 Y-16.281
X14.753 Y-16.447
X14.545 Y-16.572
X14.315 Y-16.651
X14.074 Y-16.681
X13.609 Y-16.69
G2 X13.315 Y-16.378 I0.005 J0.3
G1 X13.328 Y-16.071
X13.431 Y-13.567 F300
X13.445 Y-13.225 F30
G2 X13.728 Y-12.937 I0.3 J-0.012
G1 X14.185 Y-12.928
X14.372 Y-12.934
X14.72 Y-13.075
X15.016 Y-13.305
X15.439 Y-13.924
X15.626 Y-14.65
X15.665 Y-15.399
X15.536 Y-16.138
X15.49 Y-16.201
X15.309 Y-16.394
X15.088 Y-16.542
X14.84 Y-16.636
X14.577 Y-16.671
X14.074 Y-16.681
G2 X13.779 Y-16.37 I0.004 J0.3
G1 X13.791 Y-16.063
X13.888 Y-13.558 F300
X13.902 Y-13.216 F30
G2 X14.185 Y-12.928 I0.3 J-0.012
G1 X14.62 Y-12.919
X14.808 Y-12.925
X15.157 Y-13.062
X15.721 Y-13.556
X16 Y-14.253
X16.113 Y-14.994
X16.075 Y-15.743
X15.958 Y-16.1
X15.777 Y-16.329
X15.545 Y-16.506
X15.276 Y-16.619
X14.987 Y-16.662
X14.577 Y-16.671
G2 X14.282 Y-16.366 I0.004 J0.3
G1 X14.287 Y-16.053
X14.331 Y-13.55 F300
X14.337 Y-13.214 F30
G2 X14.62 Y-12.919 I0.3 J-0.005
G1 X15.001 Y-12.911
X15.376 Y-12.921
X15.709 Y-13.093
X16.222 Y-13.64
X16.469 Y-14.348
X16.56 Y-15.092
X16.507 Y-15.841
X16.441 Y-15.98
X16.307 Y-16.201
X16.127 Y-16.386
X15.91 Y-16.528
X15.668 Y-16.618
X15.412 Y-16.653
X14.987 Y-16.662
G2 X14.69 Y-16.36 I0.004 J0.3
G1 X14.693 Y-16.045
X14.715 Y-13.542 F300
X14.718 Y-13.208 F30
G2 X15.001 Y-12.911 I0.3 J-0.003
G1 X15.541 Y-12.899
X15.729 Y-12.904
X16.072 Y-13.056
X16.363 Y-13.291
X16.783 Y-13.913
X16.969 Y-14.64
X17.004 Y-15.389
X16.859 Y-16.125
X16.817 Y-16.179
X16.637 Y-16.369
X16.419 Y-16.513
X16.175 Y-16.605
X15.916 Y-16.641
X15.412 Y-16.653
G2 X15.115 Y-16.339 I0.004 J0.3
G1 X15.129 Y-16.035
X15.243 Y-13.529 F300
X15.259 Y-13.184 F30
G2 X15.541 Y-12.899 I0.3 J-0.014
G1 X15.91 Y-12.89
X16.098 Y-12.895
X16.456 Y-13.005
X17.027 Y-13.492
X17.322 Y-14.181
X17.446 Y-14.921
X17.413 Y-15.67
X17.308 Y-16.03
X17.163 Y-16.236
X16.986 Y-16.399
X16.78 Y-16.522
X16.553 Y-16.601
X16.315 Y-16.631
X15.916 Y-16.641
G2 X15.619 Y-16.34 I0.003 J0.3
G1 X15.62 Y-16.023
X15.627 Y-13.521 F300
X15.628 Y-13.189 F30
G2 X15.91 Y-12.89 I0.3 J-0.001
G1 X16.472 Y-12.876
X16.66 Y-12.881
X17.001 Y-13.037
X17.532 Y-13.567
X17.792 Y-14.27
X17.893 Y-15.013
X17.848 Y-15.762
X17.782 Y-15.915
X17.65 Y-16.146
X17.469 Y-16.341
X17.249 Y-16.489
X17.001 Y-16.584
X16.738 Y-16.621
X16.315 Y-16.631
G2 X16.019 Y-16.315 I0.003 J0.3
G1 X16.035 Y-16.014
X16.171 Y-13.507 F300
X16.19 Y-13.16 F30
G2 X16.472 Y-12.876 I0.3 J-0.016
G1 X16.835 Y-12.868
X17.21 Y-12.877
X17.53 Y-13.073
X18.022 Y-13.639
X18.257 Y-14.352
X18.34 Y-15.097
X18.284 Y-15.845
X18.194 Y-16.007
X18.055 Y-16.206
X17.878 Y-16.373
X17.671 Y-16.499
X17.441 Y-16.579
X17.201 Y-16.61
X16.738 Y-16.621
G2 X16.442 Y-16.31 I0.003 J0.3
G1 X16.452 Y-16.004
X16.541 Y-13.499 F300
X16.553 Y-13.157 F30
G2 X16.835 Y-12.868 I0.3 J-0.011
G1 X17.334 Y-12.856
X17.521 Y-12.86
X17.861 Y-13.02
X18.15 Y-13.259
X18.564 Y-13.884
X18.748 Y-14.611
X18.784 Y-15.36
X18.642 Y-16.097
X18.605 Y-16.144
X18.425 Y-16.33
X18.209 Y-16.472
X17.966 Y-16.563
X17.71 Y-16.598
X17.201 Y-16.61
G2 X16.904 Y-16.296 I0.003 J0.3
G1 X16.918 Y-15.993
X17.036 Y-13.487 F300
X17.052 Y-13.141 F30
G2 X17.334 Y-12.856 I0.3 J-0.014
G1 X17.723 Y-12.846
X17.911 Y-12.851
X18.262 Y-12.982
X18.823 Y-13.48
X19.109 Y-14.173
X19.228 Y-14.914
X19.192 Y-15.663
X19.161 Y-15.765
X19.041 Y-16.03
X18.86 Y-16.257
X18.629 Y-16.433
X18.361 Y-16.546
X18.073 Y-16.589
X17.71 Y-16.598
G2 X17.413 Y-16.295 I0.003 J0.3
G1 X17.416 Y-15.98
X17.438 Y-13.478 F300
X17.441 Y-13.143 F30
G2 X17.723 Y-12.846 I0.3 J-0.003
G1 X18.273 Y-12.833
X18.461 Y-12.838
X18.796 Y-13.006
X19.319 Y-13.543
X19.576 Y-14.248
X19.675 Y-14.991
X19.63 Y-15.74
X19.542 Y-15.921
X19.406 Y-16.137
X19.227 Y-16.318
X19.012 Y-16.456
X18.773 Y-16.544
X18.521 Y-16.578
X18.073 Y-16.589
G2 X17.777 Y-16.268 I0.003 J0.3
G1 X17.797 Y-15.972
X17.968 Y-13.463 F300
X17.992 Y-13.112 F30
G2 X18.273 Y-12.833 I0.299 J-0.02
G1 X18.654 Y-12.824
X18.841 Y-12.829
X19.184 Y-12.981
X19.474 Y-13.219
X19.895 Y-13.839
X20.085 Y-14.565
X20.122 Y-15.314
X19.969 Y-16.048
X19.928 Y-16.103
X19.747 Y-16.293
X19.529 Y-16.438
X19.285 Y-16.53
X19.025 Y-16.566
X18.521 Y-16.578
G2 X18.224 Y-16.264 I0.003 J0.3
G1 X18.238 Y-15.961
X18.356 Y-13.455 F300
X18.372 Y-13.109 F30
G2 X18.654 Y-12.824 I0.3 J-0.014
G1 X19.017 Y-12.815
X19.204 Y-12.82
X19.563 Y-12.929
X20.136 Y-13.414
X20.434 Y-14.101
X20.562 Y-14.841
X20.528 Y-15.59
X20.422 Y-15.949
X20.275 Y-16.16
X20.099 Y-16.323
X19.892 Y-16.447
X19.665 Y-16.526
X19.427 Y-16.556
X19.025 Y-16.566
G2 X18.728 Y-16.265 I0.003 J0.3
G1 X18.729 Y-15.948
X18.734 Y-13.446 F300
X18.735 Y-13.114 F30
G2 X19.017 Y-12.815 I0.3 J-0.001
G1 X19.516 Y-12.803
X19.703 Y-12.808
X20.054 Y-12.94
X20.622 Y-13.43
X20.893 Y-14.129
X21.008 Y-14.87
X20.979 Y-15.62
X20.905 Y-15.807
X20.776 Y-16.047
X20.595 Y-16.251
X20.371 Y-16.407
X20.118 Y-16.508
X19.848 Y-16.546
X19.427 Y-16.556
G2 X19.13 Y-16.246 I0.003 J0.3
G1 X19.14 Y-15.939
X19.222 Y-13.434 F300
X19.233 Y-13.093 F30
G2 X19.516 Y-12.803 I0.3 J-0.01
G1 X19.905 Y-12.793
X20.28 Y-12.803
X20.614 Y-12.973
X21.124 Y-13.523
X21.366 Y-14.233
X21.458 Y-14.977
X21.405 Y-15.725
X21.311 Y-15.906
X21.174 Y-16.113
X20.996 Y-16.287
X20.785 Y-16.418
X20.551 Y-16.502
X20.304 Y-16.535
X19.848 Y-16.546
G2 X19.551 Y-16.239 I0.003 J0.3
G1 X19.558 Y-15.929
X19.615 Y-13.425 F300
X19.623 Y-13.086 F30
G2 X19.905 Y-12.793 I0.3 J-0.007
G1 X20.455 Y-12.78
X20.643 Y-12.785
X20.983 Y-12.942
X21.272 Y-13.181
X21.685 Y-13.807
X21.869 Y-14.534
X21.902 Y-15.284
X21.747 Y-16.017
X21.709 Y-16.067
X21.529 Y-16.254
X21.312 Y-16.396
X21.069 Y-16.488
X20.812 Y-16.523
X20.304 Y-16.535
G2 X20.008 Y-16.219 I0.003 J0.3
G1 X20.024 Y-15.918
X20.155 Y-13.411 F300
X20.173 Y-13.064 F30
G2 X20.455 Y-12.78 I0.3 J-0.016
G1 X20.836 Y-12.771
X21.023 Y-12.776
X21.377 Y-12.9
X21.939 Y-13.396
X22.227 Y-14.089
X22.347 Y-14.829
X22.305 Y-15.578
X22.193 Y-15.938
X22.012 Y-16.172
X21.778 Y-16.352
X21.507 Y-16.469
X21.215 Y-16.513
X20.812 Y-16.523
G2 X20.515 Y-16.219 I0.003 J0.3
G1 X20.519 Y-15.905
X20.549 Y-13.402 F300
X20.553 Y-13.067 F30
G2 X20.836 Y-12.771 I0.3 J-0.004
G1 X21.365 Y-12.758
X21.552 Y-12.763
X21.893 Y-12.92
X22.431 Y-13.442
X22.69 Y-14.146
X22.792 Y-14.889
X22.748 Y-15.638
X22.677 Y-15.802
X22.545 Y-16.031
X22.364 Y-16.224
X22.145 Y-16.372
X21.898 Y-16.466
X21.635 Y-16.503
X21.215 Y-16.513
G2 X20.919 Y-16.197 I0.003 J0.3
G1 X20.935 Y-15.896
X21.065 Y-13.389 F300
X21.083 Y-13.042 F30
G2 X21.365 Y-12.758 I0.3 J-0.016
G1 X21.927 Y-12.745
X22.114 Y-12.749
X22.432 Y-12.948
X22.921 Y-13.517
X23.156 Y-14.229
X23.24 Y-14.974
X23.184 Y-15.722
X23.092 Y-15.888
X22.954 Y-16.087
X22.777 Y-16.254
X22.569 Y-16.38
X22.339 Y-16.46
X22.098 Y-16.492
X21.635 Y-16.503
G2 X21.34 Y-16.174 I0.003 J0.3
G1 X21.368 Y-15.887
X21.611 Y-13.374 F300
X21.646 Y-13.015 F30
G2 X21.927 Y-12.745 I0.299 J-0.029
G1 X22.289 Y-12.736
X22.477 Y-12.741
X22.806 Y-12.92
X23.358 Y-13.428
X23.594 Y-14.14
X23.694 Y-14.883
X23.665 Y-15.632
X23.576 Y-15.817
X23.441 Y-16.035
X23.261 Y-16.218
X23.046 Y-16.357
X22.806 Y-16.446
X22.552 Y-16.481
X22.098 Y-16.492
G2 X21.802 Y-16.172 I0.003 J0.3
G1 X21.822 Y-15.875
X21.985 Y-13.366 F300
X22.008 Y-13.016 F30
G2 X22.289 Y-12.736 I0.299 J-0.019
G1 X22.637 Y-12.727
X23.012 Y-12.737
X23.336 Y-12.925
X23.836 Y-13.484
X24.059 Y-14.2
X24.147 Y-14.945
X24.106 Y-15.694
X24.012 Y-15.866
X23.873 Y-16.065
X23.696 Y-16.232
X23.488 Y-16.358
X23.259 Y-16.438
X23.018 Y-16.469
X22.552 Y-16.481
G2 X22.255 Y-16.171 I0.003 J0.3
G1 X22.265 Y-15.863
X22.344 Y-13.359 F300
X22.355 Y-13.017 F30
G2 X22.637 Y-12.727 I0.3 J-0.009
G1 X23.177 Y-12.714
X23.365 Y-12.719
X23.7 Y-12.887
X23.984 Y-13.132
X24.384 Y-13.766
X24.56 Y-14.495
X24.598 Y-15.245
X24.447 Y-15.979
X24.416 Y-16.017
X24.237 Y-16.198
X24.023 Y-16.335
X23.784 Y-16.423
X23.532 Y-16.457
X23.018 Y-16.469
G2 X22.721 Y-16.153 I0.003 J0.3
G1 X22.738 Y-15.852
X22.876 Y-13.345 F300
X22.896 Y-12.997 F30
G2 X23.177 Y-12.714 I0.3 J-0.017
G1 X23.546 Y-12.705
X23.734 Y-12.71
X24.085 Y-12.841
X24.638 Y-13.348
X24.92 Y-14.043
X25.041 Y-14.783
X25.004 Y-15.532
X24.977 Y-15.62
X24.859 Y-15.886
X24.678 Y-16.115
X24.446 Y-16.291
X24.177 Y-16.405
X23.889 Y-16.448
X23.532 Y-16.457
G2 X23.235 Y-16.154 I0.003 J0.3
G1 X23.238 Y-15.84
X23.261 Y-13.337 F300
X23.264 Y-13.002 F30
G2 X23.546 Y-12.705 I0.3 J-0.003
G1 X24.108 Y-12.692
X24.296 Y-12.697
X24.626 Y-12.874
X25.138 Y-13.423
X25.39 Y-14.129
X25.487 Y-14.873
X25.439 Y-15.621
X25.355 Y-15.791
X25.218 Y-16.004
X25.039 Y-16.182
X24.826 Y-16.318
X24.589 Y-16.404
X24.338 Y-16.437
X23.889 Y-16.448
G2 X23.593 Y-16.126 I0.003 J0.3
G1 X23.615 Y-15.832
X23.801 Y-13.322 F300
X23.827 Y-12.969 F30
G2 X24.108 Y-12.692 I0.299 J-0.022
G1 X24.471 Y-12.683
X24.659 Y-12.688
X24.999 Y-12.845
X25.287 Y-13.085
X25.707 Y-13.707
X25.896 Y-14.433
X25.933 Y-15.182
X25.782 Y-15.916
X25.743 Y-15.967
X25.563 Y-16.155
X25.346 Y-16.298
X25.102 Y-16.39
X24.845 Y-16.425
X24.338 Y-16.437
G2 X24.042 Y-16.123 I0.003 J0.3
G1 X24.056 Y-15.82
X24.173 Y-13.314 F300
X24.189 Y-12.969 F30
G2 X24.471 Y-12.683 I0.3 J-0.014
G1 X24.819 Y-12.675
X25.006 Y-12.68
X25.366 Y-12.786
X25.939 Y-13.269
X26.241 Y-13.956
X26.371 Y-14.695
X26.342 Y-15.444
X26.24 Y-15.805
X26.094 Y-16.015
X25.917 Y-16.18
X25.71 Y-16.305
X25.482 Y-16.385
X25.242 Y-16.416
X24.845 Y-16.425
G2 X24.548 Y-16.126 I0.003 J0.3
G1 X24.547 Y-15.808
X24.538 Y-13.306 F300
X24.536 Y-12.975 F30
G2 X24.819 Y-12.675 I0.3 J0.001
G1 X25.359 Y-12.662
X25.547 Y-12.667
X25.893 Y-12.811
X26.439 Y-13.324
X26.708 Y-14.025
X26.818 Y-14.766
X26.782 Y-15.516
X26.714 Y-15.681
X26.584 Y-15.917
X26.403 Y-16.117
X26.181 Y-16.27
X25.93 Y-16.368
X25.663 Y-16.405
X25.242 Y-16.416
G2 X24.946 Y-16.103 I0.003 J0.3
G1 X24.958 Y-15.799
X25.063 Y-13.293 F300
X25.077 Y-12.949 F30
G2 X25.359 Y-12.662 I0.3 J-0.012
G1 X25.728 Y-12.653
X26.103 Y-12.662
X26.43 Y-12.845
X26.934 Y-13.401
X27.176 Y-14.111
X27.267 Y-14.855
X27.215 Y-15.604
X27.123 Y-15.777
X26.985 Y-15.98
X26.807 Y-16.151
X26.598 Y-16.28
X26.366 Y-16.362
X26.122 Y-16.394
X25.663 Y-16.405
G2 X25.366 Y-16.098 I0.003 J0.3
G1 X25.374 Y-15.788
X25.437 Y-13.284 F300
X25.446 Y-12.945 F30
G2 X25.728 Y-12.653 I0.3 J-0.008
G1 X26.376 Y-12.637
X26.564 Y-12.642
X26.881 Y-12.841
X27.392 Y-13.391
X27.626 Y-14.103
X27.717 Y-14.848
X27.678 Y-15.597
X27.587 Y-15.767
X27.449 Y-15.97
X27.271 Y-16.14
X27.062 Y-16.269
X26.83 Y-16.351
X26.586 Y-16.383
X26.122 Y-16.394
G2 X25.826 Y-16.069 I0.003 J0.3
G1 X25.851 Y-15.778
X26.065 Y-13.267 F300
X26.095 Y-12.911 F30
G2 X26.376 Y-12.637 I0.299 J-0.026
G1 X26.819 Y-12.626
X27.006 Y-12.631
X27.327 Y-12.826
X27.847 Y-13.367
X28.075 Y-14.081
X28.169 Y-14.825
X28.142 Y-15.575
X28.053 Y-15.745
X27.916 Y-15.952
X27.738 Y-16.125
X27.527 Y-16.256
X27.293 Y-16.34
X27.047 Y-16.372
X26.586 Y-16.383
G2 X26.29 Y-16.06 I0.003 J0.3
G1 X26.313 Y-15.767
X26.51 Y-13.257 F300
X26.538 Y-12.902 F30
G2 X26.819 Y-12.626 I0.299 J-0.023
G1 X27.152 Y-12.618
X27.339 Y-12.623
X27.682 Y-12.774
X27.977 Y-13.006
X28.391 Y-13.631
X28.576 Y-14.358
X28.627 Y-15.106
X28.493 Y-15.844
X28.454 Y-15.896
X28.274 Y-16.086
X28.055 Y-16.231
X27.81 Y-16.324
X27.551 Y-16.36
X27.047 Y-16.372
G2 X26.75 Y-16.061 I0.003 J0.3
G1 X26.762 Y-15.755
X26.857 Y-13.249 F300
X26.87 Y-12.907 F30
G2 X27.152 Y-12.618 I0.3 J-0.011
G1 X27.541 Y-12.609
X27.728 Y-12.614
X28.084 Y-12.731
X28.648 Y-13.226
X28.936 Y-13.918
X29.064 Y-14.657
X29.037 Y-15.407
X28.931 Y-15.767
X28.791 Y-15.96
X28.615 Y-16.121
X28.41 Y-16.243
X28.185 Y-16.32
X27.948 Y-16.35
X27.551 Y-16.36
G2 X27.254 Y-16.059 I0.003 J0.3
G1 X27.255 Y-15.742
X27.258 Y-13.24 F300
X27.259 Y-12.908 F30
G2 X27.541 Y-12.609 I0.3 J0
G1 X28.091 Y-12.596
X28.279 Y-12.601
X28.618 Y-12.76
X29.147 Y-13.292
X29.406 Y-13.996
X29.513 Y-14.738
X29.474 Y-15.487
X29.412 Y-15.633
X29.28 Y-15.864
X29.099 Y-16.059
X28.879 Y-16.208
X28.631 Y-16.303
X28.367 Y-16.34
X27.948 Y-16.35
G2 X27.652 Y-16.035 I0.003 J0.3
G1 X27.667 Y-15.733
X27.792 Y-13.227 F300
X27.809 Y-12.88 F30
G2 X28.091 Y-12.596 I0.3 J-0.015
G1 X28.472 Y-12.586
X28.659 Y-12.591
X29.005 Y-12.736
X29.299 Y-12.969
X29.725 Y-13.587
X29.919 Y-14.311
X29.963 Y-15.06
X29.819 Y-15.796
X29.774 Y-15.856
X29.594 Y-16.05
X29.374 Y-16.197
X29.127 Y-16.292
X28.865 Y-16.328
X28.367 Y-16.34
G2 X28.071 Y-16.029 I0.003 J0.3
G1 X28.082 Y-15.723
X28.177 Y-13.218 F300
X28.19 Y-12.875 F30
G2 X28.472 Y-12.586 I0.3 J-0.011
G1 X28.835 Y-12.578
X29.022 Y-12.583
X29.384 Y-12.682
X29.962 Y-13.16
X30.266 Y-13.846
X30.399 Y-14.584
X30.372 Y-15.333
X30.27 Y-15.694
X30.12 Y-15.914
X29.943 Y-16.081
X29.735 Y-16.207
X29.506 Y-16.287
X29.265 Y-16.318
X28.865 Y-16.328
G2 X28.568 Y-16.03 I0.003 J0.3
G1 X28.567 Y-15.711
X28.554 Y-13.209 F300
X28.552 Y-12.879 F30
G2 X28.835 Y-12.578 I0.3 J0.002
G1 X29.333 Y-12.566
X29.708 Y-12.575
X30.031 Y-12.767
X30.518 Y-13.337
X30.764 Y-14.046
X30.848 Y-14.791
X30.781 Y-15.538
X30.715 Y-15.668
X30.578 Y-15.879
X30.4 Y-16.055
X30.187 Y-16.189
X29.951 Y-16.275
X29.702 Y-16.308
X29.265 Y-16.318
G2 X28.968 Y-16.011 I0.003 J0.3
G1 X28.976 Y-15.701
X29.042 Y-13.197 F300
X29.051 Y-12.857 F30
G2 X29.333 Y-12.566 I0.3 J-0.008
G1 X29.926 Y-12.551
X30.113 Y-12.556
X30.434 Y-12.75
X30.964 Y-13.281
X31.205 Y-13.991
X31.3 Y-14.735
X31.257 Y-15.484
X31.17 Y-15.657
X31.033 Y-15.868
X30.853 Y-16.045
X30.64 Y-16.179
X30.403 Y-16.265
X30.153 Y-16.297
X29.702 Y-16.308
G2 X29.406 Y-15.985 I0.003 J0.3
G1 X29.429 Y-15.691
X29.617 Y-13.182 F300
X29.644 Y-12.828 F30
G2 X29.926 Y-12.551 I0.299 J-0.023
G1 X30.273 Y-12.544
X30.46 Y-12.549
X30.804 Y-12.7
X31.099 Y-12.931
X31.519 Y-13.552
X31.707 Y-14.279
X31.749 Y-15.027
X31.606 Y-15.764
X31.564 Y-15.82
X31.383 Y-16.012
X31.163 Y-16.158
X30.917 Y-16.251
X30.655 Y-16.286
X30.153 Y-16.297
G2 X29.858 Y-15.985 I0.004 J0.3
G1 X29.871 Y-15.679
X29.976 Y-13.174 F300
X29.99 Y-12.831 F30
G2 X30.273 Y-12.544 I0.3 J-0.013
G1 X30.654 Y-12.536
X30.841 Y-12.541
X31.199 Y-12.652
X31.769 Y-13.14
X32.062 Y-13.83
X32.189 Y-14.57
X32.157 Y-15.319
X32.05 Y-15.678
X31.904 Y-15.885
X31.728 Y-16.047
X31.521 Y-16.17
X31.294 Y-16.248
X31.055 Y-16.278
X30.655 Y-16.286
G2 X30.359 Y-15.985 I0.004 J0.3
G1 X30.361 Y-15.668
X30.369 Y-13.166 F300
X30.37 Y-12.834 F30
G2 X30.654 Y-12.536 I0.3 J-0.001
G1 X31.182 Y-12.525
X31.37 Y-12.532
X31.716 Y-12.676
X32.264 Y-13.188
X32.528 Y-13.89
X32.636 Y-14.632
X32.599 Y-15.381
X32.528 Y-15.552
X32.396 Y-15.789
X32.213 Y-15.989
X31.988 Y-16.141
X31.734 Y-16.237
X31.465 Y-16.272
X31.055 Y-16.278
G2 X30.76 Y-15.965 I0.004 J0.3
G1 X30.773 Y-15.66
X30.884 Y-13.155 F300
X30.899 Y-12.811 F30
G2 X31.182 Y-12.525 I0.3 J-0.013
G1 X31.744 Y-12.518
X31.932 Y-12.525
X32.258 Y-12.71
X32.758 Y-13.269
X32.996 Y-13.98
X33.084 Y-14.725
X33.031 Y-15.473
X32.935 Y-15.651
X32.795 Y-15.856
X32.615 Y-16.027
X32.403 Y-16.156
X32.168 Y-16.237
X31.922 Y-16.266
X31.465 Y-16.272
G2 X31.173 Y-15.945 I0.007 J0.3
G1 X31.199 Y-15.652
X31.428 Y-13.144 F300
X31.46 Y-12.791 F30
G2 X31.744 Y-12.518 I0.299 J-0.027
G1 X32.107 Y-12.514
X32.295 Y-12.521
X32.631 Y-12.686
X32.914 Y-12.932
X33.32 Y-13.562
X33.499 Y-14.291
X33.528 Y-15.04
X33.367 Y-15.773
X33.33 Y-15.819
X33.147 Y-16.003
X32.928 Y-16.142
X32.685 Y-16.229
X32.427 Y-16.26
X31.922 Y-16.266
G2 X31.629 Y-15.948 I0.007 J0.3
G1 X31.647 Y-15.646
X31.801 Y-13.141 F300
X31.822 Y-12.795 F30
G2 X32.107 Y-12.514 I0.299 J-0.018
G1 X32.455 Y-12.51
X32.642 Y-12.518
X32.999 Y-12.633
X33.562 Y-13.129
X33.852 Y-13.821
X33.972 Y-14.561
X33.933 Y-15.31
X33.821 Y-15.677
X33.679 Y-15.871
X33.5 Y-16.033
X33.292 Y-16.154
X33.063 Y-16.229
X32.824 Y-16.257
X32.427 Y-16.26
G2 X32.135 Y-15.957 I0.008 J0.3
G1 X32.138 Y-15.639
X32.165 Y-13.137 F300
X32.168 Y-12.807 F30
G2 X32.455 Y-12.51 I0.3 J-0.003
G1 X32.995 Y-12.505
X33.183 Y-12.512
X33.525 Y-12.666
X34.06 Y-13.191
X34.318 Y-13.895
X34.418 Y-14.639
X34.372 Y-15.387
X34.304 Y-15.546
X34.17 Y-15.779
X33.986 Y-15.976
X33.762 Y-16.125
X33.51 Y-16.219
X33.243 Y-16.253
X32.824 Y-16.257
G2 X32.532 Y-15.94 I0.008 J0.3
G1 X32.549 Y-15.635
X32.69 Y-13.131 F300
X32.709 Y-12.788 F30
G2 X32.995 Y-12.505 I0.3 J-0.017
G1 X33.364 Y-12.501
X33.739 Y-12.517
X34.061 Y-12.708
X34.553 Y-13.274
X34.785 Y-13.988
X34.865 Y-14.733
X34.804 Y-15.481
X34.71 Y-15.649
X34.569 Y-15.85
X34.389 Y-16.017
X34.178 Y-16.142
X33.945 Y-16.22
X33.701 Y-16.248
X33.243 Y-16.253
G2 X32.951 Y-15.941 I0.008 J0.3
G1 X32.963 Y-15.631
X33.064 Y-13.128 F300
X33.078 Y-12.789 F30
G2 X33.364 Y-12.501 I0.3 J-0.012
G1 X34.013 Y-12.496
X34.2 Y-12.503
X34.512 Y-12.711
X35.011 Y-13.271
X35.235 Y-13.987
X35.316 Y-14.732
X35.266 Y-15.481
X35.174 Y-15.646
X35.033 Y-15.847
X34.852 Y-16.013
X34.641 Y-16.138
X34.409 Y-16.217
X34.165 Y-16.244
X33.701 Y-16.248
G2 X33.41 Y-15.919 I0.008 J0.3
G1 X33.439 Y-15.628
X33.691 Y-13.121 F300
X33.727 Y-12.765 F30
G2 X34.013 Y-12.496 I0.298 J-0.03
G1 X34.455 Y-12.492
X34.642 Y-12.5
X34.957 Y-12.703
X35.466 Y-13.254
X35.685 Y-13.972
X35.768 Y-14.717
X35.731 Y-15.466
X35.64 Y-15.632
X35.5 Y-15.836
X35.319 Y-16.005
X35.106 Y-16.132
X34.872 Y-16.212
X34.626 Y-16.24
X34.165 Y-16.244
G2 X33.874 Y-15.917 I0.008 J0.3
G1 X33.902 Y-15.624
X34.136 Y-13.117 F300
X34.169 Y-12.764 F30
G2 X34.455 Y-12.492 I0.299 J-0.028
G1 X34.788 Y-12.489
X34.975 Y-12.497
X35.314 Y-12.657
X35.604 Y-12.895
X36.007 Y-13.527
X36.182 Y-14.257
X36.222 Y-15.006
X36.077 Y-15.742
X36.039 Y-15.79
X35.855 Y-15.976
X35.636 Y-16.117
X35.39 Y-16.205
X35.131 Y-16.236
X34.626 Y-16.24
G2 X34.334 Y-15.925 I0.008 J0.3
G1 X34.351 Y-15.619
X34.483 Y-13.115 F300
X34.501 Y-12.773 F30
G2 X34.788 Y-12.489 I0.3 J-0.016
G1 X35.177 Y-12.486
X35.364 Y-12.493
X35.717 Y-12.622
X36.271 Y-13.126
X36.549 Y-13.823
X36.666 Y-14.564
X36.628 Y-15.313
X36.596 Y-15.415
X36.474 Y-15.681
X36.29 Y-15.909
X36.054 Y-16.083
X35.783 Y-16.194
X35.493 Y-16.233
X35.131 Y-16.236
G2 X34.839 Y-15.931 I0.008 J0.3
G1 X34.844 Y-15.614
X34.885 Y-13.112 F300
X34.89 Y-12.78 F30
G2 X35.177 Y-12.486 I0.3 J-0.005
G1 X35.727 Y-12.481
X35.915 Y-12.489
X36.25 Y-12.657
X36.768 Y-13.199
X37.017 Y-13.906
X37.113 Y-14.65
X37.064 Y-15.399
X36.973 Y-15.582
X36.834 Y-15.797
X36.652 Y-15.978
X36.434 Y-16.114
X36.192 Y-16.199
X35.938 Y-16.229
X35.493 Y-16.233
G2 X35.201 Y-15.91 I0.008 J0.3
G1 X35.224 Y-15.612
X35.415 Y-13.107 F300
X35.441 Y-12.758 F30
G2 X35.727 Y-12.481 I0.299 J-0.023
G1 X36.108 Y-12.478
X36.295 Y-12.485
X36.638 Y-12.638
X36.926 Y-12.878
X37.342 Y-13.502
X37.526 Y-14.229
X37.558 Y-14.979
X37.399 Y-15.712
X37.355 Y-15.77
X37.171 Y-15.959
X36.95 Y-16.103
X36.702 Y-16.193
X36.44 Y-16.225
X35.938 Y-16.229
G2 X35.646 Y-15.913 I0.008 J0.3
G1 X35.663 Y-15.608
X35.802 Y-13.104 F300
X35.821 Y-12.761 F30
G2 X36.108 Y-12.478 I0.3 J-0.017
G1 X36.471 Y-12.474
X36.658 Y-12.482
X37.017 Y-12.591
X37.586 Y-13.08
X37.879 Y-13.77
X38.001 Y-14.51
X37.962 Y-15.259
X37.853 Y-15.618
X37.7 Y-15.833
X37.52 Y-15.996
X37.311 Y-16.118
X37.081 Y-16.194
X36.841 Y-16.221
X36.44 Y-16.225
G2 X36.148 Y-15.922 I0.008 J0.3
G1 X36.151 Y-15.603
X36.18 Y-13.101 F300
X36.184 Y-12.771 F30
G2 X36.471 Y-12.474 I0.3 J-0.003
G1 X36.97 Y-12.47
X37.344 Y-12.486
X37.662 Y-12.684
X38.139 Y-13.264
X38.374 Y-13.976
X38.447 Y-14.722
X38.367 Y-15.468
X38.3 Y-15.596
X38.16 Y-15.803
X37.978 Y-15.977
X37.764 Y-16.107
X37.527 Y-16.189
X37.278 Y-16.218
X36.841 Y-16.221
G2 X36.549 Y-15.909 I0.008 J0.3
G1 X36.562 Y-15.6
X36.668 Y-13.097 F300
X36.683 Y-12.757 F30
G2 X36.97 Y-12.47 I0.3 J-0.013
G1 X37.562 Y-12.465
X37.749 Y-12.473
X38.066 Y-12.674
X38.585 Y-13.215
X38.816 Y-13.928
X38.899 Y-14.674
X38.844 Y-15.422
X38.755 Y-15.591
X38.615 Y-15.799
X38.433 Y-15.973
X38.219 Y-16.103
X37.982 Y-16.185
X37.733 Y-16.214
X37.278 Y-16.218
G2 X36.987 Y-15.89 I0.008 J0.3
G1 X37.014 Y-15.597
X37.244 Y-13.091 F300
X37.276 Y-12.737 F30
G2 X37.562 Y-12.465 I0.299 J-0.027
G1 X37.909 Y-12.462
X38.096 Y-12.47
X38.436 Y-12.628
X38.727 Y-12.865
X39.136 Y-13.494
X39.313 Y-14.223
X39.343 Y-14.972
X39.189 Y-15.706
X39.148 Y-15.759
X38.964 Y-15.946
X38.744 Y-16.088
X38.497 Y-16.178
X38.237 Y-16.209
X37.733 Y-16.214
G2 X37.441 Y-15.897 I0.008 J0.3
G1 X37.459 Y-15.592
X37.603 Y-13.089 F300
X37.623 Y-12.745 F30
G2 X37.909 Y-12.462 I0.3 J-0.017
G1 X38.29 Y-12.459
X38.477 Y-12.466
X38.832 Y-12.587
X39.393 Y-13.085
X39.676 Y-13.78
X39.79 Y-14.521
X39.747 Y-15.27
X39.63 Y-15.634
X39.488 Y-15.826
X39.309 Y-15.985
X39.102 Y-16.105
X38.875 Y-16.179
X38.637 Y-16.206
X38.237 Y-16.209
G2 X37.945 Y-15.904 I0.008 J0.3
G1 X37.951 Y-15.588
X37.997 Y-13.086 F300
X38.003 Y-12.753 F30
G2 X38.29 Y-12.459 I0.3 J-0.006
G1 X38.818 Y-12.454
X39.006 Y-12.462
X39.348 Y-12.615
X39.886 Y-13.138
X40.139 Y-13.844
X40.236 Y-14.587
X40.188 Y-15.336
X40.118 Y-15.498
X39.984 Y-15.73
X39.801 Y-15.926
X39.577 Y-16.075
X39.326 Y-16.168
X39.059 Y-16.202
X38.637 Y-16.206
G2 X38.345 Y-15.888 I0.008 J0.3
G1 X38.363 Y-15.585
X38.512 Y-13.081 F300
X38.533 Y-12.736 F30
G2 X38.818 Y-12.454 I0.299 J-0.018
G1 X39.381 Y-12.448
X39.568 Y-12.456
X39.888 Y-12.651
X40.377 Y-13.22
X40.605 Y-13.934
X40.684 Y-14.68
X40.621 Y-15.428
X40.527 Y-15.597
X40.386 Y-15.798
X40.206 Y-15.965
X39.996 Y-16.09
X39.763 Y-16.169
X39.519 Y-16.197
X39.059 Y-16.202
G2 X38.768 Y-15.871 I0.007 J0.3
G1 X38.798 Y-15.582
X39.059 Y-13.074 F300
X39.096 Y-12.717 F30
G2 X39.381 Y-12.448 I0.298 J-0.031
G1 X39.743 Y-12.445
X39.931 Y-12.452
X40.262 Y-12.628
X40.816 Y-13.134
X41.044 Y-13.848
X41.138 Y-14.592
X41.103 Y-15.341
X41.01 Y-15.533
X40.873 Y-15.752
X40.691 Y-15.935
X40.473 Y-16.073
X40.231 Y-16.161
X39.974 Y-16.192
X39.519 Y-16.197
G2 X39.228 Y-15.875 I0.007 J0.3
G1 X39.249 Y-15.576
X39.432 Y-13.071 F300
X39.458 Y-12.722 F30
G2 X39.743 Y-12.445 I0.299 J-0.022
G1 X40.091 Y-12.441
X40.466 Y-12.455
X40.793 Y-12.638
X41.294 Y-13.196
X41.509 Y-13.914
X41.59 Y-14.66
X41.543 Y-15.408
X41.445 Y-15.586
X41.304 Y-15.787
X41.125 Y-15.953
X40.914 Y-16.079
X40.682 Y-16.158
X40.439 Y-16.186
X39.974 Y-16.192
G2 X39.681 Y-15.881 I0.007 J0.3
G1 X39.694 Y-15.572
X39.792 Y-13.068 F300
X39.805 Y-12.728 F30
G2 X40.091 Y-12.441 I0.3 J-0.012
G1 X40.631 Y-12.434
X40.819 Y-12.441
X41.156 Y-12.604
X41.442 Y-12.847
X41.838 Y-13.484
X42.008 Y-14.214
X42.039 Y-14.964
X41.882 Y-15.697
X41.847 Y-15.741
X41.665 Y-15.924
X41.448 Y-16.062
X41.205 Y-16.149
X40.949 Y-16.18
X40.439 Y-16.186
G2 X40.147 Y-15.868 I0.007 J0.3
G1 X40.166 Y-15.566
X40.324 Y-13.061 F300
X40.346 Y-12.715 F30
G2 X40.631 Y-12.434 I0.299 J-0.019
G1 X41 Y-12.429
X41.188 Y-12.436
X41.541 Y-12.56
X42.094 Y-13.067
X42.371 Y-13.764
X42.486 Y-14.505
X42.443 Y-15.254
X42.412 Y-15.355
X42.291 Y-15.62
X42.108 Y-15.848
X41.874 Y-16.023
X41.604 Y-16.134
X41.315 Y-16.175
X40.949 Y-16.18
G2 X40.656 Y-15.875 I0.007 J0.3
G1 X40.662 Y-15.559
X40.709 Y-13.058 F300
X40.715 Y-12.723 F30
G2 X41 Y-12.429 I0.3 J-0.006
G1 X41.562 Y-12.421
X41.75 Y-12.428
X42.082 Y-12.601
X42.595 Y-13.148
X42.841 Y-13.857
X42.932 Y-14.601
X42.877 Y-15.349
X42.789 Y-15.525
X42.651 Y-15.738
X42.47 Y-15.917
X42.254 Y-16.052
X42.015 Y-16.137
X41.763 Y-16.168
X41.315 Y-16.175
G2 X41.022 Y-15.851 I0.006 J0.3
G1 X41.046 Y-15.556
X41.25 Y-13.048 F300
X41.278 Y-12.696 F30
G2 X41.562 Y-12.421 I0.299 J-0.024
G1 X41.925 Y-12.416
X42.113 Y-12.422
X42.455 Y-12.575
X42.744 Y-12.813
X43.161 Y-13.437
X43.344 Y-14.165
X43.375 Y-14.914
X43.219 Y-15.648
X43.176 Y-15.703
X42.994 Y-15.892
X42.774 Y-16.036
X42.528 Y-16.127
X42.268 Y-16.161
X41.763 Y-16.168
G2 X41.469 Y-15.852 I0.006 J0.3
G1 X41.486 Y-15.549
X41.622 Y-13.044 F300
X41.64 Y-12.699 F30
G2 X41.925 Y-12.416 I0.3 J-0.016
G1 X42.424 Y-12.408
X42.611 Y-12.414
X42.935 Y-12.603
X43.48 Y-13.119
X43.739 Y-13.823
X43.833 Y-14.567
X43.764 Y-15.314
X43.72 Y-15.423
X43.589 Y-15.663
X43.406 Y-15.866
X43.181 Y-16.02
X42.926 Y-16.119
X42.655 Y-16.155
X42.268 Y-16.161
G2 X41.974 Y-15.845 I0.006 J0.3
G1 X41.99 Y-15.541
X42.121 Y-13.036 F300
X42.139 Y-12.692 F30
G2 X42.424 Y-12.408 I0.3 J-0.016
G1 X42.813 Y-12.402
X43.001 Y-12.408
X43.343 Y-12.561
X43.634 Y-12.798
X44.058 Y-13.416
X44.245 Y-14.143
X44.267 Y-14.892
X44.107 Y-15.625
X44.062 Y-15.685
X43.88 Y-15.876
X43.659 Y-16.021
X43.412 Y-16.113
X43.15 Y-16.147
X42.655 Y-16.155
G2 X42.362 Y-15.839 I0.006 J0.3
G1 X42.378 Y-15.535
X42.51 Y-13.03 F300
X42.529 Y-12.686 F30
G2 X42.813 Y-12.402 I0.3 J-0.016
G1 X43.182 Y-12.396
X43.369 Y-12.403
X43.728 Y-12.513
X44.301 Y-12.996
X44.597 Y-13.685
X44.715 Y-14.426
X44.671 Y-15.175
X44.561 Y-15.533
X44.408 Y-15.75
X44.23 Y-15.912
X44.022 Y-16.035
X43.794 Y-16.112
X43.555 Y-16.141
X43.15 Y-16.147
G2 X42.856 Y-15.843 I0.006 J0.3
G1 X42.86 Y-15.527
X42.893 Y-13.025 F300
X42.897 Y-12.692 F30
G2 X43.182 Y-12.396 I0.3 J-0.004
G1 X43.744 Y-12.387
X43.931 Y-12.394
X44.274 Y-12.546
X44.808 Y-13.073
X45.066 Y-13.777
X45.16 Y-14.521
X45.106 Y-15.269
X45.033 Y-15.435
X44.899 Y-15.665
X44.717 Y-15.859
X44.495 Y-16.006
X44.246 Y-16.1
X43.982 Y-16.134
X43.555 Y-16.141
G2 X43.261 Y-15.822 I0.006 J0.3
G1 X43.28 Y-15.521
X43.438 Y-13.016 F300
X43.46 Y-12.668 F30
G2 X43.744 Y-12.387 I0.299 J-0.019
G1 X44.107 Y-12.382
X44.482 Y-12.395
X44.804 Y-12.586
X45.299 Y-13.15
X45.529 Y-13.863
X45.606 Y-14.609
X45.54 Y-15.357
X45.446 Y-15.526
X45.306 Y-15.726
X45.127 Y-15.893
X44.918 Y-16.018
X44.687 Y-16.097
X44.444 Y-16.127
X43.982 Y-16.134
G2 X43.688 Y-15.821 I0.006 J0.3
G1 X43.701 Y-15.514
X43.808 Y-13.01 F300
X43.822 Y-12.669 F30
G2 X44.107 Y-12.382 I0.3 J-0.013
G1 X44.606 Y-12.374
X44.793 Y-12.38
X45.135 Y-12.535
X45.426 Y-12.771
X45.839 Y-13.397
X46.017 Y-14.126
X46.046 Y-14.875
X45.898 Y-15.61
X45.857 Y-15.663
X45.675 Y-15.852
X45.456 Y-15.995
X45.21 Y-16.085
X44.95 Y-16.119
X44.444 Y-16.127
G2 X44.151 Y-15.811 I0.006 J0.3
G1 X44.167 Y-15.507
X44.303 Y-13.002 F300
X44.321 Y-12.657 F30
G2 X44.606 Y-12.374 I0.3 J-0.016
G1 X44.995 Y-12.368
X45.182 Y-12.374
X45.536 Y-12.498
X46.098 Y-12.994
X46.381 Y-13.689
X46.494 Y-14.431
X46.452 Y-15.179
X46.337 Y-15.541
X46.155 Y-15.775
X45.919 Y-15.955
X45.645 Y-16.07
X45.352 Y-16.113
X44.95 Y-16.119
G2 X44.656 Y-15.814 I0.006 J0.3
G1 X44.661 Y-15.499
X44.704 Y-12.997 F300
X44.71 Y-12.662 F30
G2 X44.995 Y-12.368 I0.3 J-0.005
G1 X45.545 Y-12.359
X45.733 Y-12.366
X46.071 Y-12.528
X46.596 Y-13.063
X46.847 Y-13.77
X46.94 Y-14.514
X46.889 Y-15.262
X46.818 Y-15.419
X46.684 Y-15.645
X46.502 Y-15.836
X46.281 Y-15.98
X46.034 Y-16.072
X45.773 Y-16.106
X45.352 Y-16.113
G2 X45.058 Y-15.793 I0.006 J0.3
G1 X45.077 Y-15.493
X45.239 Y-12.987 F300
X45.261 Y-12.639 F30
G2 X45.545 Y-12.359 I0.299 J-0.019
G1 X45.926 Y-12.353
X46.113 Y-12.36
X46.458 Y-12.506
X46.75 Y-12.742
X47.17 Y-13.364
X47.353 Y-14.091
X47.384 Y-14.84
X47.23 Y-15.574
X47.185 Y-15.634
X47.003 Y-15.826
X46.782 Y-15.972
X46.534 Y-16.064
X46.272 Y-16.098
X45.773 Y-16.106
G2 X45.479 Y-15.791 I0.006 J0.3
G1 X45.495 Y-15.487
X45.624 Y-12.982 F300
X45.641 Y-12.637 F30
G2 X45.926 Y-12.353 I0.3 J-0.015
G1 X46.289 Y-12.347
X46.476 Y-12.354
X46.837 Y-12.455
X47.411 Y-12.939
X47.705 Y-13.628
X47.828 Y-14.368
X47.791 Y-15.117
X47.684 Y-15.477
X47.531 Y-15.696
X47.353 Y-15.86
X47.145 Y-15.984
X46.915 Y-16.062
X46.675 Y-16.092
X46.272 Y-16.098
G2 X45.978 Y-15.796 I0.006 J0.3
G1 X45.981 Y-15.478
X46.001 Y-12.976 F300
X46.004 Y-12.645 F30
G2 X46.289 Y-12.347 I0.3 J-0.002
G1 X46.787 Y-12.339
X47.162 Y-12.352
X47.483 Y-12.546
X47.964 Y-13.122
X48.2 Y-13.833
X48.274 Y-14.58
X48.197 Y-15.326
X48.13 Y-15.456
X47.991 Y-15.664
X47.811 Y-15.838
X47.598 Y-15.97
X47.362 Y-16.053
X47.114 Y-16.084
X46.675 Y-16.092
G2 X46.381 Y-15.78 I0.006 J0.3
G1 X46.393 Y-15.472
X46.49 Y-12.968 F300
X46.503 Y-12.627 F30
G2 X46.787 Y-12.339 I0.3 J-0.012
G1 X47.38 Y-12.329
X47.567 Y-12.336
X47.886 Y-12.533
X48.41 Y-13.07
X48.642 Y-13.783
X48.727 Y-14.528
X48.675 Y-15.276
X48.586 Y-15.447
X48.448 Y-15.656
X48.268 Y-15.83
X48.055 Y-15.962
X47.819 Y-16.045
X47.571 Y-16.077
X47.114 Y-16.084
G2 X46.82 Y-15.758 I0.006 J0.3
G1 X46.846 Y-15.466
X47.065 Y-12.957 F300
X47.096 Y-12.603 F30
G2 X47.38 Y-12.329 I0.299 J-0.026
G1 X47.727 Y-12.323
X47.914 Y-12.329
X48.256 Y-12.485
X48.548 Y-12.719
X48.96 Y-13.346
X49.139 Y-14.074
X49.172 Y-14.823
X49.021 Y-15.558
X48.981 Y-15.611
X48.8 Y-15.799
X48.581 Y-15.943
X48.335 Y-16.034
X48.076 Y-16.068
X47.571 Y-16.077
G2 X47.277 Y-15.761 I0.005 J0.3
G1 X47.293 Y-15.458
X47.425 Y-12.953 F300
X47.443 Y-12.607 F30
G2 X47.727 Y-12.323 I0.3 J-0.016
G1 X48.108 Y-12.316
X48.295 Y-12.322
X48.651 Y-12.44
X49.215 Y-12.935
X49.5 Y-13.629
X49.617 Y-14.369
X49.577 Y-15.118
X49.463 Y-15.483
X49.323 Y-15.675
X49.146 Y-15.835
X48.94 Y-15.956
X48.714 Y-16.032
X48.477 Y-16.06
X48.076 Y-16.068
G2 X47.781 Y-15.764 I0.005 J0.3
G1 X47.785 Y-15.449
X47.819 Y-12.946 F300
X47.824 Y-12.612 F30
G2 X48.108 Y-12.316 I0.3 J-0.004
G1 X48.636 Y-12.307
X48.824 Y-12.313
X49.167 Y-12.464
X49.707 Y-12.984
X49.963 Y-13.689
X50.064 Y-14.433
X50.02 Y-15.181
X49.951 Y-15.342
X49.819 Y-15.575
X49.637 Y-15.771
X49.416 Y-15.921
X49.166 Y-16.016
X48.9 Y-16.052
X48.477 Y-16.06
G2 X48.183 Y-15.744 I0.005 J0.3
G1 X48.199 Y-15.442
X48.334 Y-12.937 F300
X48.353 Y-12.59 F30
G2 X48.636 Y-12.307 I0.3 J-0.016
G1 X49.198 Y-12.296
X49.386 Y-12.301
X49.707 Y-12.496
X50.198 Y-13.063
X50.429 Y-13.776
X50.512 Y-14.521
X50.454 Y-15.269
X50.362 Y-15.437
X50.222 Y-15.638
X50.044 Y-15.806
X49.835 Y-15.933
X49.604 Y-16.013
X49.361 Y-16.043
X48.9 Y-16.052
G2 X48.606 Y-15.723 I0.005 J0.3
G1 X48.635 Y-15.435
X48.881 Y-12.924 F300
X48.916 Y-12.566 F30
G2 X49.198 Y-12.296 I0.299 J-0.029
G1 X49.561 Y-12.289
X49.749 Y-12.294
X50.08 Y-12.47
X50.636 Y-12.974
X50.868 Y-13.687
X50.966 Y-14.43
X50.935 Y-15.18
X50.845 Y-15.37
X50.709 Y-15.588
X50.529 Y-15.772
X50.313 Y-15.912
X50.071 Y-16
X49.816 Y-16.034
X49.361 Y-16.043
G2 X49.066 Y-15.723 I0.005 J0.3
G1 X49.086 Y-15.425
X49.255 Y-12.918 F300
X49.278 Y-12.568 F30
G2 X49.561 Y-12.289 I0.299 J-0.02
G1 X49.909 Y-12.281
X50.284 Y-12.292
X50.611 Y-12.476
X51.114 Y-13.032
X51.333 Y-13.749
X51.419 Y-14.494
X51.376 Y-15.243
X51.28 Y-15.419
X51.141 Y-15.619
X50.963 Y-15.787
X50.754 Y-15.913
X50.524 Y-15.994
X50.281 Y-16.024
X49.816 Y-16.034
G2 X49.52 Y-15.724 I0.004 J0.3
G1 X49.531 Y-15.416
X49.614 Y-12.912 F300
X49.626 Y-12.571 F30
G2 X49.909 Y-12.281 I0.3 J-0.01
G1 X50.449 Y-12.27
X50.637 Y-12.275
X50.974 Y-12.439
X51.26 Y-12.681
X51.659 Y-13.316
X51.833 Y-14.046
X51.869 Y-14.795
X51.717 Y-15.529
X51.684 Y-15.571
X51.503 Y-15.753
X51.288 Y-15.892
X51.047 Y-15.98
X50.793 Y-16.014
X50.281 Y-16.024
G2 X49.986 Y-15.707 I0.004 J0.3
G1 X50.003 Y-15.407
X50.147 Y-12.9 F300
X50.167 Y-12.552 F30
G2 X50.449 Y-12.27 I0.3 J-0.017
G1 X50.818 Y-12.262
X51.006 Y-12.268
X51.359 Y-12.393
X51.914 Y-12.898
X52.194 Y-13.593
X52.313 Y-14.334
X52.275 Y-15.083
X52.245 Y-15.179
X52.126 Y-15.446
X51.944 Y-15.674
X51.712 Y-15.85
X51.443 Y-15.963
X51.154 Y-16.006
X50.793 Y-16.014
G2 X50.497 Y-15.71 I0.004 J0.3
G1 X50.501 Y-15.395
X50.531 Y-12.893 F300
X50.535 Y-12.558 F30
G2 X50.818 Y-12.262 I0.3 J-0.004
G1 X51.38 Y-12.25
X51.568 Y-12.256
X51.9 Y-12.429
X52.414 Y-12.975
X52.664 Y-13.682
X52.76 Y-14.426
X52.709 Y-15.175
X52.623 Y-15.349
X52.486 Y-15.562
X52.307 Y-15.741
X52.092 Y-15.877
X51.854 Y-15.963
X51.603 Y-15.996
X51.154 Y-16.006
G2 X50.859 Y-15.683 I0.004 J0.3
G1 X50.881 Y-15.389
X51.071 Y-12.88 F300
X51.098 Y-12.527 F30
G2 X51.38 Y-12.25 I0.299 J-0.023
G1 X51.743 Y-12.243
X51.93 Y-12.248
X52.273 Y-12.401
X52.563 Y-12.639
X52.982 Y-13.261
X53.169 Y-13.987
X53.204 Y-14.736
X53.053 Y-15.471
X53.011 Y-15.525
X52.83 Y-15.714
X52.612 Y-15.859
X52.367 Y-15.951
X52.107 Y-15.986
X51.603 Y-15.996
G2 X51.307 Y-15.682 I0.004 J0.3
G1 X51.322 Y-15.378
X51.443 Y-12.873 F300
X51.46 Y-12.528 F30
G2 X51.743 Y-12.243 I0.3 J-0.015
G1 X52.09 Y-12.235
X52.278 Y-12.241
X52.639 Y-12.342
X53.214 Y-12.823
X53.515 Y-13.51
X53.644 Y-14.249
X53.613 Y-14.998
X53.511 Y-15.359
X53.361 Y-15.576
X53.184 Y-15.742
X52.976 Y-15.867
X52.747 Y-15.947
X52.506 Y-15.977
X52.107 Y-15.986
G2 X51.811 Y-15.686 I0.004 J0.3
G1 Y-15.367
X51.808 Y-12.866 F300
X51.807 Y-12.535 F30
G2 X52.09 Y-12.235 I0.3 J0
G1 X52.631 Y-12.224
X52.818 Y-12.229
X53.166 Y-12.369
X53.715 Y-12.88
X53.982 Y-13.581
X54.09 Y-14.323
X54.053 Y-15.072
X53.982 Y-15.244
X53.851 Y-15.481
X53.67 Y-15.681
X53.447 Y-15.834
X53.195 Y-15.931
X52.928 Y-15.968
X52.506 Y-15.977
G2 X52.21 Y-15.664 I0.004 J0.3
G1 X52.223 Y-15.359
X52.333 Y-12.854 F300
X52.348 Y-12.51 F30
G2 X52.631 Y-12.224 I0.3 J-0.013
G1 X53.181 Y-12.212
X53.369 Y-12.217
X53.698 Y-12.397
X54.206 Y-12.948
X54.448 Y-13.658
X54.539 Y-14.403
X54.489 Y-15.151
X54.394 Y-15.333
X54.256 Y-15.54
X54.077 Y-15.713
X53.866 Y-15.844
X53.631 Y-15.927
X53.385 Y-15.958
X52.928 Y-15.968
G2 X52.633 Y-15.643 I0.004 J0.3
G1 X52.657 Y-15.351
X52.869 Y-12.841 F300
X52.899 Y-12.486 F30
G2 X53.181 Y-12.212 I0.299 J-0.025
G1 X53.562 Y-12.204
X53.749 Y-12.209
X54.086 Y-12.375
X54.368 Y-12.622
X54.775 Y-13.252
X54.954 Y-13.98
X54.984 Y-14.73
X54.822 Y-15.462
X54.787 Y-15.506
X54.607 Y-15.688
X54.391 Y-15.826
X54.151 Y-15.914
X53.897 Y-15.948
X53.385 Y-15.958
G2 X53.09 Y-15.64 I0.004 J0.3
G1 X53.108 Y-15.341
X53.258 Y-12.834 F300
X53.279 Y-12.485 F30
G2 X53.562 Y-12.204 I0.299 J-0.018
G1 X53.925 Y-12.196
X54.112 Y-12.201
X54.465 Y-12.329
X55.024 Y-12.829
X55.311 Y-13.522
X55.429 Y-14.263
X55.387 Y-15.012
X55.354 Y-15.118
X55.234 Y-15.383
X55.052 Y-15.61
X54.82 Y-15.785
X54.552 Y-15.897
X54.264 Y-15.94
X53.897 Y-15.948
G2 X53.601 Y-15.644 I0.004 J0.3
G1 X53.605 Y-15.329
X53.637 Y-12.827 F300
X53.642 Y-12.492 F30
G2 X53.925 Y-12.196 I0.3 J-0.004
G1 X54.424 Y-12.185
X54.611 Y-12.191
X54.955 Y-12.341
X55.506 Y-12.849
X55.768 Y-13.552
X55.875 Y-14.294
X55.837 Y-15.043
X55.742 Y-15.251
X55.608 Y-15.474
X55.427 Y-15.662
X55.209 Y-15.805
X54.965 Y-15.896
X54.707 Y-15.93
X54.264 Y-15.94
G2 X53.968 Y-15.623 I0.004 J0.3
G1 X53.985 Y-15.322
X54.122 Y-12.816 F300
X54.141 Y-12.469 F30
G2 X54.424 Y-12.185 I0.3 J-0.016
G1 X54.813 Y-12.177
X55.188 Y-12.188
X55.511 Y-12.377
X56.004 Y-12.942
X56.239 Y-13.655
X56.324 Y-14.4
X56.265 Y-15.148
X56.169 Y-15.321
X56.029 Y-15.52
X55.852 Y-15.685
X55.644 Y-15.811
X55.415 Y-15.89
X55.174 Y-15.92
X54.707 Y-15.93
G2 X54.411 Y-15.619 I0.004 J0.3
G1 X54.423 Y-15.312
X54.517 Y-12.808 F300
X54.53 Y-12.465 F30
G2 X54.813 Y-12.177 I0.3 J-0.011
G1 X55.363 Y-12.166
X55.551 Y-12.171
X55.882 Y-12.346
X56.44 Y-12.847
X56.677 Y-13.559
X56.778 Y-14.302
X56.748 Y-15.052
X56.657 Y-15.244
X56.521 Y-15.463
X56.341 Y-15.647
X56.125 Y-15.788
X55.883 Y-15.877
X55.627 Y-15.911
X55.174 Y-15.92
G2 X54.879 Y-15.601 I0.004 J0.3
G1 X54.898 Y-15.303
X55.058 Y-12.795 F300
X55.081 Y-12.446 F30
G2 X55.363 Y-12.166 I0.299 J-0.019
G1 X55.744 Y-12.157
X56.119 Y-12.168
X56.44 Y-12.361
X56.927 Y-12.932
X57.147 Y-13.649
X57.23 Y-14.394
X57.18 Y-15.143
X57.086 Y-15.309
X56.946 Y-15.505
X56.769 Y-15.669
X56.562 Y-15.792
X56.334 Y-15.871
X56.095 Y-15.901
X55.627 Y-15.911
G2 X55.332 Y-15.598 I0.004 J0.3
G1 X55.344 Y-15.293
X55.447 Y-12.788 F300
X55.461 Y-12.445 F30
G2 X55.744 Y-12.157 I0.3 J-0.012
G1 X56.272 Y-12.146
X56.46 Y-12.152
X56.793 Y-12.324
X57.074 Y-12.572
X57.471 Y-13.208
X57.644 Y-13.938
X57.677 Y-14.687
X57.523 Y-15.421
X57.494 Y-15.457
X57.314 Y-15.635
X57.1 Y-15.771
X56.862 Y-15.857
X56.611 Y-15.89
X56.095 Y-15.901
G2 X55.8 Y-15.583 I0.004 J0.3
G1 X55.818 Y-15.283
X55.969 Y-12.776 F300
X55.99 Y-12.428 F30
G2 X56.272 Y-12.146 I0.299 J-0.018
G1 X56.605 Y-12.139
X56.793 Y-12.144
X57.149 Y-12.262
X57.708 Y-12.762
X57.996 Y-13.454
X58.119 Y-14.194
X58.086 Y-14.944
X58.061 Y-15.034
X57.945 Y-15.306
X57.763 Y-15.541
X57.529 Y-15.722
X57.256 Y-15.838
X56.963 Y-15.882
X56.611 Y-15.89
G2 X56.315 Y-15.589 I0.004 J0.3
G1 X56.316 Y-15.272
X56.321 Y-12.77 F300
X56.322 Y-12.438 F30
G2 X56.605 Y-12.139 I0.3 J-0.001
G1 X57.197 Y-12.126
X57.385 Y-12.132
X57.715 Y-12.31
X58.221 Y-12.864
X58.472 Y-13.57
X58.566 Y-14.314
X58.515 Y-15.063
X58.431 Y-15.229
X58.294 Y-15.441
X58.115 Y-15.619
X57.901 Y-15.754
X57.664 Y-15.84
X57.413 Y-15.873
X56.963 Y-15.882
G2 X56.668 Y-15.559 I0.004 J0.3
G1 X56.691 Y-15.265
X56.887 Y-12.756 F300
X56.915 Y-12.403 F30
G2 X57.197 Y-12.126 I0.299 J-0.023
G1 X57.545 Y-12.119
X57.732 Y-12.124
X58.074 Y-12.278
X58.364 Y-12.516
X58.785 Y-13.137
X58.974 Y-13.863
X59.011 Y-14.612
X58.862 Y-15.347
X58.822 Y-15.401
X58.641 Y-15.591
X58.422 Y-15.735
X58.177 Y-15.827
X57.917 Y-15.862
X57.413 Y-15.873
G2 X57.117 Y-15.559 I0.004 J0.3
G1 X57.131 Y-15.255
X57.246 Y-12.749 F300
X57.262 Y-12.405 F30
G2 X57.545 Y-12.119 I0.3 J-0.014
G1 X57.925 Y-12.111
X58.113 Y-12.116
X58.468 Y-12.237
X59.036 Y-12.726
X59.33 Y-13.417
X59.453 Y-14.156
X59.417 Y-14.905
X59.303 Y-15.271
X59.163 Y-15.465
X58.987 Y-15.626
X58.781 Y-15.747
X58.555 Y-15.824
X58.318 Y-15.853
X57.917 Y-15.862
G2 X57.621 Y-15.56 I0.004 J0.3
G1 X57.623 Y-15.244
X57.64 Y-12.742 F300
X57.642 Y-12.409 F30
G2 X57.925 Y-12.111 I0.3 J-0.002
G1 X58.454 Y-12.1
X58.642 Y-12.105
X58.985 Y-12.255
X59.529 Y-12.772
X59.793 Y-13.474
X59.899 Y-14.216
X59.859 Y-14.965
X59.791 Y-15.129
X59.659 Y-15.363
X59.478 Y-15.561
X59.256 Y-15.712
X59.005 Y-15.808
X58.739 Y-15.845
X58.318 Y-15.853
G2 X58.023 Y-15.539 I0.004 J0.3
G1 X58.037 Y-15.236
X58.155 Y-12.73 F300
X58.171 Y-12.385 F30
G2 X58.454 Y-12.1 I0.3 J-0.014
G1 X59.016 Y-12.088
X59.204 Y-12.093
X59.526 Y-12.285
X60.022 Y-12.847
X60.26 Y-13.559
X60.347 Y-14.304
X60.293 Y-15.052
X60.201 Y-15.223
X60.062 Y-15.425
X59.884 Y-15.594
X59.674 Y-15.722
X59.443 Y-15.804
X59.199 Y-15.835
X58.739 Y-15.845
G2 X58.445 Y-15.517 I0.004 J0.3
G1 X58.471 Y-15.228
X58.702 Y-12.717 F300
X58.734 Y-12.36 F30
G2 X59.016 Y-12.088 I0.299 J-0.027
G1 X59.379 Y-12.08
X59.567 Y-12.085
X59.9 Y-12.257
X60.46 Y-12.756
X60.698 Y-13.468
X60.8 Y-14.21
X60.774 Y-14.96
X60.683 Y-15.154
X60.548 Y-15.375
X60.368 Y-15.56
X60.151 Y-15.701
X59.908 Y-15.791
X59.652 Y-15.825
X59.199 Y-15.835
G2 X58.904 Y-15.516 I0.004 J0.3
G1 X58.922 Y-15.217
X59.075 Y-12.71 F300
X59.097 Y-12.361 F30
G2 X59.379 Y-12.08 I0.299 J-0.018
G1 X59.727 Y-12.073
X60.101 Y-12.083
X60.431 Y-12.262
X60.94 Y-12.813
X61.164 Y-13.529
X61.254 Y-14.274
X61.215 Y-15.023
X61.118 Y-15.203
X60.979 Y-15.406
X60.801 Y-15.575
X60.591 Y-15.703
X60.36 Y-15.784
X60.116 Y-15.815
X59.652 Y-15.825
G2 X59.356 Y-15.517 I0.004 J0.3
G1 X59.365 Y-15.207
X59.434 Y-12.703 F300
X59.444 Y-12.364 F30
G2 X59.727 Y-12.073 I0.3 J-0.008
G1 X60.267 Y-12.061
X60.455 Y-12.067
X60.795 Y-12.225
X61.083 Y-12.464
X61.487 Y-13.096
X61.666 Y-13.824
X61.706 Y-14.573
X61.557 Y-15.308
X61.521 Y-15.354
X61.34 Y-15.54
X61.124 Y-15.681
X60.881 Y-15.77
X60.625 Y-15.804
X60.116 Y-15.815
G2 X59.82 Y-15.5 I0.004 J0.3
G1 X59.836 Y-15.197
X59.966 Y-12.691 F300
X59.984 Y-12.345 F30
G2 X60.267 Y-12.061 I0.3 J-0.016
G1 X60.636 Y-12.053
X60.823 Y-12.059
X61.179 Y-12.177
X61.739 Y-12.676
X62.024 Y-13.37
X62.147 Y-14.11
X62.112 Y-14.859
X62.081 Y-14.964
X61.962 Y-15.232
X61.781 Y-15.462
X61.548 Y-15.64
X61.278 Y-15.754
X60.988 Y-15.797
X60.625 Y-15.804
G2 X60.329 Y-15.502 I0.004 J0.3
G1 X60.331 Y-15.186
X60.35 Y-12.684 F300
X60.353 Y-12.351 F30
G2 X60.636 Y-12.053 I0.3 J-0.002
G1 X61.198 Y-12.041
X61.386 Y-12.047
X61.721 Y-12.214
X62.241 Y-12.754
X62.495 Y-13.46
X62.594 Y-14.203
X62.547 Y-14.952
X62.459 Y-15.132
X62.323 Y-15.348
X62.143 Y-15.529
X61.928 Y-15.666
X61.688 Y-15.754
X61.435 Y-15.787
X60.988 Y-15.797
G2 X60.693 Y-15.476 I0.004 J0.3
G1 X60.714 Y-15.179
X60.891 Y-12.671 F300
X60.916 Y-12.32 F30
G2 X61.198 Y-12.041 I0.299 J-0.021
G1 X61.561 Y-12.034
X61.748 Y-12.039
X62.094 Y-12.185
X62.387 Y-12.419
X62.811 Y-13.038
X63.001 Y-13.763
X63.04 Y-14.512
X62.892 Y-15.247
X62.847 Y-15.307
X62.666 Y-15.5
X62.446 Y-15.647
X62.199 Y-15.741
X61.936 Y-15.777
X61.435 Y-15.787
G2 X61.139 Y-15.474 I0.004 J0.3
G1 X61.153 Y-15.169
X61.263 Y-12.664 F300
X61.278 Y-12.32 F30
G2 X61.561 Y-12.034 I0.3 J-0.013
G1 X62.056 Y-12.023
X62.243 Y-12.029
X62.572 Y-12.208
X63.125 Y-12.715
X63.392 Y-13.416
X63.495 Y-14.159
X63.433 Y-14.906
X63.388 Y-15.023
X63.26 Y-15.266
X63.078 Y-15.472
X62.853 Y-15.629
X62.597 Y-15.73
X62.325 Y-15.768
X61.936 Y-15.777
G2 X61.641 Y-15.464 I0.004 J0.3
G1 X61.653 Y-15.159
X61.758 Y-12.653 F300
X61.773 Y-12.31 F30
G2 X62.056 Y-12.023 I0.3 J-0.013
G1 X62.44 Y-12.015
X62.628 Y-12.02
X62.975 Y-12.163
X63.272 Y-12.392
X63.706 Y-13.003
X63.901 Y-13.728
X63.932 Y-14.477
X63.783 Y-15.212
X63.734 Y-15.278
X63.553 Y-15.475
X63.331 Y-15.626
X63.081 Y-15.721
X62.816 Y-15.758
X62.325 Y-15.768
G2 X62.03 Y-15.456 I0.004 J0.3
G1 X62.042 Y-15.15
X62.144 Y-12.645 F300
X62.157 Y-12.302 F30
G2 X62.44 Y-12.015 I0.3 J-0.012
G1 X62.818 Y-12.007
X63.005 Y-12.012
X63.366 Y-12.113
X63.947 Y-12.587
X64.25 Y-13.273
X64.375 Y-14.013
X64.339 Y-14.762
X64.232 Y-15.121
X64.216 Y-15.15
X64.077 Y-15.348
X63.899 Y-15.514
X63.691 Y-15.639
X63.462 Y-15.719
X63.221 Y-15.749
X62.816 Y-15.758
G2 X62.52 Y-15.456 I0.004 J0.3
G1 X62.522 Y-15.14
X62.533 Y-12.637 F300
X62.535 Y-12.305 F30
G2 X62.818 Y-12.007 I0.3 J-0.001
G1 X63.38 Y-11.995
X63.567 Y-12
X63.914 Y-12.143
X64.456 Y-12.661
X64.72 Y-13.363
X64.821 Y-14.107
X64.774 Y-14.855
X64.699 Y-15.03
X64.567 Y-15.263
X64.386 Y-15.459
X64.164 Y-15.608
X63.915 Y-15.704
X63.65 Y-15.74
X63.221 Y-15.749
G2 X62.926 Y-15.433 I0.004 J0.3
G1 X62.942 Y-15.131
X63.078 Y-12.625 F300
X63.097 Y-12.278 F30
G2 X63.38 Y-11.995 I0.3 J-0.016
G1 X63.909 Y-11.984
X64.096 Y-11.989
X64.426 Y-12.167
X64.941 Y-12.713
X65.181 Y-13.423
X65.268 Y-14.168
X65.216 Y-14.916
X65.119 Y-15.104
X64.981 Y-15.311
X64.802 Y-15.484
X64.59 Y-15.615
X64.356 Y-15.698
X64.109 Y-15.73
X63.65 Y-15.74
G2 X63.355 Y-15.414 I0.004 J0.3
G1 X63.38 Y-15.123
X63.596 Y-12.613 F300
X63.627 Y-12.258 F30
G2 X63.909 Y-11.984 I0.299 J-0.026
G1 X64.241 Y-11.977
X64.429 Y-11.982
X64.775 Y-12.125
X65.072 Y-12.355
X65.492 Y-12.976
X65.677 Y-13.703
X65.713 Y-14.452
X65.568 Y-15.188
X65.523 Y-15.248
X65.342 Y-15.442
X65.121 Y-15.59
X64.873 Y-15.684
X64.611 Y-15.72
X64.109 Y-15.73
G2 X63.814 Y-15.417 I0.004 J0.3
G1 X63.828 Y-15.112
X63.943 Y-12.607 F300
X63.959 Y-12.262 F30
G2 X64.241 Y-11.977 I0.3 J-0.014
G1 X64.631 Y-11.968
X64.818 Y-11.974
X65.177 Y-12.083
X65.747 Y-12.571
X66.036 Y-13.263
X66.157 Y-14.003
X66.12 Y-14.752
X66.01 Y-15.11
X65.862 Y-15.32
X65.685 Y-15.481
X65.479 Y-15.604
X65.252 Y-15.681
X65.014 Y-15.711
X64.611 Y-15.72
G2 X64.315 Y-15.417 I0.004 J0.3
G1 X64.318 Y-15.101
X64.344 Y-12.599 F300
X64.348 Y-12.265 F30
G2 X64.631 Y-11.968 I0.3 J-0.003
G1 X65.181 Y-11.957
X65.368 Y-11.962
X65.712 Y-12.113
X66.247 Y-12.638
X66.504 Y-13.343
X66.603 Y-14.086
X66.557 Y-14.835
X66.486 Y-14.997
X66.354 Y-15.228
X66.173 Y-15.423
X65.952 Y-15.571
X65.703 Y-15.666
X65.44 Y-15.702
X65.014 Y-15.711
G2 X64.719 Y-15.394 I0.004 J0.3
G1 X64.736 Y-15.093
X64.879 Y-12.587 F300
X64.898 Y-12.239 F30
G2 X65.181 Y-11.957 I0.3 J-0.017
G1 X65.562 Y-11.949
X65.936 Y-11.959
X66.256 Y-12.156
X66.742 Y-12.727
X66.972 Y-13.441
X67.05 Y-14.187
X66.987 Y-14.934
X66.897 Y-15.095
X66.757 Y-15.293
X66.58 Y-15.458
X66.372 Y-15.583
X66.143 Y-15.662
X65.903 Y-15.692
X65.44 Y-15.702
G2 X65.144 Y-15.389 I0.004 J0.3
G1 X65.157 Y-15.084
X65.264 Y-12.579 F300
X65.279 Y-12.235 F30
G2 X65.562 Y-11.949 I0.3 J-0.013
G1 X66.09 Y-11.937
X66.278 Y-11.943
X66.61 Y-12.117
X66.89 Y-12.366
X67.292 Y-13
X67.466 Y-13.729
X67.491 Y-14.479
X67.331 Y-15.212
X67.302 Y-15.248
X67.122 Y-15.427
X66.908 Y-15.562
X66.67 Y-15.649
X66.419 Y-15.681
X65.903 Y-15.692
G2 X65.608 Y-15.373 I0.004 J0.3
G1 X65.627 Y-15.075
X65.786 Y-12.567 F300
X65.808 Y-12.218 F30
G2 X66.09 Y-11.937 I0.299 J-0.019
G1 X66.423 Y-11.93
X66.611 Y-11.936
X66.966 Y-12.056
X67.527 Y-12.554
X67.817 Y-13.245
X67.936 Y-13.986
X67.899 Y-14.735
X67.871 Y-14.831
X67.754 Y-15.102
X67.573 Y-15.335
X67.338 Y-15.515
X67.067 Y-15.63
X66.774 Y-15.674
X66.419 Y-15.681
G2 X66.123 Y-15.38 I0.004 J0.3
G1 X66.124 Y-15.063
X66.138 Y-12.561 F300
X66.14 Y-12.228 F30
G2 X66.423 Y-11.93 I0.3 J-0.002
G1 X67.015 Y-11.918
X67.203 Y-11.924
X67.533 Y-12.101
X68.04 Y-12.654
X68.291 Y-13.361
X68.382 Y-14.105
X68.328 Y-14.853
X68.243 Y-15.021
X68.106 Y-15.234
X67.926 Y-15.412
X67.712 Y-15.547
X67.474 Y-15.632
X67.223 Y-15.665
X66.774 Y-15.674
G2 X66.48 Y-15.35 I0.004 J0.3
G1 X66.503 Y-15.057
X66.705 Y-12.547 F300
X66.733 Y-12.194 F30
G2 X67.015 Y-11.918 I0.299 J-0.024
G1 X67.363 Y-11.911
X67.55 Y-11.917
X67.893 Y-12.069
X68.183 Y-12.307
X68.604 Y-12.928
X68.791 Y-13.654
X68.825 Y-14.403
X68.675 Y-15.138
X68.633 Y-15.193
X68.452 Y-15.384
X68.233 Y-15.528
X67.987 Y-15.62
X67.726 Y-15.655
X67.223 Y-15.665
G2 X66.928 Y-15.35 I0.005 J0.3
G1 X66.942 Y-15.046
X67.063 Y-12.541 F300
X67.079 Y-12.196 F30
G2 X67.363 Y-11.911 I0.3 J-0.014
G1 X67.743 Y-11.904
X67.931 Y-11.91
X68.287 Y-12.028
X68.855 Y-12.517
X69.148 Y-13.208
X69.269 Y-13.948
X69.231 Y-14.697
X69.115 Y-15.065
X68.975 Y-15.259
X68.798 Y-15.42
X68.592 Y-15.541
X68.366 Y-15.618
X68.128 Y-15.647
X67.726 Y-15.655
G2 X67.431 Y-15.352 I0.005 J0.3
G1 X67.434 Y-15.036
X67.456 Y-12.534 F300
X67.46 Y-12.201 F30
G2 X67.743 Y-11.904 I0.3 J-0.003
G1 X68.272 Y-11.894
X68.459 Y-11.9
X68.804 Y-12.049
X69.349 Y-12.564
X69.611 Y-13.267
X69.715 Y-14.009
X69.673 Y-14.758
X69.603 Y-14.926
X69.47 Y-15.161
X69.287 Y-15.359
X69.064 Y-15.51
X68.812 Y-15.605
X68.545 Y-15.64
X68.128 Y-15.647
G2 X67.833 Y-15.333 I0.005 J0.3
G1 X67.848 Y-15.029
X67.972 Y-12.523 F300
X67.989 Y-12.179 F30
G2 X68.272 Y-11.894 I0.3 J-0.015
G1 X68.834 Y-11.885
X69.022 Y-11.892
X69.345 Y-12.081
X69.842 Y-12.643
X70.078 Y-13.355
X70.163 Y-14.1
X70.106 Y-14.848
X70.012 Y-15.022
X69.872 Y-15.226
X69.693 Y-15.395
X69.482 Y-15.523
X69.249 Y-15.603
X69.004 Y-15.633
X68.545 Y-15.64
G2 X68.252 Y-15.312 I0.006 J0.3
G1 X68.28 Y-15.022
X68.517 Y-12.513 F300
X68.551 Y-12.157 F30
G2 X68.834 Y-11.885 I0.299 J-0.028
G1 X69.197 Y-11.88
X69.384 Y-11.886
X69.719 Y-12.056
X70 Y-12.304
X70.403 Y-12.937
X70.579 Y-13.666
X70.606 Y-14.415
X70.442 Y-15.147
X70.408 Y-15.19
X70.225 Y-15.372
X70.008 Y-15.509
X69.766 Y-15.595
X69.51 Y-15.626
X69.004 Y-15.633
G2 X68.71 Y-15.314 I0.006 J0.3
G1 X68.73 Y-15.014
X68.89 Y-12.508 F300
X68.913 Y-12.16 F30
G2 X69.197 Y-11.88 I0.299 J-0.019
G1 X69.544 Y-11.875
X69.732 Y-11.883
X70.086 Y-12.005
X70.646 Y-12.504
X70.934 Y-13.197
X71.051 Y-13.937
X71.01 Y-14.686
X70.9 Y-15.047
X70.757 Y-15.24
X70.579 Y-15.4
X70.372 Y-15.52
X70.145 Y-15.595
X69.907 Y-15.622
X69.51 Y-15.626
G2 X69.218 Y-15.322 I0.007 J0.3
G1 X69.222 Y-15.005
X69.254 Y-12.503 F300
X69.258 Y-12.171 F30
G2 X69.544 Y-11.875 I0.3 J-0.004
G1 X70.085 Y-11.87
X70.272 Y-11.877
X70.612 Y-12.036
X71.143 Y-12.566
X71.399 Y-13.271
X71.497 Y-14.014
X71.449 Y-14.763
X71.383 Y-14.915
X71.249 Y-15.147
X71.065 Y-15.342
X70.842 Y-15.49
X70.591 Y-15.584
X70.325 Y-15.617
X69.907 Y-15.622
G2 X69.615 Y-15.304 I0.007 J0.3
G1 X69.632 Y-15.001
X69.779 Y-12.497 F300
X69.799 Y-12.152 F30
G2 X70.085 Y-11.87 I0.299 J-0.018
G1 X70.454 Y-11.866
X70.829 Y-11.881
X71.148 Y-12.078
X71.635 Y-12.648
X71.865 Y-13.362
X71.944 Y-14.107
X71.881 Y-14.855
X71.79 Y-15.018
X71.648 Y-15.217
X71.469 Y-15.382
X71.259 Y-15.507
X71.028 Y-15.585
X70.785 Y-15.613
X70.325 Y-15.617
G2 X70.032 Y-15.305 I0.007 J0.3
G1 X70.046 Y-14.996
X70.153 Y-12.493 F300
X70.168 Y-12.153 F30
G2 X70.454 Y-11.866 I0.3 J-0.013
G1 X70.91 Y-11.861
X71.098 Y-11.869
X71.445 Y-12.01
X71.74 Y-12.241
X72.163 Y-12.861
X72.349 Y-13.587
X72.386 Y-14.336
X72.256 Y-15.075
X72.207 Y-15.14
X72.024 Y-15.334
X71.801 Y-15.481
X71.551 Y-15.574
X71.286 Y-15.607
X70.785 Y-15.613
G2 X70.493 Y-15.3 I0.007 J0.3
G1 X70.506 Y-14.992
X70.61 Y-12.488 F300
X70.624 Y-12.148 F30
G2 X70.91 Y-11.861 I0.3 J-0.013
G1 X71.346 Y-11.857
X71.533 Y-11.864
X71.883 Y-12
X72.446 Y-12.495
X72.723 Y-13.192
X72.835 Y-13.933
X72.795 Y-14.682
X72.675 Y-15.043
X72.491 Y-15.273
X72.255 Y-15.451
X71.983 Y-15.563
X71.69 Y-15.603
X71.286 Y-15.607
G2 X70.993 Y-15.301 I0.007 J0.3
G1 X71 Y-14.986
X71.052 Y-12.484 F300
X71.059 Y-12.15 F30
G2 X71.346 Y-11.857 I0.3 J-0.006
G1 X71.877 Y-11.851
X72.065 Y-11.858
X72.404 Y-12.018
X72.936 Y-12.547
X73.186 Y-13.254
X73.282 Y-13.998
X73.237 Y-14.746
X73.162 Y-14.911
X73.027 Y-15.139
X72.844 Y-15.33
X72.622 Y-15.475
X72.374 Y-15.566
X72.111 Y-15.599
X71.69 Y-15.603
G2 X71.398 Y-15.285 I0.007 J0.3
G1 X71.417 Y-14.982
X71.57 Y-12.478 F300
X71.592 Y-12.132 F30
G2 X71.877 Y-11.851 I0.299 J-0.018
G1 X72.267 Y-11.847
X72.454 Y-11.854
X72.8 Y-11.999
X73.093 Y-12.233
X73.512 Y-12.855
X73.696 Y-13.582
X73.73 Y-14.332
X73.575 Y-15.066
X73.528 Y-15.129
X73.344 Y-15.322
X73.122 Y-15.468
X72.872 Y-15.56
X72.608 Y-15.594
X72.111 Y-15.599
G2 X71.819 Y-15.283 I0.007 J0.3
G1 X71.834 Y-14.978
X71.963 Y-12.474 F300
X71.981 Y-12.131 F30
G2 X72.267 Y-11.847 I0.3 J-0.015
G1 X72.636 Y-11.843
X72.823 Y-11.851
X73.184 Y-11.952
X73.757 Y-12.436
X74.05 Y-13.126
X74.172 Y-13.866
X74.135 Y-14.615
X74.026 Y-14.974
X74.012 Y-14.999
X73.871 Y-15.196
X73.692 Y-15.361
X73.482 Y-15.484
X73.251 Y-15.562
X73.01 Y-15.589
X72.608 Y-15.594
G2 X72.315 Y-15.29 I0.007 J0.3
G1 X72.319 Y-14.972
X72.346 Y-12.471 F300
X72.349 Y-12.14 F30
G2 X72.636 Y-11.843 I0.3 J-0.003
G1 X73.198 Y-11.837
X73.385 Y-11.845
X73.73 Y-11.992
X74.264 Y-12.518
X74.521 Y-13.223
X74.618 Y-13.966
X74.567 Y-14.715
X74.494 Y-14.884
X74.359 Y-15.116
X74.176 Y-15.31
X73.953 Y-15.458
X73.702 Y-15.551
X73.436 Y-15.585
X73.01 Y-15.589
G2 X72.718 Y-15.271 I0.007 J0.3
G1 X72.736 Y-14.969
X72.891 Y-12.464 F300
X72.912 Y-12.118 F30
G2 X73.198 Y-11.837 I0.299 J-0.018
G1 X73.726 Y-11.832
X73.914 Y-11.839
X74.241 Y-12.022
X74.748 Y-12.575
X74.982 Y-13.287
X75.065 Y-14.033
X75.009 Y-14.78
X74.911 Y-14.965
X74.77 Y-15.17
X74.59 Y-15.341
X74.377 Y-15.47
X74.142 Y-15.551
X73.894 Y-15.58
X73.436 Y-15.585
G2 X73.145 Y-15.257 I0.007 J0.3
G1 X73.172 Y-14.965
X73.408 Y-12.458 F300
X73.441 Y-12.103 F30
G2 X73.726 Y-11.832 I0.299 J-0.028
G1 X74.059 Y-11.828
X74.247 Y-11.836
X74.591 Y-11.984
X74.884 Y-12.218
X75.298 Y-12.843
X75.477 Y-13.572
X75.509 Y-14.321
X75.357 Y-15.056
X75.313 Y-15.114
X75.129 Y-15.306
X74.908 Y-15.451
X74.659 Y-15.542
X74.396 Y-15.575
X73.894 Y-15.58
G2 X73.602 Y-15.264 I0.007 J0.3
G1 X73.619 Y-14.959
X73.755 Y-12.455 F300
X73.773 Y-12.112 F30
G2 X74.059 Y-11.828 I0.3 J-0.016
G1 X74.449 Y-11.824
X74.636 Y-11.832
X74.993 Y-11.947
X75.557 Y-12.441
X75.841 Y-13.135
X75.956 Y-13.876
X75.913 Y-14.625
X75.8 Y-14.983
X75.65 Y-15.188
X75.472 Y-15.348
X75.264 Y-15.468
X75.037 Y-15.544
X74.799 Y-15.571
X74.396 Y-15.575
G2 X74.103 Y-15.269 I0.007 J0.3
G1 X74.109 Y-14.954
X74.156 Y-12.452 F300
X74.162 Y-12.118 F30
G2 X74.449 Y-11.824 I0.3 J-0.006
G1 X74.999 Y-11.818
X75.186 Y-11.826
X75.527 Y-11.982
X76.057 Y-12.513
X76.308 Y-13.219
X76.401 Y-13.964
X76.349 Y-14.712
X76.278 Y-14.872
X76.143 Y-15.101
X75.96 Y-15.294
X75.737 Y-15.441
X75.487 Y-15.533
X75.223 Y-15.566
X74.799 Y-15.571
G2 X74.507 Y-15.251 I0.007 J0.3
G1 X74.526 Y-14.95
X74.69 Y-12.445 F300
X74.713 Y-12.098 F30
G2 X74.999 Y-11.818 I0.299 J-0.02
G1 X75.379 Y-11.814
X75.567 Y-11.822
X75.915 Y-11.962
X76.209 Y-12.194
X76.63 Y-12.814
X76.814 Y-13.542
X76.845 Y-14.291
X76.691 Y-15.025
X76.642 Y-15.091
X76.459 Y-15.286
X76.235 Y-15.434
X75.984 Y-15.527
X75.719 Y-15.561
X75.223 Y-15.566
G2 X74.931 Y-15.251 I0.007 J0.3
G1 X74.947 Y-14.945
X75.076 Y-12.441 F300
X75.093 Y-12.099 F30
G2 X75.379 Y-11.814 I0.3 J-0.015
G1 X75.908 Y-11.809
X76.096 Y-11.816
X76.418 Y-12.007
X76.965 Y-12.521
X77.217 Y-13.227
X77.306 Y-13.972
X77.232 Y-14.718
X77.178 Y-14.845
X77.045 Y-15.08
X76.861 Y-15.277
X76.637 Y-15.428
X76.384 Y-15.523
X76.117 Y-15.557
X75.719 Y-15.561
G2 X75.426 Y-15.242 I0.007 J0.3
G1 X75.445 Y-14.94
X75.601 Y-12.436 F300
X75.622 Y-12.09 F30
G2 X75.908 Y-11.809 I0.299 J-0.019
G1 X76.241 Y-11.805
X76.616 Y-11.82
X76.939 Y-12.01
X77.443 Y-12.565
X77.675 Y-13.279
X77.75 Y-14.025
X77.68 Y-14.772
X77.586 Y-14.944
X77.445 Y-15.147
X77.265 Y-15.316
X77.053 Y-15.443
X76.82 Y-15.523
X76.574 Y-15.552
X76.117 Y-15.557
G2 X75.824 Y-15.244 I0.007 J0.3
G1 X75.837 Y-14.936
X75.941 Y-12.432 F300
X75.955 Y-12.092 F30
G2 X76.241 Y-11.805 I0.3 J-0.012
G1 X76.833 Y-11.799
X77.02 Y-11.806
X77.347 Y-11.99
X77.891 Y-12.507
X78.117 Y-13.222
X78.203 Y-13.967
X78.157 Y-14.716
X78.062 Y-14.905
X77.924 Y-15.118
X77.742 Y-15.296
X77.527 Y-15.431
X77.287 Y-15.516
X77.034 Y-15.547
X76.574 Y-15.552
G2 X76.283 Y-15.227 I0.007 J0.3
G1 X76.308 Y-14.932
X76.518 Y-12.425 F300
X76.548 Y-12.073 F30
G2 X76.833 Y-11.799 I0.299 J-0.025
G1 X77.181 Y-11.795
X77.555 Y-11.809
X77.876 Y-12.003
X78.368 Y-12.569
X78.58 Y-13.289
X78.654 Y-14.035
X78.599 Y-14.783
X78.501 Y-14.953
X78.36 Y-15.15
X78.181 Y-15.313
X77.972 Y-15.436
X77.743 Y-15.513
X77.502 Y-15.541
X77.034 Y-15.547
G2 X76.741 Y-15.232 I0.007 J0.3
G1 X76.756 Y-14.926
X76.878 Y-12.422 F300
X76.895 Y-12.08 F30
G2 X77.181 Y-11.795 I0.3 J-0.015
G1 X77.721 Y-11.788
X77.909 Y-11.795
X78.241 Y-11.969
X78.521 Y-12.219
X78.911 Y-12.859
X79.075 Y-13.591
X79.099 Y-14.341
X78.935 Y-15.073
X78.905 Y-15.109
X78.724 Y-15.286
X78.509 Y-15.42
X78.269 Y-15.505
X78.018 Y-15.535
X77.502 Y-15.541
G2 X77.21 Y-15.22 I0.007 J0.3
G1 X77.231 Y-14.921
X77.411 Y-12.415 F300
X77.436 Y-12.067 F30
G2 X77.721 Y-11.788 I0.299 J-0.021
G1 X78.09 Y-11.784
X78.277 Y-11.791
X78.626 Y-11.929
X79.171 Y-12.444
X79.442 Y-13.143
X79.55 Y-13.886
X79.5 Y-14.634
X79.473 Y-14.72
X79.35 Y-14.983
X79.167 Y-15.208
X78.933 Y-15.381
X78.665 Y-15.49
X78.377 Y-15.53
X78.018 Y-15.535
G2 X77.725 Y-15.228 I0.007 J0.3
G1 X77.733 Y-14.914
X77.796 Y-12.412 F300
X77.805 Y-12.076 F30
G2 X78.09 Y-11.784 I0.3 J-0.008
G1 X78.652 Y-11.776
X78.839 Y-11.783
X79.166 Y-11.968
X79.668 Y-12.525
X79.91 Y-13.235
X79.995 Y-13.98
X79.935 Y-14.727
X79.849 Y-14.894
X79.71 Y-15.103
X79.529 Y-15.278
X79.315 Y-15.411
X79.078 Y-15.494
X78.828 Y-15.524
X78.377 Y-15.53
G2 X78.085 Y-15.204 I0.006 J0.3
G1 X78.111 Y-14.911
X78.336 Y-12.403 F300
X78.368 Y-12.049 F30
G2 X78.652 Y-11.776 I0.299 J-0.027
G1 X79.015 Y-11.772
X79.202 Y-11.778
X79.54 Y-11.942
X79.823 Y-12.187
X80.232 Y-12.816
X80.41 Y-13.545
X80.436 Y-14.294
X80.274 Y-15.027
X80.236 Y-15.075
X80.054 Y-15.258
X79.837 Y-15.398
X79.594 Y-15.485
X79.337 Y-15.518
X78.828 Y-15.524
G2 X78.535 Y-15.206 I0.006 J0.3
G1 X78.554 Y-14.904
X78.708 Y-12.399 F300
X78.73 Y-12.053 F30
G2 X79.015 Y-11.772 I0.299 J-0.019
G1 X79.362 Y-11.767
X79.55 Y-11.774
X79.907 Y-11.889
X80.472 Y-12.382
X80.763 Y-13.073
X80.881 Y-13.814
X80.841 Y-14.562
X80.729 Y-14.93
X80.587 Y-15.125
X80.409 Y-15.286
X80.202 Y-15.408
X79.974 Y-15.484
X79.735 Y-15.512
X79.337 Y-15.518
G2 X79.044 Y-15.214 I0.006 J0.3
G1 X79.047 Y-14.897
X79.073 Y-12.395 F300
X79.077 Y-12.063 F30
G2 X79.362 Y-11.767 I0.3 J-0.003
G1 X79.903 Y-11.759
X80.09 Y-11.766
X80.433 Y-11.919
X80.97 Y-12.442
X81.228 Y-13.146
X81.327 Y-13.89
X81.28 Y-14.638
X81.212 Y-14.798
X81.079 Y-15.031
X80.896 Y-15.228
X80.673 Y-15.377
X80.422 Y-15.472
X80.155 Y-15.506
X79.735 Y-15.512
G2 X79.442 Y-15.195 I0.006 J0.3
G1 X79.459 Y-14.892
X79.599 Y-12.387 F300
X79.618 Y-12.042 F30
G2 X79.903 Y-11.759 I0.3 J-0.017
G1 X80.272 Y-11.754
X80.646 Y-11.767
X80.969 Y-11.959
X81.462 Y-12.524
X81.694 Y-13.237
X81.774 Y-13.983
X81.713 Y-14.73
X81.62 Y-14.897
X81.48 Y-15.098
X81.301 Y-15.265
X81.091 Y-15.391
X80.86 Y-15.47
X80.617 Y-15.5
X80.155 Y-15.506
G2 X79.862 Y-15.194 I0.006 J0.3
G1 X79.874 Y-14.886
X79.973 Y-12.383 F300
X79.987 Y-12.042 F30
G2 X80.272 Y-11.754 I0.3 J-0.012
G1 X80.728 Y-11.747
X80.916 Y-11.754
X81.265 Y-11.889
X81.564 Y-12.117
X81.99 Y-12.734
X82.178 Y-13.46
X82.217 Y-14.209
X82.089 Y-14.948
X82.038 Y-15.017
X81.856 Y-15.213
X81.633 Y-15.363
X81.382 Y-15.457
X81.116 Y-15.492
X80.617 Y-15.5
G2 X80.323 Y-15.188 I0.006 J0.3
G1 X80.335 Y-14.88
X80.43 Y-12.376 F300
X80.443 Y-12.036 F30
G2 X80.728 Y-11.747 I0.3 J-0.011
G1 X81.163 Y-11.741
X81.351 Y-11.748
X81.703 Y-11.876
X82.27 Y-12.367
X82.551 Y-13.062
X82.665 Y-13.804
X82.627 Y-14.553
X82.506 Y-14.918
X82.323 Y-15.15
X82.088 Y-15.33
X81.816 Y-15.444
X81.523 Y-15.486
X81.116 Y-15.492
G2 X80.822 Y-15.187 I0.006 J0.3
G1 X80.828 Y-14.872
X80.872 Y-12.37 F300
X80.878 Y-12.035 F30
G2 X81.163 Y-11.741 I0.3 J-0.005
G1 X81.695 Y-11.733
X81.883 Y-11.739
X82.224 Y-11.894
X82.761 Y-12.417
X83.014 Y-13.124
X83.112 Y-13.867
X83.069 Y-14.616
X82.993 Y-14.786
X82.859 Y-15.014
X82.677 Y-15.206
X82.456 Y-15.352
X82.208 Y-15.445
X81.945 Y-15.479
X81.523 Y-15.486
G2 X81.229 Y-15.169 I0.006 J0.3
G1 X81.247 Y-14.867
X81.391 Y-12.361 F300
X81.411 Y-12.015 F30
G2 X81.695 Y-11.733 I0.3 J-0.017
G1 X82.085 Y-11.727
X82.272 Y-11.733
X82.62 Y-11.872
X82.915 Y-12.104
X83.338 Y-12.723
X83.524 Y-13.45
X83.56 Y-14.199
X83.409 Y-14.934
X83.361 Y-14.999
X83.179 Y-15.194
X82.957 Y-15.342
X82.707 Y-15.437
X82.442 Y-15.471
X81.945 Y-15.479
G2 X81.651 Y-15.165 I0.006 J0.3
G1 X81.666 Y-14.86
X81.784 Y-12.355 F300
X81.8 Y-12.012 F30
G2 X82.085 Y-11.727 I0.3 J-0.014
G1 X82.635 Y-11.717
X82.822 Y-11.724
X83.457 Y-12.124
X83.809 Y-12.786
X83.978 Y-13.516
X83.998 Y-14.266
X83.862 Y-15.003
X83.832 Y-15.039
X83.653 Y-15.214
X83.439 Y-15.347
X83.203 Y-15.431
X82.954 Y-15.462
X82.442 Y-15.471
G2 X82.148 Y-15.152 I0.006 J0.3
G1 X82.167 Y-14.852
X82.329 Y-12.346 F300
X82.351 Y-11.998 F30
G2 X82.635 Y-11.717 I0.299 J-0.019
G1 X83.016 Y-11.711
X83.203 Y-11.717
X83.557 Y-11.839
X84.084 Y-12.373
X84.348 Y-13.075
X84.452 Y-13.818
X84.411 Y-14.567
X84.393 Y-14.628
X84.273 Y-14.896
X84.091 Y-15.125
X83.857 Y-15.302
X83.587 Y-15.414
X83.297 Y-15.456
X82.954 Y-15.462
G2 X82.659 Y-15.156 I0.005 J0.3
G1 X82.666 Y-14.843
X82.724 Y-12.34 F300
X82.731 Y-12.003 F30
G2 X83.016 Y-11.711 I0.3 J-0.007
G1 X83.544 Y-11.701
X83.732 Y-11.707
X84.061 Y-11.886
X84.572 Y-12.435
X84.812 Y-13.146
X84.9 Y-13.891
X84.852 Y-14.639
X84.767 Y-14.807
X84.629 Y-15.019
X84.449 Y-15.196
X84.235 Y-15.331
X83.998 Y-15.416
X83.747 Y-15.448
X83.297 Y-15.456
G2 X83.003 Y-15.132 I0.005 J0.3
G1 X83.027 Y-14.838
X83.232 Y-12.33 F300
X83.261 Y-11.976 F30
G2 X83.544 Y-11.701 I0.299 J-0.024
G1 X83.877 Y-11.695
X84.065 Y-11.701
X84.41 Y-11.846
X84.705 Y-12.078
X85.124 Y-12.7
X85.309 Y-13.427
X85.347 Y-14.176
X85.204 Y-14.912
X85.16 Y-14.971
X84.979 Y-15.164
X84.758 Y-15.311
X84.51 Y-15.404
X84.247 Y-15.439
X83.747 Y-15.448
G2 X83.452 Y-15.135 I0.005 J0.3
G1 X83.466 Y-14.83
X83.578 Y-12.325 F300
X83.593 Y-11.981 F30
G2 X83.877 Y-11.695 I0.3 J-0.013
G1 X84.266 Y-11.688
X84.454 Y-11.694
X84.812 Y-11.806
X85.38 Y-12.295
X85.669 Y-12.988
X85.79 Y-13.728
X85.755 Y-14.477
X85.645 Y-14.835
X85.498 Y-15.042
X85.321 Y-15.203
X85.114 Y-15.325
X84.887 Y-15.403
X84.649 Y-15.432
X84.247 Y-15.439
G2 X83.952 Y-15.136 I0.005 J0.3
G1 X83.955 Y-14.82
X83.979 Y-12.318 F300
X83.982 Y-11.985 F30
G2 X84.266 Y-11.688 I0.3 J-0.003
G1 X84.817 Y-11.678
X85.004 Y-11.684
X85.346 Y-11.837
X85.88 Y-12.364
X86.137 Y-13.068
X86.237 Y-13.812
X86.191 Y-14.56
X86.122 Y-14.72
X85.989 Y-14.951
X85.807 Y-15.146
X85.586 Y-15.294
X85.337 Y-15.388
X85.072 Y-15.424
X84.649 Y-15.432
G2 X84.354 Y-15.115 I0.005 J0.3
G1 X84.371 Y-14.813
X84.513 Y-12.307 F300
X84.533 Y-11.96 F30
G2 X84.817 Y-11.678 I0.3 J-0.017
G1 X85.197 Y-11.671
X85.385 Y-11.677
X85.734 Y-11.814
X86.03 Y-12.044
X86.456 Y-12.661
X86.646 Y-13.386
X86.683 Y-14.135
X86.536 Y-14.871
X86.487 Y-14.937
X86.305 Y-15.134
X86.083 Y-15.284
X85.833 Y-15.379
X85.568 Y-15.415
X85.072 Y-15.424
G2 X84.778 Y-15.111 I0.005 J0.3
G1 X84.791 Y-14.805
X84.899 Y-12.3 F300
X84.914 Y-11.958 F30
G2 X85.197 Y-11.671 I0.3 J-0.013
G1 X85.726 Y-11.661
X85.913 Y-11.667
X86.238 Y-11.855
X86.788 Y-12.365
X87.047 Y-13.069
X87.142 Y-13.813
X87.074 Y-14.56
X87.021 Y-14.687
X86.89 Y-14.924
X86.707 Y-15.123
X86.483 Y-15.276
X86.23 Y-15.372
X85.962 Y-15.408
X85.568 Y-15.415
G2 X85.273 Y-15.099 I0.005 J0.3
G1 X85.289 Y-14.796
X85.424 Y-12.29 F300
X85.442 Y-11.945 F30
G2 X85.726 Y-11.661 I0.3 J-0.016
G1 X86.059 Y-11.656
X86.434 Y-11.668
X86.759 Y-11.856
X87.267 Y-12.407
X87.505 Y-13.118
X87.586 Y-13.864
X87.522 Y-14.611
X87.429 Y-14.785
X87.289 Y-14.99
X87.11 Y-15.16
X86.899 Y-15.289
X86.665 Y-15.37
X86.42 Y-15.4
X85.962 Y-15.408
G2 X85.668 Y-15.098 I0.006 J0.3
G1 X85.678 Y-14.788
X85.763 Y-12.285 F300
X85.774 Y-11.945 F30
G2 X86.059 Y-11.656 I0.3 J-0.01
G1 X86.651 Y-11.646
X86.838 Y-11.653
X87.167 Y-11.833
X87.715 Y-12.345
X87.947 Y-13.059
X88.039 Y-13.803
X87.999 Y-14.552
X87.905 Y-14.743
X87.767 Y-14.959
X87.585 Y-15.139
X87.369 Y-15.276
X87.127 Y-15.362
X86.873 Y-15.393
X86.42 Y-15.4
G2 X86.126 Y-15.078 I0.006 J0.3
G1 X86.149 Y-14.782
X86.34 Y-12.274 F300
X86.367 Y-11.923 F30
G2 X86.651 Y-11.646 I0.299 J-0.023
G1 X86.998 Y-11.641
X87.373 Y-11.655
X87.697 Y-11.845
X88.193 Y-12.407
X88.41 Y-13.125
X88.49 Y-13.87
X88.44 Y-14.619
X88.342 Y-14.793
X88.201 Y-14.991
X88.022 Y-15.156
X87.812 Y-15.281
X87.582 Y-15.359
X87.34 Y-15.387
X86.873 Y-15.393
G2 X86.58 Y-15.081 I0.007 J0.3
G1 X86.593 Y-14.773
X86.699 Y-12.269 F300
X86.713 Y-11.928 F30
G2 X86.998 Y-11.641 I0.3 J-0.013
G1 X87.539 Y-11.634
X87.726 Y-11.641
X88.061 Y-11.81
X88.344 Y-12.057
X88.739 Y-12.694
X88.908 Y-13.425
X88.937 Y-14.174
X88.778 Y-14.907
X88.745 Y-14.947
X88.564 Y-15.128
X88.347 Y-15.264
X88.106 Y-15.349
X87.853 Y-15.381
X87.34 Y-15.387
G2 X87.047 Y-15.068 I0.007 J0.3
G1 X87.067 Y-14.767
X87.231 Y-12.262 F300
X87.254 Y-11.914 F30
G2 X87.539 Y-11.634 I0.299 J-0.02
G1 X87.908 Y-11.63
X88.095 Y-11.637
X88.446 Y-11.768
X88.996 Y-12.278
X89.272 Y-12.976
X89.385 Y-13.717
X89.34 Y-14.466
X89.31 Y-14.56
X89.189 Y-14.825
X89.005 Y-15.052
X88.77 Y-15.226
X88.5 Y-15.336
X88.211 Y-15.376
X87.853 Y-15.381
G2 X87.559 Y-15.075 I0.007 J0.3
G1 X87.566 Y-14.76
X87.615 Y-12.258 F300
X87.622 Y-11.923 F30
G2 X87.908 Y-11.63 I0.3 J-0.006
G1 X88.47 Y-11.623
X88.657 Y-11.63
X88.988 Y-11.808
X89.496 Y-12.359
X89.741 Y-13.068
X89.83 Y-13.813
X89.774 Y-14.561
X89.686 Y-14.733
X89.547 Y-14.945
X89.366 Y-15.123
X89.151 Y-15.256
X88.912 Y-15.341
X88.66 Y-15.371
X88.211 Y-15.376
G2 X87.919 Y-15.051 I0.007 J0.3
G1 X87.944 Y-14.756
X88.155 Y-12.25 F300
X88.185 Y-11.898 F30
G2 X88.47 Y-11.623 I0.299 J-0.025
G1 X88.833 Y-11.619
X89.02 Y-11.626
X89.361 Y-11.783
X89.648 Y-12.024
X90.062 Y-12.649
X90.243 Y-13.377
X90.273 Y-14.126
X90.114 Y-14.86
X90.073 Y-14.913
X89.89 Y-15.101
X89.67 Y-15.243
X89.424 Y-15.333
X89.164 Y-15.365
X88.66 Y-15.371
G2 X88.367 Y-15.054 I0.007 J0.3
G1 X88.385 Y-14.751
X88.528 Y-12.246 F300
X88.547 Y-11.901 F30
G2 X88.833 Y-11.619 I0.3 J-0.017
G1 X89.18 Y-11.615
X89.368 Y-11.622
X89.727 Y-11.727
X90.298 Y-12.214
X90.593 Y-12.903
X90.716 Y-13.643
X90.679 Y-14.392
X90.574 Y-14.752
X90.422 Y-14.968
X90.243 Y-15.132
X90.034 Y-15.255
X89.804 Y-15.332
X89.563 Y-15.36
X89.164 Y-15.365
G2 X88.871 Y-15.063 I0.007 J0.3
G1 X88.874 Y-14.744
X88.892 Y-12.243 F300
X88.894 Y-11.912 F30
G2 X89.18 Y-11.615 I0.3 J-0.002
G1 X89.721 Y-11.608
X89.908 Y-11.616
X90.255 Y-11.759
X90.799 Y-12.275
X91.06 Y-12.978
X91.162 Y-13.721
X91.118 Y-14.47
X91.046 Y-14.641
X90.913 Y-14.876
X90.73 Y-15.075
X90.505 Y-15.226
X90.252 Y-15.321
X89.984 Y-15.356
X89.563 Y-15.36
G2 X89.27 Y-15.045 I0.007 J0.3
G1 X89.286 Y-14.74
X89.417 Y-12.236 F300
X89.435 Y-11.892 F30
G2 X89.721 Y-11.608 I0.3 J-0.016
G1 X90.09 Y-11.604
X90.464 Y-11.618
X90.792 Y-11.801
X91.293 Y-12.358
X91.527 Y-13.071
X91.609 Y-13.817
X91.55 Y-14.564
X91.454 Y-14.74
X91.314 Y-14.944
X91.134 Y-15.113
X90.922 Y-15.241
X90.688 Y-15.321
X90.442 Y-15.35
X89.984 Y-15.356
G2 X89.691 Y-15.045 I0.007 J0.3
G1 X89.702 Y-14.735
X89.792 Y-12.232 F300
X89.804 Y-11.893 F30
G2 X90.09 Y-11.604 I0.3 J-0.011
G1 X90.738 Y-11.596
X90.925 Y-11.604
X91.243 Y-11.803
X91.752 Y-12.353
X91.977 Y-13.069
X92.06 Y-13.814
X92.012 Y-14.563
X91.918 Y-14.736
X91.777 Y-14.939
X91.597 Y-15.108
X91.386 Y-15.236
X91.152 Y-15.316
X90.907 Y-15.345
X90.442 Y-15.35
G2 X90.151 Y-15.022 I0.007 J0.3
G1 X90.179 Y-14.73
X90.419 Y-12.223 F300
X90.453 Y-11.867 F30
G2 X90.738 Y-11.596 I0.299 J-0.029
G1 X91.18 Y-11.591
X91.368 Y-11.598
X91.688 Y-11.793
X92.208 Y-12.334
X92.427 Y-13.051
X92.512 Y-13.796
X92.477 Y-14.545
X92.385 Y-14.719
X92.245 Y-14.926
X92.064 Y-15.098
X91.851 Y-15.228
X91.616 Y-15.31
X91.368 Y-15.339
X90.907 Y-15.345
G2 X90.615 Y-15.018 I0.007 J0.3
G1 X90.641 Y-14.725
X90.864 Y-12.218 F300
X90.896 Y-11.864 F30
G2 X91.18 Y-11.591 I0.299 J-0.027
G1 X91.513 Y-11.587
X91.701 Y-11.594
X92.045 Y-11.744
X92.34 Y-11.975
X92.748 Y-12.604
X92.925 Y-13.333
X92.967 Y-14.082
X92.826 Y-14.819
X92.783 Y-14.874
X92.6 Y-15.065
X92.379 Y-15.209
X92.132 Y-15.3
X91.87 Y-15.333
X91.368 Y-15.339
G2 X91.075 Y-15.025 I0.007 J0.3
G1 X91.09 Y-14.719
X91.211 Y-12.215 F300
X91.228 Y-11.872 F30
G2 X91.513 Y-11.587 I0.3 J-0.014
G1 X91.902 Y-11.582
X92.09 Y-11.59
X92.447 Y-11.704
X93.008 Y-12.201
X93.289 Y-12.897
X93.409 Y-13.637
X93.375 Y-14.386
X93.261 Y-14.751
X93.119 Y-14.944
X92.941 Y-15.105
X92.734 Y-15.225
X92.506 Y-15.301
X92.268 Y-15.328
X91.87 Y-15.333
G2 X91.577 Y-15.029 I0.007 J0.3
G1 X91.581 Y-14.712
X91.612 Y-12.21 F300
X91.617 Y-11.878 F30
G2 X91.902 Y-11.582 I0.3 J-0.004
G1 X92.453 Y-11.576
X92.64 Y-11.583
X92.98 Y-11.741
X93.507 Y-12.274
X93.759 Y-12.981
X93.857 Y-13.724
X93.81 Y-14.473
X93.743 Y-14.625
X93.609 Y-14.855
X93.426 Y-15.049
X93.204 Y-15.196
X92.954 Y-15.289
X92.689 Y-15.323
X92.268 Y-15.328
G2 X91.976 Y-15.01 I0.007 J0.3
G1 X91.994 Y-14.708
X92.146 Y-12.203 F300
X92.168 Y-11.857 F30
G2 X92.453 Y-11.576 I0.299 J-0.018
G1 X92.833 Y-11.571
X93.021 Y-11.578
X93.368 Y-11.721
X93.661 Y-11.955
X94.081 Y-12.576
X94.268 Y-13.302
X94.303 Y-14.051
X94.152 Y-14.786
X94.105 Y-14.849
X93.922 Y-15.043
X93.7 Y-15.19
X93.45 Y-15.283
X93.185 Y-15.317
X92.689 Y-15.323
G2 X92.396 Y-15.009 I0.007 J0.3
G1 X92.411 Y-14.703
X92.532 Y-12.199 F300
X92.548 Y-11.856 F30
G2 X92.833 Y-11.571 I0.3 J-0.014
G1 X93.362 Y-11.564
X93.55 Y-11.572
X93.871 Y-11.765
X94.415 Y-12.281
X94.67 Y-12.986
X94.763 Y-13.731
X94.692 Y-14.477
X94.641 Y-14.598
X94.508 Y-14.834
X94.324 Y-15.032
X94.099 Y-15.183
X93.846 Y-15.278
X93.578 Y-15.312
X93.185 Y-15.317
G2 X92.893 Y-14.999 I0.007 J0.3
G1 X92.91 Y-14.697
X93.057 Y-12.192 F300
X93.077 Y-11.847 F30
G2 X93.362 Y-11.564 I0.299 J-0.018
G1 X93.695 Y-11.561
X94.07 Y-11.576
X94.392 Y-11.768
X94.894 Y-12.325
X95.128 Y-13.038
X95.207 Y-13.784
X95.14 Y-14.531
X95.046 Y-14.701
X94.906 Y-14.904
X94.725 Y-15.072
X94.514 Y-15.199
X94.28 Y-15.279
X94.035 Y-15.308
X93.578 Y-15.312
G2 X93.285 Y-15.001 I0.007 J0.3
G1 X93.297 Y-14.691
X93.395 Y-12.188 F300
X93.409 Y-11.849 F30
G2 X93.695 Y-11.561 I0.3 J-0.012
G1 X94.287 Y-11.555
X94.474 Y-11.562
X94.8 Y-11.748
X95.341 Y-12.267
X95.57 Y-12.982
X95.659 Y-13.726
X95.616 Y-14.475
X95.522 Y-14.662
X95.383 Y-14.876
X95.2 Y-15.054
X94.983 Y-15.189
X94.742 Y-15.273
X94.489 Y-15.303
X94.035 Y-15.308
G2 X93.743 Y-14.983 I0.007 J0.3
G1 X93.768 Y-14.687
X93.973 Y-12.181 F300
X94.002 Y-11.83 F30
G2 X94.287 Y-11.555 I0.299 J-0.024
G1 X94.635 Y-11.552
X95.009 Y-11.568
X95.329 Y-11.763
X95.819 Y-12.331
X96.034 Y-13.05
X96.11 Y-13.796
X96.057 Y-14.544
X95.959 Y-14.714
X95.817 Y-14.911
X95.637 Y-15.074
X95.427 Y-15.196
X95.197 Y-15.273
X94.955 Y-15.3
X94.489 Y-15.303
G2 X94.197 Y-14.989 I0.008 J0.3
G1 X94.212 Y-14.681
X94.331 Y-12.178 F300
X94.347 Y-11.837 F30
G2 X94.635 Y-11.552 I0.3 J-0.014
G1 X95.175 Y-11.548
X95.362 Y-11.556
X95.694 Y-11.731
X95.974 Y-11.981
X96.364 Y-12.621
X96.53 Y-13.353
X96.556 Y-14.102
X96.392 Y-14.834
X96.361 Y-14.872
X96.179 Y-15.049
X95.963 Y-15.183
X95.722 Y-15.267
X95.47 Y-15.296
X94.955 Y-15.3
G2 X94.664 Y-14.979 I0.008 J0.3
G1 X94.686 Y-14.678
X94.864 Y-12.174 F300
X94.888 Y-11.827 F30
G2 X95.175 Y-11.548 I0.299 J-0.021
G1 X95.544 Y-11.546
X95.731 Y-11.554
X96.08 Y-11.692
X96.625 Y-12.207
X96.897 Y-12.906
X97.006 Y-13.648
X96.957 Y-14.397
X96.929 Y-14.484
X96.806 Y-14.748
X96.621 Y-14.974
X96.385 Y-15.147
X96.115 Y-15.256
X95.825 Y-15.294
X95.47 Y-15.296
G2 X95.178 Y-14.989 I0.008 J0.3
G1 X95.186 Y-14.674
X95.248 Y-12.172 F300
X95.257 Y-11.838 F30
G2 X95.544 Y-11.546 I0.3 J-0.007
G1 X96.106 Y-11.542
X96.293 Y-11.55
X96.621 Y-11.733
X97.123 Y-12.29
X97.365 Y-13
X97.451 Y-13.745
X97.391 Y-14.492
X97.303 Y-14.662
X97.163 Y-14.872
X96.981 Y-15.048
X96.765 Y-15.18
X96.526 Y-15.262
X96.275 Y-15.291
X95.825 Y-15.294
G2 X95.535 Y-14.967 I0.009 J0.3
G1 X95.562 Y-14.672
X95.788 Y-12.167 F300
X95.82 Y-11.815 F30
G2 X96.106 Y-11.542 I0.299 J-0.027
G1 X96.469 Y-11.54
X96.656 Y-11.548
X96.994 Y-11.71
X97.279 Y-11.954
X97.688 Y-12.583
X97.866 Y-13.311
X97.891 Y-14.061
X97.729 Y-14.793
X97.688 Y-14.845
X97.505 Y-15.03
X97.285 Y-15.17
X97.039 Y-15.257
X96.78 Y-15.288
X96.275 Y-15.291
G2 X95.984 Y-14.972 I0.009 J0.3
G1 X96.003 Y-14.669
X96.16 Y-12.165 F300
X96.182 Y-11.821 F30
G2 X96.469 Y-11.54 I0.299 J-0.019
G1 X96.816 Y-11.538
X97.004 Y-11.546
X97.362 Y-11.657
X97.928 Y-12.149
X98.219 Y-12.841
X98.337 Y-13.581
X98.296 Y-14.33
X98.189 Y-14.689
X98.038 Y-14.899
X97.858 Y-15.061
X97.649 Y-15.183
X97.419 Y-15.259
X97.178 Y-15.285
X96.78 Y-15.288
G2 X96.489 Y-14.984 I0.009 J0.3
G1 X96.493 Y-14.665
X96.525 Y-12.164 F300
X96.529 Y-11.834 F30
G2 X96.816 Y-11.538 I0.3 J-0.004
G1 X97.357 Y-11.534
X97.544 Y-11.542
X97.888 Y-11.691
X98.427 Y-12.213
X98.685 Y-12.917
X98.783 Y-13.661
X98.735 Y-14.409
X98.663 Y-14.576
X98.529 Y-14.81
X98.345 Y-15.007
X98.12 Y-15.156
X97.866 Y-15.25
X97.598 Y-15.283
X97.178 Y-15.285
G2 X96.887 Y-14.968 I0.009 J0.3
G1 X96.905 Y-14.663
X97.05 Y-12.16 F300
X97.07 Y-11.817 F30
G2 X97.357 Y-11.534 I0.299 J-0.017
G1 X97.726 Y-11.532
X98.1 Y-11.549
X98.425 Y-11.735
X98.921 Y-12.298
X99.151 Y-13.012
X99.23 Y-13.758
X99.166 Y-14.505
X99.07 Y-14.678
X98.929 Y-14.88
X98.748 Y-15.048
X98.535 Y-15.174
X98.301 Y-15.253
X98.056 Y-15.28
X97.598 Y-15.283
G2 X97.307 Y-14.97 I0.009 J0.3
G1 X97.32 Y-14.66
X97.424 Y-12.158 F300
X97.438 Y-11.819 F30
G2 X97.726 Y-11.532 I0.3 J-0.012
G1 X98.374 Y-11.528
X98.561 Y-11.537
X98.877 Y-11.74
X99.38 Y-12.296
X99.602 Y-13.012
X99.68 Y-13.758
X99.629 Y-14.507
X99.534 Y-14.677
X99.392 Y-14.879
X99.211 Y-15.046
X98.999 Y-15.172
X98.765 Y-15.25
X98.52 Y-15.278
X98.056 Y-15.28
G2 X97.766 Y-14.95 I0.009 J0.3
G1 X97.796 Y-14.659
X98.052 Y-12.153 F300
X98.088 Y-11.798 F30
G2 X98.374 Y-11.528 I0.298 J-0.03
G1 X98.817 Y-11.526
X99.004 Y-11.534
X99.322 Y-11.733
X99.835 Y-12.28
X100.051 Y-12.998
X100.133 Y-13.743
X100.093 Y-14.492
X100.001 Y-14.664
X99.859 Y-14.869
X99.678 Y-15.04
X99.464 Y-15.168
X99.228 Y-15.247
X98.98 Y-15.275
X98.52 Y-15.278
G2 X98.231 Y-14.949 I0.009 J0.3
G1 X98.258 Y-14.656
X98.496 Y-12.15 F300
X98.53 Y-11.797 F30
G2 X98.817 Y-11.526 I0.299 J-0.028
G1 X99.149 Y-11.524
X99.337 Y-11.533
X99.679 Y-11.687
X99.971 Y-11.922
X100.375 Y-12.554
X100.548 Y-13.283
X100.586 Y-14.032
X100.44 Y-14.768
X100.398 Y-14.822
X100.214 Y-15.01
X99.992 Y-15.153
X99.744 Y-15.242
X99.482 Y-15.273
X98.98 Y-15.275
G2 X98.69 Y-14.959 I0.009 J0.3
G1 X98.706 Y-14.653
X98.843 Y-12.15 F300
X98.862 Y-11.808 F30
G2 X99.149 Y-11.524 I0.3 J-0.016
G1 X99.539 Y-11.522
X99.726 Y-11.531
X100.081 Y-11.65
X100.638 Y-12.153
X100.915 Y-12.85
X101.031 Y-13.591
X100.991 Y-14.34
X100.877 Y-14.702
X100.734 Y-14.894
X100.554 Y-15.052
X100.346 Y-15.171
X100.118 Y-15.245
X99.88 Y-15.271
X99.482 Y-15.273
G2 X99.191 Y-14.967 I0.009 J0.3
G1 X99.197 Y-14.65
X99.244 Y-12.148 F300
X99.251 Y-11.816 F30
G2 X99.539 Y-11.522 I0.3 J-0.006
G1 X100.089 Y-11.52
X100.276 Y-11.528
X100.614 Y-11.69
X101.137 Y-12.228
X101.384 Y-12.937
X101.477 Y-13.681
X101.426 Y-14.429
X101.359 Y-14.579
X101.223 Y-14.808
X101.039 Y-15.001
X100.815 Y-15.146
X100.565 Y-15.237
X100.3 Y-15.269
X99.88 Y-15.271
G2 X99.59 Y-14.951 I0.009 J0.3
G1 X99.61 Y-14.648
X99.778 Y-12.145 F300
X99.801 Y-11.799 F30
G2 X100.089 Y-11.52 I0.299 J-0.02
G1 X100.47 Y-11.518
X100.657 Y-11.526
X101.002 Y-11.673
X101.293 Y-11.91
X101.709 Y-12.534
X101.891 Y-13.261
X101.922 Y-14.011
X101.766 Y-14.744
X101.718 Y-14.807
X101.534 Y-14.999
X101.311 Y-15.144
X101.06 Y-15.235
X100.796 Y-15.267
X100.3 Y-15.269
G2 X100.009 Y-14.953 I0.009 J0.3
G1 X100.026 Y-14.646
X100.163 Y-12.143 F300
X100.182 Y-11.801 F30
G2 X100.47 Y-11.518 I0.3 J-0.016
G1 X100.998 Y-11.516
X101.186 Y-11.524
X101.505 Y-11.721
X102.045 Y-12.241
X102.296 Y-12.948
X102.384 Y-13.693
X102.308 Y-14.439
X102.257 Y-14.558
X102.122 Y-14.792
X101.937 Y-14.989
X101.712 Y-15.139
X101.458 Y-15.232
X101.19 Y-15.265
X100.796 Y-15.267
G2 X100.505 Y-14.947 I0.009 J0.3
G1 X100.525 Y-14.644
X100.688 Y-12.141 F300
X100.711 Y-11.796 F30
G2 X100.998 Y-11.516 I0.299 J-0.02
G1 X101.331 Y-11.514
X101.706 Y-11.531
X102.026 Y-11.727
X102.523 Y-12.288
X102.753 Y-13.002
X102.827 Y-13.748
X102.755 Y-14.495
X102.661 Y-14.663
X102.52 Y-14.865
X102.338 Y-15.032
X102.126 Y-15.157
X101.893 Y-15.235
X101.648 Y-15.262
X101.19 Y-15.265
G2 X100.899 Y-14.951 I0.009 J0.3
G1 X100.913 Y-14.642
X101.028 Y-12.139 F300
X101.043 Y-11.8 F30
G2 X101.331 Y-11.514 I0.3 J-0.014
G1 X101.923 Y-11.511
X102.111 Y-11.52
X102.434 Y-11.709
X102.971 Y-12.233
X103.196 Y-12.948
X103.28 Y-13.694
X103.232 Y-14.442
X103.138 Y-14.627
X102.998 Y-14.838
X102.815 Y-15.015
X102.599 Y-15.148
X102.359 Y-15.231
X102.107 Y-15.26
X101.648 Y-15.262
G2 X101.358 Y-14.936 I0.009 J0.3
G1 X101.384 Y-14.641
X101.605 Y-12.136 F300
X101.636 Y-11.784 F30
G2 X101.923 Y-11.511 I0.299 J-0.026
G1 X102.271 Y-11.509
X102.645 Y-11.526
X102.963 Y-11.725
X103.447 Y-12.298
X103.658 Y-13.017
X103.73 Y-13.764
X103.673 Y-14.512
X103.576 Y-14.678
X103.433 Y-14.873
X103.254 Y-15.035
X103.045 Y-15.156
X102.815 Y-15.231
X102.575 Y-15.257
X102.107 Y-15.26
G2 X101.816 Y-14.944 I0.009 J0.3
G1 X101.832 Y-14.638
X101.965 Y-12.135 F300
X101.983 Y-11.793 F30
G2 X102.271 Y-11.509 I0.3 J-0.016
G1 X102.811 Y-11.506
X102.999 Y-11.514
X103.328 Y-11.693
X103.604 Y-11.947
X103.991 Y-12.59
X104.153 Y-13.322
X104.175 Y-14.071
X104.008 Y-14.803
X103.979 Y-14.837
X103.797 Y-15.012
X103.581 Y-15.143
X103.343 Y-15.225
X103.092 Y-15.254
X102.575 Y-15.257
G2 X102.285 Y-14.935 I0.009 J0.3
G1 X102.307 Y-14.636
X102.498 Y-12.131 F300
X102.524 Y-11.783 F30
G2 X102.811 Y-11.506 I0.299 J-0.023
G1 X103.18 Y-11.503
X103.367 Y-11.511
X103.713 Y-11.656
X104.254 Y-12.176
X104.522 Y-12.877
X104.627 Y-13.619
X104.574 Y-14.367
X104.548 Y-14.446
X104.425 Y-14.709
X104.24 Y-14.933
X104.006 Y-15.105
X103.736 Y-15.213
X103.448 Y-15.252
X103.092 Y-15.254
G2 X102.801 Y-14.945 I0.009 J0.3
G1 X102.81 Y-14.632
X102.883 Y-12.13 F300
X102.893 Y-11.794 F30
G2 X103.18 Y-11.503 I0.3 J-0.009
G1 X103.742 Y-11.499
X103.929 Y-11.507
X104.253 Y-11.696
X104.75 Y-12.258
X104.989 Y-12.969
X105.072 Y-13.714
X105.009 Y-14.462
X104.923 Y-14.625
X104.782 Y-14.833
X104.601 Y-15.007
X104.386 Y-15.137
X104.149 Y-15.219
X103.899 Y-15.248
X103.448 Y-15.252
G2 X103.158 Y-14.923 I0.008 J0.3
G1 X103.185 Y-14.631
X103.423 Y-12.124 F300
X103.456 Y-11.771 F30
G2 X103.742 Y-11.499 I0.299 J-0.028
G1 X104.105 Y-11.496
X104.292 Y-11.504
X104.627 Y-11.673
X104.909 Y-11.921
X105.314 Y-12.552
X105.488 Y-13.281
X105.511 Y-14.031
X105.346 Y-14.763
X105.309 Y-14.809
X105.126 Y-14.99
X104.908 Y-15.128
X104.665 Y-15.213
X104.409 Y-15.244
X103.899 Y-15.248
G2 X103.608 Y-14.928 I0.008 J0.3
G1 X103.628 Y-14.627
X103.795 Y-12.122 F300
X103.818 Y-11.776 F30
G2 X104.105 Y-11.496 I0.299 J-0.02
G1 X104.452 Y-11.494
X104.64 Y-11.501
X104.995 Y-11.622
X105.556 Y-12.119
X105.843 Y-12.812
X105.959 Y-13.553
X105.915 Y-14.302
X105.802 Y-14.666
X105.66 Y-14.859
X105.481 Y-15.019
X105.273 Y-15.139
X105.045 Y-15.214
X104.807 Y-15.241
X104.409 Y-15.244
G2 X104.117 Y-14.94 I0.008 J0.3
G1 X104.122 Y-14.622
X104.16 Y-12.12 F300
X104.165 Y-11.789 F30
G2 X104.452 Y-11.494 I0.3 J-0.005
G1 X104.993 Y-11.489
X105.18 Y-11.497
X105.521 Y-11.654
X106.053 Y-12.182
X106.309 Y-12.887
X106.404 Y-13.631
X106.354 Y-14.379
X106.286 Y-14.535
X106.152 Y-14.768
X105.968 Y-14.963
X105.744 Y-15.111
X105.492 Y-15.204
X105.226 Y-15.237
X104.807 Y-15.241
G2 X104.515 Y-14.923 I0.008 J0.3
G1 X104.534 Y-14.619
X104.686 Y-12.115 F300
X104.707 Y-11.771 F30
G2 X104.993 Y-11.489 I0.299 J-0.018
G1 X105.362 Y-11.486
X105.736 Y-11.501
X106.057 Y-11.696
X106.546 Y-12.265
X106.774 Y-12.98
X106.851 Y-13.726
X106.786 Y-14.473
X106.693 Y-14.638
X106.552 Y-14.838
X106.372 Y-15.003
X106.161 Y-15.128
X105.929 Y-15.206
X105.686 Y-15.233
X105.226 Y-15.237
G2 X104.934 Y-14.924 I0.008 J0.3
G1 X104.948 Y-14.616
X105.06 Y-12.113 F300
X105.075 Y-11.772 F30
G2 X105.362 Y-11.486 I0.3 J-0.013
G1 X105.818 Y-11.482
X106.006 Y-11.49
X106.354 Y-11.629
X106.65 Y-11.859
X107.072 Y-12.479
X107.257 Y-13.206
X107.293 Y-13.955
X107.161 Y-14.693
X107.111 Y-14.761
X106.927 Y-14.955
X106.703 Y-15.103
X106.452 Y-15.196
X106.186 Y-15.229
X105.686 Y-15.233
G2 X105.395 Y-14.92 I0.008 J0.3
G1 X105.408 Y-14.612
X105.517 Y-12.109 F300
X105.532 Y-11.769 F30
G2 X105.818 Y-11.482 I0.3 J-0.013
G1 X106.254 Y-11.478
X106.441 Y-11.486
X106.792 Y-11.619
X107.355 Y-12.113
X107.632 Y-12.81
X107.742 Y-13.552
X107.701 Y-14.301
X107.579 Y-14.664
X107.394 Y-14.895
X107.158 Y-15.073
X106.885 Y-15.185
X106.592 Y-15.225
X106.186 Y-15.229
G2 X105.894 Y-14.922 I0.008 J0.3
G1 X105.901 Y-14.607
X105.959 Y-12.105 F300
X105.967 Y-11.771 F30
G2 X106.254 Y-11.478 I0.3 J-0.007
G1 X106.785 Y-11.474
X106.973 Y-11.481
X107.313 Y-11.639
X107.846 Y-12.167
X108.095 Y-12.874
X108.189 Y-13.618
X108.142 Y-14.367
X108.066 Y-14.535
X107.931 Y-14.762
X107.747 Y-14.953
X107.525 Y-15.098
X107.276 Y-15.189
X107.013 Y-15.222
X106.592 Y-15.225
G2 X106.3 Y-14.907 I0.008 J0.3
G1 X106.319 Y-14.604
X106.477 Y-12.1 F300
X106.499 Y-11.754 F30
G2 X106.785 Y-11.474 I0.299 J-0.019
G1 X107.175 Y-11.47
X107.391 Y-11.479
X107.734 Y-11.631
X108.019 Y-11.874
X108.431 Y-12.501
X108.609 Y-13.23
X108.636 Y-13.979
X108.567 Y-14.28
X108.467 Y-14.554
X108.301 Y-14.795
X108.081 Y-14.987
X107.821 Y-15.118
G2 X107.435 Y-14.885 I-0.091 J0.286
G1 X107.387 Y-14.614
X106.94 Y-12.093 F300
X106.892 Y-11.822 F30
G2 X107.175 Y-11.47 I0.295 J0.052
G1 X107.544 Y-11.467
X107.876 Y-11.577
X108.226 Y-11.713
X108.775 Y-12.224
X109.018 Y-12.934
X109.101 Y-13.679
X109.041 Y-14.083
X108.988 Y-14.298
X108.894 Y-14.5
X108.765 Y-14.68
G2 X108.258 Y-14.558 I-0.219 J0.205
G1 X108.215 Y-14.41
X107.544 Y-12.087 F300
X107.504 Y-11.948 F30
G2 X107.876 Y-11.577 I0.288 J0.083
G1 X108.527 Y-11.793
X108.634 Y-11.829
X108.823 Y-12.007
X109.219 Y-12.756
X109.235 Y-12.79
X109.314 Y-13.019
X109.345 Y-13.26
X109.324 Y-13.502
G2 X108.745 Y-13.524 I-0.293 J0.066
G1 X108.734 Y-13.476 F300
X108.662 Y-12.946
X108.66 Y-12.926
X108.659 Y-12.905
G2 X109.219 Y-12.756 I0.3 J0 F30
G1 X109.401 Y-13.099
X109.193 Y-14.19
X108.634 Y-14.829
X107.544 Y-15.217
X107.013 Y-15.222
X107.015 Y-15.409
X106.309 Y-15.663
G2 X91.526 Y-15.798 I-11.398 J435.935
G1 X82.446 Y-15.946
X73.366 Y-16.08
X64.286 Y-16.199
X59.775 Y-16.299
X55.263 Y-16.39
G2 X32.809 Y-16.741 I-24.724 J863.825
G1 X25.18 Y-16.925
X17.551 Y-17.095
X9.921 Y-17.25
X7.519 Y-17.307
X5.116 Y-17.289
X3.19 Y-17.366
X0.788 Y-17.357
X0.503 Y-17.453 F27
X0.244 Y-17.606 F30
X-0.211 Y-17.997
X-0.528 Y-18.507
X-0.924 Y-19.642
G3 X-0.938 Y-28.648 I251.23 J-4.896
X-0.927 Y-29.248 I251.244 J4.11 F27
G1 X-0.786 Y-29.523
X-0.447 Y-30.019 F30
X0.036 Y-30.376
X0.591 Y-30.606
X1.763 Y-30.873
X9.271 Y-30.885
X16.78 Y-30.888
X24.288 Y-30.882
X31.796 Y-30.866
X35.958 Y-30.858
X40.119 Y-30.857
X44.28 Y-30.863
X44.309 Y-30.948
X44.283 Y-31.017
X44.216 Y-31.048
X44.176 Y-31.03 Z-9.986
X44.138 Y-31.012 Z-9.974
X44.126 Y-30.979 Z-9.958
X44.114 Y-30.948 Z-9.936
X44.129 Y-30.916 Z-9.902
X44.141 Y-30.89 Z-9.862
X44.15 Y-30.872 Z-9.818
X44.16 Y-30.865 Z-9.774
X44.163 Y-30.862 Z-9.728
G0 Z2.21
X-3.322 Y2.173
Z-9.39
G1 Z-9.69 F30
X-3.315 Y2.177 Z-9.757
X-3.296 Y2.188 Z-9.82
X-3.265 Y2.206 Z-9.877
X-3.224 Y2.23 Z-9.925
X-3.175 Y2.259 Z-9.96
X-3.12 Y2.29 Z-9.982
X-3.062 Y2.324 Z-9.99
G2 X-1.475 Y2.774 I1.672 J-2.874
G1 X-1.265 Y2.772
X-1.078 Y2.76
X-0.979 Y2.017
X-0.967 Y-2.124
X-0.949 Y-6.265
X-0.924 Y-10.405
X-0.919 Y-11.005 F27
X-0.775 Y-11.281
X-0.434 Y-11.775 F30
X0.052 Y-12.129
X0.609 Y-12.353
X1.783 Y-12.608
X6.462 Y-12.545
X11.14 Y-12.47
X15.818 Y-12.383
X20.496 Y-12.284
X25.174 Y-12.173
X29.851 Y-12.05
X32.254 Y-12.022
X34.656 Y-11.977
X39.594 Y-11.925
X44.531 Y-11.861
X49.468 Y-11.785
X54.405 Y-11.697
X59.342 Y-11.597
X64.278 Y-11.486
X69.214 Y-11.362
G3 X84.668 Y-11.179 I-3.782 J972.205
G1 X88.458 Y-11.116
X92.249 Y-11.067
X96.041 Y-11.031
X99.832 Y-11.008
X103.623 Y-10.998
X107.414 Y-11.002
X108.142 Y-11.165
X108.841 Y-11.437
X109.326 Y-12.009
X109.71 Y-12.653
X109.788 Y-13.399
X109.683 Y-14.142
X109.284 Y-14.777
X108.713 Y-15.262
G2 X105.76 Y-16.195 I-4.265 J8.367
G1 X104.144 Y-16.265
X102.057 Y-16.284
X99.655 Y-16.202
G2 X90.061 Y-16.327 I-9.696 J374.816
G1 X88.42 Y-16.388
X86.018 Y-16.34
G2 X71.855 Y-16.603 I-14.319 J388.632
G3 X58.335 Y-16.847 I6.35 J-728.307
G1 X56.806 Y-16.905
X54.403 Y-16.874
G2 X40.631 Y-17.127 I-12.392 J299.724
G1 X39.884 Y-17.179
X37.482 Y-17.231
X35.079 Y-17.224
X27.082 Y-17.397
X19.084 Y-17.56
X11.086 Y-17.712
X3.088 Y-17.853
X1.887 Y-17.864
X1.292 Y-17.95
X0.76 Y-18.228
X0.324 Y-18.641
X0 Y-19.147
X-0.414 Y-20.275
X-0.531 Y-22.675
X-0.477 Y-23.423
X-0.431 Y-25.826
X-0.485 Y-28.228
X-0.331 Y-28.808
X0.001 Y-29.309
X0.458 Y-29.699
X0.983 Y-29.992
X2.128 Y-30.354
X4.53 Y-30.411
X17.443 Y-30.393
X30.356 Y-30.386
X43.268 Y-30.389
X43.397 Y-30.491
X43.471 Y-30.639
X43.474 Y-30.803
X43.408 Y-30.954
X43.283 Y-31.061
X43.124 Y-31.106
G2 X42.964 Y-30.549 I-0.005 J0.3
G1 X43.022 Y-30.514 Z-9.982
X43.076 Y-30.482 Z-9.96
X43.125 Y-30.452 Z-9.925
X43.165 Y-30.428 Z-9.877
X43.196 Y-30.409 Z-9.82
X43.215 Y-30.398 Z-9.757
X43.222 Y-30.394 Z-9.69
G0 Z2.21
X-2.28 Y2.407
Z-9.39
G1 Z-9.69 F30
X-2.274 Y2.411 Z-9.757
X-2.255 Y2.422 Z-9.82
X-2.224 Y2.44 Z-9.877
X-2.183 Y2.464 Z-9.925
X-2.133 Y2.492 Z-9.96
X-2.079 Y2.524 Z-9.982
X-2.021 Y2.558 Z-9.99
G2 X-1.265 Y2.772 I0.796 J-1.368
G1 X-0.929 Y2.768
X-0.742 Y2.757
X-0.538 Y2.035
X-0.47 Y1.288
X-0.441 Y-2.517
X-0.424 Y-6.323
X-0.421 Y-10.129
X-0.221 Y-10.696
X0.149 Y-11.168
X0.629 Y-11.53
X1.172 Y-11.788
X2.334 Y-12.091
X7.82 Y-12.016
X13.306 Y-11.927
X18.792 Y-11.825
X24.277 Y-11.709
X29.762 Y-11.579
X35.247 Y-11.436
X37.65 Y-11.499
G2 X52.227 Y-11.301 I15.625 J-615.782
X62.043 Y-11.048 I12.771 J-304.369
G1 X66.584 Y-10.95
X71.125 Y-10.867
X75.667 Y-10.797
X80.208 Y-10.741
X84.75 Y-10.698
X87.153 Y-10.659
X89.536 Y-10.584
X93.808 Y-10.555
X98.081 Y-10.534
X102.354 Y-10.523
X106.627 Y-10.52
X107.376 Y-10.524
G2 X110.144 Y-14.168 I-0.05 J-2.911
X107.967 Y-16.077 I-2.984 J1.207
X104.762 Y-16.732 I-3.097 J6.995
G1 X103.046 Y-16.791
X101.124 Y-16.773
X98.725 Y-16.647
X97.982 Y-16.753
X96.93 Y-16.779
X94.528 Y-16.732
G2 X82.056 Y-16.955 I-21.708 J862.439
G1 X73.85 Y-17.062
X65.644 Y-17.153
X61.173 Y-17.274
X56.702 Y-17.382
X52.231 Y-17.478
X47.759 Y-17.562
X43.288 Y-17.633
X38.816 Y-17.692
X34.344 Y-17.739
X29.871 Y-17.773
X25.655 Y-17.898
X21.438 Y-18.008
X17.221 Y-18.105
X13.004 Y-18.186
X8.786 Y-18.253
X4.569 Y-18.306
X2.166 Y-18.36
X1.6 Y-18.56
X1.112 Y-18.91
X0.718 Y-19.364
X0.431 Y-19.891
X0.063 Y-21.035
X-0.081 Y-23.434
X0.007 Y-24.178
X0.055 Y-25.186
X0.064 Y-27.589
X0.204 Y-28.173
X0.511 Y-28.69
X0.944 Y-29.106
X1.451 Y-29.428
X2.58 Y-29.839
X4.98 Y-29.95
G2 X10.357 Y-29.915 I3.001 J-48.106
G1 X12.612 Y-29.846
X16.055 Y-29.864
X19.498 Y-29.874
X22.94
X26.383 Y-29.866
G2 X36.298 Y-29.879 I4.016 J-721.773
G1 X37.25 Y-29.845
X39.653 Y-29.866
X42.805 Y-29.854
X43.24 Y-29.967
X43.425 Y-30.052
X43.569 Y-30.197
X43.654 Y-30.382
X43.67 Y-30.586
X43.614 Y-30.782
X43.493 Y-30.947
X43.323 Y-31.059
X43.124 Y-31.106
X42.339 Y-31.133
X9.278 Y-32.261 F300
X4.911 Y-32.231
X1.531 Y-31.825
G2 X0.226 Y-31.281 I0.27 J2.485
G1 X-1.55 Y-29.649
G2 X-2.168 Y-28.017 I1.882 J1.646
G1 X-2.462 Y1.36
G2 X-1.677 Y2.558 I1.573 J-0.174
X-0.929 Y2.768 I0.788 J-1.372 F30
G1 X-0.719 Y2.766
X-0.532 Y2.755
X-0.114 Y2.132
G2 X0.009 Y-3.314 I-26.752 J-3.328
G1 X0.059 Y-4.317
X0.064 Y-6.72
X0.018 Y-9.122
X0.117 Y-9.715
G3 X1.822 Y-11.287 I2.398 J0.892
G1 X2.986 Y-11.584
G3 X27.768 Y-11.062 I-3.798 J769.443
G2 X37.378 Y-10.946 I12.293 J-621.218
G3 X48.61 Y-10.808 I0.549 J411.968
G1 X49.995 Y-10.761
X52.397 Y-10.811
X53.165 Y-10.739
G2 X61.976 Y-10.609 I7.909 J-237.324
X73.825 Y-10.349 I10.107 J-190.079
G1 X76.227 Y-10.285
X78.629 Y-10.327
G2 X84.424 Y-10.226 I4.192 J-74.708
G1 X86.827 Y-10.122
X89.23 Y-10.145
G2 X101.865 Y-10.051 I8.791 J-334.08
X108.484 Y-10.261 I2.411 J-28.517
X110.081 Y-15.226 I-1.096 J-3.092
X106.079 Y-17.1 I-4.764 J4.962
X98.04 Y-17.087 I-3.955 J38.614
G1 X97.302 Y-17.225
G2 X89.766 Y-17.277 I-5.244 J212.338
G1 X89.02 Y-17.343
X86.618 Y-17.408
X84.215 Y-17.403
G3 X77.207 Y-17.564 I2.531 J-263.182
X70.24 Y-17.659 I-2.58 J-66.137
X61.904 Y-17.78 I-2.199 J-136.152
G1 X57.543 Y-17.877
X53.181 Y-17.961
X48.818 Y-18.034
X44.456 Y-18.095
X43.675 Y-18.137
X41.272 Y-18.18
X38.87 Y-18.131
X38.054 Y-18.194
X36.183 Y-18.256
X33.78 Y-18.231
X27.774 Y-18.377
X21.769 Y-18.511
X15.763 Y-18.631
X9.756 Y-18.739
G2 X2.686 Y-18.849 I-10.912 J473.409
G3 X0.951 Y-20.393 I0.681 J-2.511
G1 X0.549 Y-21.525
X0.373 Y-23.921
G2 X0.611 Y-27.347 I-26.122 J-3.533
G3 X2.242 Y-29.021 I2.559 J0.862
G1 X3.392 Y-29.366
X5.792 Y-29.498
X6.536 Y-29.406
X7.285 Y-29.378
X9.688 Y-29.392
X12.091 Y-29.372
X13.461 Y-29.355
X15.863 Y-29.43
X16.612 Y-29.385
X17.794 Y-29.367
X20.196 Y-29.435
G2 X31.821 Y-29.406 I6.445 J-252.517
X42.77 Y-29.374 I6.675 J-417.752
G1 X43.492 Y-29.586
X43.61 Y-29.687
X43.766 Y-29.869
X43.862 Y-30.088
X43.889 Y-30.325
X43.846 Y-30.561
X43.736 Y-30.773
X43.569 Y-30.944
X43.359 Y-31.058
X43.124 Y-31.106
X42.339 Y-31.118
X4.365 Y-31.7 F300
G2 X3.273 Y-31.546 I-0.205 J2.492
G1 X0.544 Y-30.436
G2 X-1.209 Y-28.561 I0.691 J2.402
G1 X-1.934 Y-24.753
X-2.252 Y1.36
G2 X-1.468 Y2.556 I1.573 J-0.176
X-0.719 Y2.766 I0.788 J-1.372 F30
G1 X-0.383 Y2.763
X-0.196 Y2.752
X0.063 Y2.481
X0.375 Y1.798
G2 X0.503 Y-3.502 I-24.629 J-3.246
X0.534 Y-8.728 I-64.863 J-3.007
G1 X0.691 Y-9.311
X0.991 Y-9.832
X1.416 Y-10.256
X1.922 Y-10.58
X3.031 Y-11.042
X5.431 Y-11.158
G2 X14.985 Y-10.946 I8.447 J-165.67
X38.244 Y-10.466 I28.919 J-836.671
G3 X50.108 Y-10.259 I-4.951 J625.232
G1 X52.51 Y-10.318
X53.629 Y-10.214
G2 X61.89 Y-10.106 I8.204 J-309.336
X67.953 Y-9.941 I4.562 J-56.141
X78.384 Y-9.821 I10.198 J-433.186
G1 X80.368 Y-9.725
X82.355 Y-9.715
X84.757 Y-9.808
G2 X90.399 Y-9.681 I3.439 J-27.39
X107.619 Y-9.577 I10.496 J-312.035
X111.143 Y-13.754 I-0.455 J-3.959
X108.298 Y-16.95 I-4.014 J0.708
X102.632 Y-17.773 I-4.709 J12.502
G1 X100.887 Y-17.775
X98.488 Y-17.638
G2 X88.683 Y-17.803 I-8.562 J218.38
G1 X86.917 Y-17.909
X84.514 Y-17.903
X82.573 Y-17.969
X80.171 Y-17.948
G2 X73.863 Y-17.924 I-3.017 J37.039
X66.426 Y-18.09 I-4.67 J42.717
G1 X64.702 Y-18.218
X58.523 Y-18.35
X52.344 Y-18.47
X46.164 Y-18.578
X39.984 Y-18.674
X33.805 Y-18.758
X30.335 Y-18.806
X26.865 Y-18.866
X23.396 Y-18.937
X19.927 Y-19.02
X16.458 Y-19.114
X3.606 Y-19.311
G3 X1.37 Y-21.078 I0.299 J-2.675
G1 X1.007 Y-22.223
X0.814 Y-24.618
X0.986 Y-25.348
X1.065 Y-26.547
G3 X2.485 Y-28.376 I2.462 J0.446
G1 X3.591 Y-28.846
X5.986 Y-29.042
X6.728 Y-28.933
X7.614 Y-28.891
X10.017 Y-28.882
X12.42 Y-28.878
X16.594 Y-28.889
X20.767 Y-28.888
X24.941 Y-28.875
X29.114 Y-28.85
X31.515 Y-28.955
X32.261 Y-28.883
G2 X42.731 Y-28.887 I5.063 J-455.746
G1 X43.461 Y-29.082
X44.061 Y-29.533
X44.27 Y-29.824
X44.38 Y-30.039
X44.42 Y-30.277
X44.386 Y-30.516
X44.282 Y-30.733
X44.117 Y-30.909
X43.906 Y-31.028
X43.67 Y-31.077
X42.885 Y-31.08
X4.365 Y-31.211 F300
X2.092 Y-30.737
X1.133 Y-30.193
X0.333 Y-29.649
X-0.548 Y-28.606
G2 X-1.033 Y-27.473 I1.984 J1.52
G1 X-1.498 Y-24.753
X-1.915 Y1.36
G2 X-1.131 Y2.553 I1.572 J-0.179
X-0.383 Y2.763 I0.788 J-1.372 F30
G1 X-0.173 Y2.761
X0.014 Y2.75
X0.323 Y2.538
X0.784 Y1.946
G2 X0.944 Y-4.633 I-23.542 J-3.864
X1.057 Y-8.247 I-25.153 J-2.601
G3 X2.47 Y-10.097 I2.564 J0.494
G1 X3.586 Y-10.542
X5.982 Y-10.713
G2 X12.139 Y-10.528 I3.961 J-29.168
G1 X16.542 Y-10.389
X20.945 Y-10.265
X25.349 Y-10.156
X29.753 Y-10.062
X34.157 Y-9.983
X36.56 Y-9.973
X38.962 Y-9.991
G2 X52.969 Y-9.808 I13.066 J-464.122
X62.653 Y-9.63 I6.637 J-97.266
X70.362 Y-9.392 I5.999 J-69.497
X78.513 Y-9.314 I7.501 J-357.331
G1 X80.352 Y-9.225
X82.362 Y-9.215
X84.763 Y-9.308
G2 X90.234 Y-9.167 I3.508 J-29.877
X106.615 Y-9.037 I12.734 J-573.268
