(prop0part1)
(T1  D=3 CR=0 - ZMIN=-9.99 - flat end mill)
G90 G94
G17
G21
G28 G91 Z0
G90

(Adaptive1)
T1
S18000 M3
G54
G0 X33.176 Y12.743
Z3.01
Z-9.39
G1 Z-9.69 F100
X33.169 Y12.739 Z-9.757
X33.15 Y12.728 Z-9.82
X33.12 Y12.709 Z-9.877
X33.08 Y12.683 Z-9.925
X33.032 Y12.653 Z-9.96
X32.978 Y12.62 Z-9.982
X32.921 Y12.584 Z-9.99
G2 X31.35 Y12.082 I-1.765 J2.817
G1 X31.161 Y12.078
X30.974 Y12.083
G2 X30.873 Y15.181 I8.026 J1.812
G1 X31.034 Y15.397
X31.214 Y15.582
X31.43 Y15.723
X31.672 Y15.812
X31.928 Y15.847
G2 X32.216 Y15.475 I-0.003 J-0.3
G1 X32.157 Y15.237
X31.532 Y12.698 F1200
X31.435 Y12.306 F100
G2 X31.161 Y12.078 I-0.291 J0.072
G1 X30.826 Y12.07
X30.638 Y12.075
G2 X30.506 Y15.295 I4.324 J1.791
G1 X30.687 Y15.516
X30.917 Y15.686
X31.18 Y15.794
X31.463 Y15.836
G2 X31.753 Y15.476 I-0.003 J-0.3
G1 X31.702 Y15.224
X31.181 Y12.694 F1200
X31.102 Y12.309 F100
G2 X30.826 Y12.07 I-0.294 J0.06
G1 X30.445 Y12.061
X30.258 Y12.066
X29.969 Y12.758
X29.861 Y13.501
X29.836 Y14.25
X29.904 Y14.997
X29.995 Y15.18
X30.132 Y15.392
X30.311 Y15.57
X30.524 Y15.706
X30.762 Y15.792
X31.012 Y15.826
G2 X31.304 Y15.471 I-0.003 J-0.3
G1 X31.256 Y15.213
X30.792 Y12.686 F1200
X30.723 Y12.307 F100
G2 X30.445 Y12.061 I-0.295 J0.054
G1 X30.082 Y12.053
X29.895 Y12.058
X29.536 Y12.716
X29.405 Y13.455
X29.371 Y14.204
X29.427 Y14.952
X29.527 Y15.158
X29.663 Y15.374
X29.842 Y15.555
X30.057 Y15.693
X30.297 Y15.781
X30.549 Y15.815
G2 X30.843 Y15.47 I-0.003 J-0.3
G1 X30.802 Y15.2
X30.418 Y12.68 F1200
X30.361 Y12.307 F100
G2 X30.082 Y12.053 I-0.297 J0.045
G1 X29.735 Y12.045
X29.547 Y12.05
X29.103 Y12.654
X28.952 Y13.389
X28.905 Y14.137
X28.948 Y14.886
X29.052 Y15.117
X29.186 Y15.342
X29.366 Y15.532
X29.584 Y15.676
X29.829 Y15.769
X30.089 Y15.804
G2 X30.383 Y15.469 I-0.003 J-0.3
G1 X30.35 Y15.188
X30.058 Y12.673 F1200
X30.015 Y12.31 F100
G2 X29.735 Y12.045 I-0.298 J0.035
G1 X29.354 Y12.036
X29.167 Y12.041
X28.662 Y12.596
X28.5 Y13.328
X28.442 Y14.076
X28.473 Y14.825
X28.581 Y15.082
X28.713 Y15.314
X28.894 Y15.51
X29.115 Y15.661
X29.364 Y15.757
X29.629 Y15.793
X30.089 Y15.804
G2 X30.377 Y15.435 I-0.003 J-0.3
G1 X30.32 Y15.194
X29.721 Y12.657 F1200
X29.629 Y12.266 F100
G2 X29.354 Y12.036 I-0.292 J0.069
G1 X28.991 Y12.027
X28.804 Y12.032
X28.512 Y12.268
X28.143 Y12.921
X28.006 Y13.658
X27.98 Y14.408
X28.124 Y15.144
X28.192 Y15.249
X28.373 Y15.466
X28.602 Y15.634
X28.864 Y15.741
X29.145 Y15.782
X29.629 Y15.793
G2 X29.919 Y15.433 I-0.003 J-0.3
G1 X29.867 Y15.181
X29.347 Y12.651 F1200
X29.268 Y12.266 F100
G2 X28.991 Y12.027 I-0.294 J0.06
G1 X28.644 Y12.019
X28.456 Y12.024
X28.168 Y12.264
X27.71 Y12.858
X27.556 Y13.592
X27.518 Y14.341
X27.628 Y15.083
X27.699 Y15.202
X27.88 Y15.433
X28.114 Y15.612
X28.384 Y15.727
X28.674 Y15.771
X29.145 Y15.782
G2 X29.437 Y15.434 I-0.003 J-0.3
G1 X29.394 Y15.168
X28.984 Y12.646 F1200
X28.922 Y12.271 F100
G2 X28.644 Y12.019 I-0.296 J0.048
G1 X28.263 Y12.01
X28.076 Y12.015
X27.772 Y12.235
X27.271 Y12.794
X27.107 Y13.525
X27.059 Y14.274
X27.14 Y15.02
X27.218 Y15.16
X27.357 Y15.359
X27.534 Y15.524
X27.742 Y15.65
X27.97 Y15.729
X28.211 Y15.76
X28.674 Y15.771
G2 X28.968 Y15.431 I-0.003 J-0.3
G1 X28.931 Y15.156
X28.593 Y12.638 F1200
X28.543 Y12.27 F100
G2 X28.263 Y12.01 I-0.297 J0.04
G1 X27.9 Y12.002
X27.713 Y12.007
X27.387 Y12.192
X27.111 Y12.446
X26.753 Y13.105
X26.621 Y13.844
X26.624 Y14.594
X26.806 Y15.321
X26.826 Y15.344
X27.003 Y15.51
X27.211 Y15.637
X27.44 Y15.717
X27.682 Y15.748
X28.211 Y15.76
G2 X28.506 Y15.43 I-0.003 J-0.3
G1 X28.477 Y15.144
X28.218 Y12.631 F1200
X28.181 Y12.271 F100
G2 X27.9 Y12.002 I-0.298 J0.031
G1 X27.516 Y11.993
X27.329 Y11.998
X26.99 Y12.159
X26.473 Y12.702
X26.234 Y13.413
X26.156 Y14.159
X26.231 Y14.905
X26.252 Y14.965
X26.377 Y15.216
X26.559 Y15.43
X26.786 Y15.594
X27.046 Y15.699
X27.324 Y15.74
X27.682 Y15.748
G2 X27.978 Y15.431 I-0.003 J-0.3
G1 X27.961 Y15.131
X27.818 Y12.624 F1200
X27.799 Y12.275 F100
G2 X27.516 Y11.993 I-0.3 J0.017
G1 X27.172 Y11.985
X26.984 Y11.99
X26.635 Y12.127
X26.338 Y12.355
X25.918 Y12.977
X25.741 Y13.706
X25.721 Y14.455
X25.873 Y15.19
X25.921 Y15.254
X26.102 Y15.449
X26.322 Y15.597
X26.57 Y15.692
X26.833 Y15.728
X27.324 Y15.74
G2 X27.62 Y15.424 I-0.003 J-0.3
G1 X27.604 Y15.122
X27.472 Y12.616 F1200
X27.454 Y12.269 F100
G2 X27.172 Y11.985 I-0.3 J0.016
G1 X26.643 Y11.973
X26.456 Y11.978
X26.132 Y12.166
X25.586 Y12.68
X25.337 Y13.388
X25.256 Y14.134
X25.332 Y14.88
X25.384 Y15.004
X25.515 Y15.237
X25.697 Y15.435
X25.918 Y15.585
X26.167 Y15.682
X26.433 Y15.719
X26.833 Y15.728
G2 X27.128 Y15.409 I-0.003 J-0.3
G1 X27.109 Y15.111
X26.948 Y12.603 F1200
X26.925 Y12.253 F100
G2 X26.643 Y11.973 I-0.299 J0.019
G1 X26.311 Y11.965
X25.936 Y11.975
X25.613 Y12.166
X25.11 Y12.722
X24.882 Y13.437
X24.812 Y14.183
X24.882 Y14.93
X24.974 Y15.098
X25.112 Y15.3
X25.29 Y15.468
X25.499 Y15.595
X25.729 Y15.677
X25.972 Y15.708
X26.433 Y15.719
G2 X26.729 Y15.406 I-0.003 J-0.3
G1 X26.716 Y15.101
X26.608 Y12.596 F1200
X26.593 Y12.251 F100
G2 X26.311 Y11.965 I-0.3 J0.013
G1 X25.719 Y11.951
X25.531 Y11.956
X25.205 Y12.142
X24.663 Y12.66
X24.44 Y13.376
X24.358 Y14.122
X24.404 Y14.87
X24.496 Y15.054
X24.633 Y15.266
X24.812 Y15.443
X25.025 Y15.578
X25.262 Y15.664
X25.512 Y15.697
X25.972 Y15.708
G2 X26.267 Y15.383 I-0.003 J-0.3
G1 X26.243 Y15.091
X26.03 Y12.581 F1200
X26 Y12.225 F100
G2 X25.719 Y11.951 I-0.299 J0.025
G1 X25.371 Y11.943
X25.184 Y11.948
X24.836 Y12.087
X24.534 Y12.311
X24.12 Y12.936
X23.944 Y13.665
X23.909 Y14.414
X24.054 Y15.15
X24.099 Y15.211
X24.28 Y15.406
X24.5 Y15.554
X24.748 Y15.649
X25.011 Y15.686
X25.512 Y15.697
G2 X25.808 Y15.383 I-0.003 J-0.3
G1 X25.793 Y15.08
X25.67 Y12.574 F1200
X25.653 Y12.228 F100
G2 X25.371 Y11.943 I-0.3 J0.015
G1 X24.99 Y11.934
X24.803 Y11.939
X24.44 Y12.035
X23.87 Y12.522
X23.584 Y13.215
X23.465 Y13.956
X23.501 Y14.705
X23.608 Y15.064
X23.758 Y15.279
X23.935 Y15.443
X24.141 Y15.567
X24.369 Y15.646
X24.608 Y15.676
X25.011 Y15.686
G2 X25.308 Y15.382 I-0.003 J-0.3
G1 X25.304 Y15.068
X25.277 Y12.565 F1200
X25.273 Y12.23 F100
G2 X24.99 Y11.934 I-0.3 J0.003
G1 X24.462 Y11.922
X24.274 Y11.927
X23.925 Y12.064
X23.375 Y12.574
X23.119 Y13.279
X23.018 Y14.022
X23.059 Y14.771
X23.132 Y14.947
X23.263 Y15.181
X23.444 Y15.38
X23.666 Y15.532
X23.917 Y15.629
X24.183 Y15.666
X24.608 Y15.676
G2 X24.904 Y15.361 I-0.003 J-0.3
G1 X24.889 Y15.059
X24.761 Y12.552 F1200
X24.744 Y12.206 F100
G2 X24.462 Y11.922 I-0.3 J0.015
G1 X23.9 Y11.909
X23.712 Y11.914
X23.384 Y12.096
X22.883 Y12.654
X22.652 Y13.367
X22.569 Y14.113
X22.626 Y14.861
X22.72 Y15.037
X22.859 Y15.242
X23.037 Y15.412
X23.246 Y15.541
X23.479 Y15.624
X23.723 Y15.656
X24.183 Y15.666
G2 X24.478 Y15.338 I-0.003 J-0.3
G1 X24.451 Y15.05
X24.214 Y12.538 F1200
X24.181 Y12.18 F100
G2 X23.9 Y11.909 I-0.299 J0.028
G1 X23.537 Y11.9
X23.349 Y11.905
X23.012 Y12.07
X22.729 Y12.315
X22.326 Y12.948
X22.152 Y13.677
X22.126 Y14.427
X22.289 Y15.159
X22.322 Y15.201
X22.502 Y15.383
X22.717 Y15.521
X22.957 Y15.61
X23.21 Y15.644
X23.723 Y15.656
G2 X24.019 Y15.337 I-0.003 J-0.3
G1 X24 Y15.039
X23.841 Y12.531 F1200
X23.819 Y12.181 F100
G2 X23.537 Y11.9 I-0.299 J0.019
G1 X23.189 Y11.892
X23.002 Y11.897
X22.646 Y12.014
X22.085 Y12.512
X21.798 Y13.205
X21.68 Y13.946
X21.721 Y14.695
X21.83 Y15.055
X22.01 Y15.29
X22.245 Y15.473
X22.517 Y15.59
X22.811 Y15.634
X23.21 Y15.644
G2 X23.506 Y15.34 I-0.003 J-0.3
G1 X23.503 Y15.026
X23.475 Y12.523 F1200
X23.472 Y12.188 F100
G2 X23.189 Y11.892 I-0.3 J0.003
G1 X22.649 Y11.88
X22.461 Y11.885
X22.121 Y12.043
X21.589 Y12.571
X21.333 Y13.276
X21.235 Y14.02
X21.281 Y14.768
X21.35 Y14.925
X21.482 Y15.154
X21.663 Y15.347
X21.883 Y15.494
X22.13 Y15.588
X22.392 Y15.625
X22.811 Y15.634
G2 X23.107 Y15.318 I-0.003 J-0.3
G1 X23.09 Y15.017
X22.95 Y12.51 F1200
X22.931 Y12.162 F100
G2 X22.649 Y11.88 I-0.3 J0.017
G1 X22.28 Y11.871
X22.092 Y11.876
X21.743 Y12.013
X21.446 Y12.241
X21.018 Y12.857
X20.827 Y13.582
X20.788 Y14.331
X20.932 Y15.068
X20.979 Y15.133
X21.16 Y15.33
X21.381 Y15.48
X21.631 Y15.576
X21.896 Y15.613
X22.392 Y15.625
G2 X22.688 Y15.313 I-0.003 J-0.3
G1 X22.676 Y15.007
X22.576 Y12.502 F1200
X22.562 Y12.158 F100
G2 X22.28 Y11.871 I-0.3 J0.012
G1 X21.718 Y11.858
X21.53 Y11.863
X20.898 Y12.266
X20.543 Y12.927
X20.372 Y13.657
X20.351 Y14.407
X20.484 Y15.145
X20.511 Y15.178
X20.689 Y15.352
X20.901 Y15.484
X21.136 Y15.569
X21.383 Y15.601
X21.896 Y15.613
G2 X22.192 Y15.295 I-0.003 J-0.3
G1 X22.173 Y14.996
X22.021 Y12.488 F1200
X22 Y12.139 F100
G2 X21.718 Y11.858 I-0.299 J0.018
G1 X21.355 Y11.849
X21.167 Y11.854
X20.811 Y11.971
X20.278 Y12.498
X20.008 Y13.198
X19.9 Y13.94
X19.934 Y14.69
X19.95 Y14.747
X20.067 Y15.018
X20.248 Y15.252
X20.481 Y15.433
X20.753 Y15.549
X21.045 Y15.593
X21.383 Y15.601
G2 X21.679 Y15.297 I-0.003 J-0.3
G1 X21.675 Y14.983
X21.642 Y12.48 F1200
X21.637 Y12.145 F100
G2 X21.355 Y11.849 I-0.3 J0.004
G1 X20.856 Y11.838
X20.669 Y11.843
X20.331 Y12.006
X19.796 Y12.532
X19.549 Y13.24
X19.451 Y13.984
X19.486 Y14.733
X19.574 Y14.917
X19.709 Y15.136
X19.889 Y15.32
X20.105 Y15.459
X20.346 Y15.549
X20.601 Y15.583
X21.045 Y15.593
G2 X21.341 Y15.274 I-0.004 J-0.3
G1 X21.322 Y14.976
X21.161 Y12.468 F1200
X21.138 Y12.118 F100
G2 X20.856 Y11.838 I-0.299 J0.019
G1 X20.467 Y11.829
X20.279 Y11.834
X19.934 Y11.98
X19.642 Y12.215
X19.224 Y12.838
X19.038 Y13.564
X18.998 Y14.313
X19.149 Y15.048
X19.192 Y15.105
X19.373 Y15.297
X19.592 Y15.443
X19.838 Y15.536
X20.098 Y15.571
X20.601 Y15.583
G2 X20.897 Y15.269 I-0.004 J-0.3
G1 X20.883 Y14.966
X20.765 Y12.46 F1200
X20.749 Y12.114 F100
G2 X20.467 Y11.829 I-0.3 J0.014
G1 X20.098 Y11.82
X19.911 Y11.826
X19.551 Y11.93
X18.979 Y12.417
X18.685 Y13.106
X18.558 Y13.846
X18.592 Y14.595
X18.699 Y14.954
X18.847 Y15.166
X19.024 Y15.33
X19.23 Y15.453
X19.458 Y15.532
X19.696 Y15.562
X20.098 Y15.571
G2 X20.395 Y15.27 I-0.004 J-0.3
G1 X20.393 Y14.954
X20.382 Y12.451 F1200
X20.381 Y12.119 F100
G2 X20.098 Y11.82 I-0.3 J0.001
G1 X19.536 Y11.808
X19.348 Y11.813
X19.006 Y11.965
X18.474 Y12.494
X18.214 Y13.197
X18.112 Y13.94
X18.158 Y14.689
X18.226 Y14.848
X18.359 Y15.078
X18.54 Y15.273
X18.76 Y15.421
X19.008 Y15.516
X19.271 Y15.553
X19.696 Y15.562
G2 X19.992 Y15.246 I-0.004 J-0.3
G1 X19.976 Y14.945
X19.837 Y12.438 F1200
X19.818 Y12.091 F100
G2 X19.536 Y11.808 I-0.3 J0.017
G1 X19.173 Y11.799
X18.798 Y11.81
X18.477 Y12.003
X17.983 Y12.567
X17.748 Y13.28
X17.665 Y14.025
X17.722 Y14.773
X17.813 Y14.938
X17.952 Y15.138
X18.13 Y15.305
X18.338 Y15.431
X18.568 Y15.511
X18.809 Y15.542
X19.271 Y15.553
G2 X19.567 Y15.242 I-0.004 J-0.3
G1 X19.557 Y14.935
X19.468 Y12.43 F1200
X19.456 Y12.088 F100
G2 X19.173 Y11.799 I-0.3 J0.011
G1 X18.674 Y11.788
X18.487 Y11.793
X18.146 Y11.95
X17.856 Y12.188
X17.441 Y12.812
X17.257 Y13.539
X17.222 Y14.288
X17.364 Y15.025
X17.402 Y15.074
X17.583 Y15.262
X17.8 Y15.405
X18.044 Y15.496
X18.301 Y15.531
X18.809 Y15.542
G2 X19.105 Y15.228 I-0.004 J-0.3
G1 X19.091 Y14.925
X18.973 Y12.419 F1200
X18.957 Y12.073 F100
G2 X18.674 Y11.788 I-0.3 J0.014
G1 X18.285 Y11.779
X18.098 Y11.784
X17.745 Y11.912
X17.183 Y12.408
X16.896 Y13.101
X16.777 Y13.842
X16.814 Y14.591
X16.847 Y14.698
X16.966 Y14.964
X17.147 Y15.191
X17.379 Y15.367
X17.648 Y15.479
X17.936 Y15.522
X18.301 Y15.531
G2 X18.598 Y15.228 I-0.004 J-0.3
G1 X18.595 Y14.913
X18.571 Y12.41 F1200
X18.568 Y12.076 F100
G2 X18.285 Y11.779 I-0.3 J0.003
G1 X17.735 Y11.767
X17.547 Y11.772
X17.211 Y11.937
X16.685 Y12.472
X16.429 Y13.177
X16.33 Y13.921
X16.376 Y14.67
X16.465 Y14.854
X16.601 Y15.07
X16.781 Y15.252
X16.996 Y15.39
X17.236 Y15.478
X17.489 Y15.512
X17.936 Y15.522
G2 X18.231 Y15.202 I-0.004 J-0.3
G1 X18.211 Y14.905
X18.041 Y12.397 F1200
X18.017 Y12.046 F100
G2 X17.735 Y11.767 I-0.299 J0.02
G1 X17.354 Y11.758
X17.167 Y11.763
X16.823 Y11.913
X16.532 Y12.149
X16.109 Y12.769
X15.92 Y13.495
X15.884 Y14.244
X16.037 Y14.978
X16.08 Y15.036
X16.26 Y15.227
X16.479 Y15.372
X16.725 Y15.465
X16.986 Y15.501
X17.489 Y15.512
G2 X17.785 Y15.198 I-0.004 J-0.3
G1 X17.771 Y14.895
X17.653 Y12.389 F1200
X17.636 Y12.044 F100
G2 X17.354 Y11.758 I-0.3 J0.014
G1 X16.991 Y11.75
X16.804 Y11.755
X16.444 Y11.861
X15.87 Y12.343
X15.571 Y13.031
X15.444 Y13.77
X15.477 Y14.52
X15.583 Y14.879
X15.733 Y15.095
X15.911 Y15.259
X16.118 Y15.384
X16.347 Y15.462
X16.587 Y15.492
X16.986 Y15.501
G2 X17.282 Y15.2 I-0.004 J-0.3
G1 X17.281 Y14.883
X17.275 Y12.381 F1200
X17.274 Y12.049 F100
G2 X16.991 Y11.75 I-0.3 J0.001
G1 X16.492 Y11.74
X16.118 Y11.751
X15.798 Y11.947
X15.316 Y12.522
X15.075 Y13.232
X14.996 Y13.978
X15.07 Y14.724
X15.135 Y14.852
X15.273 Y15.061
X15.453 Y15.235
X15.665 Y15.367
X15.9 Y15.452
X16.149 Y15.483
X16.587 Y15.492
G2 X16.882 Y15.182 I-0.004 J-0.3
G1 X16.872 Y14.874
X16.787 Y12.37 F1200
X16.776 Y12.029 F100
G2 X16.492 Y11.74 I-0.3 J0.01
G1 X15.9 Y11.728
X15.713 Y11.733
X15.395 Y11.932
X14.871 Y12.468
X14.634 Y13.18
X14.545 Y13.924
X14.593 Y14.673
X14.68 Y14.842
X14.818 Y15.052
X14.998 Y15.226
X15.211 Y15.359
X15.447 Y15.443
X15.695 Y15.474
X16.149 Y15.483
G2 X16.443 Y15.159 I-0.004 J-0.3
G1 X16.419 Y14.866
X16.212 Y12.357 F1200
X16.183 Y12.003 F100
G2 X15.9 Y11.728 I-0.299 J0.025
G1 X15.553 Y11.721
X15.365 Y11.727
X15.024 Y11.882
X14.732 Y12.117
X14.317 Y12.742
X14.134 Y13.469
X14.098 Y14.219
X14.246 Y14.954
X14.286 Y15.006
X14.467 Y15.195
X14.686 Y15.339
X14.931 Y15.43
X15.191 Y15.465
X15.695 Y15.474
G2 X15.99 Y15.16 I-0.005 J-0.3
G1 X15.975 Y14.856
X15.853 Y12.35 F1200
X15.836 Y12.006 F100
G2 X15.553 Y11.721 I-0.3 J0.015
G1 X15.172 Y11.714
X14.985 Y11.719
X14.629 Y11.838
X14.064 Y12.331
X13.776 Y13.023
X13.655 Y13.764
X13.691 Y14.513
X13.804 Y14.877
X13.945 Y15.07
X14.122 Y15.231
X14.327 Y15.352
X14.554 Y15.428
X14.791 Y15.457
X15.191 Y15.465
G2 X15.486 Y15.162 I-0.005 J-0.3
G1 X15.483 Y14.846
X15.459 Y12.344 F1200
X15.456 Y12.01 F100
G2 X15.172 Y11.714 I-0.3 J0.003
G1 X14.643 Y11.704
X14.456
X14.113 Y11.857
X13.572 Y12.376
X13.312 Y13.08
X13.208 Y13.823
X13.248 Y14.572
X13.316 Y14.734
X13.448 Y14.967
X13.629 Y15.164
X13.85 Y15.315
X14.1 Y15.411
X14.366 Y15.448
X14.791 Y15.457
G2 X15.085 Y15.141 I-0.005 J-0.3
G1 X15.069 Y14.839
X14.937 Y12.341 F1200
X14.918 Y11.987 F100
G2 X14.643 Y11.704 I-0.3 J0.016
G1 X14.311 Y11.688
X13.936 Y11.689
X13.608 Y11.871
X13.093 Y12.416
X12.852 Y13.127
X12.759 Y13.871
X12.802 Y14.62
X12.898 Y14.806
X13.036 Y15.015
X13.215 Y15.189
X13.426 Y15.321
X13.661 Y15.406
X13.909 Y15.438
X14.366 Y15.448
G2 X14.662 Y15.141 I-0.004 J-0.3
G1 X14.655 Y14.83
X14.594 Y12.326 F1200
X14.586 Y11.98 F100
G2 X14.311 Y11.688 I-0.3 J0.007
G1 X13.718 Y11.66
X13.531
X13.201 Y11.839
X12.648 Y12.346
X12.411 Y13.057
X12.307 Y13.8
X12.327 Y14.55
X12.421 Y14.752
X12.554 Y14.97
X12.731 Y15.155
X12.944 Y15.296
X13.183 Y15.388
X13.436 Y15.426
X13.909 Y15.438
G2 X14.205 Y15.118 I-0.004 J-0.3
G1 X14.185 Y14.821
X14.017 Y12.297 F1200
X13.993 Y11.939 F100
G2 X13.718 Y11.66 I-0.299 J0.02
G1 X13.552 Y11.652 F90
X13.371 Y11.554 F100
X13.202 Y11.473
X12.547 Y11.839
X12.142 Y12.47
X11.931 Y13.19
X11.851 Y13.936
X11.912 Y14.683
X11.996 Y14.829
X12.174 Y15.062
X12.405 Y15.243
X12.673 Y15.361
X12.962 Y15.408
X13.436 Y15.426
X13.437
G2 X13.736 Y15.106 I0 J-0.3
G1 X13.717 Y14.813
X13.551 Y12.285 F1200
X13.519 Y11.793 F100
G2 X13.371 Y11.554 I-0.299 J0.02
G1 X13.094 Y11.404
X12.924 Y11.323
X12.567 Y11.439
X11.984 Y11.91
X11.643 Y12.578
X11.458 Y13.305
X11.403 Y14.053
X11.486 Y14.798
X11.506 Y14.826
X11.667 Y15.012
X11.864 Y15.16
X12.088 Y15.263
X12.462 Y15.39
X12.962 Y15.408
G2 X13.262 Y15.106 I0 J-0.3
G1 X13.261 Y14.794
X13.245 Y12.136 F1200
X13.242 Y11.661 F100
G2 X13.094 Y11.404 I-0.3 J0.002
G1 X12.902 Y11.301
X12.733 Y11.22
X12.362 Y11.271
X12.023 Y11.433
X11.477 Y11.947
X11.165 Y12.629
X10.997 Y13.36
X10.954 Y14.109
X10.96 Y14.162
X11.017 Y14.413
X11.127 Y14.646
X11.286 Y14.85
X11.486 Y15.013
X11.717 Y15.128
G2 X12.099 Y14.925 I0.094 J-0.285
G1 X12.182 Y14.635
X12.932 Y12.017 F1200
X13.039 Y11.642 F100
G2 X12.902 Y11.301 I-0.288 J-0.083
G1 X12.6 Y11.138
X12.468 Y11.075
X12.094 Y11.085
X11.416 Y11.407
G2 X10.549 Y13.986 I2.32 J2.215
G1 X10.631 Y14.237
X10.767 Y14.464
X10.95 Y14.654
G2 X11.408 Y14.536 I0.183 J-0.238
G1 X11.504 Y14.315
X12.584 Y11.837 F1200
X12.723 Y11.516 F100
G2 X12.6 Y11.138 I-0.275 J-0.12
G1 X12.462 Y11.063
X12.259 Y10.969
X12.133 Y10.918
X11.758 Y10.929
X11.4 Y11.042
X10.802 Y11.493
X10.418 Y12.138
X10.181 Y12.849
X10.073 Y13.598
X10.113 Y13.764
X10.176 Y13.923
X10.263 Y14.071
G2 X10.76 Y14.049 I0.241 J-0.178
G1 X10.863 Y13.88
X12.228 Y11.641 F1200
X12.38 Y11.393 F100
G2 X12.259 Y10.969 I-0.256 J-0.156
G1 X12.094 Y10.892
X11.875 Y10.829
X11.597 Y10.763
X11.228 Y10.83
X10.545 Y11.139
X10.106 Y11.747
X9.817 Y12.439
X9.762 Y12.684
X9.734 Y12.922
X9.755 Y13.16
X9.824 Y13.389
X9.938 Y13.599
G2 X10.426 Y13.592 I0.241 J-0.178
G1 X10.549 Y13.414
X11.898 Y11.472 F1200
X12.028 Y11.285 F100
G2 X11.875 Y10.829 I-0.246 J-0.171
G1 X11.371 Y10.682
X10.648 Y10.892
X10.445 Y10.986
X10.334 Y11.056
X10.233 Y11.142
X10.147 Y11.241
G2 X10.522 Y11.683 I0.247 J0.17
G1 X10.559 Y11.662 F1200
X10.593 Y11.636
X10.761 Y11.487
X10.782 Y11.466
X10.801 Y11.444
G2 X10.445 Y10.986 I-0.239 J-0.181 F100
G1 X10.28 Y11.063
X9.811 Y11.693
X9.693 Y11.852
X9.597 Y11.981
X9.622 Y12.811
X9.65 Y13.031
X9.719 Y13.242
X9.826 Y13.436
G2 X10.366 Y13.224 I0.241 J-0.178
G1 X10.361 Y13.194 F1200
X10.148 Y12.212
X10.124 Y12.105 F100
G2 X9.597 Y11.981 I-0.293 J0.064
G1 X9.576 Y13.07
G2 X12.083 Y15.278 I3.882 J-1.881
G1 X12.028 Y15.441
X12.656 Y15.85
G2 X27.299 Y16.205 I18.311 J-452.931
G1 X28.499 Y16.269
X29.1 Y16.282 F90
X29.38 Y16.39 F100
X29.885 Y16.715
X30.253 Y17.19
X30.491 Y17.741
X30.77 Y18.91
X30.761 Y19.21 F90
X30.676 Y19.499
X30.532 Y19.762 F100
X30.153 Y20.228
X29.65 Y20.556
X28.521 Y20.967
G3 X15.307 Y20.975 I-7.021 J-662.462
G1 X10.501 Y20.983
X5.696 Y20.979
X0.89 Y20.963
X0.473 Y20.838
X0.143 Y20.619
X-0.12 Y20.344
X-0.545 Y19.704
X-0.848 Y18.687
X-0.971 Y16.288
X-0.936 Y15.688
X-0.919 Y8.123
X-0.913 Y0.557
X-0.918 Y-7.008
X-0.934 Y-14.573
X-1.04 Y-14.662
X-1.159 Y-14.696
X-1.28 Y-14.668
X-1.372 Y-14.585
X-1.411 Y-14.467
X-1.404 Y-14.412
X-1.383 Y-14.36
X-1.348 Y-14.317
X-1.303 Y-14.285
X-1.256 Y-14.273 Z-9.986
X-1.211 Y-14.262 Z-9.974
X-1.168 Y-14.276 Z-9.954
X-1.129 Y-14.289 Z-9.927
X-1.094 Y-14.3 Z-9.893
X-1.071 Y-14.325 Z-9.849
X-1.054 Y-14.343 Z-9.799
X-1.044 Y-14.354 Z-9.746
X-1.04 Y-14.358 Z-9.69
G0 Z3.01
X33.254 Y-0.11
Z-9.39
G1 Z-9.69 F100
X33.247 Y-0.114 Z-9.757
X33.228 Y-0.125 Z-9.82
X33.197 Y-0.143 Z-9.877
X33.156 Y-0.167 Z-9.925
X33.106 Y-0.195 Z-9.96
X33.051 Y-0.227 Z-9.982
X32.993 Y-0.26 Z-9.99
G2 X31.403 Y-0.701 I-1.655 J2.883
G1 X31.194 Y-0.697
X31.007 Y-0.685
X30.872 Y0.053
X30.821 Y4.934
X30.775 Y9.815
X30.675 Y10.098 F90
X30.519 Y10.355 F100
X30.12 Y10.804
X29.605 Y11.112
X28.463 Y11.486
G3 X14.839 Y11.182 I8.484 J-686.794
G1 X14.24 Y11.127
X11.918 Y10.511
X11.565 Y10.384
X10.815 Y10.388
X10.111 Y10.645
X9.6 Y11.195
X9.189 Y11.822
X9.112 Y12.568
X9.213 Y13.312
G2 X11.667 Y15.764 I5.545 J-3.096
G1 X12.289 Y16.183
G2 X18.092 Y16.495 I4.246 J-24.816
G1 X20.494 Y16.596
X22.896 Y16.628
X25.298 Y16.695
X27.701 Y16.731
X28.301 Y16.759
X28.865 Y16.966
X29.335 Y17.34
X29.516 Y17.58
X29.661 Y17.843
X29.742 Y18.132 F90
X29.751 Y18.432 F100
X29.697 Y18.728
X29.592 Y19.009
X29.291 Y19.529
X28.832 Y19.916
X28.29 Y20.176
X27.132 Y20.495
G3 X19.177 Y20.492 I-3.839 J-351.123
G2 X6.563 Y20.491 I-6.354 J455.635
G1 X4.826 Y20.456
X2.424 Y20.513
X1.824 Y20.486
X1.238 Y20.35
X0.722 Y20.044
X0.307 Y19.609
X0.011 Y19.087
X-0.371 Y17.948
X-0.525 Y15.55
G2 X-0.437 Y8.65 I-57.845 J-4.185
G1 X-0.425 Y6.246
X-0.429 Y-7.574
G3 X-0.754 Y-14.467 I72.272 J-6.859
G1 X-0.738 Y-15.217
X-0.796 Y-15.356
X-0.913 Y-15.452
X-1.061 Y-15.482
X-1.206 Y-15.44
X-1.315 Y-15.335
X-1.362 Y-15.191
G2 X-0.974 Y-14.36 I0.999 J0.04
X-0.732 Y-14.467 I0.092 J-0.119
G1 X-0.7 Y-15.179
X-0.688 Y-15.388
X-0.683 Y-16.138
X-0.745 Y-16.269
X-0.859 Y-16.357
X-1.002 Y-16.383
X-1.14 Y-16.341
X-1.243 Y-16.24
X-1.289 Y-16.102
G2 X-0.932 Y-15.287 I0.999 J0.049
X-0.688 Y-15.388 I0.096 J-0.114
G1 X-0.63 Y-16.271
X-0.614 Y-17.02
X-0.68 Y-17.145
X-0.794 Y-17.226
X-0.933 Y-17.247
X-1.067 Y-17.204
X-1.166 Y-17.105
X-1.211 Y-16.972
G2 X-0.884 Y-16.173 I0.998 J0.057
X-0.63 Y-16.271 I0.103 J-0.113
G1 X-0.564 Y-17.197
X-0.558 Y-17.273
Y-17.311
X-0.577 Y-17.396
X-0.588 Y-17.425
X-0.62 Y-17.464
X-0.661 Y-17.493
X-0.708 Y-17.512
X-0.759 Y-17.518
X-0.809 Y-17.511
G2 X-0.706 Y-17.126 I0.051 J0.193
X-0.558 Y-17.311 I-0.051 J-0.193
G1 X-0.573 Y-17.387
X-0.588 Y-17.425
X-0.61 Y-17.463
X-0.642 Y-17.501
X-0.71 Y-17.557
X-0.778 Y-17.591
X-0.846 Y-17.606
X-0.914 Y-17.605
X-0.975 Y-17.591
X-1.035 Y-17.562
X-1.076 Y-17.532
X-1.116 Y-17.489
X-1.139 Y-17.452
X-1.156 Y-17.415
X-1.17 Y-17.368
X-1.211 Y-16.972
G2 X-0.915 Y-16.655 I0.3 J0.017
G1 X-0.862 Y-16.668 Z-9.985
X-0.812 Y-16.681 Z-9.97
X-0.765 Y-16.693 Z-9.946
X-0.73 Y-16.726 Z-9.909
X-0.7 Y-16.753 Z-9.862
X-0.679 Y-16.774 Z-9.809
X-0.665 Y-16.786 Z-9.751
X-0.661 Y-16.79 Z-9.69
G0 Z3.01
X32.211 Y-0.338
Z-9.39
G1 Z-9.69 F100
X32.204 Y-0.342 Z-9.757
X32.185 Y-0.353 Z-9.82
X32.154 Y-0.371 Z-9.877
X32.113 Y-0.394 Z-9.925
X32.064 Y-0.423 Z-9.96
X32.009 Y-0.454 Z-9.982
X31.951 Y-0.488 Z-9.99
G2 X31.194 Y-0.697 I-0.788 J1.372
G1 X30.857 Y-0.692
X30.67 Y-0.68
X30.435 Y0.032
G2 X30.304 Y8.992 I140.658 J6.529
G1 X30.098 Y9.562
X29.737 Y10.042
X29.274 Y10.424
X28.729 Y10.676
X27.566 Y10.977
X25.163 Y11.006
G2 X14.808 Y10.72 I-17.819 J457.216
G1 X12.466 Y10.184
G2 X9.463 Y14.482 I-1.169 J2.382
X12.438 Y16.698 I5.819 J-4.708
G1 X13.181 Y16.824
X14.024 Y16.909
X23.792 Y17.132
G3 X27.567 Y17.263 I-2.72 J133.318
G1 X28.116 Y17.515
G2 X28.463 Y17.051 I0.111 J-0.279
G1 X28.422 Y16.998 Z-9.982
X28.382 Y16.949 Z-9.96
X28.347 Y16.904 Z-9.925
X28.318 Y16.867 Z-9.877
X28.296 Y16.839 Z-9.82
X28.282 Y16.821 Z-9.757
X28.277 Y16.815 Z-9.69
G0 Z3.01
X31.874 Y-0.333
Z-9.39
G1 Z-9.69 F100
X31.868 Y-0.337 Z-9.757
X31.849 Y-0.348 Z-9.82
X31.818 Y-0.366 Z-9.877
X31.776 Y-0.389 Z-9.925
X31.727 Y-0.418 Z-9.96
X31.672 Y-0.449 Z-9.982
X31.614 Y-0.482 Z-9.99
G2 X30.857 Y-0.692 I-0.788 J1.372
G1 X30.648 Y-0.689
X30.461 Y-0.677
X30.013 Y-0.075
G2 X29.848 Y5.452 I26.325 J3.554
G1 X29.757 Y7.853
X29.727 Y8.453
X29.526 Y9.019
X29.162 Y9.497
X28.69 Y9.868
X28.154 Y10.14
X26.999 Y10.471
X24.597 Y10.528
G2 X14.978 Y10.231 I-8.872 J131.348
G1 X12.625 Y9.734
G2 X9.338 Y15.016 I-1.286 J2.863
X14.843 Y17.426 I5.064 J-4.074
X22.578 Y17.615 I23.585 J-809.749
G3 X26.949 Y17.77 I0.309 J52.798
G1 X27.084 Y17.749
X27.479 Y17.234
X32.118 Y11.196 F1200
X32.589 Y10.104
X32.779 Y9.558
G2 X32.997 Y8.466 I-2.281 J-1.024
G1 X32.198 Y0.822
G2 X31.398 Y-0.483 I-1.581 J0.071
X30.648 Y-0.689 I-0.781 J1.377 F100
G1 X30.311 Y-0.684
X30.124 Y-0.672
X29.85 Y-0.416
X29.52 Y0.257
G2 X29.333 Y5.29 I23.144 J3.377
G1 X29.283 Y7.693
X29.117 Y8.27
X28.802 Y8.782
X28.366 Y9.194
X27.857 Y9.514
X26.736 Y9.946
X24.336 Y10.069
G2 X18.085 Y9.822 I-4.447 J33.411
G1 X16.825 Y9.738
X14.423 Y9.696
G2 X11.044 Y9 I-4.065 J11.175
X8.874 Y15.213 I0.334 J3.602
X14.683 Y17.904 I5.526 J-4.315
G1 X15.422 Y17.661
X28.839 Y12.754 F1200
X29.662 Y12.288
X31.05 Y11.196
X32.114 Y9.554
G2 X32.375 Y7.92 I-2.199 J-1.189
G1 X31.861 Y0.822
G2 X31.348 Y-0.27 I-1.581 J0.077
G1 X31.064 Y-0.47
X31.023 Y-0.499 F100
X30.311 Y-0.684
X30.102 Y-0.681
X29.915 Y-0.669
X29.593 Y-0.476
X29.114 Y0.101
G2 X28.827 Y6.013 I23.328 J4.098
G1 X28.792 Y7.215
G3 X27.329 Y9.02 I-2.553 J-0.575
G1 X26.207 Y9.45
X23.811 Y9.62
G2 X18.238 Y9.317 I-3.977 J21.731
G1 X16.235 Y9.213
X15.034 Y9.208
X12.666 Y8.797
G2 X8.249 Y15.177 I-1.347 J3.786
X11.611 Y17.849 I6.267 J-4.433
G1 X12.366 Y17.618
X13.007 Y17.427 F1200
X28.293 Y12.245
X28.839 Y11.996
X31.023 Y10.11
G2 X31.62 Y8.466 I-1.903 J-1.622
G1 X31.652 Y0.822
G2 X31.023 Y-0.363 I-1.581 J0.08
G1 X30.843 Y-0.45
X30.477 Y-0.628 F100
X30.102 Y-0.681
X29.766 Y-0.676
X29.578 Y-0.663
X29.242 Y-0.498
X28.961 Y-0.249
X28.601 Y0.409
G2 X28.299 Y5.662 I21.026 J3.842
G3 X26.666 Y8.591 I-2.625 J0.456
G1 X25.531 Y8.984
X24.334 Y9.083
G2 X16.502 Y8.797 I-5.831 J52.441
G1 X14.105 Y8.612
G2 X10.549 Y8.122 I-3.012 J8.699
X8.098 Y15.767 I0.903 J4.505
X10.47 Y17.815 I6.527 J-5.163
G1 X10.621 Y17.858
X11.212 Y17.648
X27.763 Y11.742 F1200
X28.839 Y11.137
X29.931 Y10.369
X30.859 Y9.012
X31.126 Y8.466
G2 X31.472 Y7.374 I-2.147 J-1.281
G1 X31.315 Y0.822
G2 X30.515 Y-0.47 I-1.58 J0.085
X29.766 Y-0.676 I-0.781 J1.377 F100
G1 X29.385 Y-0.67
X29.198 Y-0.658
X28.847 Y-0.524
X28.32 Y0.01
G2 X27.812 Y3.481 I8.467 J3.012
G1 X27.793 Y5.884
G3 X26.048 Y8.144 I-2.707 J-0.287
G1 X24.908 Y8.525
X22.505 Y8.509
G2 X15.961 Y8.319 I-4.24 J33.212
G1 X13.578 Y7.998
G2 X9.181 Y8.082 I-2.091 J5.654
X7.989 Y16.358 I2.362 J4.564
G1 X9.669 Y18.063
X9.897 Y18.168
X10.392 Y17.967
X27.928 Y10.868 F1200
X29.098 Y10.104
X29.664 Y9.558
G2 X30.317 Y8.645 I-1.655 J-1.874
G1 X30.69 Y7.92
G2 X30.959 Y6.828 I-2.23 J-1.13
G1 X30.934 Y0.822
G2 X30.137 Y-0.463 I-1.58 J0.091
G1 X30.036 Y-0.516 F100
X29.931 Y-0.561
X29.385 Y-0.67
X28.839 Y-0.662
X28.652 Y-0.649
X28.325 Y-0.466
X27.828 Y0.096
G2 X27.326 Y3.195 I8.356 J2.941
G1 X27.275 Y5.597
G3 X25.35 Y7.719 I-2.78 J-0.589
G1 X24.184 Y8.01
X21.781 Y8.017
G2 X15.92 Y7.821 I-3.779 J25.305
X11.32 Y7.138 I-14.139 J79.331
X7.469 Y16.464 I0.114 J5.505
G1 X7.944 Y17.047
X8.379 Y17.461
X8.592 Y17.673
X8.743 Y17.932 F90
X8.824 Y18.222
X8.827 Y18.522
X8.754 Y18.813
X8.609 Y19.076
X8.402 Y19.294 F100
X7.89 Y19.608
X6.744 Y19.969
G3 X2.545 Y19.953 I-1.926 J-46.63
X1.946 Y19.92 I2.273 J-46.614 F90
G1 X1.411 Y19.617 F100
X0.97 Y19.209
X0.621 Y18.72
X0.14 Y17.619
X-0.08 Y15.226
G2 X0.038 Y8.723 I-34.059 J-3.87
X0.061 Y-0.561 I-297.535 J-5.37
G1 X-0.059 Y-0.75
G3 X-0.356 Y-2.453 I3.329 J-1.457
G2 X-0.431 Y-7.574 I-598.454 J6.211
G1 X-0.442 Y-7.638
X-0.467 Y-7.698
X-0.505 Y-7.751
X-0.553 Y-7.795
X-0.61 Y-7.827
X-0.672 Y-7.846
X-0.737 Y-7.852
X-0.802 Y-7.843
X-0.863 Y-7.82
X-0.918 Y-7.785
X-0.964 Y-7.739
X-0.998 Y-7.683
X-1.028 Y-7.623 Z-9.982
X-1.055 Y-7.566 Z-9.96
X-1.08 Y-7.515 Z-9.925
X-1.101 Y-7.472 Z-9.877
X-1.117 Y-7.44 Z-9.82
X-1.126 Y-7.42 Z-9.757
X-1.129 Y-7.414 Z-9.69
G0 Z3.01
X29.856 Y-0.302
Z-9.39
G1 Z-9.69 F100
X29.849 Y-0.306 Z-9.757
X29.83 Y-0.317 Z-9.82
X29.799 Y-0.335 Z-9.877
X29.758 Y-0.359 Z-9.925
X29.709 Y-0.387 Z-9.96
X29.654 Y-0.418 Z-9.982
X29.596 Y-0.452 Z-9.99
G2 X28.839 Y-0.662 I-0.788 J1.372
G1 X28.464 Y-0.656
X28.277 Y-0.644
X27.941 Y-0.477
X27.382 Y0.023
G2 X26.8 Y4.825 I13.051 J4.018
G3 X25.08 Y7.1 I-2.633 J-0.203
G1 X23.943 Y7.486
X21.541 Y7.545
G2 X16.479 Y7.28 I-3.616 J20.614
G1 X14.078 Y7.165
G2 X7.66 Y7.957 I-2.5 J6.141
X6.818 Y16.468 I3.956 J4.689
X7.214 Y16.918 I4.799 J-3.822 F90
G1 X7.336 Y17.199 F100
X7.397 Y17.493 F90
X7.381 Y17.793
X7.288 Y18.078 F100
X6.964 Y18.584
X6.488 Y18.95
G3 X2.382 Y19.33 I-2.583 J-5.539
G1 X1.86 Y19.031
X1.425 Y18.616
X1.08 Y18.125
X0.61 Y17.019
X0.342 Y14.631
X0.518 Y13.902
X0.571 Y13.139
X0.573 Y8.838
X0.566 Y4.537
X0.548 Y0.236
X0.477 Y0.043
X0.365 Y-0.129
X0.216 Y-0.27
X-0.059 Y-0.75
G2 X-0.614 Y-0.582 I-0.255 J0.158
G1 X-0.612 Y-0.515 Z-9.982
X-0.61 Y-0.452 Z-9.96
X-0.608 Y-0.395 Z-9.925
X-0.607 Y-0.348 Z-9.877
X-0.606 Y-0.312 Z-9.82
X-0.605 Y-0.29 Z-9.757
Y-0.282 Z-9.69
G0 Z3.01
X29.481 Y-0.297
Z-9.39
G1 Z-9.69 F100
X29.475 Y-0.3 Z-9.757
X29.456 Y-0.311 Z-9.82
X29.425 Y-0.329 Z-9.877
X29.383 Y-0.353 Z-9.925
X29.334 Y-0.381 Z-9.96
X29.279 Y-0.413 Z-9.982
X29.221 Y-0.446 Z-9.99
G2 X28.464 Y-0.656 I-0.788 J1.372
G1 X27.918 Y-0.647
X27.731 Y-0.635
X27.401 Y-0.458
X26.896 Y0.097
G2 X26.306 Y4.491 I11.552 J3.786
G3 X24.432 Y6.666 I-2.793 J-0.511
G1 X23.275 Y6.992
X20.874 Y7.073
X20.147 Y6.887
X19.401 Y6.816
X18.053 Y6.767
X15.651 Y6.785
X13.257 Y6.569
G2 X5.743 Y15.537 I-1.958 J5.991
G1 X6.073 Y16.21
X6.209 Y16.478
X6.273 Y16.772 F90
X6.259 Y17.072
X6.177 Y17.36 F100
G3 X1.434 Y17.311 I-2.361 J-1.052
G1 X1.027 Y16.181
X0.885 Y14.988
G2 X1.086 Y9.542 I-30.934 J-3.871
X1.041 Y0.673 I-527.136 J-1.735
G1 X0.948 Y0.427
X0.802 Y0.208
X0.61 Y0.027
X0.216 Y-0.27
G2 X-0.229 Y0.101 I-0.173 J0.245
G1 X-0.201 Y0.161 Z-9.982
X-0.174 Y0.219 Z-9.96
X-0.15 Y0.27 Z-9.925
X-0.13 Y0.314 Z-9.877
X-0.115 Y0.346 Z-9.82
X-0.106 Y0.366 Z-9.757
X-0.103 Y0.373 Z-9.69
G0 Z3.01
X28.935 Y-0.288
Z-9.39
G1 Z-9.69 F100
X28.929 Y-0.292 Z-9.757
X28.91 Y-0.303 Z-9.82
X28.879 Y-0.321 Z-9.877
X28.837 Y-0.345 Z-9.925
X28.788 Y-0.373 Z-9.96
X28.733 Y-0.404 Z-9.982
X28.675 Y-0.438 Z-9.99
G2 X27.918 Y-0.647 I-0.788 J1.372
G1 X27.582 Y-0.642
X27.208 Y-0.618
X26.894 Y-0.412
X26.414 Y0.164
G2 X25.78 Y4.148 I11.842 J3.925
G3 X24.324 Y5.974 I-2.643 J-0.614
G1 X23.223 Y6.454
X20.825 Y6.618
X20.1 Y6.427
X19.355 Y6.34
X18.515 Y6.29
X16.113 Y6.251
X13.711 Y6.188
G2 X5.285 Y15.695 I-2.363 J6.393
G1 X5.352 Y15.993
X5.374 Y16.292
X5.333 Y16.59
X5.236 Y16.874
X5.089 Y17.136
X4.898 Y17.367
X4.667 Y17.56
X4.402 Y17.701
X4.113 Y17.784
X3.814 Y17.808
X3.515 Y17.775
G3 X1.607 Y15.688 I0.609 J-2.472
G1 X1.46 Y14.495
G2 X1.52 Y6.264 I-67.977 J-4.613
X1.42 Y0.727 I-22.501 J-2.365
G1 X1.233 Y0.528
X1.051 Y0.358
X0.61 Y0.027
X0.439 Y-0.027
X0.139 Y0.276
X0.047 Y0.43
X-1.489 Y3.006 F1200
G2 X-1.705 Y4.098 I2.282 J1.02
G1 X-0.727 Y17.749
G2 X0.669 Y19.933 I2.499 J-0.059
G1 X3.18 Y20.965
G2 X5.364 Y20.684 I0.805 J-2.367
G1 X26.655 Y8.346
X27.237 Y7.92
X28.174 Y6.828
G2 X28.785 Y5.19 I-1.889 J-1.638
G1 X29.129 Y0.822
G2 X28.331 Y-0.437 I-1.578 J0.118
X27.582 Y-0.642 I-0.781 J1.377 F100
G1 X27.036 Y-0.634
X26.849 Y-0.622
X26.522 Y-0.438
X25.977 Y0.077
G2 X25.319 Y3.49 I9.813 J3.661
G3 X23.987 Y5.402 I-2.692 J-0.455
G1 X22.909 Y5.932
X21.715 Y6.059
X19.314 Y5.967
X18.575 Y5.837
X17.428 Y5.77
X15.026 Y5.735
X12.625 Y5.634
G2 X9.699 Y5.493 I-1.644 J3.696
X4.425 Y10.346 I1.58 J7.009
G1 X3.919 Y12.231
X4.127 Y13.616
X4.271 Y14.353
X4.483 Y15.072
X4.818 Y15.273
X5.193 Y15.151
X24.471 Y8.861 F1200
X25.585 Y8.316
X26.75 Y7.374
X27.201 Y6.919
G2 X27.825 Y5.736 I-1.819 J-1.715
G1 X28.531 Y1.368
G2 X27.786 Y-0.428 I-1.526 J-0.42
X27.036 Y-0.634 I-0.781 J1.377 F100
G1 X26.655 Y-0.628
X26.281 Y-0.604
X25.963 Y-0.404
X25.481 Y0.17
G2 X24.776 Y3.384 I12.764 J4.483
G3 X23.168 Y5.104 I-2.912 J-1.11
G1 X22.038 Y5.512
X19.636 Y5.543
G2 X14.505 Y5.239 I-3.898 J22.284
G1 X12.106 Y5.087
G2 X9.169 Y5.139 I-1.398 J4.034
X4.326 Y9.322 I2.11 J7.338
G1 X4.305 Y9.383
X4.298 Y9.448
X4.306 Y9.513
X4.327 Y9.574
X4.361 Y9.63
X4.407 Y9.677
X4.461 Y9.713
X4.522 Y9.736
X4.586 Y9.745
X4.651 Y9.741
X4.714 Y9.722
X4.771 Y9.69
X4.825 Y9.652 Z-9.982
X4.877 Y9.615 Z-9.96
X4.923 Y9.582 Z-9.925
X4.962 Y9.554 Z-9.877
X4.991 Y9.534 Z-9.82
X5.009 Y9.521 Z-9.757
X5.016 Y9.516 Z-9.69
G0 Z3.01
X27.672 Y-0.269
Z-9.39
G1 Z-9.69 F100
X27.666 Y-0.273 Z-9.757
X27.646 Y-0.284 Z-9.82
X27.615 Y-0.302 Z-9.877
X27.574 Y-0.325 Z-9.925
X27.525 Y-0.354 Z-9.96
X27.47 Y-0.385 Z-9.982
X27.412 Y-0.418 Z-9.99
G2 X26.655 Y-0.628 I-0.788 J1.372
G1 X26.109 Y-0.62
X25.922 Y-0.608
X25.593 Y-0.428
X25.043 Y0.082
X24.777 Y0.783
X24.599 Y1.512
X24.389 Y2.695
G3 X22.349 Y4.739 I-2.953 J-0.907
G1 X21.181 Y5.017
X18.778 Y5.061
X18.053 Y4.872
X17.307 Y4.795
X15.722 Y4.731
X13.319 Y4.739
X11.442 Y4.478
G2 X4.93 Y7.483 I-0.578 J7.305
G1 X4.689 Y7.772
X4.522 Y8.022
X4.207 Y8.533
G2 X4.619 Y8.94 I0.261 J0.149
G1 X4.676 Y8.907 Z-9.982
X4.731 Y8.875 Z-9.96
X4.78 Y8.846 Z-9.925
X4.821 Y8.822 Z-9.877
X4.852 Y8.804 Z-9.82
X4.871 Y8.793 Z-9.757
X4.878 Y8.789 Z-9.69
G0 Z3.01
X27.126 Y-0.261
Z-9.39
G1 Z-9.69 F100
X27.12 Y-0.264 Z-9.757
X27.1 Y-0.276 Z-9.82
X27.069 Y-0.293 Z-9.877
X27.028 Y-0.317 Z-9.925
X26.979 Y-0.345 Z-9.96
X26.924 Y-0.377 Z-9.982
X26.866 Y-0.41 Z-9.99
G2 X26.109 Y-0.62 I-0.788 J1.372
G1 X25.735 Y-0.614
X25.36 Y-0.59
X25.039 Y-0.397
X24.546 Y0.168
X24.28 Y0.869
X23.99 Y2.035
G3 X22.045 Y4.157 I-2.856 J-0.666
G1 X20.896 Y4.508
X18.494 Y4.583
X17.771 Y4.387
X17.025 Y4.306
G3 X10.598 Y3.976 I1.211 J-86.329
G2 X4.213 Y7.647 I0.383 J8.054
G1 X4.184 Y7.697
X4.165 Y7.751
X4.157 Y7.809
X4.272 Y8.045
X4.617 Y8.081
X4.818 Y8.102 F1200
X21.742 Y7.679
X23.925 Y6.984
X25.563 Y5.756
G2 X26.208 Y4.644 I-1.768 J-1.768
G1 X27.201 Y1.48
G2 X26.484 Y-0.409 I-1.498 J-0.512
X25.735 Y-0.614 I-0.781 J1.377 F100
G1 X25.017 Y-0.603
X24.83 Y-0.591
X24.231 Y-0.14
X23.905 Y0.536
X23.556 Y1.685
G3 X21.481 Y3.703 I-2.997 J-1.006
G1 X20.322 Y4.019
X19.121 Y4.064
G2 X11.781 Y3.641 I-6.581 J50.324
X4.718 Y6.28 I-1.149 J7.696
G1 X4.503 Y6.491
X4.255 Y6.661 F90
X3.972 Y6.762
X3.673 Y6.788
X3.377 Y6.737
X3.104 Y6.611
X2.872 Y6.42 F100
X2.521 Y5.933
X2.121 Y4.8
X2.075 Y2.398
X2.039 Y1.649
X2.008 Y1.452
X1.937 Y1.196
X1.808 Y0.964
X1.627 Y0.769
X1.406 Y0.622
X1.051 Y0.358
G2 X0.608 Y0.731 I-0.172 J0.246
G1 X0.636 Y0.792 Z-9.982
X0.663 Y0.849 Z-9.96
X0.687 Y0.901 Z-9.925
X0.707 Y0.944 Z-9.877
X0.722 Y0.976 Z-9.82
X0.732 Y0.996 Z-9.757
X0.735 Y1.003 Z-9.69
G0 Z3.01
X26.034 Y-0.244
Z-9.39
G1 Z-9.69 F100
X26.028 Y-0.248 Z-9.757
X26.009 Y-0.259 Z-9.82
X25.978 Y-0.277 Z-9.877
X25.936 Y-0.3 Z-9.925
X25.887 Y-0.329 Z-9.96
X25.832 Y-0.36 Z-9.982
X25.774 Y-0.393 Z-9.99
G2 X25.017 Y-0.603 I-0.788 J1.372
G1 X24.643 Y-0.598
X24.456 Y-0.585
X24.115 Y-0.429
X23.615 Y0.13
X23.155 Y1.24
G3 X19.884 Y3.534 I-3.509 J-1.523
G1 X17.481 Y3.481
G2 X10.799 Y3.14 I-5.057 J33.387
X5.887 Y4.639 I-0.47 J7.257
G1 X5.273 Y5.071
X5.038 Y5.257
X4.762 Y5.378 F90
X4.466 Y5.424
X4.167 Y5.392
X3.886 Y5.286
X3.642 Y5.111 F100
X3.229 Y4.675
G3 X2.512 Y1.499 I5.278 J-2.859
G1 X2.465 Y1.431
X2.346 Y1.197
X2.178 Y0.996
X1.968 Y0.838
X1.729 Y0.73
X1.423 Y0.631
X1.406 Y0.622
X1.269 Y0.595
X0.985 Y0.822
X0.87 Y1.08
X-0.096 Y3.247 F1200
G2 X-0.007 Y5.736 I2.211 J1.167
G1 X0.996 Y7.084
X2.634 Y8.087
X3.18 Y8.396
G2 X4.272 Y8.596 I0.985 J-2.298
G1 X21.196 Y6.631
X23.925 Y5.445
G2 X25.028 Y4.098 I-1.263 J-2.158
G1 X26.109 Y1.496
G2 X25.392 Y-0.392 I-1.498 J-0.512
X24.643 Y-0.598 I-0.781 J1.377 F100
G1 X24.097 Y-0.589
X23.91 Y-0.577
X23.288 Y-0.158
G3 X21.584 Y2.277 I-5.417 J-1.977
G1 X21.056 Y2.567
X19.932 Y2.994
X17.53 Y3.029
G2 X9.074 Y2.725 I-5.434 J33.457
X6.02 Y3.94 I2.52 J10.784
X5.51 Y4.256 I5.574 J9.569 F90
G1 X5.197 Y4.27
X4.899 Y4.233 F100
X4.614 Y4.139
X4.348 Y3.999
X3.874 Y3.63
X3.533 Y3.135
X2.839 Y1.488
X2.716 Y1.266
X2.549 Y1.076
X2.345 Y0.926
X2.114 Y0.822
X1.866 Y0.77
X1.847
X1.678 Y0.822
X1.542 Y1.11
X1.51 Y1.379
X1.187 Y4.098 F1200
G2 X2.634 Y6.939 I2.44 J0.547
G1 X3.726 Y7.338
G2 X4.818 Y7.497 I0.898 J-2.333
G1 X20.104 Y6.273
G2 X21.196 Y6.053 I0.065 J-2.499
G1 X22.288 Y5.641
X22.834 Y5.363
G2 X24.133 Y4.098 I-0.976 J-2.302
G1 X25.353 Y1.914
G2 X25.019 Y-0.27 I-1.287 J-0.921
G1 X24.837 Y-0.359
X24.471 Y-0.537 F100
X24.097 Y-0.589
X23.76 Y-0.584
X23.573 Y-0.572
X23.214 Y-0.463
X22.683 Y0.067
X22.047 Y1.086
X21.176 Y1.913
X20.08 Y2.406
X17.687 Y2.619
G2 X12.964 Y2.136 I-4.223 J17.966
G1 X10.582 Y2.128
G2 X6.669 Y3.038 I0.123 J9.399
X6.136 Y3.313 I4.036 J8.489 F90
G1 X5.826 Y3.331
X5.526 Y3.308 F100
X4.946 Y3.153
X4.443 Y2.824
X2.844 Y1.141
X2.676 Y0.995
X2.482 Y0.883
X2.271 Y0.811
X2.05 Y0.779
X1.894 Y0.822
X1.747 Y1.079
X1.784 Y1.404
X2.088 Y4.098 F1200
G2 X3.726 Y6.185 I2.486 J-0.265
G1 X4.818 Y6.567
X5.364 Y6.645
X18.466 Y5.829
X20.65 Y5.575
G2 X22.288 Y4.817 I-0.16 J-2.495
G1 X25.017 Y1.918
G2 X24.51 Y-0.378 I-1.288 J-0.919
X23.76 Y-0.584 I-0.781 J1.377 F100
G1 X23.214 Y-0.576
X23.027 Y-0.564
X22.359 Y-0.222
G3 X18.393 Y2.054 I-3.814 J-2.053
G2 X12.599 Y1.606 I-16.807 J179.775
X7.686 Y2.107 I-0.96 J14.921
G1 X6.987 Y2.383
X6.416 Y2.569
X5.815 Y2.563
G3 X3.518 Y1.117 I0.859 J-3.913
G1 X3.29 Y0.961
X3.038 Y0.855
X2.768 Y0.811
X2.05 Y0.779
G2 X1.895 Y1.338 I-0.003 J0.3
G1 X1.952 Y1.372 Z-9.982
X2.007 Y1.404 Z-9.96
X2.056 Y1.433 Z-9.925
X2.097 Y1.457 Z-9.877
X2.128 Y1.475 Z-9.82
X2.147 Y1.486 Z-9.757
X2.153 Y1.49 Z-9.69
G0 Z3.01
X24.231 Y-0.217
Z-9.39
G1 Z-9.69 F100
X24.225 Y-0.22 Z-9.757
X24.206 Y-0.231 Z-9.82
X24.175 Y-0.249 Z-9.877
X24.133 Y-0.273 Z-9.925
X24.084 Y-0.301 Z-9.96
X24.029 Y-0.333 Z-9.982
X23.971 Y-0.366 Z-9.99
G2 X23.214 Y-0.576 I-0.788 J1.372
G1 X22.668 Y-0.567
X22.481 Y-0.555
X21.811 Y-0.219
X20.998 Y0.665
X19.946 Y1.246
X18.775 Y1.515
X16.372 Y1.489
G2 X6.619 Y1.895 I-4.066 J19.702
G1 X6.021 Y1.869
X5.437 Y1.726
X3.807 Y0.949
X3.663 Y0.892
X3.512 Y0.854
X3.357 Y0.837
X2.768 Y0.811
G2 X2.613 Y1.369 I-0.003 J0.3
G1 X2.671 Y1.403 Z-9.982
X2.725 Y1.436 Z-9.96
X2.774 Y1.465 Z-9.925
X2.815 Y1.489 Z-9.877
X2.846 Y1.507 Z-9.82
X2.865 Y1.518 Z-9.757
X2.872 Y1.522 Z-9.69
G0 Z3.01
X23.685 Y-0.208
Z-9.39
G1 Z-9.69 F100
X23.679 Y-0.212 Z-9.757
X23.66 Y-0.223 Z-9.82
X23.629 Y-0.241 Z-9.877
X23.587 Y-0.265 Z-9.925
X23.538 Y-0.293 Z-9.96
X23.483 Y-0.324 Z-9.982
X23.425 Y-0.358 Z-9.99
G2 X22.668 Y-0.567 I-0.788 J1.372
G1 X22.122 Y-0.559
X21.748 Y-0.535
X21.122 Y-0.122
X20.14 Y0.571
X19.001 Y0.953
X16.601 Y1.062
G2 X7.15 Y1.232 I-4.37 J19.875
G3 X4.504 Y0.733 I-0.637 J-3.884
G1 X4.24 Y0.725
X3.987 Y0.756
X3.606 Y0.842
X3.574 Y0.846
X3.357 Y0.837
G2 X3.202 Y1.395 I-0.003 J0.3
G1 X3.259 Y1.429 Z-9.982
X3.314 Y1.462 Z-9.96
X3.363 Y1.49 Z-9.925
X3.404 Y1.515 Z-9.877
X3.435 Y1.533 Z-9.82
X3.454 Y1.544 Z-9.757
X3.46 Y1.548 Z-9.69
G0 Z3.01
X23.14 Y-0.2
Z-9.39
G1 Z-9.69 F100
X23.133 Y-0.204 Z-9.757
X23.114 Y-0.215 Z-9.82
X23.083 Y-0.233 Z-9.877
X23.042 Y-0.256 Z-9.925
X22.992 Y-0.285 Z-9.96
X22.937 Y-0.316 Z-9.982
X22.879 Y-0.349 Z-9.99
G2 X22.122 Y-0.559 I-0.788 J1.372
G1 X21.577 Y-0.551
X20.828 Y-0.502
X19.814 Y0.143
X18.656 Y0.462
X16.256 Y0.584
G2 X7.219 Y0.723 I-4.242 J18.054
G1 X6.018 Y0.71
X5.502 Y0.548
X5.282 Y0.501
X5.058 Y0.498
X4.836 Y0.538
X4.272 Y0.689
X3.987 Y0.756
G2 X3.766 Y1.045 I0.079 J0.29
G1 X4.045 Y1.323
X5.91 Y3.179 F1200
G2 X8.093 Y3.942 I1.824 J-1.71
G1 X21.742 Y2.602
G2 X22.445 Y-0.27 I-0.196 J-1.57
G1 X22.324 Y-0.31
X21.577 Y-0.551 F100
X20.65 Y-0.537
X19.901 Y-0.487
X18.77 Y-0.085
X16.376 Y0.122
G2 X12.677 Y-0.356 I-3.522 J12.712
G1 X12.614 Y-0.345
X12.554 Y-0.321
X12.501 Y-0.284
X12.457 Y-0.237
X12.424 Y-0.182
X12.404 Y-0.12
X12.398 Y-0.056
X12.406 Y0.009
X12.428 Y0.07
X12.462 Y0.125
X12.508 Y0.172
X12.562 Y0.207
X12.607 Y0.225 F1200
X12.654 Y0.236
X12.702 Y0.239
X20.651 Y0.063
X20.699 Y0.058
X20.745 Y0.046
X20.789 Y0.026
G2 X20.65 Y-0.537 I-0.145 J-0.263 F100
G1 X18.466 Y-0.501
X17.267 Y-0.42
X16.418 Y-0.463
X16.389
G2 X16.27 Y0.104 I0.017 J0.3
G1 X16.315 Y0.123 F1200
X16.363 Y0.133
X16.411 Y0.136
X18.466 Y0.099
X18.515 Y0.094
X18.562 Y0.082
X18.606 Y0.062
G2 X18.466 Y-0.501 I-0.145 J-0.262 F100
G1 X16.282 Y-0.461
X10.823 Y-0.309
X9.442 Y-0.196
G3 X5.965 Y0.25 I-5.191 J-26.701
G1 X5.903 Y0.272
X5.847 Y0.306
X5.801 Y0.352
X5.765 Y0.407
X5.742 Y0.468
X5.732 Y0.533
X5.737 Y0.598
X5.756 Y0.66
X5.788 Y0.717
X5.832 Y0.766
X5.885 Y0.804
X5.945 Y0.83
X6.005 Y0.842 F1200
X6.067 Y0.841
X10.856 Y0.289
X10.915 Y0.276
X10.97 Y0.252
G2 X10.823 Y-0.309 I-0.149 J-0.261 F100
X4.836 Y0.535 I0.227 J23.287
G1 X4.775 Y0.562
X4.722 Y0.601
X4.679 Y0.651
X4.648 Y0.709
X4.63 Y0.772
X4.626 Y0.838
X4.637 Y0.903
X4.661 Y0.964
X4.698 Y1.018
X4.746 Y1.063
X4.802 Y1.096
X4.864 Y1.117
X4.929 Y1.131 Z-9.982
X4.991 Y1.145 Z-9.96
X5.047 Y1.157 Z-9.925
X5.093 Y1.167 Z-9.877
X5.128 Y1.174 Z-9.82
X5.15 Y1.179 Z-9.757
X5.157 Y1.181 Z-9.69
G0 Z2

(Adaptive1 2)
Z3.01
X33.361 Y-1.256
Z-4.38
G1 Z-4.68 F250
X33.354 Y-1.26 Z-4.747
X33.335 Y-1.271 Z-4.81
X33.304 Y-1.29 Z-4.867
X33.263 Y-1.314 Z-4.915
X33.215 Y-1.343 Z-4.95
X33.16 Y-1.375 Z-4.973
X33.103 Y-1.409 Z-4.98
G2 X31.52 Y-1.874 I-1.699 J2.858
G1 X30.924
X30.175 Y-1.837
X29.24 Y-1.348
G2 X26.376 Y-1.002 I8.827 J85.153
G1 X26.145 Y-0.876
X25.947 Y-0.704
X25.793 Y-0.493
X25.69 Y-0.252
G2 X26.062 Y0.113 I0.29 J0.076
G1 X26.21 Y0.071
X30.995 Y-1.286 F1200
X31.025 Y-1.296
X31.054 Y-1.31
G2 X30.924 Y-1.874 I-0.141 J-0.265 F250
G1 X29.965
X29.215 Y-1.837
X26.816 Y-1.532
X26.57 Y-1.471
X26.343 Y-1.359
X26.146 Y-1.2
G2 X26.413 Y-0.7 I0.22 J0.204
G1 X26.453 Y-0.706
X30.002 Y-1.278 F1200
X30.034 Y-1.285
X30.065 Y-1.296
X30.095 Y-1.31
G2 X29.965 Y-1.874 I-0.141 J-0.265 F250
G1 X27.488
X26.529 Y-1.584
X25.902 Y-0.957
X25.77 Y-1.089
G2 X8.411 Y-0.639 I9.906 J717.709
G1 X6.329 Y-0.272
X4.261 Y0.15
X3.214 Y0.284
X2.164 Y0.178
X1.683 Y-0.039
X1.251 Y-0.341
X0.92 Y-0.752
X0.45 Y-1.697
X0.175 Y-3.789
X0.206 Y-4.316
X0.221 Y-5.397
X-0.133 Y-17.222
X-0.557 Y-18.148
X-0.723 Y-18.953
X-0.698 Y-19.216 F225
X-0.616 Y-19.467 F250
X-0.364 Y-19.931
X0.019 Y-20.293
X0.478 Y-20.552
X1.476 Y-20.897
X3.582 Y-21.034
X4.109 Y-21.004
X5.756 Y-20.956
X11.474 Y-20.971
X17.192 Y-20.976
X22.91 Y-20.971
X28.628 Y-20.955
X29.228 Y-20.953 F225
X29.714 Y-20.719 F250
X30.105 Y-20.365
X30.391 Y-19.922
X30.779 Y-18.94
X30.95 Y-16.837
G2 X30.888 Y-4.74 I401.205 J8.1
X30.895 Y-4.14 I401.267 J-3.996 F225
G1 X30.795 Y-3.888
X30.546 Y-3.423 F250
G3 X27.962 Y-2.401 I-2.448 J-2.411
G1 X27.222 Y-2.276
X26.5 Y-2.072
X25.518 Y-1.688
X23.413 Y-1.527
X21.47 Y-1.538
X17.186 Y-1.42
X12.903 Y-1.294
X8.619 Y-1.159
X7.001 Y-0.9
X4.926 Y-0.514
G3 X2.339 Y-0.518 I-1.289 J-3.524
X0.774 Y-3.149 I1.784 J-2.841
G1 X0.649 Y-5.256
G2 X0.335 Y-17.205 I-252.712 J0.659
G1 X0.152 Y-17.699
X0.09 Y-17.956
X0.073 Y-18.219
X0.135 Y-18.743
X0.361 Y-19.22
X0.704 Y-19.62
X1.137 Y-19.922
X2.101 Y-20.352
X4.191 Y-20.643
X4.931 Y-20.52
G2 X12.011 Y-20.462 I5.032 J-181.122
G1 X17.462 Y-20.473
X22.914
X28.365 Y-20.462
X28.863 Y-20.274
G3 X30.372 Y-17.631 I-1.662 J2.701
G1 X30.464 Y-15.523
X30.4 Y-14.776
G2 X30.392 Y-5.279 I548.46 J5.203
G1 X30.333 Y-4.755
X30.122 Y-4.271
X29.794 Y-3.858
X29.385 Y-3.525
X28.447 Y-3.042
X27.345 Y-2.804
X26.619 Y-2.615
X25.624 Y-2.264
X23.532 Y-1.982
X22.468 Y-2.031
X17.669 Y-1.911
X12.869 Y-1.78
G2 X4.02 Y-0.835 I-0.817 J34.259
G1 X3.49 Y-0.882
X2.987 Y-1.04
X2.535 Y-1.312
X2.147 Y-1.669
X1.839 Y-2.098
X1.38 Y-3.048
X1.075 Y-5.137
G2 X0.987 Y-11.572 I-38.682 J-2.686
X0.727 Y-17.819 I-47.315 J-1.165
G1 X0.856 Y-18.33
G3 X3.386 Y-20.012 I2.744 J1.384
G1 X5.494 Y-20.106
X6.238 Y-20.011
X11.888 Y-19.994
X17.539 Y-19.985
X23.189
X25.261 Y-19.948
X27.371 Y-20.002
X27.891 Y-19.915
G3 X29.421 Y-18.547 I-0.769 J2.399
G1 X29.802 Y-17.563
X30.026 Y-15.464
G2 X29.926 Y-8.734 I43.477 J4.011
G1 X29.869 Y-6.622
X29.891 Y-5.567
X29.728 Y-5.065
X29.448 Y-4.618
X29.09 Y-4.23
X28.232 Y-3.617
X26.222 Y-2.974
X24.171 Y-2.473
G2 X17.28 Y-2.383 I-2.531 J70.348
X8.632 Y-2.144 I0.893 J189.016
G3 X4.108 Y-1.458 I-13.982 J-76.861
X2.39 Y-2.6 I0.429 J-2.507
G1 X1.895 Y-3.532
X1.671 Y-4.563
G2 X1.318 Y-17.04 I-352.72 J3.742
G1 X1.388 Y-17.563
X1.593 Y-18.05
X1.898 Y-18.48
X2.294 Y-18.829
X2.75 Y-19.095
X3.739 Y-19.461
X5.839 Y-19.677
G2 X11.543 Y-19.506 I3.591 J-24.592
X23.886 Y-19.498 I6.728 J-808.951
G1 X24.857 Y-19.458
X26.967 Y-19.473
X27.48 Y-19.351
G3 X29.412 Y-16.413 I-1.484 J3.081
G1 X29.546 Y-14.307
X29.42 Y-13.567
X29.367 Y-12.459
X29.36 Y-10.954
G3 X29.285 Y-6.149 I-23.171 J2.041
X29.206 Y-5.554 I-23.096 J-2.764 F225
G1 X28.891 Y-5.106 F250
X28.543 Y-4.71
X27.71 Y-4.062
X25.751 Y-3.277
X23.665 Y-2.958
G2 X16.971 Y-2.848 I-2.554 J48.585
X8.87 Y-2.647 I5.04 J365.663
G1 X7.531 Y-2.491
X5.447 Y-2.155
X4.924 Y-2.086
X4.398 Y-2.126
G3 X2.762 Y-3.364 I0.568 J-2.45
G1 X2.295 Y-4.31
X2.024 Y-6.403
G2 X2.001 Y-11.482 I-24.038 J-2.431
X1.899 Y-16.754 I-177.912 J0.806
G1 X2.032 Y-17.264
X2.289 Y-17.725
G3 X5.049 Y-19.085 I2.871 J2.347
G1 X7.16 Y-19.092
G2 X13.097 Y-19.007 I3.544 J-39.957
G1 X17.477 Y-18.983
X21.856 Y-18.969
X26.235 Y-18.965
G3 X28.357 Y-17.588 I-0.206 J2.64
G1 X28.805 Y-16.632
X29.106 Y-14.544
G2 X28.98 Y-8.4 I23.359 J3.556
G1 X28.905 Y-7.652
G3 X28.105 Y-5.227 I-2.845 J0.405
G1 X27.316 Y-4.527
X26.366 Y-4.069
X25.361 Y-3.746
X23.282 Y-3.385
G2 X16.058 Y-3.288 I-3.11 J37.293
G1 X15.307 Y-3.341
X14.181 Y-3.345
G2 X8.101 Y-3.08 I1.365 J101.035
G1 X6.012 Y-2.774
X5.49 Y-2.698
X4.963 Y-2.719
X4.455 Y-2.862
X3.996 Y-3.123
G3 X2.606 Y-5.871 I2.356 J-2.917
G2 X2.431 Y-14.2 I-144.34 J-1.126
G1 X2.418 Y-16.311
G3 X3.65 Y-17.957 I2.522 J0.603
G1 X4.59 Y-18.435
X6.683 Y-18.708
G2 X13.521 Y-18.529 I4.227 J-30.694
X26.065 Y-18.466 I8.913 J-529.716
G1 X26.564 Y-18.296
X27.021 Y-18.032
X27.415 Y-17.681
X27.75 Y-17.274
X28.255 Y-16.347
X28.482 Y-15.317
X28.54 Y-13.207
G2 X28.447 Y-8.651 I18.485 J2.653
G1 X28.403 Y-7.596
G3 X25.918 Y-4.475 I-3.588 J-0.307
G1 X23.888 Y-3.899
G2 X16.268 Y-3.805 I-3.24 J46.054
X5.541 Y-3.258 I-1.969 J66.825
G3 X3.554 Y-4.865 I0.546 J-2.707
G1 X3.187 Y-5.854
X3.033 Y-7.959
G2 X2.876 Y-14.289 I-42.23 J-2.116
G3 X3.253 Y-16.566 I4.888 J-0.36
G1 X3.592 Y-16.977
X3.983 Y-17.331
X4.893 Y-17.866
X5.923 Y-18.095
X8.033 Y-18.141
G2 X13.578 Y-18.03 I3.277 J-24.981
X19.9 Y-17.997 I3.731 J-111.216
G1 X21.258 Y-17.957
X23.367 Y-18.019
X25.477 Y-17.962
G3 X27.209 Y-16.842 I-0.53 J2.718
G1 X27.758 Y-15.941
G3 X27.869 Y-11.317 I-10.518 J2.567
G1 X27.888 Y-10.061
X27.972 Y-7.953
G3 X25.441 Y-4.885 I-3.449 J-0.268
G1 X24.433 Y-4.574
X22.337 Y-4.327
G2 X17.199 Y-4.373 I-2.737 J18.869
G1 X15.091 Y-4.264
X14.343 Y-4.313
X13.273 Y-4.322
X11.164 Y-4.248
X9.474 Y-4.181
X8.128 Y-4.069
X6.558 Y-3.872
X6.03 Y-3.879
X5.517 Y-4.001
X5.047 Y-4.24
X4.643 Y-4.58
X4.307 Y-4.987
X3.801 Y-5.912
X3.438 Y-7.991
G2 X3.386 Y-13.98 I-24.873 J-2.778
G1 X3.422 Y-15.037
G3 X4.914 Y-17.091 I2.691 J0.386
G1 X5.886 Y-17.502
X7.985 Y-17.716
G2 X12.893 Y-17.483 I3.354 J-18.824
X20.908 Y-17.478 I4.45 J-694.681
G1 X23.018 Y-17.48
X24.073 Y-17.496
G3 X26.799 Y-16.252 I0.395 J2.742
G1 X27.307 Y-15.327
X27.483 Y-14.287
X27.616 Y-12.181
G2 X27.462 Y-8.504 I10.824 J2.295
G3 X25.068 Y-5.311 I-3.579 J-0.189
G1 X24.045 Y-5.05
X22.999 Y-4.91
G2 X14.879 Y-4.745 I-2.773 J63.581
X6.734 Y-4.401 I-2.224 J43.941
G1 X6.214 Y-4.485
X5.726 Y-4.684
G3 X4.081 Y-7.27 I1.802 J-2.961
G1 X3.97 Y-9.378
G2 X3.896 Y-14.377 I-28.762 J-2.079
G3 X5.297 Y-16.514 I2.806 J0.312
G1 X6.254 Y-16.96
X7.294 Y-17.137
G2 X15.42 Y-17.028 I5.179 J-83.131
G1 X16.349 Y-16.982
X18.175 Y-16.964
X20.285 Y-17.034
X21.198 Y-16.988
X23.309 Y-16.972
X24.364 Y-16.986
G3 X26.155 Y-15.963 I-0.38 J2.745
G1 X26.733 Y-15.08
X26.973 Y-14.053
X27.15 Y-11.95
X26.983 Y-11.219
X26.93 Y-10.471
X26.896 Y-8.36
G3 X24.577 Y-5.735 I-3.247 J-0.531
X19.879 Y-5.488 I-2.969 J-11.691
X13.782 Y-5.248 I-23.736 J-525.439
G2 X7.243 Y-4.997 I-1.471 J47.015
G3 X5.114 Y-6.357 I0.122 J-2.538
G1 X4.672 Y-7.314
X4.393 Y-9.406
G2 X4.433 Y-13.78 I-18.475 J-2.356
G3 X5.741 Y-15.966 I2.744 J0.158
G1 X6.675 Y-16.455
X8.766 Y-16.744
G2 X15.271 Y-16.555 I3.947 J-23.798
G1 X16.421 Y-16.479
G3 X24.17 Y-16.427 I2.929 J141.15
X25.851 Y-15.207 I-0.806 J2.878
X26.518 Y-11.442 I-4.438 J2.728
G1 X26.457 Y-10.694
X26.379 Y-8.585
G3 X23.339 Y-6.018 I-3.392 J-0.933
G1 X21.238 Y-5.82
G2 X14.525 Y-5.705 I-2.842 J30.082
X7.839 Y-5.566 I-2.534 J38.982
G3 X5.659 Y-6.836 I-0.003 J-2.501
G1 X5.188 Y-7.781
X4.982 Y-8.815
X4.993 Y-10.926
G3 X5.038 Y-13.783 I26.111 J-1.017
X6.242 Y-15.457 I2.639 J0.627
G1 X7.179 Y-15.942
X8.212 Y-16.156
G2 X16.659 Y-16.039 I5.282 J-76.046
G1 X17.408 Y-15.99
G3 X23.726 Y-15.945 I1.459 J238.515
X25.37 Y-14.693 I-0.818 J2.782
G1 X25.862 Y-13.76
X26.061 Y-12.724
G3 X25.716 Y-8.53 I-15.962 J0.797
X22.814 Y-6.487 I-3.336 J-1.656
G1 X20.716 Y-6.258
G2 X15.768 Y-6.313 I-2.668 J17.375
G1 X13.663 Y-6.15
G2 X8.098 Y-6.085 I-2.495 J24.538
G1 X7.581 Y-6.203
G3 X6.032 Y-7.566 I0.93 J-2.619
G1 X5.597 Y-8.527
G3 X5.603 Y-13.476 I17.981 J-2.455
X7.402 Y-15.291 I2.787 J0.963
G1 X8.417 Y-15.578
X10.527 Y-15.615
G2 X15.934 Y-15.535 I3.13 J-28.777
G1 X22.792 Y-15.473
G3 X25.165 Y-13.63 I-0.277 J2.805
G1 X25.485 Y-12.624
X25.564 Y-10.515
G3 X22.316 Y-6.952 I-3.579 J0
G1 X21.269 Y-6.822
G2 X14.187 Y-6.695 I-2.854 J38.457
G1 X12.432 Y-6.765
X10.83 Y-6.757
X8.722 Y-6.654
G3 X6.585 Y-8.002 I0.123 J-2.562
G1 X6.137 Y-8.957
X5.966 Y-9.998
X5.953 Y-12.109
G3 X7.588 Y-14.628 I2.798 J0.026
G1 X8.575 Y-15.002
X10.678 Y-15.183
G2 X15.54 Y-15.008 I3.175 J-20.543
G3 X22.784 Y-14.923 I2.431 J101.388
X24.405 Y-13.62 I-0.886 J2.762
G1 X24.871 Y-12.673
X25.011 Y-11.627
X25.039 Y-10.573
G3 X23.891 Y-8.297 I-2.88 J-0.026
G1 X23.01 Y-7.716
G3 X18.401 Y-7.439 I-2.874 J-9.318
X12.008 Y-7.201 I-9.062 J-157.226
G1 X11.257 Y-7.25
X9.148 Y-7.201
X8.627 Y-7.289
X8.139 Y-7.488
X7.706 Y-7.79
X7.337 Y-8.166
X7.042 Y-8.604
X6.599 Y-9.562
X6.352 Y-11.658
G3 X7.606 Y-13.856 I2.563 J0.005
G1 X8.522 Y-14.379
X9.559 Y-14.574
X11.665 Y-14.712
X12.396 Y-14.545
X13.144 Y-14.49
X15.075 Y-14.472
X17.185 Y-14.545
X19.05 Y-14.486
X21.161 Y-14.511
G3 X23.86 Y-13.216 I0.361 J2.708
X23.889 Y-9.255 I-2.72 J2
G1 X23.526 Y-8.871
X23.103 Y-8.555
X22.171 Y-8.06
X20.091 Y-7.705
G2 X13.332 Y-7.664 I-3.225 J25.729
G1 X11.723 Y-7.739
X9.613 Y-7.731
G3 X7.523 Y-9.164 I0.292 J-2.667
G1 X7.098 Y-10.13
X6.918 Y-11.169
G3 X8.14 Y-13.385 I2.613 J-0.004
G1 X9.061 Y-13.9
G3 X13.187 Y-13.976 I2.246 J9.814
X21.606 Y-13.953 I3.737 J172.492
X22.634 Y-9.045 I-0.548 J2.676
G1 X21.691 Y-8.562
X20.665 Y-8.317
G2 X12.512 Y-8.111 I-2.603 J58.658
G3 X9.667 Y-8.334 I2.589 J-51.377
X8.253 Y-12.568 I0.688 J-2.583
G1 X8.692 Y-12.882
X9.604 Y-13.412
X10.639 Y-13.62
G2 X16.425 Y-13.481 I7.974 J-211.973
G1 X18.534 Y-13.548
X20.643 Y-13.465
X21.167 Y-13.4
X21.669 Y-13.238
X22.125 Y-12.972
X22.512 Y-12.614
X22.804 Y-12.175
X22.97 Y-11.674
X22.988 Y-11.147
G3 X21.378 Y-9.205 I-2.506 J-0.439
G1 X20.373 Y-8.885
X18.265 Y-8.77
G2 X13.292 Y-8.694 I-2.116 J24.195
G1 X11.182 Y-8.631
X10.135 Y-8.765
X9.656 Y-8.985
X9.225 Y-9.29
X8.862 Y-9.672
X8.6 Y-10.13
X8.487 Y-10.646
X8.535 Y-11.171
X8.731 Y-11.661
X9.035 Y-12.092
X9.433 Y-12.438
X9.893 Y-12.697
X10.892 Y-13.037
X12.999 Y-13.154
G2 X18.595 Y-13.065 I3.218 J-26.317
G1 X20.704 Y-12.952
X21.195 Y-12.758
X21.404 Y-12.598 F225
X21.58 Y-12.401 F250
X21.714 Y-12.174
X21.799 Y-11.924
X21.835 Y-11.663
X21.812 Y-11.136
X21.609 Y-10.649
X21.285 Y-10.233
X20.864 Y-9.914
X19.912 Y-9.46
X17.822 Y-9.165
X17.085 Y-9.307
X16.336 Y-9.334
X15.493 Y-9.327
X13.385 Y-9.217
X11.277 Y-9.12
X10.759 Y-9.221
X10.268 Y-9.415
X10.065 Y-9.583 F225
X9.901 Y-9.79
X9.788 Y-10.028
X9.732 Y-10.286
X9.733 Y-10.55 F250
X9.831 Y-11.068
X10.089 Y-11.528
X10.471 Y-11.892
X10.926 Y-12.158
X11.914 Y-12.529
X14.018 Y-12.697
G2 X18.698 Y-12.563 I2.819 J-16.755
G1 X19.753 Y-12.5
G2 X19.778 Y-12.991 I0.004 J-0.246
G1 X19.763 Y-12.992
G2 X19.226 Y-12.528 I-0.029 J0.51
G1 X19.185 Y-11.779
X19.159 Y-11.516
X19.081 Y-11.264
X18.953 Y-11.034
X18.614 Y-10.629
X18.17 Y-10.344
X17.185 Y-9.965
X15.081 Y-9.807
X14.331 Y-9.797
X12 Y-9.704
X11.764 Y-9.559
X11.721 Y-9.405
X11.815 Y-9.187
X11.925 Y-9.174
X32.626 Y-6.691 F1200
G3 X34.827 Y-3.822 I-0.27 J2.485
G1 X34.826 Y-3.819
G3 X32.429 Y-1.706 I-2.47 J-0.386
G1 X31.903 Y-1.675 Z-9.745
X31.878 Y-1.674 Z-9.973 F250
G2 X31.326 Y-1.731 I-0.618 J3.267
G1 X30.991 Y-1.726
X30.243 Y-1.677
X29.258 Y-1.298
X27.157 Y-1.099
G2 X12.4 Y-0.774 I5.185 J571.139
X3.841 Y0.232 I-0.518 J32.495
G3 X1.315 Y-0.303 I-0.616 J-3.318
G1 X0.97 Y-0.704
X0.719 Y-1.168
X0.38 Y-2.168
X0.203 Y-4.27
G2 X-0.135 Y-17.014 I-495.938 J6.754
G3 X-0.609 Y-18.579 I8.3 J-3.37
X-0.71 Y-19.171 I8.774 J-1.805 F225
G1 X-0.61 Y-19.428
X-0.371 Y-19.898 F250
X-0.099 Y-20.167
X0.309 Y-20.446
X0.478 Y-20.551
X0.609 Y-20.7
X0.691 Y-20.881
X0.717 Y-21.078
G2 X0.15 Y-21.198 I-0.3 J0.016
G1 X0.119 Y-21.139 Z-9.966
X0.091 Y-21.082 Z-9.943
X0.065 Y-21.032 Z-9.908
X0.043 Y-20.989 Z-9.86
X0.027 Y-20.957 Z-9.803
X0.017 Y-20.938 Z-9.74
X0.014 Y-20.931 Z-9.673
G0 Z3.01
X32.008 Y-1.367
Z-9.373
G1 Z-9.673 F250
X32.002 Y-1.37 Z-9.74
X31.982 Y-1.382 Z-9.803
X31.951 Y-1.399 Z-9.86
X31.91 Y-1.423 Z-9.908
X31.861 Y-1.451 Z-9.943
X31.806 Y-1.483 Z-9.966
X31.748 Y-1.516 Z-9.973
G2 X30.991 Y-1.726 I-0.788 J1.372
G1 X28.594 Y-1.689
X26.488 Y-1.552
G2 X17.328 Y-1.39 I-2.169 J136.272
X8.428 Y-1.127 I2.509 J235.672
G3 X4.374 Y-0.394 I-34.761 J-180.708
X1.732 Y-0.474 I-1.229 J-3.084
X1.215 Y-0.777 I1.413 J-3.004 F225
G1 X0.734 Y-1.656
G2 X0.543 Y-10.038 I-267.137 J1.879 F250
G3 X0.366 Y-14.818 I23.529 J-3.265
G2 X0.041 Y-18.215 I-8.882 J-0.864
G3 X0.625 Y-19.841 I2.92 J0.131
G1 X0.683 Y-20.054
X0.709 Y-20.27
G2 X0.149 Y-20.417 I-0.3 J0.001
G1 X0.122 Y-20.354 F1200
X0.11 Y-20.287
X-0.236 Y-14.864
X-0.235 Y-14.815
X-0.226 Y-14.766
X-0.209 Y-14.719
G2 X0.363 Y-14.818 I0.272 J-0.126 F250
X0.731 Y-21.078 I-123.05 J-10.388
G1 X0.719 Y-21.145
X0.693 Y-21.208
X0.654 Y-21.264
X0.604 Y-21.309
X0.545 Y-21.343
X0.481 Y-21.363
X0.415 Y-21.368
X0.349 Y-21.359
X0.286 Y-21.336
X0.231 Y-21.301
X0.185 Y-21.254
X0.15 Y-21.198
X0.119 Y-21.139 Z-9.966
X0.091 Y-21.082 Z-9.943
X0.065 Y-21.032 Z-9.908
X0.043 Y-20.989 Z-9.86
X0.027 Y-20.957 Z-9.803
X0.017 Y-20.938 Z-9.74
X0.014 Y-20.931 Z-9.673
G0 Z3.01
X29.611 Y-1.33
Z-9.373
G1 Z-9.673 F250
X29.605 Y-1.334 Z-9.74
X29.585 Y-1.345 Z-9.803
X29.554 Y-1.363 Z-9.86
X29.513 Y-1.386 Z-9.908
X29.464 Y-1.415 Z-9.943
X29.409 Y-1.446 Z-9.966
X29.351 Y-1.48 Z-9.973
G2 X28.594 Y-1.689 I-0.788 J1.372
G1 X20.444 Y-1.562
X16.609 Y-1.497
X10.857 Y-1.341
G2 X4.375 Y-0.392 I0.07 J23.101
G1 X4.315 Y-0.367
X4.262 Y-0.329
X4.218 Y-0.281
X4.186 Y-0.225
X4.166 Y-0.163
X4.161 Y-0.098
X4.17 Y-0.033
X4.192 Y0.028
X4.228 Y0.083
X4.274 Y0.129
X4.329 Y0.164
X4.391 Y0.186
X4.456 Y0.201 Z-9.966
X4.517 Y0.216 Z-9.943
X4.573 Y0.229 Z-9.908
X4.619 Y0.24 Z-9.86
X4.654 Y0.248 Z-9.803
X4.675 Y0.253 Z-9.74
X4.683 Y0.255 Z-9.673
G0 Z2
G28 G91 Z0
G90
G28 G91 X0 Y0
G90
M5
M30
