(prop1part1)
(T1  D=3 CR=0 - ZMIN=-19.972 - flat end mill)
G90 G94
G17
G21
G28 G91 Z0
G90

(Adaptive1)
T1
S18000 M3
G54
G0 X233.286 Y14.48
Z3.01
Z-9.39
G1 Z-9.69 F100
X233.279 Y14.476 Z-9.757
X233.26 Y14.465 Z-9.82
X233.229 Y14.447 Z-9.877
X233.188 Y14.424 Z-9.925
X233.138 Y14.395 Z-9.96
X233.083 Y14.364 Z-9.982
X233.025 Y14.33 Z-9.99
G2 X231.436 Y13.889 I-1.657 J2.882
G1 X231.205 Y13.892
X231.018 Y13.904
X230.93 Y14.649
X230.877 Y16.134
X230.88 Y16.472
X230.912 Y16.733
X231.001 Y16.98
X231.143 Y17.201
X231.331 Y17.384
X231.555 Y17.521
X231.805 Y17.604
X232.066 Y17.629
G2 X232.34 Y17.251 I-0.015 J-0.3
G1 X232.275 Y17.01
X231.593 Y14.499 F1200
X231.489 Y14.113 F100
G2 X231.205 Y13.892 I-0.29 J0.079
G1 X230.841 Y13.897
X230.654 Y13.909
X230.482 Y14.64
X230.42 Y15.387
X230.393 Y16.136
X230.458 Y16.624
X230.529 Y16.897
X230.663 Y17.145
X230.852 Y17.353
X231.086 Y17.51
X231.351 Y17.606
X231.631 Y17.636
G2 X231.907 Y17.264 I-0.015 J-0.3
G1 X231.846 Y17.016
X231.221 Y14.507 F1200
X231.126 Y14.125 F100
G2 X230.841 Y13.897 I-0.291 J0.072
G1 X230.492 Y13.902
X230.305 Y13.914
X230.045 Y14.618
X229.95 Y15.362
X229.931 Y16.111
X230.039 Y16.854
X230.139 Y17.037
X230.284 Y17.244
X230.469 Y17.415
X230.688 Y17.542
X230.928 Y17.619
X231.179 Y17.643
G2 X231.458 Y17.28 I-0.015 J-0.3
G1 X231.402 Y17.021
X230.861 Y14.514 F1200
X230.779 Y14.139 F100
G2 X230.492 Y13.902 I-0.293 J0.063
G1 X230.111 Y13.908
X229.924 Y13.92
X229.608 Y14.6
X229.49 Y15.341
X229.471 Y16.09
X229.562 Y16.835
X229.671 Y17.037
X229.815 Y17.246
X230.001 Y17.419
X230.22 Y17.547
X230.462 Y17.626
X230.714 Y17.65
G2 X230.994 Y17.294 I-0.015 J-0.3
G1 X230.944 Y17.026
X230.47 Y14.522 F1200
X230.4 Y14.152 F100
G2 X230.111 Y13.908 I-0.295 J0.056
G1 X229.748 Y13.913
X229.561 Y13.925
X229.173 Y14.567
X229.036 Y15.304
X229.008 Y16.054
X229.083 Y16.8
X229.196 Y17.02
X229.338 Y17.236
X229.525 Y17.416
X229.748 Y17.55
X229.994 Y17.631
X230.252 Y17.656
G2 X230.533 Y17.31 I-0.015 J-0.3
G1 X230.489 Y17.031
X230.095 Y14.529 F1200
X230.038 Y14.166 F100
G2 X229.748 Y13.913 I-0.296 J0.047
G1 X229.4 Y13.918
X229.213 Y13.93
X228.736 Y14.508
X228.585 Y15.243
X228.545 Y15.992
X228.602 Y16.74
X228.719 Y16.99
X228.859 Y17.218
X229.047 Y17.408
X229.274 Y17.55
X229.527 Y17.636
X229.793 Y17.663
X230.252 Y17.656
G2 X230.527 Y17.279 I-0.015 J-0.3
G1 X230.462 Y17.037
X229.787 Y14.526 F1200
X229.684 Y14.14 F100
G2 X229.4 Y13.918 I-0.29 J0.078
G1 X229.019 Y13.924
X228.832 Y13.936
X228.56 Y14.193
X228.217 Y14.86
X228.098 Y15.601
X228.097 Y16.351
X228.27 Y17.081
X228.339 Y17.178
X228.528 Y17.387
X228.763 Y17.544
X229.027 Y17.64
X229.308 Y17.67
X229.793 Y17.663
G2 X230.07 Y17.292 I-0.015 J-0.3
G1 X230.009 Y17.042
X229.397 Y14.533 F1200
X229.305 Y14.153 F100
G2 X229.019 Y13.924 I-0.291 J0.071
G1 X228.656 Y13.929
X228.469 Y13.941
X227.931 Y14.464
X227.704 Y15.179
X227.629 Y15.925
X227.701 Y16.671
X227.777 Y16.891
X227.906 Y17.153
X228.096 Y17.374
X228.334 Y17.541
X228.607 Y17.644
X228.896 Y17.676
X229.308 Y17.67
G2 X229.587 Y17.31 I-0.015 J-0.3
G1 X229.533 Y17.047
X229.02 Y14.542 F1200
X228.944 Y14.169 F100
G2 X228.656 Y13.929 I-0.294 J0.06
G1 X228.308 Y13.934
X228.121 Y13.947
X227.804 Y14.147
X227.378 Y14.764
X227.208 Y15.494
X227.193 Y16.244
X227.333 Y16.981
X227.417 Y17.12
X227.564 Y17.314
X227.748 Y17.473
X227.96 Y17.59
X228.193 Y17.661
X228.434 Y17.683
X228.896 Y17.676
G2 X229.176 Y17.322 I-0.015 J-0.3
G1 X229.127 Y17.052
X228.665 Y14.548 F1200
X228.597 Y14.18 F100
G2 X228.308 Y13.934 I-0.295 J0.054
G1 X227.927 Y13.94
X227.74 Y13.952
X227.43 Y14.163
X226.933 Y14.724
X226.763 Y15.455
X226.735 Y16.205
X226.846 Y16.946
X226.943 Y17.113
X227.089 Y17.311
X227.274 Y17.474
X227.488 Y17.595
X227.724 Y17.668
X227.969 Y17.69
X228.434 Y17.683
G2 X228.715 Y17.336 I-0.015 J-0.3
G1 X228.671 Y17.057
X228.275 Y14.556 F1200
X228.218 Y14.193 F100
G2 X227.927 Y13.94 I-0.296 J0.047
G1 X227.564 Y13.946
X227.377 Y13.958
X227.047 Y14.136
X226.77 Y14.388
X226.409 Y15.046
X226.288 Y15.786
X226.314 Y16.536
X226.518 Y17.257
X226.553 Y17.297
X226.739 Y17.47
X226.958 Y17.598
X227.2 Y17.675
X227.453 Y17.699
X227.969 Y17.69
G2 X228.251 Y17.353 I-0.015 J-0.3
G1 X228.215 Y17.064
X227.901 Y14.563 F1200
X227.856 Y14.208 F100
G2 X227.564 Y13.946 I-0.298 J0.037
G1 X227.216 Y13.954
X227.029 Y13.97
X226.676 Y14.095
X226.143 Y14.623
X225.903 Y15.333
X225.836 Y16.08
X225.924 Y16.825
X226.056 Y17.184
X226.207 Y17.37
X226.392 Y17.521
X226.605 Y17.631
X226.835 Y17.695
X227.074 Y17.711
X227.453 Y17.699
G2 X227.737 Y17.378 I-0.015 J-0.3
G1 X227.715 Y17.07
X227.539 Y14.568 F1200
X227.515 Y14.233 F100
G2 X227.216 Y13.954 I-0.299 J0.021
G1 X226.675 Y13.972
X226.488 Y13.988
X226.155 Y14.16
X225.651 Y14.715
X225.444 Y15.436
X225.395 Y16.185
X225.49 Y16.929
X225.566 Y17.081
X225.711 Y17.304
X225.903 Y17.489
X226.132 Y17.625
X226.386 Y17.705
X226.651 Y17.726
X227.074 Y17.711
G2 X227.35 Y17.376 I-0.021 J-0.299
G1 X227.315 Y17.079
X227.014 Y14.585 F1200
X226.973 Y14.237 F100
G2 X226.675 Y13.972 I-0.298 J0.036
G1 X226.306 Y13.985
X225.933 Y14.022
X225.622 Y14.233
X225.166 Y14.828
X224.985 Y15.556
X224.954 Y16.305
X225.063 Y17.047
X225.163 Y17.204
X225.316 Y17.397
X225.506 Y17.553
X225.725 Y17.666
X225.962 Y17.73
X226.207 Y17.743
X226.651 Y17.726
G2 X226.928 Y17.396 I-0.021 J-0.299
G1 X226.897 Y17.093
X226.639 Y14.598 F1200
X226.604 Y14.254 F100
G2 X226.306 Y13.985 I-0.298 J0.031
G1 X225.657 Y14.017
X225.47 Y14.036
X225.172 Y14.263
X224.71 Y14.854
X224.535 Y15.583
X224.504 Y16.333
X224.602 Y17.076
X224.703 Y17.234
X224.856 Y17.425
X225.046 Y17.579
X225.264 Y17.69
X225.5 Y17.754
X225.744 Y17.767
X226.207 Y17.743
G2 X226.478 Y17.395 I-0.026 J-0.299
G1 X226.43 Y17.109
X226.016 Y14.622 F1200
X225.957 Y14.268 F100
G2 X225.657 Y14.017 I-0.296 J0.049
G1 X225.214 Y14.039
X225.027 Y14.059
X224.726 Y14.282
X224.256 Y14.866
X224.086 Y15.597
X224.051 Y16.346
X224.137 Y17.091
X224.236 Y17.249
X224.389 Y17.442
X224.58 Y17.599
X224.799 Y17.713
X225.036 Y17.777
X225.283 Y17.791
X225.744 Y17.767
G2 X226.014 Y17.421 I-0.026 J-0.299
G1 X225.968 Y17.132
X225.571 Y14.645 F1200
X225.515 Y14.292 F100
G2 X225.214 Y14.039 I-0.296 J0.047
G1 X224.881 Y14.057
X224.694 Y14.077
X224.367 Y14.259
X224.094 Y14.517
X223.734 Y15.175
X223.608 Y15.914
X223.617 Y16.664
X223.81 Y17.389
X223.849 Y17.433
X224.044 Y17.606
X224.271 Y17.731
X224.521 Y17.803
X224.78 Y17.818
X225.283 Y17.791
G2 X225.555 Y17.457 I-0.026 J-0.299
G1 X225.519 Y17.154
X225.225 Y14.663 F1200
X225.184 Y14.322 F100
G2 X224.881 Y14.057 I-0.298 J0.035
G1 X224.491 Y14.078
X224.305 Y14.098
X223.962 Y14.251
X223.443 Y14.792
X223.213 Y15.506
X223.145 Y16.253
X223.232 Y16.998
X223.269 Y17.093
X223.408 Y17.351
X223.606 Y17.565
X223.851 Y17.724
X224.129 Y17.816
X224.42 Y17.837
X224.78 Y17.818
G2 X225.052 Y17.495 I-0.027 J-0.299
G1 X225.026 Y17.179
X224.823 Y14.686 F1200
X224.796 Y14.354 F100
G2 X224.491 Y14.078 I-0.299 J0.024
G1 X223.94 Y14.108
X223.754 Y14.127
X223.432 Y14.32
X222.953 Y14.897
X222.751 Y15.619
X222.705 Y16.368
X222.803 Y17.111
X222.903 Y17.284
X223.055 Y17.489
X223.248 Y17.656
X223.472 Y17.777
X223.717 Y17.847
X223.972 Y17.861
X224.42 Y17.837
G2 X224.69 Y17.496 I-0.027 J-0.299
G1 X224.648 Y17.201
X224.292 Y14.713 F1200
X224.242 Y14.365 F100
G2 X223.94 Y14.108 I-0.297 J0.042
G1 X223.559 Y14.128
X223.373 Y14.147
X223.043 Y14.326
X222.773 Y14.586
X222.401 Y15.237
X222.265 Y15.975
X222.282 Y16.724
X222.489 Y17.445
X222.533 Y17.496
X222.728 Y17.671
X222.956 Y17.798
X223.206 Y17.872
X223.467 Y17.887
X223.972 Y17.861
G2 X224.244 Y17.526 I-0.026 J-0.299
G1 X224.207 Y17.224
X223.904 Y14.734 F1200
X223.862 Y14.391 F100
G2 X223.559 Y14.128 I-0.298 J0.036
G1 X223.196 Y14.147
X223.009 Y14.166
X222.661 Y14.304
X222.128 Y14.832
X221.881 Y15.54
X221.809 Y16.287
X221.897 Y17.031
X222.03 Y17.382
X222.192 Y17.578
X222.38 Y17.727
X222.595 Y17.835
X222.827 Y17.896
X223.067 Y17.908
X223.467 Y17.887
G2 X223.74 Y17.566 I-0.026 J-0.299
G1 X223.716 Y17.249
X223.526 Y14.755 F1200
X223.5 Y14.424 F100
G2 X223.196 Y14.147 I-0.299 J0.023
G1 X222.784 Y14.167
X222.411 Y14.204
X222.089 Y14.396
X221.617 Y14.979
X221.413 Y15.701
X221.373 Y16.45
X221.483 Y17.191
X221.557 Y17.326
X221.706 Y17.538
X221.899 Y17.711
X222.125 Y17.838
X222.374 Y17.912
X222.633 Y17.929
X223.067 Y17.908
G2 X223.34 Y17.585 I-0.026 J-0.299
G1 X223.315 Y17.27
X223.114 Y14.776 F1200
X223.087 Y14.443 F100
G2 X222.784 Y14.167 I-0.299 J0.024
G1 X222.281 Y14.192
X222.094 Y14.21
X221.755 Y14.369
X221.472 Y14.616
X221.083 Y15.257
X220.938 Y15.993
X220.951 Y16.743
X221.135 Y17.47
X221.187 Y17.533
X221.382 Y17.718
X221.613 Y17.854
X221.87 Y17.933
X222.138 Y17.952
X222.633 Y17.929
G2 X222.907 Y17.599 I-0.024 J-0.299
G1 X222.876 Y17.293
X222.619 Y14.8 F1200
X222.584 Y14.461 F100
G2 X222.281 Y14.192 I-0.298 J0.031
G1 X221.756 Y14.214
X221.569 Y14.229
X221.256 Y14.435
X220.737 Y14.976
X220.52 Y15.695
X220.472 Y16.443
X220.58 Y17.185
X220.637 Y17.303
X220.779 Y17.531
X220.971 Y17.72
X221.2 Y17.86
X221.456 Y17.944
X221.724 Y17.968
X222.138 Y17.952
G2 X222.412 Y17.619 I-0.024 J-0.299
G1 X222.377 Y17.316
X222.093 Y14.827 F1200
X222.053 Y14.48 F100
G2 X221.756 Y14.214 I-0.298 J0.034
G1 X221.375 Y14.226
X221.188 Y14.241
X220.853 Y14.409
X220.572 Y14.657
X220.181 Y15.297
X220.037 Y16.033
X220.054 Y16.783
X220.25 Y17.507
X220.297 Y17.564
X220.487 Y17.745
X220.714 Y17.88
X220.964 Y17.96
X221.226 Y17.982
X221.724 Y17.968
G2 X222.003 Y17.637 I-0.019 J-0.299
G1 X221.971 Y17.337
X221.708 Y14.839 F1200
X221.672 Y14.494 F100
G2 X221.375 Y14.226 I-0.298 J0.031
G1 X221.012 Y14.237
X220.825 Y14.252
X220.47 Y14.373
X219.921 Y14.884
X219.661 Y15.587
X219.583 Y16.333
X219.663 Y17.079
X219.789 Y17.432
X219.952 Y17.641
X220.136 Y17.795
X220.348 Y17.908
X220.578 Y17.975
X220.818 Y17.994
X221.226 Y17.982
G2 X221.507 Y17.664 I-0.019 J-0.299
G1 X221.487 Y17.35
X221.331 Y14.851 F1200
X221.31 Y14.518 F100
G2 X221.012 Y14.237 I-0.299 J0.019
G1 X220.513 Y14.25
X220.326 Y14.264
X219.98 Y14.41
X219.436 Y14.926
X219.207 Y15.64
X219.139 Y16.387
X219.214 Y17.133
X219.302 Y17.325
X219.443 Y17.557
X219.634 Y17.75
X219.864 Y17.894
X220.122 Y17.98
X220.393 Y18.005
X220.818 Y17.994
G2 X221.098 Y17.667 I-0.018 J-0.299
G1 X221.07 Y17.363
X220.84 Y14.866 F1200
X220.809 Y14.523 F100
G2 X220.513 Y14.25 I-0.299 J0.028
G1 X220.123 Y14.26
X219.749 Y14.289
X219.422 Y14.472
X218.94 Y15.047
X218.742 Y15.77
X218.696 Y16.519
X218.794 Y17.263
X218.898 Y17.44
X219.046 Y17.64
X219.232 Y17.804
X219.449 Y17.925
X219.687 Y17.997
X219.935 Y18.017
X220.393 Y18.005
G2 X220.673 Y17.681 I-0.018 J-0.299
G1 X220.649 Y17.374
X220.447 Y14.876 F1200
X220.419 Y14.536 F100
G2 X220.123 Y14.26 I-0.299 J0.024
G1 X219.572 Y14.276
X219.385 Y14.291
X219.052 Y14.462
X218.775 Y14.715
X218.398 Y15.364
X218.259 Y16.101
X218.271 Y16.851
X218.468 Y17.574
X218.51 Y17.624
X218.701 Y17.802
X218.927 Y17.933
X219.176 Y18.011
X219.436 Y18.032
X219.935 Y18.017
G2 X220.215 Y17.684 I-0.018 J-0.299
G1 X220.182 Y17.387
X219.907 Y14.889 F1200
X219.869 Y14.543 F100
G2 X219.572 Y14.276 I-0.298 J0.033
G1 X219.191 Y14.288
X219.004 Y14.303
X218.656 Y14.442
X218.121 Y14.968
X217.875 Y15.676
X217.8 Y16.423
X217.885 Y17.168
X218.021 Y17.525
X218.215 Y17.749
X218.459 Y17.917
X218.737 Y18.018
X219.032 Y18.045
X219.436 Y18.032
G2 X219.715 Y17.711 I-0.02 J-0.299
G1 X219.693 Y17.399
X219.513 Y14.902 F1200
X219.489 Y14.566 F100
G2 X219.191 Y14.288 I-0.299 J0.021
G1 X218.662 Y14.305
X218.475 Y14.323
X218.142 Y14.495
X217.632 Y15.045
X217.416 Y15.763
X217.359 Y16.511
X217.447 Y17.256
X217.53 Y17.42
X217.678 Y17.644
X217.872 Y17.828
X218.104 Y17.963
X218.36 Y18.041
X218.628 Y18.059
X219.032 Y18.045
G2 X219.31 Y17.713 I-0.02 J-0.299
G1 X219.276 Y17.413
X218.998 Y14.918 F1200
X218.959 Y14.571 F100
G2 X218.662 Y14.305 I-0.298 J0.033
G1 X218.099 Y14.331
X217.912 Y14.349
X217.603 Y14.561
X217.145 Y15.155
X216.955 Y15.881
X216.917 Y16.63
X217.021 Y17.373
X217.126 Y17.539
X217.278 Y17.732
X217.468 Y17.889
X217.686 Y18.002
X217.923 Y18.067
X218.168 Y18.082
X218.628 Y18.059
G2 X218.899 Y17.713 I-0.025 J-0.299
G1 X218.853 Y17.425
X218.455 Y14.937 F1200
X218.399 Y14.584 F100
G2 X218.099 Y14.331 I-0.296 J0.047
G1 X217.736 Y14.348
X217.549 Y14.366
X217.228 Y14.56
X216.702 Y15.095
X216.512 Y15.82
X216.459 Y16.568
X216.535 Y17.314
X216.64 Y17.503
X216.79 Y17.715
X216.983 Y17.888
X217.209 Y18.014
X217.458 Y18.087
X217.717 Y18.103
X218.168 Y18.082
G2 X218.441 Y17.744 I-0.025 J-0.299
G1 X218.403 Y17.446
X218.082 Y14.956 F1200
X218.037 Y14.61 F100
G2 X217.736 Y14.348 I-0.298 J0.038
G1 X217.388 Y14.365
X217.015 Y14.402
X216.697 Y14.602
X216.226 Y15.185
X216.051 Y15.915
X216.011 Y16.664
X216.1 Y17.408
X216.21 Y17.583
X216.363 Y17.776
X216.552 Y17.933
X216.77 Y18.046
X217.008 Y18.112
X217.253 Y18.126
X217.717 Y18.103
G2 X217.99 Y17.776 I-0.025 J-0.299
G1 X217.961 Y17.467
X217.723 Y14.973 F1200
X217.691 Y14.636 F100
G2 X217.388 Y14.365 I-0.299 J0.028
G1 X216.847 Y14.391
X216.66 Y14.41
X216.331 Y14.59
X216.059 Y14.848
X215.698 Y15.506
X215.57 Y16.244
X215.58 Y16.994
X215.779 Y17.717
X215.819 Y17.762
X216.012 Y17.935
X216.238 Y18.061
X216.487 Y18.134
X216.746 Y18.15
X217.253 Y18.126
G2 X217.526 Y17.791 I-0.025 J-0.299
G1 X217.49 Y17.49
X217.19 Y14.999 F1200
X217.149 Y14.656 F100
G2 X216.847 Y14.391 I-0.298 J0.036
G1 X216.478 Y14.41
X216.291 Y14.426
X215.944 Y14.568
X215.419 Y15.104
X215.181 Y15.815
X215.109 Y16.562
X215.194 Y17.307
X215.233 Y17.411
X215.368 Y17.668
X215.563 Y17.884
X215.805 Y18.046
X216.08 Y18.142
X216.369 Y18.167
X216.746 Y18.15
G2 X217.02 Y17.828 I-0.025 J-0.299
G1 X216.995 Y17.513
X216.804 Y15.021 F1200
X216.778 Y14.687 F100
G2 X216.478 Y14.41 I-0.299 J0.023
G1 X215.915 Y14.432
X215.728 Y14.448
X215.405 Y14.639
X214.924 Y15.214
X214.718 Y15.935
X214.669 Y16.684
X214.767 Y17.427
X214.864 Y17.598
X215.013 Y17.803
X215.203 Y17.971
X215.425 Y18.094
X215.668 Y18.166
X215.92 Y18.184
X216.369 Y18.167
G2 X216.645 Y17.827 I-0.022 J-0.299
G1 X216.605 Y17.535
X216.262 Y15.041 F1200
X216.213 Y14.691 F100
G2 X215.915 Y14.432 I-0.297 J0.041
G1 X215.552 Y14.446
X215.365 Y14.463
X215.031 Y14.634
X214.756 Y14.888
X214.375 Y15.534
X214.233 Y16.271
X214.245 Y17.021
X214.442 Y17.744
X214.486 Y17.796
X214.678 Y17.975
X214.905 Y18.106
X215.155 Y18.183
X215.416 Y18.203
X215.92 Y18.184
G2 X216.197 Y17.852 I-0.022 J-0.299
G1 X216.164 Y17.551
X215.889 Y15.057 F1200
X215.851 Y14.713 F100
G2 X215.552 Y14.446 I-0.298 J0.033
G1 X215.204 Y14.457
X215.017 Y14.471
X214.663 Y14.594
X214.118 Y15.11
X213.859 Y15.814
X213.776 Y16.559
X213.852 Y17.305
X213.976 Y17.659
X214.133 Y17.86
X214.317 Y18.014
X214.528 Y18.127
X214.758 Y18.194
X214.997 Y18.213
X215.416 Y18.203
G2 X215.694 Y17.885 I-0.022 J-0.299
G1 X215.674 Y17.569
X215.521 Y15.073 F1200
X215.5 Y14.738 F100
G2 X215.204 Y14.457 I-0.299 J0.018
G1 X214.663 Y14.47
X214.476 Y14.484
X214.139 Y14.648
X213.623 Y15.193
X213.398 Y15.908
X213.335 Y16.655
X213.417 Y17.401
X213.494 Y17.561
X213.636 Y17.787
X213.826 Y17.975
X214.053 Y18.115
X214.307 Y18.199
X214.573 Y18.223
X214.997 Y18.213
G2 X215.278 Y17.883 I-0.017 J-0.299
G1 X215.247 Y17.584
X214.993 Y15.086 F1200
X214.958 Y14.74 F100
G2 X214.663 Y14.47 I-0.298 J0.03
G1 X214.294 Y14.479
X213.919 Y14.501
X213.605 Y14.706
X213.136 Y15.291
X212.938 Y16.015
X212.892 Y16.763
X212.986 Y17.507
X213.085 Y17.669
X213.23 Y17.861
X213.412 Y18.02
X213.623 Y18.137
X213.853 Y18.209
X214.093 Y18.231
X214.573 Y18.223
G2 X214.854 Y17.898 I-0.017 J-0.299
G1 X214.828 Y17.593
X214.614 Y15.099 F1200
X214.585 Y14.753 F100
G2 X214.294 Y14.479 I-0.299 J0.026
G1 X213.836 Y14.483
X213.649 Y14.494
X213.307 Y14.646
X213.019 Y14.887
X212.62 Y15.522
X212.465 Y16.256
X212.459 Y17.006
X212.619 Y17.739
X212.665 Y17.797
X212.852 Y17.983
X213.076 Y18.123
X213.325 Y18.208
X213.587 Y18.236
X214.093 Y18.231
G2 X214.379 Y17.908 I-0.013 J-0.3
G1 X214.354 Y17.605
X214.155 Y15.104 F1200
X214.128 Y14.759 F100
G2 X213.836 Y14.483 I-0.299 J0.024
G1 X213.401 Y14.487
X213.214 Y14.498
X212.87 Y14.648
X212.326 Y15.164
X212.076 Y15.871
X211.994 Y16.617
X212.063 Y17.364
X212.106 Y17.478
X212.237 Y17.731
X212.425 Y17.945
X212.66 Y18.107
X212.927 Y18.207
X213.21 Y18.239
X213.587 Y18.236
G2 X213.873 Y17.919 I-0.013 J-0.3
G1 X213.856 Y17.609
X213.712 Y15.108 F1200
X213.693 Y14.77 F100
G2 X213.401 Y14.487 I-0.299 J0.017
G1 X213.02 Y14.49
X212.645 Y14.509
X212.32 Y14.696
X211.83 Y15.264
X211.612 Y15.981
X211.551 Y16.729
X211.634 Y17.474
X211.725 Y17.638
X211.868 Y17.842
X212.051 Y18.011
X212.265 Y18.137
X212.502 Y18.215
X212.75 Y18.24
X213.21 Y18.239
G2 X213.496 Y17.922 I-0.013 J-0.3
G1 X213.478 Y17.613
X213.33 Y15.113 F1200
X213.31 Y14.772 F100
G2 X213.02 Y14.49 I-0.299 J0.018
G1 X212.479 Y14.491
X212.291 Y14.501
X211.957 Y14.67
X211.675 Y14.918
X211.282 Y15.556
X211.125 Y16.29
X211.119 Y17.04
X211.296 Y17.769
X211.334 Y17.815
X211.519 Y17.995
X211.739 Y18.131
X211.983 Y18.214
X212.24 Y18.242
X212.75 Y18.24
G2 X213.037 Y17.915 I-0.011 J-0.3
G1 X213.012 Y17.616
X212.798 Y15.114 F1200
X212.768 Y14.766 F100
G2 X212.479 Y14.491 I-0.299 J0.026
G1 X212.109 Y14.492
X211.922 Y14.501
X211.571 Y14.632
X211.022 Y15.143
X210.754 Y15.844
X210.659 Y16.588
X210.723 Y17.335
X210.843 Y17.692
X211.029 Y17.92
X211.266 Y18.095
X211.54 Y18.204
X211.832 Y18.242
X212.24
G2 X212.528 Y17.93 I-0.011 J-0.3
G1 X212.516 Y17.617
X212.412 Y15.117 F1200
X212.398 Y14.78 F100
G2 X212.109 Y14.492 I-0.3 J0.012
G1 X211.547
X211.359 Y14.501
X211.029 Y14.677
X210.523 Y15.231
X210.289 Y15.944
X210.217 Y16.69
X210.289 Y17.437
X210.359 Y17.582
X210.498 Y17.802
X210.683 Y17.987
X210.903 Y18.126
X211.15 Y18.212
X211.409 Y18.241
X211.832 Y18.242
G2 X212.121 Y17.915 I-0.01 J-0.3
G1 X212.094 Y17.619
X211.866 Y15.115 F1200
X211.835 Y14.764 F100
G2 X211.547 Y14.492 I-0.299 J0.027
G1 X211.184 Y14.491
X210.996 Y14.5
X210.656 Y14.657
X210.369 Y14.898
X209.963 Y15.529
X209.795 Y16.26
X209.781 Y17.01
X209.948 Y17.741
X209.992 Y17.797
X210.176 Y17.983
X210.397 Y18.123
X210.644 Y18.21
X210.904 Y18.24
X211.409 Y18.241
G2 X211.698 Y17.92 I-0.01 J-0.3
G1 X211.676 Y17.618
X211.497 Y15.115 F1200
X211.472 Y14.769 F100
G2 X211.184 Y14.491 I-0.299 J0.021
G1 X210.684 Y14.49
X210.497 Y14.498
X210.176 Y14.692
X209.639 Y15.215
X209.394 Y15.924
X209.316 Y16.67
X209.398 Y17.416
X209.443 Y17.524
X209.577 Y17.761
X209.762 Y17.961
X209.989 Y18.112
X210.244 Y18.206
X210.515 Y18.239
X210.904 Y18.24
G2 X211.193 Y17.92 I-0.009 J-0.3
G1 X211.172 Y17.618
X210.996 Y15.114 F1200
X210.972 Y14.768 F100
G2 X210.684 Y14.49 I-0.299 J0.021
G1 X210.295 Y14.488
X210.107 Y14.497
X209.768 Y14.656
X209.48 Y14.896
X209.067 Y15.522
X208.895 Y16.252
X208.886 Y17.002
X209.059 Y17.732
X209.104 Y17.79
X209.288 Y17.977
X209.51 Y18.119
X209.757 Y18.207
X210.018 Y18.237
X210.515 Y18.239
G2 X210.804 Y17.918 I-0.009 J-0.3
G1 X210.783 Y17.616
X210.607 Y15.113 F1200
X210.582 Y14.767 F100
G2 X210.295 Y14.488 I-0.299 J0.021
G1 X209.925 Y14.487
X209.738 Y14.496
X209.382 Y14.612
X208.817 Y15.106
X208.534 Y15.801
X208.43 Y16.543
X208.487 Y17.291
X208.604 Y17.648
X208.758 Y17.859
X208.937 Y18.018
X209.146 Y18.137
X209.374 Y18.21
X209.613 Y18.236
X210.018 Y18.237
G2 X210.309 Y17.928 I-0.009 J-0.3
G1 X210.299 Y17.614
X210.224 Y15.112 F1200
X210.214 Y14.778 F100
G2 X209.925 Y14.487 I-0.3 J0.009
G1 X209.363 Y14.485
X209.175 Y14.494
X208.836 Y14.653
X208.313 Y15.191
X208.068 Y15.899
X207.987 Y16.645
X208.054 Y17.392
X208.128 Y17.554
X208.265 Y17.78
X208.45 Y17.97
X208.672 Y18.114
X208.922 Y18.203
X209.185 Y18.234
X209.613 Y18.236
G2 X209.902 Y17.912 I-0.009 J-0.3
G1 X209.878 Y17.613
X209.678 Y15.109 F1200
X209.65 Y14.761 F100
G2 X209.363 Y14.485 I-0.299 J0.024
G1 X209 Y14.484
X208.625 Y14.501
X208.307 Y14.7
X207.824 Y15.274
X207.606 Y15.992
X207.543 Y16.739
X207.62 Y17.485
X207.715 Y17.649
X207.858 Y17.846
X208.038 Y18.009
X208.249 Y18.131
X208.48 Y18.207
X208.721 Y18.233
X209.185 Y18.234
G2 X209.475 Y17.917 I-0.009 J-0.3
G1 X209.457 Y17.611
X209.308 Y15.109 F1200
X209.287 Y14.766 F100
G2 X209 Y14.484 I-0.299 J0.018
G1 X208.5 Y14.482
X208.313 Y14.491
X207.975 Y14.654
X207.69 Y14.897
X207.289 Y15.531
X207.123 Y16.262
X207.107 Y17.012
X207.267 Y17.745
X207.306 Y17.793
X207.49 Y17.976
X207.71 Y18.115
X207.955 Y18.201
X208.213 Y18.231
X208.721 Y18.233
G2 X209.011 Y17.912 I-0.009 J-0.3
G1 X208.99 Y17.61
X208.812 Y15.107 F1200
X208.788 Y14.76 F100
G2 X208.5 Y14.482 I-0.299 J0.021
G1 X208.111 Y14.48
X207.923 Y14.489
X207.573 Y14.624
X207.022 Y15.132
X206.752 Y15.832
X206.651 Y16.575
X206.706 Y17.323
X206.742 Y17.431
X206.867 Y17.693
X207.053 Y17.916
X207.288 Y18.086
X207.557 Y18.192
X207.845 Y18.23
X208.213 Y18.231
G2 X208.503 Y17.921 I-0.009 J-0.3
G1 X208.493 Y17.608
X208.41 Y15.106 F1200
X208.399 Y14.77 F100
G2 X208.111 Y14.48 I-0.3 J0.01
G1 X207.56 Y14.478
X207.372 Y14.487
X207.04 Y14.66
X206.526 Y15.207
X206.287 Y15.918
X206.206 Y16.663
X206.27 Y17.411
X206.363 Y17.592
X206.503 Y17.805
X206.686 Y17.983
X206.903 Y18.116
X207.144 Y18.199
X207.397 Y18.228
X207.845 Y18.23
G2 X208.134 Y17.902 I-0.009 J-0.3
G1 X208.107 Y17.607
X207.879 Y15.103 F1200
X207.847 Y14.751 F100
G2 X207.56 Y14.478 I-0.299 J0.027
G1 X207.179 Y14.477
X206.991 Y14.486
X206.651 Y14.643
X206.366 Y14.887
X205.958 Y15.516
X205.786 Y16.246
X205.767 Y16.996
X205.937 Y17.727
X205.98 Y17.781
X206.164 Y17.968
X206.385 Y18.108
X206.632 Y18.196
X206.892 Y18.226
X207.397 Y18.228
G2 X207.687 Y17.907 I-0.009 J-0.3
G1 X207.666 Y17.605
X207.491 Y15.102 F1200
X207.466 Y14.756 F100
G2 X207.179 Y14.477 I-0.299 J0.021
G1 X206.815 Y14.476
X206.628 Y14.485
X206.271 Y14.6
X205.709 Y15.096
X205.426 Y15.79
X205.316 Y16.532
X205.367 Y17.281
X205.481 Y17.638
X205.634 Y17.846
X205.813 Y18.006
X206.022 Y18.125
X206.251 Y18.199
X206.49 Y18.225
X206.892 Y18.226
G2 X207.183 Y17.919 I-0.009 J-0.3
G1 X207.175 Y17.603
X207.112 Y15.101 F1200
X207.104 Y14.768 F100
G2 X206.815 Y14.476 I-0.3 J0.008
G1 X206.316 Y14.474
X206.129 Y14.483
X205.781 Y14.622
X205.223 Y15.123
X204.969 Y15.829
X204.871 Y16.572
X204.918 Y17.321
X204.996 Y17.508
X205.13 Y17.745
X205.315 Y17.945
X205.542 Y18.096
X205.797 Y18.19
X206.068 Y18.223
X206.49 Y18.225
G2 X206.78 Y17.908 I-0.009 J-0.3
G1 X206.763 Y17.602
X206.623 Y15.099 F1200
X206.604 Y14.757 F100
G2 X206.316 Y14.474 I-0.3 J0.017
G1 X205.926 Y14.473
X205.552 Y14.49
X205.221 Y14.667
X204.723 Y15.228
X204.498 Y15.943
X204.424 Y16.689
X204.494 Y17.436
X204.591 Y17.615
X204.733 Y17.819
X204.915 Y17.988
X205.128 Y18.115
X205.364 Y18.194
X205.611 Y18.222
X206.068 Y18.223
G2 X206.358 Y17.91 I-0.009 J-0.3
G1 X206.344 Y17.6
X206.23 Y15.098 F1200
X206.215 Y14.759 F100
G2 X205.926 Y14.473 I-0.3 J0.014
G1 X205.376 Y14.471
X205.188 Y14.479
X204.851 Y14.644
X204.568 Y14.889
X204.169 Y15.525
X204.003 Y16.256
X203.987 Y17.006
X204.158 Y17.736
X204.197 Y17.784
X204.381 Y17.967
X204.6 Y18.104
X204.845 Y18.19
X205.102 Y18.22
X205.611 Y18.222
G2 X205.9 Y17.899 I-0.009 J-0.3
G1 X205.878 Y17.599
X205.689 Y15.095 F1200
X205.663 Y14.748 F100
G2 X205.376 Y14.471 I-0.299 J0.023
G1 X204.995 Y14.469
X204.807 Y14.478
X204.457 Y14.611
X203.906 Y15.12
X203.634 Y15.819
X203.532 Y16.562
X203.59 Y17.309
X203.711 Y17.666
X203.896 Y17.895
X204.133 Y18.07
X204.406 Y18.18
X204.698 Y18.218
X205.102 Y18.22
G2 X205.392 Y17.909 I-0.009 J-0.3
G1 X205.382 Y17.596
X205.295 Y15.095 F1200
X205.283 Y14.759 F100
G2 X204.995 Y14.469 I-0.3 J0.01
G1 X204.465 Y14.467
X204.278 Y14.476
X203.941 Y14.641
X203.416 Y15.176
X203.172 Y15.886
X203.088 Y16.631
X203.148 Y17.378
X203.223 Y17.539
X203.36 Y17.765
X203.544 Y17.954
X203.766 Y18.097
X204.015 Y18.186
X204.278 Y18.217
X204.698 Y18.218
G2 X204.988 Y17.896 I-0.009 J-0.3
G1 X204.965 Y17.596
X204.779 Y15.092 F1200
X204.753 Y14.745 F100
G2 X204.465 Y14.467 I-0.299 J0.022
G1 X203.903 Y14.465
X203.715 Y14.474
X203.402 Y14.681
X202.927 Y15.261
X202.709 Y15.979
X202.642 Y16.726
X202.715 Y17.472
X202.809 Y17.634
X202.952 Y17.83
X203.132 Y17.992
X203.342 Y18.114
X203.573 Y18.189
X203.814 Y18.215
X204.278 Y18.217
G2 X204.566 Y17.881 I-0.009 J-0.3
G1 X204.532 Y17.595
X204.232 Y15.088 F1200
X204.189 Y14.73 F100
G2 X203.903 Y14.465 I-0.298 J0.036
G1 X203.539 Y14.464
X203.352 Y14.473
X203.028 Y14.661
X202.488 Y15.182
X202.269 Y15.899
X202.186 Y16.645
X202.232 Y17.393
X202.324 Y17.574
X202.463 Y17.788
X202.647 Y17.967
X202.864 Y18.101
X203.106 Y18.185
X203.36 Y18.213
X203.814 Y18.215
G2 X204.103 Y17.889 I-0.009 J-0.3
G1 X204.077 Y17.593
X203.857 Y15.088 F1200
X203.827 Y14.738 F100
G2 X203.539 Y14.464 I-0.299 J0.026
G1 X203.192 Y14.463
X202.817 Y14.48
X202.498 Y14.677
X202.012 Y15.249
X201.806 Y15.97
X201.735 Y16.716
X201.792 Y17.464
X201.889 Y17.632
X202.032 Y17.827
X202.212 Y17.989
X202.422 Y18.11
X202.653 Y18.186
X202.893 Y18.212
X203.36 Y18.213
G2 X203.65 Y17.897 I-0.009 J-0.3
G1 X203.634 Y17.591
X203.498 Y15.088 F1200
X203.48 Y14.746 F100
G2 X203.192 Y14.463 I-0.3 J0.016
G1 X202.65 Y14.461
X202.463 Y14.47
X202.133 Y14.647
X201.855 Y14.899
X201.471 Y15.543
X201.311 Y16.276
X201.29 Y17.026
X201.458 Y17.757
X201.488 Y17.792
X201.67 Y17.968
X201.887 Y18.099
X202.126 Y18.181
X202.378 Y18.21
X202.893 Y18.212
G2 X203.183 Y17.889 I-0.009 J-0.3
G1 X203.16 Y17.589
X202.965 Y15.085 F1200
X202.938 Y14.737 F100
G2 X202.65 Y14.461 I-0.299 J0.023
G1 X202.281 Y14.46
X202.094 Y14.468
X201.747 Y14.61
X201.207 Y15.131
X200.941 Y15.832
X200.837 Y16.575
X200.891 Y17.323
X200.918 Y17.405
X201.042 Y17.668
X201.228 Y17.892
X201.463 Y18.064
X201.734 Y18.171
X202.022 Y18.209
X202.378 Y18.21
G2 X202.668 Y17.901 I-0.009 J-0.3
G1 X202.658 Y17.587
X202.58 Y15.085 F1200
X202.569 Y14.75 F100
G2 X202.281 Y14.46 I-0.3 J0.009
G1 X201.718 Y14.457
X201.531 Y14.466
X201.207 Y14.654
X200.71 Y15.216
X200.473 Y15.928
X200.393 Y16.673
X200.457 Y17.42
X200.545 Y17.585
X200.686 Y17.794
X200.868 Y17.968
X201.083 Y18.098
X201.322 Y18.179
X201.572 Y18.207
X202.022 Y18.209
G2 X202.312 Y17.88 I-0.009 J-0.3
G1 X202.283 Y17.587
X202.04 Y15.081 F1200
X202.006 Y14.728 F100
G2 X201.718 Y14.457 I-0.299 J0.029
G1 X201.355 Y14.456
X201.168 Y14.465
X200.832 Y14.632
X200.551 Y14.88
X200.147 Y15.512
X199.975 Y16.242
X199.954 Y16.992
X200.121 Y17.723
X200.159 Y17.771
X200.343 Y17.953
X200.562 Y18.09
X200.807 Y18.176
X201.064 Y18.205
X201.572 Y18.207
G2 X201.862 Y17.886 I-0.009 J-0.3
G1 X201.841 Y17.584
X201.667 Y15.081 F1200
X201.643 Y14.735 F100
G2 X201.355 Y14.456 I-0.299 J0.021
G1 X201.007 Y14.455
X200.82 Y14.464
X200.465 Y14.583
X199.904 Y15.081
X199.618 Y15.774
X199.505 Y16.516
X199.551 Y17.264
X199.666 Y17.631
X199.809 Y17.824
X199.989 Y17.984
X200.198 Y18.104
X200.427 Y18.178
X200.666 Y18.204
X201.064 Y18.205
G2 X201.354 Y17.9 I-0.009 J-0.3
G1 X201.348 Y17.582
X201.302 Y15.08 F1200
X201.296 Y14.749 F100
G2 X201.007 Y14.455 I-0.3 J0.006
G1 X200.466 Y14.453
X200.279 Y14.462
X199.938 Y14.617
X199.406 Y15.146
X199.153 Y15.852
X199.06 Y16.596
X199.112 Y17.344
X199.182 Y17.503
X199.317 Y17.736
X199.502 Y17.931
X199.727 Y18.078
X199.98 Y18.17
X200.247 Y18.202
X200.666 Y18.204
G2 X200.956 Y17.885 I-0.009 J-0.3
G1 X200.937 Y17.581
X200.776 Y15.078 F1200
X200.754 Y14.734 F100
G2 X200.466 Y14.453 I-0.299 J0.019
G1 X200.097 Y14.452
X199.723 Y14.469
X199.402 Y14.663
X198.913 Y15.232
X198.687 Y15.948
X198.613 Y16.694
X198.681 Y17.441
X198.775 Y17.608
X198.918 Y17.808
X199.099 Y17.973
X199.31 Y18.097
X199.543 Y18.174
X199.787 Y18.201
X200.247 Y18.202
G2 X200.537 Y17.888 I-0.009 J-0.3
G1 X200.522 Y17.579
X200.402 Y15.077 F1200
X200.385 Y14.737 F100
G2 X200.097 Y14.452 I-0.3 J0.014
G1 X199.448 Y14.449
X199.261 Y14.458
X198.95 Y14.668
X198.456 Y15.232
X198.238 Y15.95
X198.163 Y16.696
X198.218 Y17.444
X198.311 Y17.608
X198.454 Y17.807
X198.635 Y17.972
X198.846 Y18.096
X199.079 Y18.172
X199.322 Y18.199
X199.787 Y18.201
G2 X200.076 Y17.868 I-0.009 J-0.3
G1 X200.044 Y17.579
X199.773 Y15.073 F1200
X199.735 Y14.717 F100
G2 X199.448 Y14.449 I-0.298 J0.032
G1 X199.005 Y14.448
X198.818 Y14.456
X198.505 Y14.663
X198.001 Y15.219
X197.788 Y15.938
X197.71 Y16.684
X197.754 Y17.433
X197.845 Y17.597
X197.987 Y17.799
X198.168 Y17.966
X198.381 Y18.092
X198.615 Y18.17
X198.861 Y18.197
X199.322 Y18.199
G2 X199.611 Y17.869 I-0.009 J-0.3
G1 X199.581 Y17.577
X199.328 Y15.071 F1200
X199.292 Y14.717 F100
G2 X199.005 Y14.448 I-0.298 J0.03
G1 X198.672 Y14.447
X198.485 Y14.455
X198.147 Y14.619
X197.86 Y14.86
X197.462 Y15.496
X197.293 Y16.227
X197.259 Y16.976
X197.41 Y17.711
X197.447 Y17.757
X197.631 Y17.941
X197.851 Y18.079
X198.096 Y18.166
X198.354 Y18.195
X198.861 Y18.197
G2 X199.151 Y17.879 I-0.009 J-0.3
G1 X199.132 Y17.574
X198.981 Y15.071 F1200
X198.96 Y14.728 F100
G2 X198.672 Y14.447 I-0.299 J0.018
G1 X198.282 Y14.445
X198.095 Y14.454
X197.744 Y14.587
X197.194 Y15.097
X196.923 Y15.796
X196.811 Y16.538
X196.855 Y17.286
X196.887 Y17.385
X197.011 Y17.65
X197.196 Y17.875
X197.432 Y18.048
X197.704 Y18.156
X197.993 Y18.194
X198.354 Y18.195
G2 X198.644 Y17.889 I-0.009 J-0.3
G1 X198.637 Y17.572
X198.578 Y15.071 F1200
X198.571 Y14.738 F100
G2 X198.282 Y14.445 I-0.3 J0.007
G1 X197.731 Y14.443
X197.544 Y14.452
X197.211 Y14.625
X196.699 Y15.172
X196.455 Y15.882
X196.365 Y16.626
X196.42 Y17.374
X196.511 Y17.554
X196.651 Y17.768
X196.834 Y17.946
X197.052 Y18.08
X197.293 Y18.164
X197.547 Y18.193
X197.993 Y18.194
G2 X198.283 Y17.869 I-0.009 J-0.3
G1 X198.258 Y17.572
X198.048 Y15.067 F1200
X198.019 Y14.718 F100
G2 X197.731 Y14.443 I-0.299 J0.025
G1 X197.35 Y14.442
X197.163 Y14.451
X196.823 Y14.609
X196.538 Y14.852
X196.127 Y15.48
X195.949 Y16.208
X195.922 Y16.958
X196.087 Y17.69
X196.13 Y17.745
X196.314 Y17.931
X196.536 Y18.072
X196.783 Y18.16
X197.044 Y18.191
X197.547 Y18.193
G2 X197.837 Y17.874 I-0.009 J-0.3
G1 X197.818 Y17.57
X197.66 Y15.067 F1200
X197.638 Y14.723 F100
G2 X197.35 Y14.442 I-0.299 J0.019
G1 X196.987 Y14.441
X196.8 Y14.449
X196.443 Y14.565
X195.879 Y15.059
X195.592 Y15.752
X195.475 Y16.493
X195.521 Y17.242
X195.633 Y17.599
X195.785 Y17.808
X195.965 Y17.969
X196.174 Y18.089
X196.403 Y18.164
X196.643 Y18.189
X197.044 Y18.191
G2 X197.334 Y17.885 I-0.009 J-0.3
G1 X197.328 Y17.567
X197.282 Y15.066 F1200
X197.276 Y14.735 F100
G2 X196.987 Y14.441 I-0.3 J0.006
G1 X196.488 Y14.439
X196.301 Y14.447
X195.952 Y14.585
X195.393 Y15.085
X195.133 Y15.789
X195.03 Y16.532
X195.072 Y17.281
X195.149 Y17.468
X195.283 Y17.706
X195.468 Y17.907
X195.695 Y18.06
X195.951 Y18.155
X196.223 Y18.188
X196.643 Y18.189
G2 X196.933 Y17.875 I-0.009 J-0.3
G1 X196.918 Y17.566
X196.793 Y15.064 F1200
X196.776 Y14.724 F100
G2 X196.488 Y14.439 I-0.3 J0.015
G1 X196.098 Y14.437
X195.724 Y14.455
X195.392 Y14.63
X194.891 Y15.188
X194.662 Y15.902
X194.582 Y16.648
X194.648 Y17.395
X194.745 Y17.576
X194.887 Y17.781
X195.069 Y17.951
X195.283 Y18.079
X195.519 Y18.159
X195.767 Y18.186
X196.223 Y18.188
G2 X196.513 Y17.876 I-0.009 J-0.3
G1 X196.501 Y17.565
X196.4 Y15.063 F1200
X196.386 Y14.725 F100
G2 X196.098 Y14.437 I-0.3 J0.012
G1 X195.547 Y14.435
X195.36 Y14.444
X195.022 Y14.606
X194.737 Y14.85
X194.335 Y15.483
X194.164 Y16.213
X194.143 Y16.963
X194.311 Y17.694
X194.351 Y17.744
X194.535 Y17.929
X194.756 Y18.068
X195.001 Y18.154
X195.26 Y18.184
X195.767 Y18.186
G2 X196.057 Y17.865 I-0.009 J-0.3
G1 X196.035 Y17.564
X195.859 Y15.06 F1200
X195.835 Y14.714 F100
G2 X195.547 Y14.435 I-0.299 J0.021
G1 X195.166 Y14.434
X194.979 Y14.443
X194.627 Y14.572
X194.073 Y15.078
X193.797 Y15.775
X193.691 Y16.518
X193.745 Y17.266
X193.866 Y17.626
X194.052 Y17.856
X194.289 Y18.033
X194.563 Y18.144
X194.857 Y18.183
X195.26 Y18.184
G2 X195.55 Y17.875 I-0.009 J-0.3
G1 X195.541 Y17.561
X195.465 Y15.059 F1200
X195.455 Y14.725 F100
G2 X195.166 Y14.434 I-0.3 J0.009
G1 X194.637 Y14.432
X194.45 Y14.441
X194.111 Y14.602
X193.582 Y15.134
X193.335 Y15.842
X193.246 Y16.587
X193.304 Y17.334
X193.379 Y17.499
X193.516 Y17.727
X193.701 Y17.917
X193.924 Y18.061
X194.173 Y18.15
X194.436 Y18.181
X194.857 Y18.183
G2 X195.147 Y17.862 I-0.009 J-0.3
G1 X195.125 Y17.56
X194.949 Y15.057 F1200
X194.925 Y14.711 F100
G2 X194.637 Y14.432 I-0.299 J0.021
G1 X194.074 Y14.43
X193.887 Y14.439
X193.572 Y14.642
X193.092 Y15.219
X192.871 Y15.935
X192.8 Y16.682
X192.871 Y17.429
X192.966 Y17.594
X193.109 Y17.792
X193.29 Y17.955
X193.5 Y18.077
X193.732 Y18.153
X193.974 Y18.18
X194.436 Y18.181
G2 X194.725 Y17.847 I-0.009 J-0.3
G1 X194.692 Y17.56
X194.402 Y15.053 F1200
X194.361 Y14.695 F100
G2 X194.074 Y14.43 I-0.298 J0.034
G1 X193.711 Y14.429
X193.524 Y14.437
X193.197 Y14.622
X192.653 Y15.138
X192.431 Y15.854
X192.345 Y16.599
X192.388 Y17.348
X192.481 Y17.534
X192.622 Y17.75
X192.806 Y17.931
X193.026 Y18.066
X193.271 Y18.15
X193.527 Y18.178
X193.974 Y18.18
G2 X194.263 Y17.855 I-0.009 J-0.3
G1 X194.238 Y17.557
X194.028 Y15.053 F1200
X193.998 Y14.703 F100
G2 X193.711 Y14.429 I-0.299 J0.025
G1 X193.363
X192.989 Y14.448
X192.666 Y14.639
X192.175 Y15.206
X191.967 Y15.927
X191.894 Y16.673
X191.949 Y17.421
X192.049 Y17.595
X192.193 Y17.793
X192.375 Y17.957
X192.587 Y18.079
X192.82 Y18.154
X193.063 Y18.179
X193.527 Y18.178
G2 X193.816 Y17.863 I-0.011 J-0.3
G1 X193.8 Y17.554
X193.67 Y15.052 F1200
X193.653 Y14.713 F100
G2 X193.363 Y14.429 I-0.3 J0.015
G1 X192.822
X192.635 Y14.439
X192.301 Y14.61
X192.021 Y14.859
X191.633 Y15.501
X191.471 Y16.234
X191.448 Y16.983
X191.615 Y17.714
X191.65 Y17.757
X191.834 Y17.936
X192.054 Y18.07
X192.297 Y18.153
X192.552 Y18.181
X193.063 Y18.179
G2 X193.351 Y17.857 I-0.011 J-0.3
G1 X193.328 Y17.555
X193.138 Y15.052 F1200
X193.111 Y14.707 F100
G2 X192.822 Y14.429 I-0.299 J0.023
G1 X192.453 Y14.43
X192.266 Y14.444
X191.915 Y14.575
X191.369 Y15.09
X191.101 Y15.791
X190.996 Y16.533
X191.049 Y17.282
X191.166 Y17.638
X191.315 Y17.829
X191.499 Y17.985
X191.712 Y18.1
X191.944 Y18.168
X192.186 Y18.187
X192.552 Y18.181
G2 X192.841 Y17.871 I-0.011 J-0.3
G1 X192.831 Y17.556
X192.753 Y15.054 F1200
X192.743 Y14.721 F100
G2 X192.453 Y14.43 I-0.3 J0.009
G1 X191.89 Y14.444
X191.703 Y14.458
X191.371 Y14.633
X190.867 Y15.188
X190.631 Y15.9
X190.552 Y16.646
X190.619 Y17.393
X190.688 Y17.535
X190.83 Y17.762
X191.02 Y17.95
X191.249 Y18.09
X191.503 Y18.174
X191.769 Y18.198
X192.186 Y18.187
G2 X192.466 Y17.861 I-0.018 J-0.299
G1 X192.439 Y17.557
X192.217 Y15.06 F1200
X192.186 Y14.718 F100
G2 X191.89 Y14.444 I-0.299 J0.027
G1 X191.527 Y14.453
X191.34 Y14.467
X190.997 Y14.62
X190.71 Y14.861
X190.303 Y15.491
X190.132 Y16.221
X190.115 Y16.971
X190.281 Y17.702
X190.333 Y17.769
X190.525 Y17.96
X190.756 Y18.102
X191.013 Y18.187
X191.283 Y18.211
X191.769 Y18.198
G2 X192.051 Y17.877 I-0.018 J-0.299
G1 X192.028 Y17.567
X191.848 Y15.07 F1200
X191.823 Y14.732 F100
G2 X191.527 Y14.453 I-0.299 J0.022
G1 X191.028 Y14.467
X190.841 Y14.482
X190.515 Y14.667
X189.974 Y15.187
X189.729 Y15.896
X189.649 Y16.641
X189.732 Y17.387
X189.882 Y17.735
X190.075 Y17.945
X190.313 Y18.102
X190.582 Y18.196
X190.866 Y18.223
X191.283 Y18.211
G2 X191.562 Y17.889 I-0.019 J-0.299
G1 X191.539 Y17.579
X191.35 Y15.082 F1200
X191.325 Y14.744 F100
G2 X191.028 Y14.467 I-0.299 J0.023
G1 X190.638 Y14.478
X190.264 Y14.507
X189.95 Y14.711
X189.477 Y15.294
X189.264 Y16.013
X189.21 Y16.761
X189.307 Y17.505
X189.381 Y17.638
X189.528 Y17.845
X189.717 Y18.015
X189.938 Y18.141
X190.181 Y18.215
X190.434 Y18.236
X190.866 Y18.223
G2 X191.146 Y17.903 I-0.019 J-0.299
G1 X191.125 Y17.591
X190.958 Y15.093 F1200
X190.935 Y14.758 F100
G2 X190.638 Y14.478 I-0.299 J0.02
G1 X190.087 Y14.494
X189.9 Y14.509
X189.575 Y14.696
X189.037 Y15.219
X188.824 Y15.938
X188.753 Y16.684
X188.82 Y17.432
X188.917 Y17.62
X189.063 Y17.837
X189.253 Y18.016
X189.478 Y18.148
X189.727 Y18.227
X189.988 Y18.249
X190.434 Y18.236
G2 X190.714 Y17.905 I-0.019 J-0.299
G1 X190.682 Y17.604
X190.42 Y15.108 F1200
X190.384 Y14.763 F100
G2 X190.087 Y14.494 I-0.298 J0.031
G1 X189.706 Y14.505
X189.332 Y14.535
X189.017 Y14.739
X188.552 Y15.327
X188.358 Y16.051
X188.307 Y16.8
X188.393 Y17.545
X188.497 Y17.712
X188.646 Y17.904
X188.832 Y18.061
X189.046 Y18.176
X189.28 Y18.244
X189.523 Y18.263
X189.988 Y18.249
G2 X190.267 Y17.924 I-0.019 J-0.299
G1 X190.241 Y17.617
X190.032 Y15.12 F1200
X190.004 Y14.78 F100
G2 X189.706 Y14.505 I-0.299 J0.025
G1 X189.177 Y14.521
X188.99 Y14.536
X188.662 Y14.718
X188.39 Y14.976
X188.017 Y15.627
X187.874 Y16.363
X187.875 Y17.113
X188.063 Y17.839
X188.098 Y17.879
X188.287 Y18.053
X188.509 Y18.18
X188.754 Y18.256
X189.009 Y18.278
X189.523 Y18.263
G2 X189.802 Y17.932 I-0.019 J-0.299
G1 X189.77 Y17.631
X189.509 Y15.136 F1200
X189.473 Y14.79 F100
G2 X189.177 Y14.521 I-0.298 J0.031
G1 X188.844 Y14.531
X188.657 Y14.545
X188.304 Y14.672
X187.763 Y15.192
X187.503 Y15.895
X187.412 Y16.639
X187.478 Y17.387
X187.598 Y17.745
X187.747 Y17.935
X187.932 Y18.089
X188.145 Y18.203
X188.376 Y18.27
X188.617 Y18.288
X189.009 Y18.278
G2 X189.29 Y17.964 I-0.019 J-0.299
G1 X189.275 Y17.645
X189.157 Y15.146 F1200
X189.141 Y14.816 F100
G2 X188.844 Y14.531 I-0.3 J0.014
G1 X188.251 Y14.547
X188.064 Y14.562
X187.738 Y14.748
X187.252 Y15.319
X187.031 Y16.036
X186.971 Y16.783
X187.056 Y17.529
X187.123 Y17.662
X187.268 Y17.881
X187.458 Y18.063
X187.684 Y18.197
X187.934 Y18.278
X188.196 Y18.3
X188.617 Y18.288
G2 X188.896 Y17.956 I-0.019 J-0.299
G1 X188.863 Y17.658
X188.586 Y15.161 F1200
X188.547 Y14.814 F100
G2 X188.251 Y14.547 I-0.298 J0.033
G1 X187.903 Y14.556
X187.716 Y14.57
X187.378 Y14.732
X187.096 Y14.98
X186.701 Y15.617
X186.544 Y16.35
X186.54 Y17.1
X186.716 Y17.83
X186.762 Y17.886
X186.952 Y18.07
X187.178 Y18.206
X187.428 Y18.289
X187.691 Y18.312
X188.196 Y18.3
G2 X188.476 Y17.974 I-0.019 J-0.299
G1 X188.449 Y17.669
X188.229 Y15.173 F1200
X188.199 Y14.83 F100
G2 X187.903 Y14.556 I-0.299 J0.026
G1 X187.522 Y14.565
X187.335 Y14.579
X186.983 Y14.707
X186.433 Y15.217
X186.169 Y15.919
X186.078 Y16.664
X186.145 Y17.411
X186.268 Y17.765
X186.424 Y17.966
X186.608 Y18.121
X186.82 Y18.235
X187.05 Y18.302
X187.29 Y18.322
X187.691 Y18.312
G2 X187.973 Y17.998 I-0.017 J-0.299
G1 X187.958 Y17.682
X187.835 Y15.182 F1200
X187.818 Y14.851 F100
G2 X187.522 Y14.565 I-0.3 J0.015
G1 X186.993 Y14.578
X186.806 Y14.59
X186.466 Y14.749
X185.941 Y15.285
X185.708 Y15.998
X185.635 Y16.744
X185.706 Y17.491
X185.783 Y17.657
X185.923 Y17.885
X186.112 Y18.075
X186.338 Y18.217
X186.591 Y18.303
X186.857 Y18.33
X187.29 Y18.322
G2 X187.571 Y17.995 I-0.017 J-0.299
G1 X187.544 Y17.692
X187.317 Y15.197 F1200
X187.285 Y14.851 F100
G2 X186.993 Y14.578 I-0.299 J0.027
G1 X186.43 Y14.586
X186.243 Y14.598
X185.927 Y14.8
X185.453 Y15.381
X185.246 Y16.102
X185.19 Y16.85
X185.276 Y17.595
X185.375 Y17.763
X185.521 Y17.96
X185.704 Y18.122
X185.918 Y18.242
X186.152 Y18.315
X186.396 Y18.337
X186.857 Y18.33
G2 X187.14 Y17.991 I-0.015 J-0.3
G1 X187.102 Y17.705
X186.769 Y15.203 F1200
X186.721 Y14.846 F100
G2 X186.43 Y14.586 I-0.297 J0.04
G1 X186.067 Y14.591
X185.88 Y14.603
X185.553 Y14.787
X185.282 Y15.047
X184.905 Y15.695
X184.758 Y16.43
X184.76 Y17.18
X184.951 Y17.906
X184.982 Y17.942
X185.167 Y18.113
X185.384 Y18.241
X185.623 Y18.319
X185.873 Y18.344
X186.396 Y18.337
G2 X186.68 Y18.007 I-0.015 J-0.3
G1 X186.65 Y17.71
X186.395 Y15.21 F1200
X186.359 Y14.861 F100
G2 X186.067 Y14.591 I-0.298 J0.03
G1 X185.719 Y14.595
X185.532 Y14.606
X185.184 Y14.747
X184.646 Y15.269
X184.386 Y15.972
X184.296 Y16.717
X184.366 Y17.464
X184.398 Y17.558
X184.526 Y17.819
X184.714 Y18.041
X184.951 Y18.209
X185.223 Y18.313
X185.512 Y18.347
X185.873 Y18.344
G2 X186.16 Y18.03 I-0.013 J-0.3
G1 X186.145 Y17.718
X186.027 Y15.217 F1200
X186.011 Y14.881 F100
G2 X185.719 Y14.595 I-0.3 J0.014
G1 X185.178 Y14.6
X184.991 Y14.611
X184.661 Y14.79
X184.155 Y15.343
X183.924 Y16.057
X183.853 Y16.803
X183.928 Y17.55
X184.022 Y17.729
X184.165 Y17.94
X184.35 Y18.114
X184.568 Y18.245
X184.81 Y18.325
X185.064 Y18.351
X185.512 Y18.347
G2 X185.797 Y18.016 I-0.013 J-0.3
G1 X185.766 Y17.722
X185.505 Y15.22 F1200
X185.468 Y14.868 F100
G2 X185.178 Y14.6 I-0.298 J0.031
G1 X184.809 Y14.603
X184.621 Y14.613
X184.282 Y14.772
X183.997 Y15.016
X183.594 Y15.648
X183.43 Y16.38
X183.419 Y17.13
X183.594 Y17.859
X183.638 Y17.915
X183.824 Y18.1
X184.046 Y18.24
X184.294 Y18.326
X184.555 Y18.354
X185.064 Y18.351
G2 X185.35 Y18.027 I-0.013 J-0.3
G1 X185.326 Y17.725
X185.126 Y15.225 F1200
X185.098 Y14.879 F100
G2 X184.809 Y14.603 I-0.299 J0.024
G1 X184.246 Y14.605
X184.059 Y14.615
X183.454 Y15.059
X183.123 Y15.732
X182.978 Y16.468
X182.984 Y17.218
X183.147 Y17.95
X183.165 Y17.971
X183.347 Y18.134
X183.56 Y18.256
X183.793 Y18.331
X184.036 Y18.356
X184.555 Y18.354
G2 X184.842 Y18.025 I-0.012 J-0.3
G1 X184.813 Y17.73
X184.569 Y15.227 F1200
X184.535 Y14.876 F100
G2 X184.246 Y14.605 I-0.299 J0.029
G1 X183.883 Y14.607
X183.696 Y14.617
X183.35 Y14.762
X182.842 Y15.314
X182.598 Y16.023
X182.517 Y16.769
X182.58 Y17.516
X182.592 Y17.554
X182.717 Y17.818
X182.904 Y18.043
X183.141 Y18.214
X183.413 Y18.321
X183.703 Y18.357
X184.036 Y18.356
G2 X184.324 Y18.042 I-0.012 J-0.3
G1 X184.309 Y17.731
X184.189 Y15.23 F1200
X184.173 Y14.892 F100
G2 X183.883 Y14.607 I-0.3 J0.014
G1 X183.383 Y14.608
X183.196 Y14.618
X182.871 Y14.805
X182.365 Y15.358
X182.142 Y16.074
X182.069 Y16.821
X182.132 Y17.568
X182.22 Y17.736
X182.362 Y17.946
X182.546 Y18.12
X182.763 Y18.251
X183.003 Y18.331
X183.255 Y18.358
X183.703 Y18.357
G2 X183.991 Y18.027 I-0.011 J-0.3
G1 X183.961 Y17.734
X183.708 Y15.23 F1200
X183.672 Y14.878 F100
G2 X183.383 Y14.608 I-0.298 J0.03
G1 X182.994 Y14.609
X182.807 Y14.619
X182.473 Y14.79
X182.195 Y15.042
X181.803 Y15.681
X181.643 Y16.414
X181.629 Y17.164
X181.806 Y17.893
X181.843 Y17.937
X182.027 Y18.116
X182.246 Y18.249
X182.489 Y18.332
X182.744 Y18.36
X183.255 Y18.358
G2 X183.542 Y18.034 I-0.011 J-0.3
G1 X183.518 Y17.734
X183.312 Y15.232 F1200
X183.283 Y14.884 F100
G2 X182.994 Y14.609 I-0.299 J0.025
G1 X182.625 Y14.61
X182.437 Y14.62
X182.088 Y14.756
X181.541 Y15.27
X181.273 Y15.97
X181.173 Y16.713
X181.233 Y17.461
X181.269 Y17.566
X181.395 Y17.828
X181.582 Y18.05
X181.818 Y18.219
X182.089 Y18.325
X182.377 Y18.36
X182.744
G2 X183.033 Y18.049 I-0.011 J-0.3
G1 X183.021 Y17.735
X182.927 Y15.233 F1200
X182.915 Y14.898 F100
G2 X182.625 Y14.61 I-0.3 J0.011
G1 X182.062 Y14.611
X181.875 Y14.621
X181.546 Y14.801
X181.043 Y15.357
X180.807 Y16.069
X180.73 Y16.815
X180.8 Y17.562
X180.893 Y17.737
X181.034 Y17.948
X181.218 Y18.122
X181.435 Y18.253
X181.676 Y18.334
X181.928 Y18.361
X182.377 Y18.36
G2 X182.664 Y18.031 I-0.011 J-0.3
G1 X182.635 Y17.737
X182.386 Y15.233 F1200
X182.351 Y14.881 F100
G2 X182.062 Y14.611 I-0.299 J0.03
G1 X181.699 Y14.612
X181.511 Y14.622
X181.172 Y14.781
X180.887 Y15.024
X180.481 Y15.655
X180.31 Y16.385
X180.294 Y17.135
X180.464 Y17.866
X180.507 Y17.921
X180.693 Y18.107
X180.915 Y18.247
X181.163 Y18.333
X181.424 Y18.362
X181.928 Y18.361
G2 X182.216 Y18.04 I-0.011 J-0.3
G1 X182.194 Y17.737
X182.013 Y15.235 F1200
X181.988 Y14.89 F100
G2 X181.699 Y14.612 I-0.299 J0.022
G1 X181.199 Y14.613
X181.012 Y14.623
X180.692 Y14.818
X180.156 Y15.342
X179.909 Y16.05
X179.829 Y16.796
X179.912 Y17.542
X179.958 Y17.651
X180.094 Y17.888
X180.28 Y18.088
X180.508 Y18.238
X180.764 Y18.332
X181.036 Y18.363
X181.424 Y18.362
G2 X181.712 Y18.041 I-0.011 J-0.3
G1 X181.691 Y17.738
X181.513 Y15.236 F1200
X181.489 Y14.892 F100
G2 X181.199 Y14.613 I-0.299 J0.021
G1 X180.81 Y14.614
X180.622 Y14.624
X180.283 Y14.783
X179.996 Y15.024
X179.583 Y15.65
X179.409 Y16.38
X179.401 Y17.129
X179.574 Y17.859
X179.621 Y17.919
X179.806 Y18.106
X180.029 Y18.248
X180.278 Y18.335
X180.541 Y18.364
X181.036 Y18.363
G2 X181.324 Y18.042 I-0.011 J-0.3
G1 X181.302 Y17.739
X181.124 Y15.237 F1200
X181.099 Y14.892 F100
G2 X180.81 Y14.614 I-0.299 J0.021
G1 X180.441 Y14.615
X180.253 Y14.624
X179.897 Y14.741
X179.332 Y15.234
X179.048 Y15.929
X178.945 Y16.671
X179.002 Y17.419
X179.119 Y17.776
X179.276 Y17.99
X179.457 Y18.149
X179.667 Y18.268
X179.896 Y18.341
X180.136 Y18.365
X180.541 Y18.364
G2 X180.829 Y18.055 I-0.011 J-0.3
G1 X180.82 Y17.739
X180.741 Y15.238 F1200
X180.731 Y14.905 F100
G2 X180.441 Y14.615 I-0.3 J0.009
G1 X179.878 Y14.616
X179.691 Y14.626
X179.35 Y14.784
X178.827 Y15.321
X178.582 Y16.03
X178.502 Y16.775
X178.57 Y17.522
X178.646 Y17.687
X178.783 Y17.914
X178.969 Y18.105
X179.193 Y18.248
X179.444 Y18.336
X179.708 Y18.366
X180.136 Y18.365
G2 X180.424 Y18.041 I-0.011 J-0.3
G1 X180.399 Y17.741
X180.195 Y15.239 F1200
X180.167 Y14.891 F100
G2 X179.878 Y14.616 I-0.299 J0.024
G1 X179.515 Y14.617
X179.14 Y14.636
X178.821 Y14.833
X178.337 Y15.407
X178.12 Y16.124
X178.057 Y16.872
X178.137 Y17.618
X178.234 Y17.785
X178.377 Y17.982
X178.559 Y18.145
X178.771 Y18.267
X179.003 Y18.342
X179.246 Y18.367
X179.708 Y18.366
G2 X179.996 Y18.048 I-0.011 J-0.3
G1 X179.978 Y17.742
X179.825 Y15.24 F1200
X179.804 Y14.898 F100
G2 X179.515 Y14.617 I-0.299 J0.018
G1 X179.015 Y14.618
X178.828 Y14.627
X178.489 Y14.789
X178.203 Y15.031
X177.802 Y15.664
X177.637 Y16.396
X177.622 Y17.146
X177.784 Y17.878
X177.826 Y17.93
X178.011 Y18.115
X178.233 Y18.254
X178.48 Y18.34
X178.74 Y18.368
X179.246 Y18.367
G2 X179.534 Y18.046 I-0.011 J-0.3
G1 X179.512 Y17.743
X179.33 Y15.241 F1200
X179.305 Y14.896 F100
G2 X179.015 Y14.618 I-0.299 J0.022
G1 X178.626 Y14.619
X178.438 Y14.628
X178.087 Y14.759
X177.535 Y15.267
X177.265 Y15.966
X177.166 Y16.71
X177.222 Y17.458
X177.343 Y17.816
X177.53 Y18.046
X177.769 Y18.222
X178.044 Y18.332
X178.338 Y18.369
X178.74 Y18.368
G2 X179.028 Y18.058 I-0.011 J-0.3
G1 X179.017 Y17.743
X178.928 Y15.242 F1200
X178.916 Y14.908 F100
G2 X178.626 Y14.619 I-0.3 J0.011
G1 X178.075 Y14.62
X177.888 Y14.63
X177.553 Y14.799
X177.038 Y15.345
X176.801 Y16.056
X176.721 Y16.802
X176.787 Y17.549
X176.86 Y17.703
X176.999 Y17.926
X177.184 Y18.113
X177.407 Y18.254
X177.655 Y18.341
X177.917 Y18.37
X178.338 Y18.369
G2 X178.626 Y18.045 I-0.011 J-0.3
G1 X178.601 Y17.745
X178.393 Y15.242 F1200
X178.364 Y14.895 F100
G2 X178.075 Y14.62 I-0.299 J0.025
G1 X177.694 Y14.621
X177.507 Y14.63
X177.165 Y14.785
X176.878 Y15.026
X176.471 Y15.656
X176.3 Y16.386
X176.283 Y17.136
X176.451 Y17.867
X176.497 Y17.926
X176.683 Y18.113
X176.906 Y18.254
X177.155 Y18.342
X177.417 Y18.371
X177.917 Y18.37
G2 X178.205 Y18.049 I-0.011 J-0.3
G1 X178.184 Y17.746
X178.007 Y15.244 F1200
X177.983 Y14.899 F100
G2 X177.694 Y14.621 I-0.299 J0.021
G1 X177.331
X177.143 Y14.631
X176.785 Y14.741
X176.221 Y15.236
X175.939 Y15.931
X175.831 Y16.673
X175.882 Y17.421
X175.996 Y17.779
X176.152 Y17.993
X176.333 Y18.154
X176.543 Y18.273
X176.773 Y18.347
X177.014 Y18.372
X177.417 Y18.371
G2 X177.706 Y18.063 I-0.011 J-0.3
G1 X177.697 Y17.746
X177.63 Y15.245 F1200
X177.621 Y14.913 F100
G2 X177.331 Y14.621 I-0.3 J0.008
G1 X176.831 Y14.622
X176.457 Y14.641
X176.141 Y14.843
X175.672 Y15.428
X175.449 Y16.144
X175.389 Y16.892
X175.48 Y17.637
X175.549 Y17.764
X175.691 Y17.969
X175.874 Y18.139
X176.089 Y18.267
X176.326 Y18.346
X176.575 Y18.372
X177.014
G2 X177.302 Y18.055 I-0.011 J-0.3
G1 X177.285 Y17.748
X177.14 Y15.246 F1200
X177.121 Y14.905 F100
G2 X176.831 Y14.622 I-0.299 J0.017
G1 X176.239 Y14.623
X176.051 Y14.632
X175.737 Y14.837
X175.225 Y15.385
X175.006 Y16.103
X174.936 Y16.849
X175.002 Y17.597
X175.093 Y17.764
X175.235 Y17.97
X175.418 Y18.14
X175.633 Y18.268
X175.87 Y18.346
X176.119 Y18.373
X176.575 Y18.372
G2 X176.862 Y18.041 I-0.011 J-0.3
G1 X176.831 Y17.749
X176.564 Y15.245 F1200
X176.527 Y14.891 F100
G2 X176.239 Y14.623 I-0.298 J0.032
G1 X175.891 Y14.622
X175.703 Y14.631
X175.366 Y14.795
X175.079 Y15.037
X174.68 Y15.671
X174.515 Y16.403
X174.496 Y17.153
X174.66 Y17.884
X174.7 Y17.933
X174.884 Y18.117
X175.104 Y18.256
X175.349 Y18.342
X175.608 Y18.372
X176.119 Y18.373
G2 X176.407 Y18.051 I-0.011 J-0.3
G1 X176.385 Y17.749
X176.204 Y15.247 F1200
X176.179 Y14.901 F100
G2 X175.891 Y14.622 I-0.299 J0.022
G1 X175.51 Y14.621
X175.322 Y14.63
X174.97 Y14.758
X174.417 Y15.265
X174.146 Y15.964
X174.042 Y16.707
X174.096 Y17.455
X174.215 Y17.814
X174.4 Y18.045
X174.638 Y18.221
X174.913 Y18.332
X175.206 Y18.371
X175.608 Y18.372
G2 X175.898 Y18.062 I-0.01 J-0.3
G1 X175.888 Y17.748
X175.809 Y15.246 F1200
X175.798 Y14.912 F100
G2 X175.51 Y14.621 I-0.3 J0.01
G1 X174.98 Y14.62
X174.793 Y14.628
X174.455 Y14.79
X173.927 Y15.322
X173.684 Y16.032
X173.597 Y16.777
X173.655 Y17.525
X173.728 Y17.686
X173.864 Y17.912
X174.048 Y18.102
X174.269 Y18.246
X174.517 Y18.336
X174.779 Y18.368
X175.206 Y18.371
G2 X175.496 Y18.049 I-0.01 J-0.3
G1 X175.474 Y17.748
X175.292 Y15.246 F1200
X175.266 Y14.898 F100
G2 X174.98 Y14.62 I-0.299 J0.022
G1 X174.418 Y14.615
X174.23 Y14.622
X173.916 Y14.827
X173.439 Y15.406
X173.22 Y16.123
X173.151 Y16.87
X173.221 Y17.617
X173.314 Y17.779
X173.456 Y17.975
X173.635 Y18.138
X173.844 Y18.26
X174.074 Y18.337
X174.315 Y18.364
X174.779 Y18.368
G2 X175.069 Y18.034 I-0.008 J-0.3
G1 X175.036 Y17.748
X174.744 Y15.24 F1200
X174.702 Y14.88 F100
G2 X174.418 Y14.615 I-0.298 J0.035
G1 X174.054 Y14.611
X173.867 Y14.619
X173.542 Y14.806
X173.001 Y15.325
X172.78 Y16.042
X172.695 Y16.787
X172.738 Y17.536
X172.829 Y17.716
X172.967 Y17.929
X173.148 Y18.108
X173.363 Y18.243
X173.602 Y18.328
X173.855 Y18.36
X174.315 Y18.364
G2 X174.606 Y18.039 I-0.008 J-0.3
G1 X174.581 Y17.743
X174.37 Y15.237 F1200
X174.34 Y14.886 F100
G2 X174.054 Y14.611 I-0.299 J0.025
G1 X173.707 Y14.607
X173.332 Y14.62
X173.013 Y14.817
X172.525 Y15.387
X172.317 Y16.108
X172.243 Y16.854
X172.297 Y17.602
X172.392 Y17.767
X172.533 Y17.963
X172.711 Y18.125
X172.919 Y18.247
X173.147 Y18.324
X173.386 Y18.353
X173.855 Y18.36
G2 X174.148 Y18.045 I-0.006 J-0.3
G1 X174.133 Y17.74
X174.008 Y15.235 F1200
X173.991 Y14.892 F100
G2 X173.707 Y14.607 I-0.3 J0.015
G1 X173.165 Y14.599
X172.978 Y14.606
X172.648 Y14.783
X172.37 Y15.035
X171.984 Y15.678
X171.822 Y16.41
X171.797 Y17.16
X171.961 Y17.892
X171.988 Y17.924
X172.168 Y18.099
X172.382 Y18.231
X172.619 Y18.315
X172.868 Y18.345
X173.386 Y18.353
G2 X173.68 Y18.031 I-0.006 J-0.3
G1 X173.658 Y17.733
X173.475 Y15.227 F1200
X173.45 Y14.877 F100
G2 X173.165 Y14.599 I-0.299 J0.022
G1 X172.796 Y14.594
X172.609 Y14.6
X172.263 Y14.744
X171.721 Y15.263
X171.453 Y15.964
X171.346 Y16.706
X171.396 Y17.454
X171.42 Y17.53
X171.543 Y17.793
X171.726 Y18.017
X171.959 Y18.19
X172.227 Y18.3
X172.514 Y18.34
X172.868 Y18.345
G2 X173.162 Y18.038 I-0.006 J-0.3
G1 X173.154 Y17.725
X173.09 Y15.222 F1200
X173.081 Y14.886 F100
G2 X172.796 Y14.594 I-0.3 J0.008
G1 X172.234 Y14.585
X172.046 Y14.592
X171.723 Y14.782
X171.226 Y15.343
X170.986 Y16.054
X170.901 Y16.799
X170.961 Y17.546
X171.045 Y17.707
X171.184 Y17.915
X171.364 Y18.089
X171.577 Y18.22
X171.813 Y18.303
X172.061 Y18.333
X172.514 Y18.34
G2 X172.806 Y18.013 I-0.006 J-0.3
G1 X172.78 Y17.721
X172.55 Y15.213 F1200
X172.517 Y14.858 F100
G2 X172.234 Y14.585 I-0.299 J0.027
G1 X171.87 Y14.58
X171.683 Y14.586
X171.349 Y14.756
X170.787 Y15.253
X170.548 Y15.964
X170.447 Y16.707
X170.479 Y17.457
X170.571 Y17.654
X170.707 Y17.876
X170.889 Y18.062
X171.108 Y18.204
X171.352 Y18.293
X171.611 Y18.326
X172.061 Y18.333
G2 X172.355 Y18.014 I-0.006 J-0.3
G1 X172.336 Y17.714
X172.177 Y15.208 F1200
X172.155 Y14.86 F100
G2 X171.87 Y14.58 I-0.299 J0.019
G1 X171.523 Y14.575
X171.148 Y14.588
X170.817 Y14.763
X170.306 Y15.313
X170.082 Y16.029
X169.995 Y16.773
X170.039 Y17.522
X170.138 Y17.707
X170.278 Y17.911
X170.458 Y18.08
X170.669 Y18.209
X170.902 Y18.289
X171.147 Y18.319
X171.611 Y18.326
G2 X171.904 Y18.017 I-0.006 J-0.3
G1 X171.895 Y17.706
X171.818 Y15.203 F1200
X171.807 Y14.865 F100
G2 X171.523 Y14.575 I-0.3 J0.009
G1 X170.981 Y14.566
X170.794 Y14.573
X170.453 Y14.728
X170.162 Y14.965
X169.758 Y15.597
X169.582 Y16.326
X169.545 Y17.075
X169.698 Y17.809
X169.737 Y17.86
X169.919 Y18.047
X170.138 Y18.189
X170.383 Y18.279
X170.641 Y18.312
X171.147 Y18.319
G2 X171.441 Y18.003 I-0.006 J-0.3
G1 X171.424 Y17.7
X171.285 Y15.195 F1200
X171.266 Y14.849 F100
G2 X170.981 Y14.566 I-0.3 J0.017
G1 X170.612 Y14.561
X170.425 Y14.567
X170.067 Y14.68
X169.506 Y15.178
X169.222 Y15.872
X169.102 Y16.613
X169.14 Y17.362
X169.252 Y17.727
X169.393 Y17.92
X169.571 Y18.08
X169.778 Y18.201
X170.005 Y18.277
X170.242 Y18.306
X170.641 Y18.312
G2 X170.935 Y18.008 I-0.006 J-0.3
G1 X170.932 Y17.692
X170.901 Y15.19 F1200
X170.897 Y14.857 F100
G2 X170.612 Y14.561 I-0.3 J0.004
G1 X170.05 Y14.552
X169.862 Y14.559
X169.524 Y14.722
X169.003 Y15.261
X168.751 Y15.967
X168.656 Y16.711
X168.707 Y17.459
X168.772 Y17.606
X168.906 Y17.835
X169.089 Y18.027
X169.31 Y18.173
X169.558 Y18.265
X169.821 Y18.299
X170.242 Y18.306
G2 X170.536 Y17.987 I-0.006 J-0.3
G1 X170.517 Y17.686
X170.356 Y15.18 F1200
X170.334 Y14.833 F100
G2 X170.05 Y14.552 I-0.299 J0.019
G1 X169.686 Y14.547
X169.499 Y14.553
X169.152 Y14.695
X168.857 Y14.928
X168.434 Y15.547
X168.246 Y16.273
X168.211 Y17.022
X168.358 Y17.758
X168.405 Y17.821
X168.588 Y18.016
X168.81 Y18.164
X169.06 Y18.257
X169.324 Y18.292
X169.821 Y18.299
G2 X170.114 Y17.986 I-0.006 J-0.3
G1 X170.1 Y17.68
X169.987 Y15.175 F1200
X169.971 Y14.833 F100
G2 X169.686 Y14.547 I-0.3 J0.014
G1 X169.187 Y14.539
X169 Y14.546
X168.669 Y14.724
X168.116 Y15.23
X167.853 Y15.932
X167.755 Y16.676
X167.817 Y17.423
X167.865 Y17.545
X167.995 Y17.788
X168.178 Y17.993
X168.404 Y18.15
X168.661 Y18.249
X168.934 Y18.286
X169.324 Y18.292
G2 X169.618 Y17.978 I-0.006 J-0.3
G1 X169.604 Y17.672
X169.488 Y15.168 F1200
X169.472 Y14.825 F100
G2 X169.187 Y14.539 I-0.3 J0.014
G1 X168.797 Y14.533
X168.61 Y14.54
X168.263 Y14.682
X167.966 Y14.911
X167.536 Y15.525
X167.345 Y16.251
X167.317 Y17
X167.471 Y17.734
X167.521 Y17.802
X167.703 Y17.999
X167.926 Y18.149
X168.177 Y18.243
X168.444 Y18.278
X168.934 Y18.286
G2 X169.228 Y17.972 I-0.006 J-0.3
G1 X169.213 Y17.666
X169.098 Y15.162 F1200
X169.082 Y14.819 F100
G2 X168.797 Y14.533 I-0.3 J0.014
G1 X168.246 Y14.525
X168.059 Y14.532
X167.422 Y14.928
X167.064 Y15.587
X166.894 Y16.317
X166.879 Y17.067
X167.018 Y17.804
X167.051 Y17.845
X167.232 Y18.022
X167.447 Y18.155
X167.685 Y18.24
X167.936 Y18.271
X168.444 Y18.278
G2 X168.737 Y17.959 I-0.006 J-0.3
G1 X168.718 Y17.659
X168.554 Y15.153 F1200
X168.531 Y14.805 F100
G2 X168.246 Y14.525 I-0.299 J0.02
G1 X167.865 Y14.52
X167.678 Y14.526
X167.322 Y14.645
X166.791 Y15.174
X166.525 Y15.875
X166.423 Y16.619
X166.467 Y17.367
X166.489 Y17.44
X166.609 Y17.708
X166.792 Y17.937
X167.026 Y18.113
X167.297 Y18.225
X167.587 Y18.266
X167.936 Y18.271
G2 X168.23 Y17.963 I-0.006 J-0.3
G1 X168.222 Y17.651
X168.159 Y15.148 F1200
X168.151 Y14.812 F100
G2 X167.865 Y14.52 I-0.3 J0.008
G1 X167.336 Y14.512
X167.149 Y14.519
X166.816 Y14.693
X166.301 Y15.238
X166.062 Y15.949
X165.975 Y16.694
X166.027 Y17.442
X166.114 Y17.616
X166.252 Y17.83
X166.434 Y18.009
X166.65 Y18.144
X166.89 Y18.229
X167.144 Y18.26
X167.587 Y18.266
G2 X167.88 Y17.941 I-0.006 J-0.3
G1 X167.856 Y17.647
X167.649 Y15.139 F1200
X167.62 Y14.787 F100
G2 X167.336 Y14.512 I-0.299 J0.025
G1 X167.003 Y14.508
X166.816 Y14.515
X166.467 Y14.654
X166.17 Y14.883
X165.75 Y15.504
X165.566 Y16.231
X165.53 Y16.98
X165.674 Y17.716
X165.722 Y17.781
X165.906 Y17.977
X166.129 Y18.126
X166.381 Y18.22
X166.647 Y18.254
X167.144 Y18.26
G2 X167.436 Y17.946 I-0.007 J-0.3
G1 X167.422 Y17.639
X167.305 Y15.135 F1200
X167.289 Y14.794 F100
G2 X167.003 Y14.508 I-0.3 J0.014
G1 X166.613 Y14.504
X166.426 Y14.511
X166.065 Y14.614
X165.494 Y15.1
X165.206 Y15.792
X165.086 Y16.533
X165.123 Y17.282
X165.233 Y17.64
X165.386 Y17.858
X165.565 Y18.022
X165.774 Y18.145
X166.004 Y18.222
X166.245 Y18.25
X166.647 Y18.254
G2 X166.94 Y17.951 I-0.007 J-0.3
G1 X166.936 Y17.633
X166.904 Y15.131 F1200
X166.899 Y14.8 F100
G2 X166.613 Y14.504 I-0.3 J0.004
G1 X166.062 Y14.499
X165.875 Y14.508
X165.529 Y14.653
X164.991 Y15.175
X164.736 Y15.88
X164.639 Y16.624
X164.688 Y17.372
X164.764 Y17.547
X164.899 Y17.78
X165.085 Y17.977
X165.31 Y18.125
X165.564 Y18.218
X165.833 Y18.249
X166.245 Y18.25
G2 X166.537 Y17.932 I-0.007 J-0.3
G1 X166.519 Y17.629
X166.371 Y15.124 F1200
X166.351 Y14.781 F100
G2 X166.062 Y14.499 I-0.299 J0.018
G1 X165.681
X165.307 Y14.517
X164.983 Y14.706
X164.493 Y15.274
X164.267 Y15.989
X164.192 Y16.735
X164.262 Y17.482
X164.358 Y17.653
X164.501 Y17.854
X164.682 Y18.021
X164.895 Y18.145
X165.129 Y18.222
X165.374 Y18.249
X165.833
G2 X166.122 Y17.935 I-0.01 J-0.3
G1 X166.107 Y17.625
X165.987 Y15.123 F1200
X165.97 Y14.784 F100
G2 X165.681 Y14.499 I-0.3 J0.014
G1 X165.152 Y14.498
X164.965 Y14.51
X164.628 Y14.675
X164.345 Y14.92
X163.944 Y15.554
X163.774 Y16.285
X163.755 Y17.035
X163.92 Y17.766
X163.961 Y17.817
X164.148 Y18.002
X164.372 Y18.14
X164.621 Y18.224
X164.882 Y18.251
X165.374 Y18.249
G2 X165.663 Y17.928 I-0.01 J-0.3
G1 X165.642 Y17.625
X165.465 Y15.122 F1200
X165.441 Y14.777 F100
G2 X165.152 Y14.498 I-0.299 J0.021
G1 X164.589 Y14.504
X164.402 Y14.516
X163.802 Y14.966
X163.47 Y15.638
X163.321 Y16.373
X163.32 Y17.123
X163.398 Y17.49
X163.432 Y17.567
X163.57 Y17.798
X163.758 Y17.992
X163.986 Y18.138
X164.24 Y18.227
X164.509 Y18.255
X164.882 Y18.251
G2 X165.167 Y17.924 I-0.014 J-0.3
G1 X165.14 Y17.625
X164.912 Y15.124 F1200
X164.881 Y14.777 F100
G2 X164.589 Y14.504 I-0.299 J0.027
G1 X164.226 Y14.508
X164.039 Y14.52
X163.695 Y14.669
X163.188 Y15.222
X162.942 Y15.93
X162.856 Y16.675
X162.914 Y17.423
X163.011 Y17.616
X163.152 Y17.834
X163.339 Y18.015
X163.561 Y18.151
X163.808 Y18.234
X164.066 Y18.26
X164.509 Y18.255
G2 X164.794 Y17.929 I-0.014 J-0.3
G1 X164.768 Y17.629
X164.548 Y15.128 F1200
X164.518 Y14.782 F100
G2 X164.226 Y14.508 I-0.299 J0.026
G1 X163.727 Y14.514
X163.54 Y14.525
X163.215 Y14.713
X162.711 Y15.268
X162.484 Y15.983
X162.408 Y16.729
X162.468 Y17.477
X162.573 Y17.666
X162.718 Y17.87
X162.902 Y18.039
X163.118 Y18.164
X163.356 Y18.241
X163.605 Y18.265
X164.066 Y18.26
G2 X164.351 Y17.929 I-0.014 J-0.3
G1 X164.32 Y17.634
X164.055 Y15.133 F1200
X164.018 Y14.782 F100
G2 X163.727 Y14.514 I-0.298 J0.032
G1 X163.337 Y14.518
X163.15 Y14.529
X162.817 Y14.701
X162.539 Y14.953
X162.146 Y15.592
X161.983 Y16.324
X161.966 Y17.074
X162.147 Y17.802
X162.186 Y17.849
X162.372 Y18.028
X162.593 Y18.163
X162.839 Y18.245
X163.096 Y18.271
X163.605 Y18.265
G2 X163.89 Y17.941 I-0.014 J-0.3
G1 X163.865 Y17.639
X163.658 Y15.138 F1200
X163.629 Y14.793 F100
G2 X163.337 Y14.518 I-0.299 J0.025
G1 X162.968 Y14.522
X162.781 Y14.533
X162.431 Y14.669
X161.884 Y15.181
X161.614 Y15.881
X161.512 Y16.624
X161.573 Y17.372
X161.695 Y17.729
X161.883 Y17.957
X162.122 Y18.131
X162.398 Y18.239
X162.691 Y18.274
X163.096 Y18.271
G2 X163.382 Y17.959 I-0.014 J-0.3
G1 X163.37 Y17.643
X163.273 Y15.144 F1200
X163.26 Y14.81 F100
G2 X162.968 Y14.522 I-0.3 J0.012
G1 X162.405 Y14.526
X162.218 Y14.537
X161.888 Y14.716
X161.384 Y15.271
X161.147 Y15.982
X161.069 Y16.728
X161.141 Y17.475
X161.212 Y17.621
X161.352 Y17.842
X161.539 Y18.027
X161.762 Y18.165
X162.01 Y18.25
X162.27 Y18.277
X162.691 Y18.274
G2 X162.977 Y17.948 I-0.013 J-0.3
G1 X162.951 Y17.649
X162.727 Y15.147 F1200
X162.696 Y14.799 F100
G2 X162.405 Y14.526 I-0.299 J0.027
G1 X162.042 Y14.529
X161.855 Y14.54
X161.514 Y14.697
X161.228 Y14.94
X160.821 Y15.569
X160.65 Y16.299
X160.634 Y17.049
X160.801 Y17.781
X160.846 Y17.838
X161.03 Y18.023
X161.251 Y18.163
X161.497 Y18.25
X161.756 Y18.28
X162.27 Y18.277
G2 X162.557 Y17.956 I-0.013 J-0.3
G1 X162.535 Y17.651
X162.358 Y15.15 F1200
X162.333 Y14.808 F100
G2 X162.042 Y14.529 I-0.299 J0.021
G1 X161.543
X161.356 Y14.538
X161.035 Y14.732
X160.497 Y15.255
X160.25 Y15.963
X160.169 Y16.709
X160.25 Y17.454
X160.295 Y17.562
X160.429 Y17.8
X160.615 Y17.999
X160.841 Y18.151
X161.097 Y18.246
X161.367 Y18.279
X161.756 Y18.28
G2 X162.046 Y17.96 I-0.009 J-0.3
G1 X162.025 Y17.657
X161.854 Y15.154 F1200
X161.831 Y14.808 F100
G2 X161.543 Y14.529 I-0.299 J0.02
G1 X161.153 Y14.528
X160.966 Y14.536
X160.626 Y14.695
X160.338 Y14.936
X159.924 Y15.561
X159.75 Y16.29
X159.74 Y17.04
X159.911 Y17.77
X159.956 Y17.828
X160.141 Y18.016
X160.362 Y18.158
X160.61 Y18.246
X160.871 Y18.277
X161.367 Y18.279
G2 X161.657 Y17.958 I-0.009 J-0.3
G1 X161.636 Y17.656
X161.465 Y15.152 F1200
X161.441 Y14.807 F100
G2 X161.153 Y14.528 I-0.299 J0.021
G1 X160.784 Y14.526
X160.597 Y14.534
X160.24 Y14.651
X159.675 Y15.144
X159.39 Y15.838
X159.285 Y16.58
X159.34 Y17.328
X159.456 Y17.685
X159.609 Y17.895
X159.788 Y18.054
X159.996 Y18.173
X160.223 Y18.248
X160.461 Y18.274
X160.871 Y18.277
G2 X161.162 Y17.968 I-0.009 J-0.3
G1 X161.153 Y17.653
X161.081 Y15.153 F1200
X161.071 Y14.817 F100
G2 X160.784 Y14.526 I-0.3 J0.009
G1 X160.221 Y14.522
X160.034 Y14.53
X159.695 Y14.69
X159.171 Y15.226
X158.924 Y15.935
X158.841 Y16.68
X158.907 Y17.427
X158.98 Y17.588
X159.116 Y17.814
X159.3 Y18.005
X159.522 Y18.149
X159.77 Y18.239
X160.033 Y18.271
X160.461 Y18.274
G2 X160.752 Y17.951 I-0.008 J-0.3
G1 X160.729 Y17.653
X160.535 Y15.148 F1200
X160.508 Y14.799 F100
G2 X160.221 Y14.522 I-0.299 J0.023
G1 X159.858 Y14.519
X159.483 Y14.535
X159.166 Y14.735
X158.682 Y15.308
X158.462 Y16.025
X158.397 Y16.772
X158.472 Y17.518
X158.566 Y17.682
X158.708 Y17.878
X158.887 Y18.041
X159.096 Y18.163
X159.326 Y18.239
X159.566 Y18.267
X160.033 Y18.271
G2 X160.324 Y17.954 I-0.008 J-0.3
G1 X160.307 Y17.649
X160.164 Y15.145 F1200
X160.145 Y14.802 F100
G2 X159.858 Y14.519 I-0.3 J0.017
G1 X159.359 Y14.515
X159.171 Y14.522
X158.834 Y14.686
X158.549 Y14.929
X158.146 Y15.562
X157.978 Y16.293
X157.96 Y17.043
X158.118 Y17.776
X158.155 Y17.822
X158.338 Y18.006
X158.556 Y18.144
X158.8 Y18.231
X159.056 Y18.262
X159.566 Y18.267
G2 X159.858 Y17.947 I-0.008 J-0.3
G1 X159.838 Y17.646
X159.668 Y15.141 F1200
X159.645 Y14.794 F100
G2 X159.359 Y14.515 I-0.299 J0.02
G1 X158.969 Y14.511
X158.782 Y14.519
X158.432 Y14.655
X157.88 Y15.162
X157.608 Y15.861
X157.505 Y16.604
X157.558 Y17.352
X157.592 Y17.457
X157.716 Y17.718
X157.901 Y17.941
X158.134 Y18.112
X158.403 Y18.22
X158.689 Y18.258
X159.056 Y18.262
G2 X159.349 Y17.953 I-0.008 J-0.3
G1 X159.339 Y17.641
X159.265 Y15.138 F1200
X159.256 Y14.802 F100
G2 X158.969 Y14.511 I-0.3 J0.009
G1 X158.418 Y14.506
X158.231 Y14.513
X157.899 Y14.687
X157.386 Y15.234
X157.144 Y15.944
X157.06 Y16.689
X157.121 Y17.437
X157.212 Y17.616
X157.351 Y17.828
X157.533 Y18.006
X157.748 Y18.14
X157.988 Y18.224
X158.24 Y18.254
X158.689 Y18.258
G2 X158.981 Y17.932 I-0.008 J-0.3
G1 X158.955 Y17.638
X158.734 Y15.132 F1200
X158.703 Y14.779 F100
G2 X158.418 Y14.506 I-0.299 J0.026
G1 X158.037 Y14.502
X157.85 Y14.509
X157.51 Y14.668
X157.225 Y14.912
X156.816 Y15.541
X156.642 Y16.27
X156.62 Y17.02
X156.787 Y17.751
X156.828 Y17.803
X157.011 Y17.988
X157.23 Y18.129
X157.475 Y18.217
X157.733 Y18.249
X158.24 Y18.254
G2 X158.532 Y17.934 I-0.007 J-0.3
G1 X158.512 Y17.633
X158.346 Y15.128 F1200
X158.323 Y14.781 F100
G2 X158.037 Y14.502 I-0.299 J0.02
G1 X157.674 Y14.498
X157.487 Y14.505
X157.131 Y14.623
X156.568 Y15.119
X156.283 Y15.813
X156.171 Y16.555
X156.219 Y17.303
X156.332 Y17.661
X156.48 Y17.864
X156.659 Y18.023
X156.866 Y18.143
X157.093 Y18.217
X157.331 Y18.244
X157.733 Y18.249
G2 X158.026 Y17.942 I-0.007 J-0.3
G1 X158.019 Y17.627
X157.967 Y15.125 F1200
X157.96 Y14.791 F100
G2 X157.674 Y14.498 I-0.3 J0.006
G1 X157.175 Y14.493
X156.987 Y14.5
X156.64 Y14.641
X156.083 Y15.144
X155.826 Y15.848
X155.725 Y16.592
X155.769 Y17.34
X155.844 Y17.521
X155.977 Y17.758
X156.161 Y17.958
X156.386 Y18.11
X156.64 Y18.206
X156.91 Y18.24
X157.331 Y18.244
G2 X157.623 Y17.929 I-0.007 J-0.3
G1 X157.607 Y17.623
X157.478 Y15.12 F1200
X157.461 Y14.777 F100
G2 X157.175 Y14.493 I-0.3 J0.015
G1 X156.785 Y14.489
X156.41 Y14.503
X156.081 Y14.683
X155.584 Y15.244
X155.356 Y15.959
X155.278 Y16.705
X155.344 Y17.452
X155.439 Y17.627
X155.58 Y17.83
X155.76 Y17.999
X155.972 Y18.127
X156.206 Y18.207
X156.451 Y18.235
X156.91 Y18.24
G2 X157.202 Y17.928 I-0.007 J-0.3
G1 X157.189 Y17.619
X157.085 Y15.116 F1200
X157.071 Y14.776 F100
G2 X156.785 Y14.489 I-0.3 J0.012
G1 X156.234 Y14.483
X156.047 Y14.49
X155.711 Y14.657
X155.429 Y14.904
X155.028 Y15.538
X154.859 Y16.269
X154.839 Y17.018
X155.007 Y17.749
X155.043 Y17.794
X155.225 Y17.975
X155.443 Y18.113
X155.685 Y18.199
X155.94 Y18.23
X156.451 Y18.235
G2 X156.743 Y17.914 I-0.007 J-0.3
G1 X156.722 Y17.615
X156.544 Y15.109 F1200
X156.52 Y14.761 F100
G2 X156.234 Y14.483 I-0.299 J0.021
G1 X155.853 Y14.479
X155.666 Y14.486
X155.317 Y14.623
X154.766 Y15.132
X154.491 Y15.83
X154.386 Y16.573
X154.441 Y17.321
X154.476 Y17.427
X154.6 Y17.688
X154.785 Y17.91
X155.018 Y18.08
X155.286 Y18.187
X155.571 Y18.226
X155.94 Y18.23
G2 X156.233 Y17.921 I-0.007 J-0.3
G1 X156.224 Y17.609
X156.149 Y15.106 F1200
X156.139 Y14.77 F100
G2 X155.853 Y14.479 I-0.3 J0.009
G1 X155.324 Y14.473
X155.136 Y14.481
X154.801 Y14.649
X154.277 Y15.185
X154.03 Y15.893
X153.941 Y16.638
X153.998 Y17.386
X154.092 Y17.574
X154.231 Y17.79
X154.413 Y17.97
X154.629 Y18.105
X154.871 Y18.191
X155.124 Y18.221
X155.571 Y18.226
G2 X155.863 Y17.902 I-0.007 J-0.3
G1 X155.839 Y17.606
X155.637 Y15.1 F1200
X155.609 Y14.749 F100
G2 X155.324 Y14.473 I-0.299 J0.024
G1 X154.991 Y14.47
X154.616 Y14.485
X154.295 Y14.678
X153.797 Y15.239
X153.571 Y15.954
X153.494 Y16.7
X153.555 Y17.448
X153.654 Y17.623
X153.795 Y17.822
X153.975 Y17.987
X154.184 Y18.111
X154.415 Y18.189
X154.657 Y18.217
X155.124 Y18.221
G2 X155.417 Y17.908 I-0.007 J-0.3
G1 X155.403 Y17.6
X155.292 Y15.097 F1200
X155.277 Y14.756 F100
G2 X154.991 Y14.47 I-0.3 J0.013
G1 X154.398 Y14.464
X154.211 Y14.471
X153.886 Y14.66
X153.35 Y15.184
X153.127 Y15.9
X153.041 Y16.645
X153.079 Y17.394
X153.172 Y17.576
X153.312 Y17.788
X153.493 Y17.964
X153.709 Y18.098
X153.948 Y18.182
X154.199 Y18.212
X154.657 Y18.217
G2 X154.949 Y17.891 I-0.007 J-0.3
G1 X154.924 Y17.596
X154.713 Y15.09 F1200
X154.683 Y14.738 F100
G2 X154.398 Y14.464 I-0.299 J0.025
G1 X154.05 Y14.46
X153.675 Y14.475
X153.358 Y14.675
X152.874 Y15.247
X152.664 Y15.967
X152.588 Y16.714
X152.639 Y17.462
X152.734 Y17.626
X152.876 Y17.821
X153.055 Y17.982
X153.263 Y18.104
X153.492 Y18.179
X153.731 Y18.207
X154.199 Y18.212
G2 X154.492 Y17.897 I-0.007 J-0.3
G1 X154.476 Y17.591
X154.353 Y15.087 F1200
X154.336 Y14.745 F100
G2 X154.05 Y14.46 I-0.3 J0.015
G1 X153.509 Y14.454
X153.322 Y14.462
X152.993 Y14.642
X152.717 Y14.896
X152.331 Y15.539
X152.167 Y16.271
X152.141 Y17.021
X152.304 Y17.753
X152.331 Y17.784
X152.512 Y17.958
X152.726 Y18.09
X152.963 Y18.172
X153.213 Y18.201
X153.731 Y18.207
G2 X154.023 Y17.885 I-0.007 J-0.3
G1 X154.001 Y17.586
X153.82 Y15.081 F1200
X153.795 Y14.732 F100
G2 X153.509 Y14.454 I-0.299 J0.022
G1 X153.14 Y14.451
X152.952 Y14.458
X152.607 Y14.605
X152.068 Y15.126
X151.799 Y15.826
X151.691 Y16.568
X151.74 Y17.316
X151.763 Y17.389
X151.886 Y17.652
X152.07 Y17.877
X152.304 Y18.049
X152.574 Y18.159
X152.862 Y18.198
X153.213 Y18.201
G2 X153.505 Y17.894 I-0.007 J-0.3
G1 X153.497 Y17.58
X153.434 Y15.078 F1200
X153.426 Y14.743 F100
G2 X153.14 Y14.451 I-0.3 J0.008
G1 X152.577 Y14.445
X152.39 Y14.452
X152.067 Y14.643
X151.571 Y15.206
X151.331 Y15.916
X151.245 Y16.662
X151.305 Y17.409
X151.39 Y17.57
X151.53 Y17.778
X151.711 Y17.951
X151.924 Y18.082
X152.161 Y18.164
X152.41 Y18.193
X152.862 Y18.198
G2 X153.153 Y17.87 I-0.007 J-0.3
G1 X153.126 Y17.578
X152.895 Y15.071 F1200
X152.862 Y14.717 F100
G2 X152.577 Y14.445 I-0.299 J0.028
G1 X152.214 Y14.441
X152.026 Y14.448
X151.693 Y14.619
X151.132 Y15.118
X150.893 Y15.828
X150.792 Y16.572
X150.824 Y17.321
X150.917 Y17.518
X151.053 Y17.74
X151.236 Y17.927
X151.456 Y18.068
X151.701 Y18.157
X151.96 Y18.188
X152.41 Y18.193
G2 X152.702 Y17.874 I-0.007 J-0.3
G1 X152.683 Y17.572
X152.522 Y15.068 F1200
X152.5 Y14.721 F100
G2 X152.214 Y14.441 I-0.299 J0.019
G1 X151.866 Y14.437
X151.491 Y14.452
X151.16 Y14.628
X150.651 Y15.179
X150.427 Y15.895
X150.34 Y16.639
X150.384 Y17.388
X150.485 Y17.573
X150.625 Y17.777
X150.805 Y17.947
X151.018 Y18.075
X151.252 Y18.155
X151.498 Y18.184
X151.96 Y18.188
G2 X152.253 Y17.879 I-0.007 J-0.3
G1 X152.243 Y17.567
X152.163 Y15.065 F1200
X152.152 Y14.727 F100
G2 X151.866 Y14.437 I-0.3 J0.01
G1 X151.325 Y14.432
X151.137 Y14.439
X150.796 Y14.594
X150.506 Y14.832
X150.102 Y15.464
X149.926 Y16.193
X149.89 Y16.942
X150.044 Y17.676
X150.084 Y17.728
X150.267 Y17.915
X150.487 Y18.057
X150.733 Y18.146
X150.993 Y18.178
X151.498 Y18.184
G2 X151.79 Y17.867 I-0.007 J-0.3
G1 X151.773 Y17.563
X151.63 Y15.059 F1200
X151.611 Y14.714 F100
G2 X151.325 Y14.432 I-0.3 J0.017
G1 X150.956 Y14.428
X150.768 Y14.435
X150.411 Y14.548
X149.85 Y15.046
X149.566 Y15.74
X149.447 Y16.481
X149.485 Y17.23
X149.599 Y17.596
X149.741 Y17.79
X149.92 Y17.951
X150.128 Y18.071
X150.356 Y18.147
X150.594 Y18.174
X150.993 Y18.178
G2 X151.285 Y17.874 I-0.007 J-0.3
G1 X151.281 Y17.557
X151.247 Y15.055 F1200
X151.242 Y14.723 F100
G2 X150.956 Y14.428 I-0.3 J0.004
G1 X150.393 Y14.422
X150.206 Y14.429
X149.867 Y14.591
X149.346 Y15.13
X149.095 Y15.837
X149.001 Y16.581
X149.053 Y17.329
X149.119 Y17.479
X149.254 Y17.707
X149.438 Y17.899
X149.66 Y18.045
X149.909 Y18.137
X150.173 Y18.17
X150.594 Y18.174
G2 X150.886 Y17.855 I-0.007 J-0.3
G1 X150.867 Y17.553
X150.702 Y15.049 F1200
X150.679 Y14.702 F100
G2 X150.393 Y14.422 I-0.299 J0.02
G1 X150.03 Y14.418
X149.842 Y14.426
X149.495 Y14.567
X149.2 Y14.799
X148.778 Y15.418
X148.591 Y16.144
X148.557 Y16.894
X148.705 Y17.629
X148.754 Y17.694
X148.937 Y17.89
X149.16 Y18.038
X149.412 Y18.131
X149.678 Y18.165
X150.173 Y18.17
G2 X150.465 Y17.856 I-0.007 J-0.3
G1 X150.45 Y17.549
X150.332 Y15.045 F1200
X150.316 Y14.704 F100
G2 X150.03 Y14.418 I-0.3 J0.014
G1 X149.53 Y14.413
X149.343 Y14.42
X149.012 Y14.597
X148.458 Y15.102
X148.196 Y15.805
X148.099 Y16.549
X148.164 Y17.296
X148.213 Y17.422
X148.344 Y17.665
X148.528 Y17.87
X148.755 Y18.026
X149.013 Y18.125
X149.286 Y18.161
X149.678 Y18.165
G2 X149.97 Y17.85 I-0.007 J-0.3
G1 X149.955 Y17.544
X149.833 Y15.04 F1200
X149.817 Y14.698 F100
G2 X149.53 Y14.413 I-0.3 J0.015
G1 X149.141 Y14.409
X148.766 Y14.424
X148.447 Y14.621
X147.961 Y15.192
X147.73 Y15.906
X147.657 Y16.652
X147.733 Y17.398
X147.821 Y17.556
X147.962 Y17.757
X148.142 Y17.923
X148.353 Y18.049
X148.585 Y18.127
X148.829 Y18.156
X149.286 Y18.161
G2 X149.579 Y17.846 I-0.007 J-0.3
G1 X149.564 Y17.539
X149.443 Y15.036 F1200
X149.427 Y14.694 F100
G2 X149.141 Y14.409 I-0.3 J0.014
G1 X148.59 Y14.403
X148.403 Y14.41
X148.075 Y14.592
X147.525 Y15.102
X147.292 Y15.816
X147.202 Y16.56
X147.248 Y17.309
X147.34 Y17.497
X147.477 Y17.714
X147.66 Y17.896
X147.877 Y18.034
X148.12 Y18.12
X148.376 Y18.151
X148.829 Y18.156
G2 X149.12 Y17.833 I-0.007 J-0.3
G1 X149.097 Y17.535
X148.903 Y15.029 F1200
X148.875 Y14.68 F100
G2 X148.59 Y14.403 I-0.299 J0.023
G1 X148.209 Y14.399
X147.834 Y14.414
X147.517 Y14.614
X147.039 Y15.191
X146.825 Y15.91
X146.752 Y16.657
X146.816 Y17.404
X146.912 Y17.568
X147.053 Y17.762
X147.232 Y17.922
X147.44 Y18.043
X147.668 Y18.119
X147.907 Y18.146
X148.376 Y18.151
G2 X148.668 Y17.835 I-0.007 J-0.3
G1 X148.651 Y17.53
X148.514 Y15.026 F1200
X148.495 Y14.682 F100
G2 X148.209 Y14.399 I-0.3 J0.016
G1 X147.68 Y14.394
X147.492 Y14.401
X147.162 Y14.58
X146.885 Y14.832
X146.496 Y15.474
X146.332 Y16.205
X146.311 Y16.955
X146.477 Y17.687
X146.505 Y17.72
X146.686 Y17.896
X146.901 Y18.028
X147.139 Y18.111
X147.389 Y18.141
X147.907 Y18.146
G2 X148.199 Y17.824 I-0.007 J-0.3
G1 X148.177 Y17.526
X147.991 Y15.02 F1200
X147.965 Y14.671 F100
G2 X147.68 Y14.394 I-0.299 J0.022
G1 X147.346 Y14.39
X147.159 Y14.398
X146.806 Y14.523
X146.254 Y15.031
X145.974 Y15.727
X145.862 Y16.468
X145.906 Y17.217
X145.932 Y17.305
X146.052 Y17.575
X146.236 Y17.806
X146.472 Y17.984
X146.745 Y18.097
X147.038 Y18.137
X147.389 Y18.141
G2 X147.682 Y17.836 I-0.007 J-0.3
G1 X147.677 Y17.519
X147.638 Y15.018 F1200
X147.633 Y14.685 F100
G2 X147.346 Y14.39 I-0.3 J0.005
G1 X146.754 Y14.384
X146.566 Y14.391
X146.24 Y14.576
X145.743 Y15.137
X145.5 Y15.847
X145.416 Y16.592
X145.479 Y17.34
X145.563 Y17.503
X145.703 Y17.713
X145.884 Y17.888
X146.099 Y18.02
X146.336 Y18.103
X146.587 Y18.132
X147.038 Y18.137
G2 X147.329 Y17.81 I-0.007 J-0.3
G1 X147.302 Y17.517
X147.071 Y15.01 F1200
X147.039 Y14.656 F100
G2 X146.754 Y14.384 I-0.299 J0.027
G1 X146.406 Y14.38
X146.218 Y14.388
X145.879 Y14.548
X145.594 Y14.791
X145.182 Y15.418
X145.003 Y16.146
X144.976 Y16.896
X145.135 Y17.629
X145.175 Y17.68
X145.357 Y17.866
X145.577 Y18.007
X145.822 Y18.095
X146.081 Y18.127
X146.587 Y18.132
G2 X146.879 Y17.815 I-0.007 J-0.3
G1 X146.861 Y17.512
X146.712 Y15.007 F1200
X146.692 Y14.662 F100
G2 X146.406 Y14.38 I-0.299 J0.018
G1 X146.025 Y14.376
X145.837 Y14.384
X145.485 Y14.512
X144.925 Y15.011
X144.641 Y15.705
X144.528 Y16.446
X144.574 Y17.195
X144.691 Y17.556
X144.874 Y17.789
X145.111 Y17.968
X145.385 Y18.082
X145.679 Y18.123
X146.081 Y18.127
G2 X146.373 Y17.821 I-0.007 J-0.3
G1 X146.367 Y17.506
X146.318 Y15.004 F1200
X146.311 Y14.67 F100
G2 X146.025 Y14.376 I-0.3 J0.006
G1 X145.495 Y14.371
X145.308 Y14.378
X144.968 Y14.536
X144.433 Y15.062
X144.179 Y15.767
X144.083 Y16.511
X144.132 Y17.259
X144.206 Y17.426
X144.341 Y17.655
X144.524 Y17.847
X144.747 Y17.994
X144.996 Y18.085
X145.26 Y18.119
X145.679 Y18.123
G2 X145.971 Y17.805 I-0.007 J-0.3
G1 X145.953 Y17.502
X145.802 Y14.998 F1200
X145.781 Y14.652 F100
G2 X145.495 Y14.371 I-0.299 J0.018
G1 X144.933 Y14.365
X144.745 Y14.372
X144.428 Y14.571
X143.942 Y15.143
X143.713 Y15.857
X143.636 Y16.603
X143.699 Y17.35
X143.793 Y17.518
X143.934 Y17.718
X144.114 Y17.883
X144.324 Y18.008
X144.556 Y18.086
X144.798 Y18.114
X145.26 Y18.119
G2 X145.551 Y17.787 I-0.007 J-0.3
G1 X145.521 Y17.499
X145.255 Y14.99 F1200
X145.218 Y14.633 F100
G2 X144.933 Y14.365 I-0.298 J0.032
G1 X144.57 Y14.361
X144.382 Y14.369
X144.053 Y14.548
X143.503 Y15.058
X143.274 Y15.772
X143.181 Y16.517
X143.217 Y17.266
X143.309 Y17.454
X143.447 Y17.672
X143.629 Y17.854
X143.847 Y17.991
X144.09 Y18.078
X144.345 Y18.109
X144.798 Y18.114
G2 X145.09 Y17.792 I-0.007 J-0.3
G1 X145.068 Y17.493
X144.881 Y14.988 F1200
X144.855 Y14.639 F100
G2 X144.57 Y14.361 I-0.299 J0.022
G1 X144.222 Y14.358
X143.847 Y14.372
X143.522 Y14.56
X143.025 Y15.121
X142.809 Y15.839
X142.729 Y16.585
X142.777 Y17.334
X142.875 Y17.508
X143.016 Y17.708
X143.196 Y17.873
X143.406 Y17.998
X143.638 Y18.076
X143.88 Y18.104
X144.345 Y18.109
G2 X144.638 Y17.797 I-0.007 J-0.3
G1 X144.625 Y17.488
X144.522 Y14.985 F1200
X144.508 Y14.645 F100
G2 X144.222 Y14.358 I-0.3 J0.012
G1 X143.681 Y14.352
X143.493 Y14.359
X143.158 Y14.527
X142.874 Y14.772
X142.48 Y15.41
X142.311 Y16.141
X142.281 Y16.89
X142.439 Y17.623
X142.473 Y17.665
X142.655 Y17.846
X142.872 Y17.982
X143.114 Y18.068
X143.369 Y18.099
X143.88 Y18.104
G2 X144.172 Y17.785 I-0.007 J-0.3
G1 X144.153 Y17.483
X143.989 Y14.979 F1200
X143.966 Y14.632 F100
G2 X143.681 Y14.352 I-0.299 J0.02
G1 X143.311 Y14.348
X143.124 Y14.355
X142.772 Y14.485
X142.222 Y14.995
X141.946 Y15.692
X141.833 Y16.433
X141.878 Y17.182
X141.908 Y17.278
X142.03 Y17.544
X142.214 Y17.771
X142.449 Y17.945
X142.719 Y18.055
X143.009 Y18.095
X143.369 Y18.099
G2 X143.661 Y17.793 I-0.007 J-0.3
G1 X143.655 Y17.477
X143.605 Y14.975 F1200
X143.598 Y14.642 F100
G2 X143.311 Y14.348 I-0.3 J0.006
G1 X142.749 Y14.342
X142.561 Y14.35
X142.231 Y14.526
X141.722 Y15.077
X141.477 Y15.786
X141.388 Y16.531
X141.444 Y17.279
X141.533 Y17.452
X141.672 Y17.665
X141.853 Y17.842
X142.069 Y17.976
X142.308 Y18.06
X142.56 Y18.09
X143.009 Y18.095
G2 X143.3 Y17.77 I-0.007 J-0.3
G1 X143.276 Y17.475
X143.064 Y14.968 F1200
X143.034 Y14.617 F100
G2 X142.749 Y14.342 I-0.299 J0.025
G1 X142.386 Y14.338
X142.198 Y14.346
X141.857 Y14.502
X141.57 Y14.743
X141.156 Y15.368
X140.975 Y16.096
X140.946 Y16.845
X141.104 Y17.578
X141.146 Y17.633
X141.329 Y17.821
X141.55 Y17.963
X141.796 Y18.053
X142.056 Y18.085
X142.56 Y18.09
G2 X142.853 Y17.773 I-0.007 J-0.3
G1 X142.835 Y17.469
X142.691 Y14.965 F1200
X142.671 Y14.621 F100
G2 X142.386 Y14.338 I-0.299 J0.017
G1 X141.886 Y14.333
X141.699 Y14.341
X141.377 Y14.533
X140.835 Y15.051
X140.578 Y15.756
X140.486 Y16.5
X140.558 Y17.247
X140.601 Y17.354
X140.733 Y17.593
X140.917 Y17.795
X141.143 Y17.949
X141.399 Y18.046
X141.67 Y18.081
X142.056 Y18.085
G2 X142.349 Y17.768 I-0.007 J-0.3
G1 X142.332 Y17.464
X142.191 Y14.96 F1200
X142.172 Y14.616 F100
G2 X141.886 Y14.333 I-0.3 J0.017
G1 X141.497 Y14.329
X141.309 Y14.337
X140.968 Y14.493
X140.679 Y14.731
X140.257 Y15.351
X140.073 Y16.078
X140.053 Y16.828
X140.216 Y17.56
X140.262 Y17.619
X140.445 Y17.809
X140.666 Y17.953
X140.913 Y18.043
X141.175 Y18.076
X141.67 Y18.081
G2 X141.962 Y17.764 I-0.007 J-0.3
G1 X141.945 Y17.46
X141.802 Y14.956 F1200
X141.782 Y14.612 F100
G2 X141.497 Y14.329 I-0.3 J0.017
G1 X141.127 Y14.325
X140.94 Y14.333
X140.583 Y14.446
X140.012 Y14.933
X139.718 Y15.623
X139.604 Y16.364
X139.65 Y17.113
X139.762 Y17.471
X139.916 Y17.686
X140.095 Y17.848
X140.304 Y17.969
X140.533 Y18.045
X140.772 Y18.072
X141.175 Y18.076
G2 X141.468 Y17.771 I-0.007 J-0.3
G1 X141.462 Y17.455
X141.419 Y14.953 F1200
X141.414 Y14.62 F100
G2 X141.127 Y14.325 I-0.3 J0.005
G1 X140.565 Y14.32
X140.377 Y14.328
X140.036 Y14.482
X139.505 Y15.012
X139.25 Y15.718
X139.159 Y16.462
X139.217 Y17.21
X139.29 Y17.375
X139.425 Y17.604
X139.609 Y17.797
X139.831 Y17.943
X140.081 Y18.035
X140.345 Y18.068
X140.772 Y18.072
G2 X141.064 Y17.752 I-0.008 J-0.3
G1 X141.044 Y17.451
X140.874 Y14.946 F1200
X140.851 Y14.599 F100
G2 X140.565 Y14.32 I-0.299 J0.02
G1 X140.201 Y14.317
X139.827 Y14.332
X139.505 Y14.525
X139.014 Y15.092
X138.787 Y15.807
X138.714 Y16.553
X138.783 Y17.3
X138.878 Y17.47
X139.021 Y17.671
X139.203 Y17.837
X139.415 Y17.962
X139.649 Y18.039
X139.894 Y18.065
X140.345 Y18.068
G2 X140.637 Y17.754 I-0.008 J-0.3
G1 X140.623 Y17.447
X140.504 Y14.943 F1200
X140.488 Y14.602 F100
G2 X140.201 Y14.317 I-0.3 J0.014
G1 X139.702 Y14.315
X139.515 Y14.324
X139.174 Y14.479
X138.884 Y14.717
X138.474 Y15.345
X138.299 Y16.075
X138.275 Y16.824
X138.428 Y17.559
X138.472 Y17.615
X138.657 Y17.804
X138.88 Y17.946
X139.129 Y18.034
X139.391 Y18.064
X139.894 Y18.065
G2 X140.183 Y17.747 I-0.01 J-0.3
G1 X140.165 Y17.441
X140.012 Y14.939 F1200
X139.991 Y14.596 F100
G2 X139.702 Y14.315 I-0.299 J0.018
G1 X139.312 Y14.314
X139.125 Y14.323
X138.771 Y14.447
X138.211 Y14.946
X137.933 Y15.642
X137.824 Y16.384
X137.872 Y17.133
X137.992 Y17.498
X138.136 Y17.69
X138.316 Y17.848
X138.524 Y17.966
X138.752 Y18.039
X138.991 Y18.064
X139.391
G2 X139.681 Y17.757 I-0.01 J-0.3
G1 X139.673 Y17.44
X139.61 Y14.939 F1200
X139.602 Y14.607 F100
G2 X139.312 Y14.314 I-0.3 J0.008
G1 X138.762 Y14.315
X138.574 Y14.326
X138.235 Y14.486
X137.712 Y15.023
X137.466 Y15.731
X137.379 Y16.476
X137.437 Y17.224
X137.508 Y17.381
X137.646 Y17.611
X137.833 Y17.804
X138.059 Y17.948
X138.312 Y18.037
X138.578 Y18.066
X138.991 Y18.064
G2 X139.28 Y17.743 I-0.01 J-0.3
G1 X139.258 Y17.441
X139.077 Y14.937 F1200
X139.052 Y14.593 F100
G2 X138.762 Y14.315 I-0.299 J0.022
G1 X138.381 Y14.317
X138.006 Y14.339
X137.691 Y14.542
X137.217 Y15.123
X136.999 Y15.841
X136.933 Y16.588
X137.01 Y17.334
X137.104 Y17.494
X137.248 Y17.69
X137.431 Y17.851
X137.642 Y17.972
X137.875 Y18.045
X138.117 Y18.069
X138.578 Y18.066
G2 X138.865 Y17.748 I-0.012 J-0.3
G1 X138.846 Y17.441
X138.692 Y14.939 F1200
X138.671 Y14.599 F100
G2 X138.381 Y14.317 I-0.299 J0.018
G1 X137.851 Y14.321
X137.664 Y14.332
X137.335 Y14.513
X136.785 Y15.022
X136.562 Y15.738
X136.476 Y16.483
X136.522 Y17.232
X136.615 Y17.422
X136.757 Y17.642
X136.943 Y17.826
X137.166 Y17.962
X137.414 Y18.046
X137.674 Y18.073
X138.117 Y18.069
G2 X138.404 Y17.745 I-0.012 J-0.3
G1 X138.379 Y17.444
X138.17 Y14.942 F1200
X138.142 Y14.596 F100
G2 X137.851 Y14.321 I-0.299 J0.025
G1 X137.518 Y14.324
X137.144 Y14.347
X136.815 Y14.527
X136.308 Y15.08
X136.099 Y15.8
X136.025 Y16.546
X136.079 Y17.294
X136.183 Y17.481
X136.328 Y17.684
X136.512 Y17.852
X136.728 Y17.977
X136.965 Y18.054
X137.214 Y18.078
X137.674 Y18.073
G2 X137.96 Y17.759 I-0.014 J-0.3
G1 X137.945 Y17.446
X137.826 Y14.945 F1200
X137.81 Y14.61 F100
G2 X137.518 Y14.324 I-0.3 J0.014
G1 X136.925 Y14.331
X136.738 Y14.342
X136.406 Y14.517
X136.132 Y14.772
X135.752 Y15.418
X135.596 Y16.152
X135.579 Y16.902
X135.763 Y17.629
X135.799 Y17.671
X135.985 Y17.847
X136.204 Y17.978
X136.447 Y18.058
X136.701 Y18.083
X137.214 Y18.078
G2 X137.499 Y17.751 I-0.014 J-0.3
G1 X137.472 Y17.451
X137.248 Y14.951 F1200
X137.217 Y14.604 F100
G2 X136.925 Y14.331 I-0.299 J0.027
G1 X136.578 Y14.334
X136.39 Y14.346
X136.038 Y14.475
X135.495 Y14.992
X135.228 Y15.693
X135.125 Y16.436
X135.184 Y17.183
X135.219 Y17.287
X135.345 Y17.552
X135.534 Y17.777
X135.773 Y17.948
X136.047 Y18.053
X136.338 Y18.087
X136.701 Y18.083
G2 X136.987 Y17.772 I-0.014 J-0.3
G1 X136.976 Y17.456
X136.882 Y14.955 F1200
X136.87 Y14.623 F100
G2 X136.578 Y14.334 I-0.3 J0.011
G1 X136.036 Y14.34
X135.849 Y14.351
X135.515 Y14.522
X135.001 Y15.067
X134.763 Y15.779
X134.682 Y16.524
X134.747 Y17.271
X134.844 Y17.459
X134.986 Y17.673
X135.172 Y17.852
X135.393 Y17.985
X135.637 Y18.066
X135.894 Y18.092
X136.338 Y18.087
G2 X136.623 Y17.759 I-0.014 J-0.3
G1 X136.595 Y17.461
X136.361 Y14.96 F1200
X136.328 Y14.612 F100
G2 X136.036 Y14.34 I-0.299 J0.028
G1 X135.667 Y14.344
X135.48 Y14.355
X135.136 Y14.504
X134.846 Y14.742
X134.436 Y15.37
X134.263 Y16.1
X134.244 Y16.85
X134.412 Y17.581
X134.462 Y17.645
X134.649 Y17.836
X134.875 Y17.98
X135.127 Y18.068
X135.393 Y18.096
X135.894 Y18.092
G2 X136.179 Y17.771 I-0.014 J-0.3
G1 X136.158 Y17.465
X135.983 Y14.965 F1200
X135.959 Y14.623 F100
G2 X135.667 Y14.344 I-0.299 J0.021
G1 X135.104 Y14.349
X134.917 Y14.36
X134.299 Y14.784
X133.962 Y15.454
X133.81 Y16.189
Y16.939
X133.966 Y17.672
X133.995 Y17.705
X134.179 Y17.874
X134.395 Y17.999
X134.632 Y18.076
X134.88 Y18.101
X135.393 Y18.096
G2 X135.679 Y17.77 I-0.013 J-0.3
G1 X135.652 Y17.471
X135.427 Y14.969 F1200
X135.395 Y14.622 F100
G2 X135.104 Y14.349 I-0.299 J0.027
G1 X134.741 Y14.352
X134.554 Y14.363
X134.202 Y14.492
X133.685 Y15.035
X133.434 Y15.741
X133.346 Y16.486
X133.403 Y17.234
X133.421 Y17.291
X133.545 Y17.558
X133.732 Y17.785
X133.969 Y17.958
X134.243 Y18.067
X134.535 Y18.103
X134.88 Y18.101
G2 X135.167 Y17.788 I-0.013 J-0.3
G1 X135.154 Y17.474
X135.047 Y14.974 F1200
X135.033 Y14.639 F100
G2 X134.741 Y14.352 I-0.3 J0.013
G1 X134.242 Y14.354
X134.055 Y14.364
X133.723 Y14.538
X133.205 Y15.08
X132.976 Y15.795
X132.899 Y16.541
X132.956 Y17.288
X133.048 Y17.468
X133.189 Y17.682
X133.373 Y17.86
X133.592 Y17.994
X133.834 Y18.076
X134.089 Y18.104
X134.535 Y18.103
G2 X134.822 Y17.776 I-0.011 J-0.3
G1 X134.795 Y17.48
X134.563 Y14.976 F1200
X134.531 Y14.626 F100
G2 X134.242 Y14.354 I-0.299 J0.028
G1 X133.852
X133.665 Y14.364
X133.325 Y14.523
X133.04 Y14.767
X132.641 Y15.401
X132.475 Y16.133
X132.456 Y16.882
X132.627 Y17.612
X132.67 Y17.666
X132.855 Y17.851
X133.077 Y17.99
X133.324 Y18.076
X133.584 Y18.105
X134.089 Y18.104
G2 X134.377 Y17.782 I-0.011 J-0.3
G1 X134.354 Y17.48
X134.167 Y14.977 F1200
X134.142 Y14.632 F100
G2 X133.852 Y14.354 I-0.299 J0.022
G1 X133.483 Y14.355
X133.296 Y14.363
X132.94 Y14.483
X132.384 Y14.986
X132.109 Y15.684
X132.003 Y16.427
X132.058 Y17.175
X132.18 Y17.54
X132.364 Y17.772
X132.602 Y17.951
X132.876 Y18.063
X133.17 Y18.103
X133.584 Y18.105
G2 X133.873 Y17.795 I-0.011 J-0.3
G1 X133.863 Y17.48
X133.781 Y14.981 F1200
X133.77 Y14.645 F100
G2 X133.483 Y14.355 I-0.3 J0.01
G1 X132.92 Y14.351
X132.733 Y14.359
X132.398 Y14.527
X131.883 Y15.073
X131.642 Y15.783
X131.56 Y16.528
X131.625 Y17.275
X131.698 Y17.43
X131.835 Y17.653
X132.018 Y17.839
X132.239 Y17.981
X132.485 Y18.069
X132.745 Y18.1
X133.17 Y18.103
G2 X133.461 Y17.779 I-0.008 J-0.3
G1 X133.437 Y17.482
X133.235 Y14.977 F1200
X133.207 Y14.627 F100
G2 X132.92 Y14.351 I-0.299 J0.024
G1 X132.557 Y14.349
X132.37 Y14.357
X132.025 Y14.504
X131.734 Y14.74
X131.319 Y15.365
X131.143 Y16.094
X131.121 Y16.844
X131.28 Y17.577
X131.326 Y17.637
X131.508 Y17.827
X131.728 Y17.971
X131.975 Y18.062
X132.236 Y18.095
X132.745 Y18.1
G2 X133.036 Y17.782 I-0.008 J-0.3
G1 X133.018 Y17.478
X132.865 Y14.974 F1200
X132.844 Y14.63 F100
G2 X132.557 Y14.349 I-0.299 J0.018
G1 X132.058 Y14.342
X131.871 Y14.349
X131.544 Y14.534
X130.999 Y15.049
X130.746 Y15.755
X130.659 Y16.5
X130.733 Y17.246
X130.78 Y17.362
X130.912 Y17.601
X131.095 Y17.802
X131.32 Y17.956
X131.574 Y18.054
X131.844 Y18.089
X132.236 Y18.095
G2 X132.529 Y17.778 I-0.006 J-0.3
G1 X132.512 Y17.476
X132.363 Y14.971 F1200
X132.342 Y14.624 F100
G2 X132.058 Y14.342 I-0.299 J0.018
G1 X131.668 Y14.337
X131.481 Y14.343
X131.138 Y14.494
X130.845 Y14.729
X130.424 Y15.349
X130.244 Y16.077
X130.227 Y16.827
X130.39 Y17.559
X130.436 Y17.62
X130.618 Y17.811
X130.839 Y17.956
X131.087 Y18.048
X131.349 Y18.082
X131.844 Y18.089
G2 X132.137 Y17.772 I-0.006 J-0.3
G1 X132.12 Y17.47
X131.973 Y14.965 F1200
X131.953 Y14.619 F100
G2 X131.668 Y14.337 I-0.299 J0.018
G1 X131.299 Y14.331
X131.112 Y14.337
X130.752 Y14.445
X130.18 Y14.929
X129.888 Y15.62
X129.776 Y16.362
X129.824 Y17.11
X129.936 Y17.468
X130.089 Y17.686
X130.267 Y17.848
X130.474 Y17.97
X130.702 Y18.047
X130.941 Y18.076
X131.349 Y18.082
G2 X131.643 Y17.777 I-0.006 J-0.3
G1 X131.637 Y17.462
X131.59 Y14.96 F1200
X131.584 Y14.625 F100
G2 X131.299 Y14.331 I-0.3 J0.006
G1 X130.736 Y14.322
X130.549 Y14.328
X130.206 Y14.48
X129.674 Y15.009
X129.421 Y15.715
X129.332 Y16.459
X129.39 Y17.207
X129.463 Y17.374
X129.597 Y17.603
X129.78 Y17.795
X130.001 Y17.942
X130.249 Y18.034
X130.512 Y18.069
X130.941 Y18.076
G2 X131.235 Y17.755 I-0.006 J-0.3
G1 X131.214 Y17.457
X131.044 Y14.95 F1200
X131.02 Y14.601 F100
G2 X130.736 Y14.322 I-0.299 J0.02
G1 X130.373 Y14.316
X129.998 Y14.329
X129.676 Y14.521
X129.184 Y15.087
X128.958 Y15.802
X128.886 Y16.549
X128.955 Y17.296
X129.049 Y17.464
X129.189 Y17.663
X129.367 Y17.828
X129.576 Y17.953
X129.807 Y18.032
X130.049 Y18.061
X130.512 Y18.069
G2 X130.806 Y17.755 I-0.006 J-0.3
G1 X130.791 Y17.449
X130.674 Y14.945 F1200
X130.658 Y14.602 F100
G2 X130.373 Y14.316 I-0.3 J0.014
G1 X129.874 Y14.308
X129.686 Y14.314
X129.346 Y14.471
X129.056 Y14.709
X128.646 Y15.337
X128.472 Y16.066
X128.447 Y16.816
X128.598 Y17.55
X128.638 Y17.601
X128.819 Y17.788
X129.038 Y17.93
X129.283 Y18.02
X129.541 Y18.053
X130.049 Y18.061
G2 X130.342 Y17.744 I-0.006 J-0.3
G1 X130.325 Y17.442
X130.178 Y14.937 F1200
X130.158 Y14.59 F100
G2 X129.874 Y14.308 I-0.299 J0.018
G1 X129.484 Y14.302
X129.297 Y14.308
X128.944 Y14.435
X128.385 Y14.935
X128.106 Y15.631
X127.996 Y16.373
X128.042 Y17.121
X128.157 Y17.48
X128.339 Y17.712
X128.574 Y17.89
X128.846 Y18.005
X129.139 Y18.047
X129.541 Y18.053
G2 X129.835 Y17.747 I-0.006 J-0.3
G1 X129.829 Y17.433
X129.776 Y14.931 F1200
X129.769 Y14.595 F100
G2 X129.484 Y14.302 I-0.3 J0.006
G1 X128.933 Y14.293
X128.746 Y14.299
X128.41 Y14.465
X127.888 Y15.004
X127.641 Y15.712
X127.551 Y16.457
X127.605 Y17.205
X127.674 Y17.357
X127.809 Y17.582
X127.991 Y17.771
X128.211 Y17.915
X128.457 Y18.006
X128.717 Y18.04
X129.139 Y18.047
G2 X129.432 Y17.726 I-0.006 J-0.3
G1 X129.412 Y17.428
X129.241 Y14.921 F1200
X129.217 Y14.572 F100
G2 X128.933 Y14.293 I-0.299 J0.02
G1 X128.552 Y14.287
X128.365 Y14.293
X128.022 Y14.444
X127.732 Y14.682
X127.316 Y15.307
X127.136 Y16.035
X127.108 Y16.784
X127.265 Y17.517
X127.308 Y17.574
X127.49 Y17.763
X127.71 Y17.907
X127.956 Y17.998
X128.216 Y18.032
X128.717 Y18.04
G2 X129.011 Y17.723 I-0.006 J-0.3
G1 X128.994 Y17.421
X128.856 Y14.915 F1200
X128.837 Y14.57 F100
G2 X128.552 Y14.287 I-0.3 J0.017
G1 X128.189 Y14.281
X128.002 Y14.287
X127.643 Y14.395
X127.073 Y14.883
X126.781 Y15.574
X126.662 Y16.314
X126.703 Y17.063
X126.811 Y17.422
X126.961 Y17.634
X127.139 Y17.797
X127.347 Y17.919
X127.575 Y17.996
X127.814 Y18.025
X128.216 Y18.032
G2 X128.51 Y17.728 I-0.006 J-0.3
G1 X128.507 Y17.412
X128.478 Y14.91 F1200
X128.474 Y14.577 F100
G2 X128.189 Y14.281 I-0.3 J0.003
G1 X127.69 Y14.273
X127.502 Y14.279
X127.152 Y14.411
X126.586 Y14.904
X126.323 Y15.607
X126.216 Y16.349
X126.253 Y17.098
X126.329 Y17.287
X126.46 Y17.527
X126.642 Y17.729
X126.867 Y17.884
X127.122 Y17.982
X127.392 Y18.018
X127.814 Y18.025
G2 X128.108 Y17.713 I-0.006 J-0.3
G1 X128.095 Y17.406
X127.989 Y14.901 F1200
X127.974 Y14.56 F100
G2 X127.69 Y14.273 I-0.3 J0.013
G1 X127.3 Y14.266
X126.925 Y14.279
X126.591 Y14.45
X126.085 Y15.003
X125.851 Y15.716
X125.767 Y16.461
X125.827 Y17.208
X125.923 Y17.389
X126.062 Y17.596
X126.242 Y17.768
X126.454 Y17.898
X126.689 Y17.98
X126.936 Y18.011
X127.392 Y18.018
G2 X127.687 Y17.709 I-0.006 J-0.3
G1 X127.677 Y17.399
X127.596 Y14.895 F1200
X127.585 Y14.556 F100
G2 X127.3 Y14.266 I-0.3 J0.01
G1 X126.749 Y14.257
X126.562 Y14.264
X126.222 Y14.422
X125.935 Y14.663
X125.528 Y15.293
X125.352 Y16.022
X125.326 Y16.772
X125.488 Y17.504
X125.527 Y17.554
X125.708 Y17.739
X125.926 Y17.88
X126.17 Y17.97
X126.428 Y18.003
X126.936 Y18.011
G2 X127.23 Y17.692 I-0.006 J-0.3
G1 X127.211 Y17.392
X127.055 Y14.886 F1200
X127.033 Y14.538 F100
G2 X126.749 Y14.257 I-0.299 J0.019
G1 X126.368 Y14.251
X126.181 Y14.258
X125.828 Y14.384
X125.27 Y14.885
X124.989 Y15.58
X124.877 Y16.322
X124.926 Y17.07
X125.042 Y17.43
X125.225 Y17.662
X125.46 Y17.84
X125.732 Y17.954
X126.024 Y17.996
X126.428 Y18.003
G2 X126.722 Y17.696 I-0.006 J-0.3
G1 X126.715 Y17.383
X126.66 Y14.88 F1200
X126.653 Y14.544 F100
G2 X126.368 Y14.251 I-0.3 J0.007
G1 X125.839 Y14.243
X125.652 Y14.249
X125.312 Y14.408
X124.779 Y14.936
X124.526 Y15.642
X124.432 Y16.386
X124.483 Y17.134
X124.556 Y17.298
X124.69 Y17.526
X124.872 Y17.717
X125.093 Y17.863
X125.341 Y17.955
X125.603 Y17.989
X126.024 Y17.996
G2 X126.318 Y17.678 I-0.006 J-0.3
G1 X126.299 Y17.377
X126.144 Y14.871 F1200
X126.123 Y14.524 F100
G2 X125.839 Y14.243 I-0.299 J0.018
G1 X125.276 Y14.234
X125.089 Y14.24
X124.772 Y14.441
X124.289 Y15.015
X124.062 Y15.73
X123.985 Y16.476
X124.049 Y17.223
X124.141 Y17.387
X124.282 Y17.585
X124.46 Y17.75
X124.669 Y17.874
X124.898 Y17.953
X125.139 Y17.982
X125.603 Y17.989
G2 X125.895 Y17.658 I-0.006 J-0.3
G1 X125.865 Y17.371
X125.597 Y14.861 F1200
X125.559 Y14.501 F100
G2 X125.276 Y14.234 I-0.298 J0.032
G1 X124.913 Y14.228
X124.726 Y14.234
X124.398 Y14.417
X123.851 Y14.93
X123.622 Y15.644
X123.53 Y16.389
X123.567 Y17.138
X123.657 Y17.321
X123.794 Y17.537
X123.975 Y17.718
X124.191 Y17.856
X124.432 Y17.942
X124.686 Y17.975
X125.139 Y17.982
G2 X125.433 Y17.66 I-0.006 J-0.3
G1 X125.411 Y17.363
X125.223 Y14.856 F1200
X125.197 Y14.505 F100
G2 X124.913 Y14.228 I-0.299 J0.022
G1 X124.565 Y14.222
X124.19 Y14.235
X123.868 Y14.426
X123.374 Y14.99
X123.158 Y15.709
X123.078 Y16.455
X123.126 Y17.203
X123.221 Y17.373
X123.362 Y17.571
X123.54 Y17.735
X123.749 Y17.86
X123.978 Y17.938
X124.219 Y17.967
X124.686 Y17.975
G2 X124.98 Y17.662 I-0.006 J-0.3
G1 X124.967 Y17.355
X124.864 Y14.851 F1200
X124.85 Y14.509 F100
G2 X124.565 Y14.222 I-0.3 J0.012
G1 X124.024 Y14.213
X123.837 Y14.22
X123.503 Y14.392
X123.222 Y14.639
X122.829 Y15.278
X122.66 Y16.009
X122.63 Y16.758
X122.788 Y17.492
X122.818 Y17.528
X122.999 Y17.707
X123.213 Y17.842
X123.452 Y17.927
X123.704 Y17.959
X124.219 Y17.967
G2 X124.513 Y17.648 I-0.006 J-0.3
G1 X124.493 Y17.348
X124.331 Y14.842 F1200
X124.308 Y14.494 F100
G2 X124.024 Y14.213 I-0.299 J0.019
G1 X123.655 Y14.207
X123.467 Y14.214
X123.118 Y14.35
X122.57 Y14.862
X122.295 Y15.56
X122.182 Y16.301
X122.227 Y17.05
X122.253 Y17.135
X122.374 Y17.4
X122.557 Y17.627
X122.79 Y17.801
X123.06 Y17.912
X123.348 Y17.953
X123.704 Y17.959
G2 X123.998 Y17.653 I-0.006 J-0.3
G1 X123.993 Y17.339
X123.946 Y14.836 F1200
X123.939 Y14.501 F100
G2 X123.655 Y14.207 I-0.3 J0.006
G1 X123.092 Y14.198
X122.905 Y14.205
X122.577 Y14.387
X122.072 Y14.942
X121.827 Y15.65
X121.737 Y16.395
X121.792 Y17.143
X121.877 Y17.31
X122.016 Y17.521
X122.196 Y17.697
X122.41 Y17.83
X122.647 Y17.914
X122.897 Y17.946
X123.348 Y17.953
G2 X123.641 Y17.628 I-0.006 J-0.3
G1 X123.616 Y17.334
X123.405 Y14.826 F1200
X123.376 Y14.473 F100
G2 X123.092 Y14.198 I-0.299 J0.025
G1 X122.729 Y14.192
X122.542 Y14.199
X122.203 Y14.361
X121.918 Y14.604
X121.506 Y15.231
X121.324 Y15.959
X121.294 Y16.708
X121.452 Y17.441
X121.49 Y17.49
X121.671 Y17.675
X121.889 Y17.816
X122.133 Y17.904
X122.39 Y17.937
X122.897 Y17.946
G2 X123.191 Y17.629 I-0.006 J-0.3
G1 X123.174 Y17.326
X123.033 Y14.821 F1200
X123.013 Y14.475 F100
G2 X122.729 Y14.192 I-0.3 J0.017
G1 X122.381 Y14.187
X122.194 Y14.193
X121.836 Y14.306
X121.268 Y14.796
X120.974 Y15.486
X120.851 Y16.226
X120.887 Y16.975
X120.993 Y17.335
X121.139 Y17.54
X121.317 Y17.702
X121.525 Y17.825
X121.753 Y17.902
X121.992 Y17.931
X122.39 Y17.937
G2 X122.684 Y17.636 I-0.006 J-0.3
G1 X122.682 Y17.318
X122.668 Y14.816 F1200
X122.666 Y14.485 F100
G2 X122.381 Y14.187 I-0.3 J0.002
G1 X121.84 Y14.178
X121.653 Y14.184
X121.309 Y14.335
X120.769 Y14.856
X120.508 Y15.558
X120.405 Y16.301
X120.448 Y17.05
X120.516 Y17.211
X120.649 Y17.445
X120.831 Y17.643
X121.054 Y17.793
X121.306 Y17.889
X121.572 Y17.924
X121.992 Y17.931
G2 X122.286 Y17.616 I-0.006 J-0.3
G1 X122.271 Y17.312
X122.142 Y14.807 F1200
X122.124 Y14.462 F100
G2 X121.84 Y14.178 I-0.3 J0.015
G1 X121.471 Y14.172
X121.096 Y14.185
X120.772 Y14.374
X120.276 Y14.936
X120.041 Y15.648
X119.957 Y16.394
X120.016 Y17.141
X120.108 Y17.31
X120.248 Y17.512
X120.427 Y17.68
X120.637 Y17.807
X120.869 Y17.887
X121.113 Y17.917
X121.572 Y17.924
G2 X121.866 Y17.614 I-0.006 J-0.3
G1 X121.856 Y17.305
X121.767 Y14.801 F1200
X121.755 Y14.461 F100
G2 X121.471 Y14.172 I-0.3 J0.011
G1 X120.851 Y14.162
X120.664 Y14.168
X120.344 Y14.365
X119.823 Y14.905
X119.594 Y15.619
X119.506 Y16.364
X119.547 Y17.112
X119.638 Y17.286
X119.777 Y17.493
X119.956 Y17.666
X120.169 Y17.796
X120.404 Y17.879
X120.651 Y17.909
X121.113 Y17.917
G2 X121.406 Y17.591 I-0.006 J-0.3
G1 X121.381 Y17.298
X121.165 Y14.79 F1200
X121.134 Y14.436 F100
G2 X120.851 Y14.162 I-0.299 J0.026
G1 X120.513 Y14.157
X120.326 Y14.163
X119.983 Y14.315
X119.689 Y14.548
X119.277 Y15.175
X119.096 Y15.903
X119.055 Y16.651
X119.198 Y17.388
X119.239 Y17.442
X119.421 Y17.631
X119.641 Y17.776
X119.888 Y17.867
X120.148 Y17.901
X120.651 Y17.909
G2 X120.945 Y17.595 I-0.006 J-0.3
G1 X120.931 Y17.29
X120.813 Y14.785 F1200
X120.797 Y14.442 F100
G2 X120.513 Y14.157 I-0.3 J0.014
G1 X120.046 Y14.149
X119.858 Y14.155
X119.523 Y14.323
X118.973 Y14.834
X118.709 Y15.535
X118.603 Y16.278
X118.656 Y17.026
X118.694 Y17.13
X118.822 Y17.38
X119.005 Y17.592
X119.233 Y17.754
X119.493 Y17.857
X119.771 Y17.895
X120.148 Y17.901
G2 X120.443 Y17.59 I-0.006 J-0.3
G1 X120.432 Y17.282
X120.342 Y14.778 F1200
X120.33 Y14.438 F100
G2 X120.046 Y14.149 I-0.3 J0.011
G1 X119.656 Y14.143
X119.281 Y14.155
X118.962 Y14.353
X118.475 Y14.923
X118.239 Y15.635
X118.159 Y16.381
X118.226 Y17.128
X118.309 Y17.28
X118.449 Y17.482
X118.628 Y17.65
X118.838 Y17.778
X119.07 Y17.858
X119.314 Y17.888
X119.771 Y17.895
G2 X120.065 Y17.583 I-0.006 J-0.3
G1 X120.053 Y17.276
X119.954 Y14.772 F1200
X119.94 Y14.43 F100
G2 X119.656 Y14.143 I-0.3 J0.012
G1 X119.105 Y14.134
X118.918 Y14.14
X118.59 Y14.322
X118.039 Y14.832
X117.802 Y15.543
X117.705 Y16.287
X117.742 Y17.036
X117.831 Y17.22
X117.968 Y17.438
X118.149 Y17.621
X118.366 Y17.76
X118.608 Y17.848
X118.863 Y17.88
X119.314 Y17.888
G2 X119.608 Y17.567 I-0.006 J-0.3
G1 X119.587 Y17.269
X119.413 Y14.762 F1200
X119.389 Y14.413 F100
G2 X119.105 Y14.134 I-0.299 J0.021
G1 X118.724 Y14.128
X118.537 Y14.134
X118.19 Y14.277
X117.893 Y14.506
X117.478 Y15.131
X117.293 Y15.858
X117.253 Y16.607
X117.401 Y17.342
X117.447 Y17.403
X117.63 Y17.597
X117.851 Y17.744
X118.1 Y17.838
X118.364 Y17.872
X118.863 Y17.88
G2 X119.157 Y17.566 I-0.006 J-0.3
G1 X119.143 Y17.261
X119.025 Y14.756 F1200
X119.008 Y14.413 F100
G2 X118.724 Y14.128 I-0.3 J0.014
G1 X118.195 Y14.119
X118.007 Y14.125
X117.685 Y14.318
X117.143 Y14.836
X116.89 Y15.542
X116.794 Y16.286
X116.863 Y17.033
X116.912 Y17.15
X117.045 Y17.385
X117.227 Y17.583
X117.45 Y17.735
X117.702 Y17.83
X117.97 Y17.866
X118.364 Y17.872
G2 X118.658 Y17.555 I-0.006 J-0.3
G1 X118.64 Y17.253
X118.498 Y14.748 F1200
X118.479 Y14.402 F100
G2 X118.195 Y14.119 I-0.3 J0.017
G1 X117.862 Y14.114
X117.487 Y14.126
X117.166 Y14.321
X116.666 Y14.879
X116.432 Y15.592
X116.35 Y16.337
X116.415 Y17.085
X116.506 Y17.251
X116.646 Y17.453
X116.825 Y17.622
X117.035 Y17.748
X117.267 Y17.829
X117.511 Y17.858
X117.97 Y17.866
G2 X118.264 Y17.555 I-0.006 J-0.3
G1 X118.252 Y17.246
X118.159 Y14.743 F1200
X118.146 Y14.402 F100
G2 X117.862 Y14.114 I-0.3 J0.011
G1 X117.269 Y14.104
X117.081 Y14.11
X116.757 Y14.299
X116.219 Y14.821
X115.989 Y15.535
X115.898 Y16.279
X115.939 Y17.028
X116.031 Y17.21
X116.169 Y17.422
X116.349 Y17.6
X116.564 Y17.734
X116.802 Y17.82
X117.053 Y17.851
X117.511 Y17.858
G2 X117.805 Y17.535 I-0.006 J-0.3
G1 X117.781 Y17.24
X117.581 Y14.732 F1200
X117.553 Y14.38 F100
G2 X117.269 Y14.104 I-0.299 J0.024
G1 X116.921 Y14.098
X116.734 Y14.105
X116.387 Y14.247
X116.087 Y14.473
X115.671 Y15.096
X115.488 Y15.824
X115.447 Y16.573
X115.59 Y17.309
X115.636 Y17.371
X115.819 Y17.566
X116.041 Y17.714
X116.29 Y17.808
X116.555 Y17.843
X117.053 Y17.851
G2 X117.347 Y17.538 I-0.006 J-0.3
G1 X117.334 Y17.232
X117.221 Y14.727 F1200
X117.205 Y14.385 F100
G2 X116.921 Y14.098 I-0.3 J0.014
G1 X116.54 Y14.092
X116.353 Y14.099
X115.991 Y14.197
X115.42 Y14.684
X115.13 Y15.376
X115.006 Y16.115
X115.039 Y16.865
X115.146 Y17.224
X115.297 Y17.441
X115.476 Y17.605
X115.684 Y17.729
X115.913 Y17.807
X116.154 Y17.837
X116.555 Y17.843
G2 X116.849 Y17.541 I-0.006 J-0.3
G1 X116.847 Y17.223
X116.827 Y14.721 F1200
X116.825 Y14.39 F100
G2 X116.54 Y14.092 I-0.3 J0.002
G1 X116.011 Y14.084
X115.823 Y14.09
X115.474 Y14.227
X114.924 Y14.737
X114.664 Y15.44
X114.559 Y16.183
X114.598 Y16.932
X114.672 Y17.11
X114.804 Y17.346
X114.986 Y17.545
X115.21 Y17.697
X115.463 Y17.794
X115.731 Y17.83
X116.154 Y17.837
G2 X116.448 Y17.522 I-0.006 J-0.3
G1 X116.433 Y17.217
X116.312 Y14.712 F1200
X116.295 Y14.369 F100
G2 X116.011 Y14.084 I-0.3 J0.015
G1 X115.448 Y14.075
X115.26 Y14.081
X114.932 Y14.262
X114.43 Y14.819
X114.196 Y15.532
X114.111 Y16.277
X114.167 Y17.025
X114.262 Y17.204
X114.402 Y17.41
X114.581 Y17.581
X114.793 Y17.71
X115.027 Y17.792
X115.273 Y17.822
X115.731 Y17.83
G2 X116.024 Y17.502 I-0.006 J-0.3
G1 X115.997 Y17.211
X115.764 Y14.702 F1200
X115.731 Y14.346 F100
G2 X115.448 Y14.075 I-0.299 J0.028
G1 X115.085 Y14.069
X114.897 Y14.075
X114.559 Y14.238
X114.275 Y14.482
X113.87 Y15.114
X113.695 Y15.843
X113.668 Y16.592
X113.83 Y17.324
X113.866 Y17.371
X114.048 Y17.554
X114.265 Y17.693
X114.507 Y17.781
X114.763 Y17.814
X115.273 Y17.822
G2 X115.567 Y17.504 I-0.006 J-0.3
G1 X115.548 Y17.203
X115.391 Y14.697 F1200
X115.369 Y14.35 F100
G2 X115.085 Y14.069 I-0.299 J0.019
G1 X114.737 Y14.063
X114.549 Y14.069
X114.192 Y14.183
X113.629 Y14.679
X113.341 Y15.371
X113.222 Y16.112
X113.263 Y16.861
X113.374 Y17.227
X113.515 Y17.421
X113.693 Y17.581
X113.9 Y17.703
X114.127 Y17.779
X114.364 Y17.808
X114.763 Y17.814
G2 X115.058 Y17.511 I-0.006 J-0.3
G1 X115.054 Y17.194
X115.025 Y14.692 F1200
X115.022 Y14.359 F100
G2 X114.737 Y14.063 I-0.3 J0.003
G1 X114.196 Y14.054
X114.008 Y14.061
X113.667 Y14.215
X113.132 Y14.741
X112.875 Y15.445
X112.776 Y16.189
X112.824 Y16.938
X112.891 Y17.094
X113.024 Y17.326
X113.206 Y17.522
X113.428 Y17.671
X113.679 Y17.766
X113.944 Y17.801
X114.364 Y17.808
G2 X114.658 Y17.491 I-0.006 J-0.3
G1 X114.641 Y17.188
X114.5 Y14.683 F1200
X114.48 Y14.337 F100
G2 X114.196 Y14.054 I-0.3 J0.017
G1 X113.827 Y14.048
X113.452 Y14.061
X113.131 Y14.255
X112.64 Y14.822
X112.409 Y15.535
X112.329 Y16.281
X112.391 Y17.029
X112.482 Y17.193
X112.622 Y17.393
X112.801 Y17.559
X113.01 Y17.685
X113.241 Y17.764
X113.483 Y17.793
X113.944 Y17.801
G2 X114.238 Y17.489 I-0.006 J-0.3
G1 X114.226 Y17.181
X114.125 Y14.677 F1200
X114.111 Y14.336 F100
G2 X113.827 Y14.048 I-0.3 J0.012
G1 X113.369 Y14.041
X113.182 Y14.047
X112.834 Y14.186
X112.537 Y14.415
X112.113 Y15.033
X111.925 Y15.76
X111.886 Y16.509
X112.015 Y17.247
X112.064 Y17.313
X112.246 Y17.508
X112.468 Y17.656
X112.718 Y17.75
X112.982 Y17.785
X113.483 Y17.793
G2 X113.777 Y17.482 I-0.006 J-0.3
G1 X113.765 Y17.174
X113.667 Y14.67 F1200
X113.654 Y14.329 F100
G2 X113.369 Y14.041 I-0.3 J0.012
G1 X112.934 Y14.034
X112.746 Y14.04
X112.396 Y14.173
X111.831 Y14.667
X111.552 Y15.363
X111.438 Y16.104
X111.477 Y16.853
X111.596 Y17.214
X111.779 Y17.445
X112.013 Y17.623
X112.285 Y17.737
X112.577 Y17.779
X112.982 Y17.785
G2 X113.277 Y17.48 I-0.006 J-0.3
G1 X113.271 Y17.166
X113.225 Y14.663 F1200
X113.218 Y14.328 F100
G2 X112.934 Y14.034 I-0.3 J0.006
G1 X112.401 Y14.025
X112.214 Y14.032
X111.874 Y14.19
X111.34 Y14.717
X111.089 Y15.424
X110.991 Y16.167
X111.035 Y16.916
X111.109 Y17.081
X111.243 Y17.308
X111.425 Y17.5
X111.646 Y17.645
X111.893 Y17.738
X112.155 Y17.772
X112.577 Y17.779
G2 X112.87 Y17.461 I-0.006 J-0.3
G1 X112.853 Y17.159
X112.706 Y14.654 F1200
X112.686 Y14.307 F100
G2 X112.401 Y14.025 I-0.299 J0.018
G1 X112.012 Y14.019
X111.824 Y14.025
X111.478 Y14.169
X111.185 Y14.403
X110.764 Y15.024
X110.579 Y15.751
X110.543 Y16.5
X110.695 Y17.234
X110.742 Y17.296
X110.924 Y17.489
X111.145 Y17.636
X111.394 Y17.729
X111.657 Y17.764
X112.155 Y17.772
G2 X112.449 Y17.457 I-0.006 J-0.3
G1 X112.434 Y17.152
X112.313 Y14.648 F1200
X112.296 Y14.304 F100
G2 X112.012 Y14.019 I-0.3 J0.015
G1 X111.642 Y14.013
X111.455 Y14.019
X111.094 Y14.12
X110.52 Y14.604
X110.225 Y15.293
X110.101 Y16.033
X110.137 Y16.782
X110.245 Y17.141
X110.398 Y17.362
X110.576 Y17.526
X110.785 Y17.65
X111.014 Y17.728
X111.255 Y17.757
