(prop2)
(T1  D=3 CR=0 - ZMIN=-25.733 - flat end mill)
G90 G94
G17
G21
G28 G91 Z0
G90

(Adaptive1)
T1
S18000 M3
G54
G0 X-3.36 Y17.09
Z2.21
Z-9.39
G1 Z-9.69 F100
X-3.353 Y17.094 Z-9.757
X-3.334 Y17.105 Z-9.82
X-3.303 Y17.123 Z-9.877
X-3.262 Y17.147 Z-9.925
X-3.213 Y17.175 Z-9.96
X-3.158 Y17.207 Z-9.982
X-3.1 Y17.24 Z-9.99
G2 X-1.51 Y17.682 I1.657 J-2.882
G1 X-1.328 Y17.679
X-1.141 Y17.667
G2 X-0.915 Y14.572 I-5.853 J-1.983
G1 X-1.067 Y14.36
X-1.245 Y14.18
X-1.459 Y14.045
X-1.699 Y13.963
X-1.95 Y13.938
G2 X-2.23 Y14.295 I0.015 J0.3
G1 X-2.178 Y14.562
X-1.689 Y17.066 F1200
X-1.617 Y17.437 F100
G2 X-1.328 Y17.679 I0.294 J-0.057
G1 X-0.947 Y17.674
X-0.76 Y17.662
G2 X-0.475 Y14.381 I-3.462 J-1.954
G1 X-0.684 Y14.196
X-0.905 Y14.049
X-1.154 Y13.958
X-1.418 Y13.93
G2 X-1.7 Y14.273 I0.015 J0.3
G1 X-1.658 Y14.556
X-1.291 Y17.057 F1200
X-1.238 Y17.417 F100
G2 X-0.947 Y17.674 I0.297 J-0.044
G1 X-0.584 Y17.668
X-0.397 Y17.656
X0.061 Y17.062
X0.224 Y16.33
X0.284 Y15.583
X0.24 Y14.834
X0.137 Y14.593
X0.008 Y14.367
X-0.17 Y14.178
X-0.388 Y14.036
X-0.633 Y13.949
X-0.891 Y13.922
G2 X-1.175 Y14.25 I0.015 J0.3
G1 X-1.147 Y14.55
X-0.91 Y17.05 F1200
X-0.877 Y17.397 F100
G2 X-0.584 Y17.668 I0.299 J-0.028
G1 X-0.236 Y17.663
X-0.049 Y17.651
X0.247 Y17.422
X0.639 Y16.782
X0.797 Y16.049
X0.828 Y15.299
X0.692 Y14.562
X0.621 Y14.444
X0.442 Y14.221
X0.213 Y14.052
X-0.053 Y13.947
X-0.336 Y13.914
G2 X-0.621 Y14.223 I0.015 J0.3
G1 X-0.612 Y14.543
X-0.54 Y17.043 F1200
X-0.53 Y17.372 F100
G2 X-0.236 Y17.663 I0.3 J-0.009
G1 X0.145 Y17.658
X0.332 Y17.646
X0.641 Y17.433
X1.127 Y16.862
X1.318 Y16.137
X1.369 Y15.389
X1.277 Y14.644
X1.193 Y14.487
X1.057 Y14.289
X0.881 Y14.125
X0.675 Y14.003
X0.446 Y13.929
X0.207 Y13.907
X-0.336 Y13.914
G2 X-0.618 Y14.259 I0.015 J0.3
G1 X-0.576 Y14.54
X-0.2 Y17.041 F1200
X-0.146 Y17.402 F100
G2 X0.145 Y17.658 I0.297 J-0.045
G1 X0.508 Y17.653
X0.695 Y17.64
X1.036 Y17.485
X1.32 Y17.241
X1.719 Y16.605
X1.88 Y15.873
X1.888 Y15.123
X1.723 Y14.391
X1.688 Y14.345
X1.51 Y14.155
X1.292 Y14.012
X1.046 Y13.925
X0.787 Y13.898
X0.207 Y13.907
G2 X-0.077 Y14.234 I0.015 J0.3
G1 X-0.049 Y14.534
X0.183 Y17.034 F1200
X0.215 Y17.38 F100
G2 X0.508 Y17.653 I0.299 J-0.028
G1 X1.007 Y17.645
X1.194 Y17.633
X1.531 Y17.469
X2.091 Y16.969
X2.352 Y16.266
X2.441 Y15.522
X2.372 Y14.775
X2.311 Y14.609
X2.187 Y14.369
X2.008 Y14.167
X1.785 Y14.014
X1.532 Y13.92
X1.263 Y13.891
X0.787 Y13.898
G2 X0.503 Y14.218 I0.015 J0.3
G1 X0.524 Y14.526
X0.691 Y17.026 F1200
X0.714 Y17.365 F100
G2 X1.007 Y17.645 I0.299 J-0.02
G1 X1.397 Y17.64
X1.771 Y17.615
X2.112 Y17.46
X2.636 Y16.923
X2.885 Y16.216
X2.967 Y15.47
X2.901 Y14.723
X2.802 Y14.514
X2.67 Y14.3
X2.492 Y14.122
X2.278 Y13.989
X2.04 Y13.908
X1.789 Y13.883
X1.263 Y13.891
G2 X0.978 Y14.203 I0.015 J0.3
G1 X0.991 Y14.52
X1.09 Y17.02 F1200
X1.103 Y17.352 F100
G2 X1.397 Y17.64 I0.3 J-0.012
G1 X2.099 Y17.629
X2.286 Y17.616
X2.626 Y17.457
X3.158 Y16.929
X3.409 Y16.222
X3.497 Y15.477
X3.446 Y14.729
X3.341 Y14.507
X3.209 Y14.292
X3.031 Y14.114
X2.817 Y13.98
X2.579 Y13.899
X2.328 Y13.875
X1.789 Y13.883
G2 X1.506 Y14.212 I0.015 J0.3
G1 X1.534 Y14.511
X1.773 Y17.011 F1200
X1.806 Y17.357 F100
G2 X2.099 Y17.629 I0.299 J-0.028
G1 X2.489 Y17.622
X2.863 Y17.598
X3.197 Y17.426
X3.703 Y16.873
X3.945 Y16.163
X4.028 Y15.418
X3.968 Y14.67
X3.868 Y14.47
X3.733 Y14.264
X3.555 Y14.093
X3.344 Y13.966
X3.11 Y13.889
X2.864 Y13.866
X2.328 Y13.875
G2 X2.044 Y14.189 I0.015 J0.3
G1 X2.059 Y14.503
X2.179 Y17.003 F1200
X2.195 Y17.337 F100
G2 X2.489 Y17.622 I0.3 J-0.014
G1 X3.04 Y17.613
X3.414 Y17.587
X3.74 Y17.401
X4.238 Y16.841
X4.477 Y16.13
X4.559 Y15.385
X4.501 Y14.637
X4.402 Y14.448
X4.266 Y14.245
X4.089 Y14.077
X3.88 Y13.953
X3.648 Y13.878
X3.405 Y13.855
X2.864 Y13.866
G2 X2.581 Y14.181 I0.016 J0.3
G1 X2.597 Y14.495
X2.727 Y16.995 F1200
X2.745 Y17.329 F100
G2 X3.04 Y17.613 I0.3 J-0.016
G1 X3.581 Y17.603
X3.955 Y17.577
X4.276 Y17.383
X4.769 Y16.818
X5.008 Y16.107
X5.09 Y15.362
X5.036 Y14.614
X4.94 Y14.432
X4.804 Y14.231
X4.628 Y14.065
X4.419 Y13.941
X4.188 Y13.867
X3.946 Y13.845
X3.405 Y13.855
G2 X3.122 Y14.17 I0.016 J0.3
G1 X3.138 Y14.485
X3.268 Y16.984 F1200
X3.286 Y17.318 F100
G2 X3.581 Y17.603 I0.3 J-0.016
G1 X4.132 Y17.592
X4.506 Y17.567
X4.821 Y17.363
X5.304 Y16.79
X5.54 Y16.078
X5.623 Y15.332
X5.569 Y14.584
X5.477 Y14.413
X5.34 Y14.215
X5.164 Y14.052
X4.957 Y13.93
X4.728 Y13.857
X4.489 Y13.835
X3.946 Y13.845
G2 X3.663 Y14.161 I0.016 J0.3
G1 X3.68 Y14.474
X3.819 Y16.973 F1200
X3.837 Y17.309 F100
G2 X4.132 Y17.592 I0.3 J-0.017
G1 X4.673 Y17.582
X4.86 Y17.57
X5.203 Y17.419
X5.777 Y16.936
X6.042 Y16.235
X6.158 Y15.493
X6.145 Y14.744
X6.049 Y14.508
X5.92 Y14.278
X5.741 Y14.085
X5.521 Y13.941
X5.273 Y13.853
X5.011 Y13.826
X4.489 Y13.835
G2 X4.205 Y14.151 I0.016 J0.3
G1 X4.222 Y14.464
X4.36 Y16.964 F1200
X4.378 Y17.299 F100
G2 X4.673 Y17.582 I0.3 J-0.016
G1 X5.224 Y17.573
X5.598 Y17.548
X5.913 Y17.345
X6.383 Y16.76
X6.617 Y16.048
X6.703 Y15.303
X6.621 Y14.557
X6.536 Y14.398
X6.4 Y14.2
X6.224 Y14.035
X6.016 Y13.913
X5.787 Y13.839
X5.547 Y13.817
X5.011 Y13.826
G2 X4.728 Y14.145 I0.016 J0.3
G1 X4.748 Y14.455
X4.908 Y16.954 F1200
X4.93 Y17.292 F100
G2 X5.224 Y17.573 I0.299 J-0.019
G1 X5.765 Y17.564
X5.952 Y17.551
X6.293 Y17.394
X6.858 Y16.902
X7.121 Y16.199
X7.237 Y15.458
X7.203 Y14.709
X7.106 Y14.478
X6.976 Y14.252
X6.797 Y14.063
X6.579 Y13.921
X6.333 Y13.834
X6.074 Y13.808
X5.547 Y13.817
G2 X5.263 Y14.136 I0.016 J0.3
G1 X5.284 Y14.445
X5.449 Y16.945 F1200
X5.471 Y17.284 F100
G2 X5.765 Y17.564 I0.299 J-0.02
G1 X6.316 Y17.553
X6.503 Y17.54
X6.851 Y17.4
X7.393 Y16.882
X7.658 Y16.18
X7.767 Y15.438
X7.735 Y14.689
X7.629 Y14.45
X7.497 Y14.227
X7.317 Y14.042
X7.099 Y13.903
X6.854 Y13.82
X6.597 Y13.796
X6.074 Y13.808
G2 X5.791 Y14.129 I0.016 J0.3
G1 X5.813 Y14.436
X5.995 Y16.937 F1200
X6.02 Y17.275 F100
G2 X6.316 Y17.553 I0.299 J-0.022
G1 X6.857 Y17.541
X7.044 Y17.527
X7.39 Y17.383
X7.929 Y16.861
X8.192 Y16.159
X8.299 Y15.416
X8.266 Y14.667
X8.159 Y14.43
X8.027 Y14.21
X7.847 Y14.026
X7.629 Y13.889
X7.386 Y13.807
X7.13 Y13.783
X6.597 Y13.796
G2 X6.315 Y14.119 I0.018 J0.299
G1 X6.339 Y14.426
X6.535 Y16.924 F1200
X6.561 Y17.264 F100
G2 X6.857 Y17.541 I0.299 J-0.023
G1 X7.408 Y17.526
X7.595 Y17.51
X7.938 Y17.359
X8.469 Y16.829
X8.728 Y16.126
X8.831 Y15.383
X8.794 Y14.634
X8.685 Y14.401
X8.55 Y14.182
X8.368 Y14
X8.149 Y13.866
X7.904 Y13.786
X7.648 Y13.765
X7.13 Y13.783
G2 X6.849 Y14.107 I0.018 J0.299
G1 X6.874 Y14.413
X7.081 Y16.913 F1200
X7.109 Y17.251 F100
G2 X7.408 Y17.526 I0.299 J-0.025
G1 X7.949 Y17.507
X8.136 Y17.491
X8.477 Y17.336
X9.005 Y16.803
X9.262 Y16.099
X9.363 Y15.355
X9.324 Y14.607
X9.216 Y14.376
X9.08 Y14.159
X8.898 Y13.978
X8.679 Y13.845
X8.436 Y13.766
X8.18 Y13.746
X7.648 Y13.765
G2 X7.37 Y14.091 I0.021 J0.299
G1 X7.398 Y14.399
X7.62 Y16.894 F1200
X7.65 Y17.233 F100
G2 X7.949 Y17.507 I0.299 J-0.027
G1 X8.502 Y17.485
X8.689 Y17.467
X9.027 Y17.305
X9.546 Y16.764
X9.799 Y16.058
X9.895 Y15.314
X9.85 Y14.565
X9.741 Y14.34
X9.603 Y14.124
X9.419 Y13.946
X9.198 Y13.815
X8.953 Y13.739
X8.698 Y13.722
X8.18 Y13.746
G2 X7.903 Y14.073 I0.021 J0.299
G1 X7.932 Y14.379
X8.168 Y16.876 F1200
X8.2 Y17.213 F100
G2 X8.502 Y17.485 I0.299 J-0.028
G1 X8.927 Y17.465
X9.3 Y17.428
X9.624 Y17.24
X10.11 Y16.669
X10.347 Y15.957
X10.428 Y15.212
X10.357 Y14.465
X10.253 Y14.272
X10.112 Y14.07
X9.929 Y13.903
X9.714 Y13.782
X9.477 Y13.712
X9.231 Y13.696
X8.698 Y13.722
G2 X8.423 Y14.04 I0.025 J0.299
G1 X8.444 Y14.36
X8.603 Y16.855 F1200
X8.623 Y17.184 F100
G2 X8.927 Y17.465 I0.299 J-0.019
G1 X9.592 Y17.432
X9.778 Y17.413
X10.108 Y17.234
X10.624 Y16.69
X10.87 Y15.981
X10.958 Y15.237
X10.908 Y14.488
X10.801 Y14.275
X10.662 Y14.062
X10.477 Y13.887
X10.257 Y13.759
X10.014 Y13.685
X9.76 Y13.669
X9.231 Y13.696
G2 X8.958 Y14.026 I0.025 J0.299
G1 X8.99 Y14.332
X9.253 Y16.825 F1200
X9.288 Y17.164 F100
G2 X9.592 Y17.432 I0.298 J-0.031
G1 X9.973 Y17.412
X10.346 Y17.374
X10.674 Y17.192
X11.17 Y16.63
X11.408 Y15.919
X11.49 Y15.173
X11.429 Y14.426
X11.322 Y14.224
X11.181 Y14.019
X10.998 Y13.85
X10.781 Y13.727
X10.542 Y13.656
X10.293 Y13.641
X9.76 Y13.669
G2 X9.486 Y13.985 I0.026 J0.299
G1 X9.505 Y14.307
X9.649 Y16.804 F1200
X9.668 Y17.13 F100
G2 X9.973 Y17.412 I0.3 J-0.017
G1 X10.684 Y17.375
X10.87 Y17.356
X11.196 Y17.171
X11.698 Y16.614
X11.938 Y15.903
X12.021 Y15.157
X11.967 Y14.409
X11.861 Y14.205
X11.721 Y13.997
X11.537 Y13.826
X11.32 Y13.702
X11.079 Y13.629
X10.829 Y13.613
X10.293 Y13.641
G2 X10.021 Y13.974 I0.026 J0.299
G1 X10.056 Y14.278
X10.342 Y16.768 F1200
X10.381 Y17.11 F100
G2 X10.684 Y17.375 I0.298 J-0.034
G1 X11.065 Y17.356
X11.438 Y17.318
X11.759 Y17.124
X12.244 Y16.552
X12.476 Y15.839
X12.553 Y15.093
X12.488 Y14.345
X12.385 Y14.157
X12.243 Y13.955
X12.061 Y13.791
X11.846 Y13.671
X11.61 Y13.601
X11.365 Y13.586
X10.829 Y13.613
G2 X10.555 Y13.932 I0.026 J0.299
G1 X10.576 Y14.251
X10.739 Y16.747 F1200
X10.761 Y17.075 F100
G2 X11.065 Y17.356 I0.299 J-0.02
G1 X11.594 Y17.329
X11.968 Y17.294
X12.286 Y17.097
X12.774 Y16.527
X13.007 Y15.814
X13.084 Y15.068
X13.024 Y14.32
X12.924 Y14.135
X12.784 Y13.935
X12.603 Y13.77
X12.391 Y13.65
X12.157 Y13.579
X11.913 Y13.562
X11.365 Y13.586
G2 X11.091 Y13.904 I0.026 J0.299
G1 X11.111 Y14.224
X11.271 Y16.717 F1200
X11.293 Y17.048 F100
G2 X11.594 Y17.329 I0.299 J-0.019
G1 X12.243 Y17.301
X12.43 Y17.284
X12.759 Y17.105
X13.281 Y16.565
X13.526 Y15.857
X13.617 Y15.112
X13.579 Y14.363
X13.477 Y14.156
X13.34 Y13.942
X13.158 Y13.766
X12.94 Y13.636
X12.698 Y13.559
X12.444 Y13.54
X11.913 Y13.562
G2 X11.637 Y13.89 I0.023 J0.299
G1 X11.667 Y14.196
X11.91 Y16.691 F1200
X11.943 Y17.03 F100
G2 X12.243 Y17.301 I0.299 J-0.029
G1 X12.686 Y17.283
X13.06 Y17.253
X13.375 Y17.049
X13.845 Y16.465
X14.075 Y15.751
X14.153 Y15.005
X14.083 Y14.258
X13.989 Y14.089
X13.85 Y13.893
X13.673 Y13.732
X13.465 Y13.613
X13.236 Y13.542
X12.997 Y13.522
X12.444 Y13.54
G2 X12.168 Y13.86 I0.023 J0.299
G1 X12.19 Y14.175
X12.365 Y16.667 F1200
X12.389 Y17.004 F100
G2 X12.686 Y17.283 I0.299 J-0.021
G1 X13.335 Y17.264
X13.522 Y17.25
X13.844 Y17.057
X14.352 Y16.505
X14.595 Y15.796
X14.685 Y15.051
X14.639 Y14.302
X14.545 Y14.114
X14.409 Y13.906
X14.23 Y13.733
X14.016 Y13.606
X13.78 Y13.529
X13.533 Y13.508
X12.997 Y13.522
G2 X12.717 Y13.852 I0.018 J0.299
G1 X12.748 Y14.152
X13.004 Y16.65 F1200
X13.039 Y16.995 F100
G2 X13.335 Y17.264 I0.298 J-0.031
G1 X13.778 Y17.252
X13.965 Y17.241
X14.305 Y17.081
X14.852 Y16.568
X15.111 Y15.865
X15.218 Y15.122
X15.197 Y14.372
X15.098 Y14.151
X14.968 Y13.932
X14.791 Y13.748
X14.577 Y13.611
X14.337 Y13.526
X14.083 Y13.499
X13.533 Y13.508
G2 X13.252 Y13.83 I0.018 J0.299
G1 X13.275 Y14.139
X13.461 Y16.631 F1200
X13.487 Y16.975 F100
G2 X13.778 Y17.252 I0.299 J-0.022
G1 X14.341 Y17.247
X14.528 Y17.235
X14.867 Y17.075
X15.391 Y16.538
X15.648 Y15.833
X15.754 Y15.091
X15.724 Y14.342
X15.624 Y14.128
X15.493 Y13.914
X15.316 Y13.736
X15.104 Y13.602
X14.867 Y13.52
X14.617 Y13.494
X14.083 Y13.499
G2 X13.797 Y13.822 I0.013 J0.3
G1 X13.822 Y14.125
X14.022 Y16.626 F1200
X14.05 Y16.971 F100
G2 X14.341 Y17.247 I0.299 J-0.024
G1 X14.87 Y17.241
X15.058 Y17.231
X15.394 Y17.066
X15.919 Y16.531
X16.179 Y15.827
X16.287 Y15.085
X16.259 Y14.336
X16.161 Y14.125
X16.03 Y13.912
X15.855 Y13.734
X15.644 Y13.6
X15.408 Y13.518
X15.16 Y13.49
X14.617 Y13.494
G2 X14.332 Y13.817 I0.013 J0.3
G1 X14.355 Y14.12
X14.553 Y16.619 F1200
X14.581 Y16.965 F100
G2 X14.87 Y17.241 I0.299 J-0.024
G1 X15.433 Y17.239
X15.62 Y17.229
X15.95 Y17.051
X16.46 Y16.501
X16.717 Y15.796
X16.821 Y15.053
X16.787 Y14.304
X16.691 Y14.107
X16.559 Y13.899
X16.384 Y13.725
X16.175 Y13.595
X15.942 Y13.515
X15.697 Y13.488
X15.16 Y13.49
G2 X14.872 Y13.816 I0.012 J0.3
G1 X14.898 Y14.115
X15.113 Y16.617 F1200
X15.143 Y16.965 F100
G2 X15.433 Y17.239 I0.299 J-0.026
G1 X15.796 Y17.238
X16.171 Y17.217
X16.496 Y17.031
X16.998 Y16.474
X17.253 Y15.768
X17.354 Y15.025
X17.317 Y14.276
X17.224 Y14.091
X17.091 Y13.888
X16.917 Y13.718
X16.709 Y13.591
X16.479 Y13.512
X16.237 Y13.486
X15.697 Y13.488
G2 X15.409 Y13.797 I0.012 J0.3
G1 X15.419 Y14.114
X15.495 Y16.615 F1200
X15.506 Y16.947 F100
G2 X15.796 Y17.238 I0.3 J-0.009
G1 X16.523 Y17.235
X16.71 Y17.225
X17.03 Y17.029
X17.529 Y16.469
X17.784 Y15.764
X17.886 Y15.021
X17.853 Y14.271
X17.762 Y14.09
X17.63 Y13.886
X17.456 Y13.716
X17.248 Y13.589
X17.018 Y13.51
X16.776 Y13.484
X16.237 Y13.486
G2 X15.95 Y13.813 I0.012 J0.3
G1 X15.977 Y14.11
X16.202 Y16.613 F1200
X16.234 Y16.962 F100
G2 X16.523 Y17.235 I0.299 J-0.027
G1 X16.888 Y17.234
X17.262 Y17.214
X17.578 Y17.012
X18.068 Y16.444
X18.32 Y15.738
X18.42 Y14.994
X18.384 Y14.245
X18.295 Y14.075
X18.162 Y13.875
X17.988 Y13.709
X17.782 Y13.585
X17.554 Y13.508
X17.315 Y13.482
X16.776 Y13.484
G2 X16.487 Y13.794 I0.012 J0.3
G1 X16.498 Y14.109
X16.586 Y16.611 F1200
X16.597 Y16.944 F100
G2 X16.888 Y17.234 I0.3 J-0.01
G1 X17.385 Y17.232
X17.759 Y17.212
X18.081 Y17.019
X18.587 Y16.466
X18.845 Y15.761
X18.953 Y15.019
X18.928 Y14.27
X18.84 Y14.092
X18.708 Y13.887
X18.534 Y13.715
X18.326 Y13.586
X18.094 Y13.507
X17.851 Y13.48
X17.315 Y13.482
G2 X17.027 Y13.789 I0.011 J0.3
G1 X17.034 Y14.108
X17.087 Y16.609 F1200
X17.094 Y16.939 F100
G2 X17.385 Y17.232 I0.3 J-0.006
G1 X17.907 Y17.23
X18.282 Y17.21
X18.606 Y17.022
X19.114 Y16.47
X19.375 Y15.767
X19.487 Y15.025
X19.466 Y14.276
X19.376 Y14.093
X19.244 Y13.887
X19.07 Y13.714
X18.861 Y13.585
X18.629 Y13.505
X18.385 Y13.479
X17.851 Y13.48
G2 X17.562 Y13.785 I0.011 J0.3
G1 X17.568 Y14.106
X17.611 Y16.607 F1200
X17.617 Y16.936 F100
G2 X17.907 Y17.23 I0.3 J-0.005
G1 X18.48 Y17.228
X18.854 Y17.208
X19.17 Y17.006
X19.659 Y16.438
X19.915 Y15.733
X20.022 Y14.99
X19.992 Y14.241
X19.904 Y14.072
X19.771 Y13.871
X19.597 Y13.704
X19.391 Y13.579
X19.163 Y13.502
X18.923 Y13.477
X18.385 Y13.479
G2 X18.097 Y13.787 I0.011 J0.3
G1 X18.106 Y14.104
X18.179 Y16.605 F1200
X18.189 Y16.937 F100
G2 X18.48 Y17.228 I0.3 J-0.009
G1 X19.072 Y17.226
X19.26 Y17.216
X19.595 Y17.049
X20.147 Y16.541
X20.424 Y15.844
X20.553 Y15.105
Y14.355
X20.464 Y14.145
X20.337 Y13.922
X20.161 Y13.734
X19.946 Y13.592
X19.704 Y13.504
X19.448 Y13.475
X18.923 Y13.477
G2 X18.635 Y13.791 I0.011 J0.3
G1 X18.65 Y14.102
X18.766 Y16.603 F1200
X18.782 Y16.941 F100
G2 X19.072 Y17.226 I0.3 J-0.014
G1 X19.572 Y17.225
X19.759 Y17.215
X20.107 Y17.075
X20.665 Y16.574
X20.95 Y15.88
X21.086 Y15.143
X21.094 Y14.393
X20.997 Y14.157
X20.871 Y13.929
X20.694 Y13.738
X20.478 Y13.593
X20.234 Y13.503
X19.975 Y13.473
X19.448 Y13.475
G2 X19.16 Y13.786 I0.011 J0.3
G1 X19.172 Y14.1
X19.268 Y16.601 F1200
X19.281 Y16.936 F100
G2 X19.572 Y17.225 I0.3 J-0.012
G1 X20.164 Y17.223
X20.352 Y17.213
X20.693 Y17.058
X21.222 Y16.526
X21.498 Y15.829
X21.626 Y15.09
X21.61 Y14.34
X21.512 Y14.123
X21.384 Y13.906
X21.209 Y13.724
X20.997 Y13.587
X20.76 Y13.501
X20.509 Y13.472
X19.975 Y13.473
G2 X19.687 Y13.791 I0.011 J0.3
G1 X19.706 Y14.098
X19.854 Y16.6 F1200
X19.874 Y16.941 F100
G2 X20.164 Y17.223 I0.299 J-0.018
G1 X20.664 Y17.222
X20.851 Y17.213
X21.194 Y17.063
X21.743 Y16.551
X22.026 Y15.857
X22.156 Y15.118
X22.151 Y14.368
X22.053 Y14.14
X21.926 Y13.918
X21.75 Y13.731
X21.537 Y13.59
X21.296 Y13.502
X21.042 Y13.473
X20.509 Y13.472
G2 X20.22 Y13.787 I0.01 J0.3
G1 X20.235 Y14.096
X20.358 Y16.598 F1200
X20.375 Y16.937 F100
G2 X20.664 Y17.222 I0.3 J-0.015
G1 X21.256 Y17.223
X21.444 Y17.213
X21.779 Y17.046
X22.299 Y16.505
X22.572 Y15.807
X22.693 Y15.066
X22.669 Y14.317
X22.573 Y14.111
X22.444 Y13.899
X22.271 Y13.721
X22.062 Y13.587
X21.828 Y13.503
X21.582 Y13.474
X21.042 Y13.473
G2 X20.753 Y13.793 I0.01 J0.3
G1 X20.774 Y14.096
X20.944 Y16.599 F1200
X20.968 Y16.943 F100
G2 X21.256 Y17.223 I0.299 J-0.02
G1 X21.756 Y17.225
X21.943 Y17.217
X22.281 Y17.054
X22.819 Y16.532
X23.098 Y15.836
X23.223 Y15.096
X23.211 Y14.346
X23.117 Y14.132
X22.989 Y13.915
X22.815 Y13.732
X22.604 Y13.594
X22.368 Y13.507
X22.118 Y13.477
X21.582 Y13.474
G2 X21.291 Y13.79 I0.009 J0.3
G1 X21.308 Y14.096
X21.449 Y16.599 F1200
X21.468 Y16.942 F100
G2 X21.756 Y17.225 I0.3 J-0.017
G1 X22.145 Y17.227
X22.52 Y17.211
X22.853 Y17.038
X23.37 Y16.495
X23.64 Y15.795
X23.758 Y15.055
X23.734 Y14.305
X23.641 Y14.109
X23.511 Y13.901
X23.339 Y13.726
X23.132 Y13.594
X22.902 Y13.511
X22.658 Y13.481
X22.118 Y13.477
G2 X21.826 Y13.78 I0.009 J0.3
G1 X21.829 Y14.1
X21.854 Y16.601 F1200
X21.858 Y16.931 F100
G2 X22.145 Y17.227 I0.3 J-0.003
G1 X22.696 Y17.231
X23.071 Y17.216
X23.397 Y17.032
X23.908 Y16.482
X24.176 Y15.782
X24.29 Y15.041
X24.265 Y14.291
X24.175 Y14.106
X24.046 Y13.9
X23.874 Y13.728
X23.668 Y13.597
X23.439 Y13.516
X23.197 Y13.486
X22.658 Y13.481
G2 X22.365 Y13.785 I0.007 J0.3
G1 X22.37 Y14.102
X22.405 Y16.604 F1200
X22.41 Y16.936 F100
G2 X22.696 Y17.231 I0.3 J-0.004
G1 X23.237 Y17.237
X23.612 Y17.222
X23.935 Y17.032
X24.442 Y16.479
X24.709 Y15.778
X24.823 Y15.036
X24.8 Y14.287
X24.712 Y14.107
X24.582 Y13.902
X24.41 Y13.731
X24.204 Y13.601
X23.975 Y13.52
X23.733 Y13.491
X23.197 Y13.486
G2 X22.905 Y13.791 I0.007 J0.3
G1 X22.909 Y14.108
X22.946 Y16.61 F1200
X22.951 Y16.942 F100
G2 X23.237 Y17.237 I0.3 J-0.004
G1 X23.788 Y17.242
X24.163 Y17.226
X24.482 Y17.028
X24.98 Y16.468
X25.243 Y15.766
X25.356 Y15.024
X25.332 Y14.275
X25.246 Y14.103
X25.115 Y13.9
X24.943 Y13.731
X24.739 Y13.604
X24.511 Y13.524
X24.272 Y13.496
X23.733 Y13.491
G2 X23.441 Y13.797 I0.008 J0.3
G1 X23.447 Y14.113
X23.495 Y16.615 F1200
X23.501 Y16.948 F100
G2 X23.788 Y17.242 I0.3 J-0.006
G1 X24.329 Y17.246
X24.517 Y17.238
X24.863 Y17.095
X25.449 Y16.627
X25.741 Y15.936
X25.884 Y15.2
X25.901 Y14.45
X25.812 Y14.213
X25.689 Y13.977
X25.513 Y13.777
X25.294 Y13.625
X25.045 Y13.531
X24.78 Y13.499
X24.272 Y13.496
G2 X23.98 Y13.802 I0.008 J0.3
G1 X23.986 Y14.118
X24.036 Y16.62 F1200
X24.042 Y16.953 F100
G2 X24.329 Y17.246 I0.3 J-0.006
G1 X24.88 Y17.249
X25.255 Y17.23
X25.576 Y17.035
X26.065 Y16.467
X26.324 Y15.763
X26.438 Y15.022
X26.38 Y14.274
X26.297 Y14.107
X26.165 Y13.903
X25.991 Y13.732
X25.783 Y13.604
X25.553 Y13.525
X25.311 Y13.498
X24.78 Y13.499
G2 X24.491 Y13.808 I0.011 J0.3
G1 X24.501 Y14.124
X24.58 Y16.625 F1200
X24.59 Y16.959 F100
G2 X24.88 Y17.249 I0.3 J-0.009
G1 X25.421 Y17.248
X25.609 Y17.238
X25.955 Y17.094
X26.536 Y16.62
X26.824 Y15.928
X26.965 Y15.191
X26.957 Y14.441
X26.862 Y14.198
X26.738 Y13.966
X26.563 Y13.771
X26.346 Y13.622
X26.1 Y13.529
X25.838 Y13.497
X25.311 Y13.498
G2 X25.022 Y13.808 I0.011 J0.3
G1 X25.033 Y14.123
X25.12 Y16.624 F1200
X25.132 Y16.959 F100
G2 X25.421 Y17.248 I0.3 J-0.01
G1 X25.972
X26.347 Y17.229
X26.665 Y17.031
X27.151 Y16.459
X27.407 Y15.755
X27.507 Y15.011
X27.437 Y14.265
X27.353 Y14.1
X27.221 Y13.898
X27.047 Y13.73
X26.842 Y13.603
X26.613 Y13.525
X26.374 Y13.498
X25.838 Y13.497
G2 X25.549 Y13.81 I0.01 J0.3
G1 X25.562 Y14.121
X25.669 Y16.623 F1200
X25.684 Y16.961 F100
G2 X25.972 Y17.248 I0.3 J-0.013
G1 X26.513
X26.701 Y17.239
X27.045 Y17.09
X27.622 Y16.611
X27.906 Y15.917
X28.038 Y15.179
X28.017 Y14.429
X27.922 Y14.191
X27.797 Y13.962
X27.623 Y13.769
X27.408 Y13.623
X27.164 Y13.531
X26.906 Y13.499
X26.374 Y13.498
G2 X26.084 Y13.811 I0.01 J0.3
G1 X26.098 Y14.122
X26.21 Y16.624 F1200
X26.225 Y16.962 F100
G2 X26.513 Y17.248 I0.3 J-0.013
G1 X27.064 Y17.25
X27.252 Y17.241
X27.603 Y17.11
X28.158 Y16.606
X28.441 Y15.911
X28.567 Y15.172
X28.55 Y14.422
X28.449 Y14.18
X28.324 Y13.956
X28.149 Y13.767
X27.936 Y13.623
X27.694 Y13.533
X27.439 Y13.502
X26.906 Y13.499
G2 X26.615 Y13.814 I0.009 J0.3
G1 X26.631 Y14.121
X26.759 Y16.624 F1200
X26.777 Y16.965 F100
G2 X27.064 Y17.25 I0.3 J-0.015
G1 X27.606 Y17.253
X27.793 Y17.244
X28.142 Y17.108
X28.694 Y16.6
X28.975 Y15.904
X29.099 Y15.165
X29.082 Y14.415
X28.982 Y14.177
X28.855 Y13.954
X28.681 Y13.767
X28.468 Y13.625
X28.228 Y13.536
X27.974 Y13.504
X27.439 Y13.502
G2 X27.148 Y13.818 I0.009 J0.3
G1 X27.165 Y14.124
X27.3 Y16.627 F1200
X27.318 Y16.969 F100
G2 X27.606 Y17.253 I0.3 J-0.016
G1 X28.156 Y17.255
X28.344 Y17.246
X28.69 Y17.102
X29.233 Y16.585
X29.51 Y15.888
X29.631 Y15.148
X29.612 Y14.398
X29.512 Y14.169
X29.385 Y13.949
X29.21 Y13.764
X28.998 Y13.624
X28.759 Y13.537
X28.507 Y13.506
X27.974 Y13.504
G2 X27.683 Y13.822 I0.009 J0.3
G1 X27.701 Y14.127
X27.848 Y16.63 F1200
X27.868 Y16.973 F100
G2 X28.156 Y17.255 I0.299 J-0.018
G1 X28.698 Y17.257
X28.885 Y17.248
X29.228 Y17.098
X29.768 Y16.578
X30.043 Y15.88
X30.163 Y15.139
X30.144 Y14.39
X30.045 Y14.165
X29.917 Y13.947
X29.743 Y13.764
X29.531 Y13.625
X29.294 Y13.538
X29.042 Y13.508
X28.507 Y13.506
G2 X28.217 Y13.825 I0.009 J0.3
G1 X28.235 Y14.129
X28.389 Y16.632 F1200
X28.41 Y16.976 F100
G2 X28.698 Y17.257 I0.299 J-0.018
G1 X29.248 Y17.259
X29.436 Y17.251
X29.775 Y17.092
X30.307 Y16.562
X30.579 Y15.863
X30.696 Y15.123
X30.674 Y14.373
X30.577 Y14.157
X30.448 Y13.942
X30.274 Y13.762
X30.064 Y13.625
X29.828 Y13.54
X29.579 Y13.511
X29.042 Y13.508
G2 X28.753 Y13.828 I0.009 J0.3
G1 X28.773 Y14.131
X28.938 Y16.634 F1200
X28.961 Y16.979 F100
G2 X29.248 Y17.259 I0.299 J-0.02
G1 X29.629 Y17.261
X30.004 Y17.244
X30.337 Y17.072
X30.853 Y16.527
X31.119 Y15.826
X31.23 Y15.084
X31.199 Y14.335
X31.104 Y14.137
X30.974 Y13.929
X30.801 Y13.755
X30.593 Y13.623
X30.361 Y13.541
X30.117 Y13.513
X29.579 Y13.511
G2 X29.288 Y13.815 I0.009 J0.3
G1 X29.294 Y14.134
X29.336 Y16.635 F1200
X29.341 Y16.966 F100
G2 X29.629 Y17.261 I0.3 J-0.005
G1 X30.34 Y17.265
X30.528 Y17.257
X30.858 Y17.079
X31.379 Y16.539
X31.647 Y15.839
X31.761 Y15.097
X31.739 Y14.348
X31.647 Y14.151
X31.518 Y13.94
X31.345 Y13.764
X31.137 Y13.63
X30.905 Y13.547
X30.66 Y13.517
X30.117 Y13.513
G2 X29.827 Y13.834 I0.009 J0.3
G1 X29.849 Y14.135
X30.029 Y16.639 F1200
X30.054 Y16.986 F100
G2 X30.34 Y17.265 I0.299 J-0.022
G1 X30.722 Y17.268
X31.096 Y17.252
X31.421 Y17.064
X31.924 Y16.508
X32.186 Y15.805
X32.295 Y15.063
X32.265 Y14.314
X32.175 Y14.133
X32.045 Y13.929
X31.873 Y13.759
X31.668 Y13.631
X31.439 Y13.55
X31.199 Y13.522
X30.66 Y13.517
G2 X30.368 Y13.823 I0.008 J0.3
G1 X30.374 Y14.139
X30.427 Y16.641 F1200
X30.435 Y16.974 F100
G2 X30.722 Y17.268 I0.3 J-0.006
G1 X31.251 Y17.272
X31.625 Y17.253
X31.948 Y17.062
X32.454 Y16.509
X32.717 Y15.806
X32.827 Y15.064
X32.802 Y14.315
X32.713 Y14.134
X32.581 Y13.928
X32.407 Y13.757
X32.199 Y13.628
X31.969 Y13.549
X31.726 Y13.522
X31.199
G2 X30.907 Y13.827 I0.008 J0.3
G1 X30.913 Y14.144
X30.958 Y16.645 F1200
X30.964 Y16.978 F100
G2 X31.251 Y17.272 I0.3 J-0.005
G1 X31.9
X32.087 Y17.262
X32.421 Y17.091
X32.959 Y16.569
X33.235 Y15.871
X33.359 Y15.131
X33.354 Y14.381
X33.263 Y14.176
X33.134 Y13.958
X32.959 Y13.774
X32.747 Y13.636
X32.508 Y13.55
X32.256 Y13.521
X31.726 Y13.522
G2 X31.437 Y13.838 I0.011 J0.3
G1 X31.454 Y14.146
X31.592 Y16.648 F1200
X31.611 Y16.988 F100
G2 X31.9 Y17.272 I0.3 J-0.017
G1 X32.343 Y17.271
X32.717 Y17.249
X33.038 Y17.055
X33.53 Y16.488
X33.789 Y15.785
X33.899 Y15.043
X33.86 Y14.294
X33.771 Y14.118
X33.637 Y13.914
X33.461 Y13.745
X33.253 Y13.619
X33.022 Y13.541
X32.779 Y13.517
X32.256 Y13.521
G2 X31.967 Y13.829 I0.011 J0.3
G1 X31.976 Y14.146
X32.044 Y16.647 F1200
X32.053 Y16.98 F100
G2 X32.343 Y17.271 I0.3 J-0.008
G1 X32.992 Y17.265
X33.179 Y17.254
X33.509 Y17.075
X34.037 Y16.542
X34.309 Y15.843
X34.428 Y15.103
X34.413 Y14.353
X34.32 Y14.152
X34.189 Y13.936
X34.013 Y13.756
X33.799 Y13.621
X33.561 Y13.538
X33.31 Y13.512
X32.779 Y13.517
G2 X32.493 Y13.836 I0.013 J0.3
G1 X32.514 Y14.144
X32.678 Y16.644 F1200
X32.7 Y16.985 F100
G2 X32.992 Y17.265 I0.299 J-0.02
G1 X33.435 Y17.261
X33.809 Y17.235
X34.124 Y17.032
X34.608 Y16.459
X34.863 Y15.754
X34.966 Y15.011
X34.919 Y14.262
X34.829 Y14.091
X34.693 Y13.889
X34.516 Y13.723
X34.307 Y13.599
X34.076 Y13.525
X33.834 Y13.503
X33.31 Y13.512
G2 X33.024 Y13.823 I0.013 J0.3
G1 X33.036 Y14.139
X33.13 Y16.639 F1200
X33.143 Y16.972 F100
G2 X33.435 Y17.261 I0.3 J-0.011
G1 X34.084 Y17.248
X34.271 Y17.235
X34.597 Y17.049
X35.116 Y16.509
X35.383 Y15.807
X35.496 Y15.066
X35.473 Y14.316
X35.379 Y14.12
X35.246 Y13.907
X35.068 Y13.729
X34.854 Y13.597
X34.615 Y13.516
X34.364 Y13.492
X33.834 Y13.503
G2 X33.551 Y13.825 I0.016 J0.3
G1 X33.574 Y14.132
X33.764 Y16.63 F1200
X33.79 Y16.971 F100
G2 X34.084 Y17.248 I0.299 J-0.023
G1 X34.527 Y17.24
X34.714 Y17.227
X35.058 Y17.077
X35.618 Y16.579
X35.898 Y15.883
X36.026 Y15.144
Y14.394
X35.926 Y14.156
X35.797 Y13.928
X35.617 Y13.737
X35.397 Y13.594
X35.149 Y13.507
X34.888 Y13.481
X34.364 Y13.492
G2 X34.081 Y13.806 I0.016 J0.3
G1 X34.096 Y14.122
X34.216 Y16.621 F1200
X34.232 Y16.954 F100
G2 X34.527 Y17.24 I0.3 J-0.014
G1 X35.09 Y17.228
X35.277 Y17.215
X35.623 Y17.071
X36.163 Y16.55
X36.438 Y15.853
X36.564 Y15.113
X36.55 Y14.364
X36.446 Y14.128
X36.315 Y13.905
X36.136 Y13.719
X35.918 Y13.58
X35.673 Y13.495
X35.416 Y13.47
X34.888 Y13.481
G2 X34.606 Y13.799 I0.017 J0.3
G1 X34.624 Y14.111
X34.774 Y16.61 F1200
X34.795 Y16.946 F100
G2 X35.09 Y17.228 I0.299 J-0.018
G1 X35.619 Y17.218
X35.993 Y17.185
X36.302 Y16.973
X36.772 Y16.388
X37.015 Y15.679
X37.106 Y14.934
X37.026 Y14.189
X36.937 Y14.027
X36.798 Y13.827
X36.618 Y13.663
X36.406 Y13.543
X36.173 Y13.472
X35.93 Y13.454
X35.416 Y13.47
G2 X35.133 Y13.788 I0.017 J0.3
G1 X35.152 Y14.1
X35.303 Y16.6 F1200
X35.324 Y16.936 F100
G2 X35.619 Y17.218 I0.299 J-0.018
G1 X36.268 Y17.194
X36.455 Y17.177
X36.775 Y16.982
X37.281 Y16.429
X37.536 Y15.723
X37.633 Y14.98
X37.583 Y14.231
X37.486 Y14.038
X37.348 Y13.828
X37.167 Y13.655
X36.951 Y13.528
X36.712 Y13.453
X36.462 Y13.434
X35.93 Y13.454
G2 X35.653 Y13.783 I0.022 J0.299
G1 X35.684 Y14.088
X35.935 Y16.582 F1200
X35.969 Y16.924 F100
G2 X36.268 Y17.194 I0.298 J-0.03
G1 X36.711 Y17.177
X36.898 Y17.159
X37.237 Y17
X37.785 Y16.488
X38.052 Y15.787
X38.163 Y15.045
X38.14 Y14.296
X38.034 Y14.059
X37.897 Y13.833
X37.711 Y13.646
X37.486 Y13.508
X37.235 Y13.428
X36.971 Y13.411
X36.462 Y13.434
G2 X36.184 Y13.755 I0.022 J0.299
G1 X36.207 Y14.068
X36.387 Y16.565 F1200
X36.411 Y16.899 F100
G2 X36.711 Y17.177 I0.299 J-0.022
G1 X37.274 Y17.15
X37.46 Y17.132
X37.803 Y16.979
X38.33 Y16.446
X38.591 Y15.743
X38.698 Y15.001
X38.663 Y14.252
X38.552 Y14.015
X38.414 Y13.793
X38.229 Y13.611
X38.005 Y13.477
X37.757 Y13.4
X37.497 Y13.383
X36.971 Y13.411
G2 X36.699 Y13.735 I0.026 J0.299
G1 X36.726 Y14.049
X36.942 Y16.541 F1200
X36.971 Y16.876 F100
G2 X37.274 Y17.15 I0.299 J-0.026
G1 X37.803 Y17.125
X38.175 Y17.078
X38.48 Y16.86
X38.938 Y16.266
X39.164 Y15.551
X39.235 Y14.804
X39.133 Y14.061
X39.038 Y13.896
X38.891 Y13.698
X38.704 Y13.537
X38.485 Y13.422
X38.247 Y13.359
X38 Y13.351
X37.635 Y13.375
X37.497 Y13.383
G2 X37.225 Y13.708 I0.026 J0.299
G1 X37.252 Y14.021
X37.471 Y16.516 F1200
X37.5 Y16.851 F100
G2 X37.803 Y17.125 I0.299 J-0.026
G1 X38.452 Y17.076
X38.638 Y17.053
X38.955 Y16.852
X39.45 Y16.289
X39.686 Y15.577
X39.762 Y14.831
X39.691 Y14.084
X39.583 Y13.884
X39.438 Y13.676
X39.249 Y13.507
X39.026 Y13.386
X38.782 Y13.319
X38.529 Y13.309
X38 Y13.351
G2 X37.736 Y13.688 I0.034 J0.298
G1 X37.776 Y13.994
X38.099 Y16.477 F1200
X38.143 Y16.815 F100
G2 X38.452 Y17.076 I0.298 J-0.039
G1 X38.895 Y17.043
X39.267 Y16.993
X39.569 Y16.771
X40.019 Y16.171
X40.233 Y15.452
X40.289 Y14.704
X40.191 Y13.961
X40.088 Y13.792
X39.94 Y13.599
X39.752 Y13.444
X39.535 Y13.334
X39.3 Y13.274
X39.056 Y13.267
X38.529 Y13.309
G2 X38.264 Y13.638 I0.034 J0.298
G1 X38.296 Y13.954
X38.551 Y16.443 F1200
X38.585 Y16.773 F100
G2 X38.895 Y17.043 I0.298 J-0.031
G1 X39.544 Y16.989
X39.73 Y16.964
X40.044 Y16.759
X40.531 Y16.188
X40.755 Y15.472
X40.82 Y14.725
X40.747 Y13.979
X40.64 Y13.786
X40.493 Y13.581
X40.304 Y13.414
X40.081 Y13.296
X39.838 Y13.23
X39.586 Y13.223
X39.056 Y13.267
G2 X38.795 Y13.607 I0.035 J0.298
G1 X38.837 Y13.911
X39.185 Y16.393 F1200
X39.233 Y16.731 F100
G2 X39.544 Y16.989 I0.297 J-0.042
G1 X39.987 Y16.952
X40.359 Y16.902
X40.656 Y16.674
X41.096 Y16.067
X41.3 Y15.345
X41.349 Y14.597
X41.247 Y13.854
X41.146 Y13.692
X40.997 Y13.503
X40.81 Y13.35
X40.594 Y13.242
X40.361 Y13.184
X40.12 Y13.178
X39.586 Y13.223
G2 X39.323 Y13.554 I0.035 J0.298
G1 X39.359 Y13.868
X39.638 Y16.354 F1200
X39.675 Y16.686 F100
G2 X39.987 Y16.952 I0.298 J-0.033
G1 X40.636 Y16.898
X40.822 Y16.874
X41.131 Y16.661
X41.607 Y16.081
X41.822 Y15.363
X41.881 Y14.615
X41.803 Y13.869
X41.699 Y13.686
X41.552 Y13.484
X41.362 Y13.32
X41.141 Y13.204
X40.9 Y13.14
X40.65 Y13.133
X40.12 Y13.178
G2 X39.859 Y13.52 I0.036 J0.298
G1 X39.904 Y13.822
X40.274 Y16.302 F1200
X40.325 Y16.643 F100
G2 X40.636 Y16.898 I0.297 J-0.044
G1 X41.079 Y16.862
X41.265 Y16.834
X41.594 Y16.656
X42.112 Y16.114
X42.342 Y15.399
X42.416 Y14.653
X42.36 Y13.905
X42.247 Y13.683
X42.1 Y13.464
X41.905 Y13.287
X41.674 Y13.161
X41.419 Y13.093
X41.156 Y13.088
X40.65 Y13.133
G2 X40.388 Y13.467 I0.036 J0.298
G1 X40.425 Y13.778
X40.727 Y16.265 F1200
X40.767 Y16.598 F100
G2 X41.079 Y16.862 I0.298 J-0.036
G1 X41.642 Y16.807
X41.827 Y16.78
X42.159 Y16.606
X42.655 Y16.043
X42.879 Y15.327
X42.949 Y14.58
X42.879 Y13.834
X42.759 Y13.609
X42.611 Y13.397
X42.417 Y13.226
X42.188 Y13.104
X41.938 Y13.04
X41.679 Y13.035
X41.156 Y13.088
G2 X40.899 Y13.426 I0.041 J0.297
G1 X40.942 Y13.738
X41.28 Y16.215 F1200
X41.326 Y16.548 F100
G2 X41.642 Y16.807 I0.297 J-0.041
G1 X42.171 Y16.756
X42.356 Y16.726
X42.688 Y16.552
X43.189 Y15.993
X43.412 Y15.278
X43.48 Y14.531
X43.408 Y13.784
X43.286 Y13.556
X43.136 Y13.342
X42.939 Y13.169
X42.707 Y13.048
X42.453 Y12.984
X42.192 Y12.983
X41.679 Y13.035
G2 X41.422 Y13.374 I0.041 J0.297
G1 X41.465 Y13.684
X41.809 Y16.164 F1200
X41.855 Y16.498 F100
G2 X42.171 Y16.756 I0.297 J-0.041
G1 X42.734 Y16.695
X42.919 Y16.666
X43.247 Y16.484
X43.733 Y15.913
X43.95 Y15.195
X44.01 Y14.447
X43.926 Y13.702
X43.802 Y13.48
X43.65 Y13.271
X43.454 Y13.103
X43.225 Y12.985
X42.974 Y12.924
X42.716 Y12.923
X42.192 Y12.983
G2 X41.94 Y13.325 I0.044 J0.297
G1 X41.987 Y13.635
X42.365 Y16.107 F1200
X42.416 Y16.441 F100
G2 X42.734 Y16.695 I0.297 J-0.045
G1 X43.263 Y16.638
X43.448 Y16.605
X43.776 Y16.424
X44.267 Y15.857
X44.482 Y15.138
X44.538 Y14.39
X44.454 Y13.645
X44.329 Y13.421
X44.178 Y13.211
X43.982 Y13.043
X43.753 Y12.925
X43.502 Y12.864
X43.243 Y12.863
X42.716 Y12.923
G2 X42.464 Y13.265 I0.044 J0.297
G1 X42.512 Y13.575
X42.894 Y16.05 F1200
X42.945 Y16.385 F100
G2 X43.263 Y16.638 I0.296 J-0.046
G1 X43.826 Y16.566
X44.01 Y16.533
X44.335 Y16.345
X44.812 Y15.766
X45.018 Y15.045
X45.066 Y14.296
X44.969 Y13.553
X44.841 Y13.332
X44.685 Y13.125
X44.486 Y12.961
X44.253 Y12.847
X44.001 Y12.791
X43.742 Y12.795
X43.243 Y12.863
G2 X42.992 Y13.208 I0.044 J0.297
G1 X43.042 Y13.514
X43.448 Y15.985 F1200
X43.502 Y16.316 F100
G2 X43.826 Y16.566 I0.296 J-0.049
G1 X44.355 Y16.498
X44.539 Y16.462
X44.864 Y16.275
X45.345 Y15.7
X45.549 Y14.978
X45.593 Y14.229
X45.497 Y13.486
X45.367 Y13.262
X45.211 Y13.055
X45.012 Y12.89
X44.779 Y12.776
X44.526 Y12.72
X44.267 Y12.724
X43.742 Y12.795
G2 X43.497 Y13.142 I0.051 J0.296
G1 X43.551 Y13.452
X43.974 Y15.917 F1200
X44.032 Y16.25 F100
G2 X44.355 Y16.498 I0.296 J-0.051
G1 X44.884 Y16.424
X45.068 Y16.389
X45.395 Y16.205
X45.878 Y15.632
X46.079 Y14.909
X46.121 Y14.161
X46.023 Y13.417
X45.891 Y13.189
X45.735 Y12.981
X45.534 Y12.815
X45.3 Y12.701
X45.046 Y12.646
X44.785 Y12.651
X44.267 Y12.724
G2 X44.022 Y13.071 I0.051 J0.296
G1 X44.076 Y13.38
X44.5 Y15.847 F1200
X44.557 Y16.176 F100
G2 X44.884 Y16.424 I0.296 J-0.051
G1 X45.447 Y16.345
X45.631 Y16.309
X45.954 Y16.118
X46.421 Y15.531
X46.614 Y14.806
X46.647 Y14.057
X46.537 Y13.315
X46.406 Y13.099
X46.249 Y12.896
X46.049 Y12.735
X45.817 Y12.624
X45.566 Y12.571
X45.31 Y12.577
X44.785 Y12.651
G2 X44.543 Y13.002 I0.052 J0.295
G1 X44.6 Y13.308
X45.059 Y15.769 F1200
X45.121 Y16.102 F100
G2 X45.447 Y16.345 I0.295 J-0.055
G1 X46.01 Y16.265
X46.194 Y16.23
X46.508 Y16.025
X46.962 Y15.428
X47.147 Y14.701
X47.171 Y13.951
X47.051 Y13.211
X46.922 Y13.005
X46.763 Y12.807
X46.564 Y12.651
X46.333 Y12.545
X46.085 Y12.494
X45.831 Y12.501
X45.31 Y12.577
G2 X45.068 Y12.931 I0.052 J0.295
G1 X45.128 Y13.233
X45.617 Y15.691 F1200
X45.684 Y16.025 F100
G2 X46.01 Y16.265 I0.294 J-0.059
G1 X46.539 Y16.19
X46.723 Y16.152
X47.036 Y15.946
X47.493 Y15.351
X47.675 Y14.624
X47.697 Y13.874
X47.578 Y13.133
X47.45 Y12.928
X47.291 Y12.73
X47.091 Y12.574
X46.861 Y12.467
X46.612 Y12.417
X46.359 Y12.424
X45.831 Y12.501
G2 X45.591 Y12.856 I0.054 J0.295
G1 X45.652 Y13.158
X46.146 Y15.616 F1200
X46.213 Y15.951 F100
G2 X46.539 Y16.19 I0.294 J-0.059
G1 X47.102 Y16.103
X47.286 Y16.066
X47.593 Y15.85
X48.032 Y15.243
X48.206 Y14.513
X48.22 Y13.763
X48.092 Y13.024
X47.964 Y12.829
X47.802 Y12.635
X47.601 Y12.482
X47.37 Y12.38
X47.122 Y12.334
X46.869 Y12.345
X46.359 Y12.424
G2 X46.119 Y12.781 I0.054 J0.295
G1 X46.182 Y13.08
X46.702 Y15.534 F1200
X46.773 Y15.868 F100
G2 X47.102 Y16.103 I0.293 J-0.062
G1 X47.631 Y16.022
X47.815 Y15.982
X48.12 Y15.765
X48.562 Y15.159
X48.733 Y14.429
X48.745 Y13.679
X48.618 Y12.94
X48.49 Y12.744
X48.328 Y12.55
X48.126 Y12.398
X47.895 Y12.296
X47.647 Y12.249
X47.395 Y12.26
X46.869 Y12.345
G2 X46.634 Y12.703 I0.058 J0.294
G1 X46.699 Y13.004
X47.23 Y15.453 F1200
X47.303 Y15.788 F100
G2 X47.631 Y16.022 I0.293 J-0.064
G1 X48.194 Y15.928
X48.377 Y15.888
X48.676 Y15.662
X49.101 Y15.044
X49.263 Y14.311
X49.268 Y13.561
X49.13 Y12.824
X49.002 Y12.636
X48.837 Y12.446
X48.633 Y12.298
X48.4 Y12.201
X48.152 Y12.159
X47.9 Y12.174
X47.395 Y12.26
G2 X47.161 Y12.622 I0.058 J0.294
G1 X47.228 Y12.919
X47.786 Y15.364 F1200
X47.863 Y15.698 F100
G2 X48.194 Y15.928 I0.292 J-0.067
G1 X48.557 Y15.868
X48.924 Y15.788
X49.218 Y15.556
X49.635 Y14.932
X49.792 Y14.199
X49.789 Y13.449
X49.646 Y12.713
X49.518 Y12.531
X49.353 Y12.345
X49.15 Y12.201
X48.919 Y12.106
X48.674 Y12.065
X48.425 Y12.081
X47.9 Y12.174
G2 X47.668 Y12.521 I0.063 J0.293
G1 X47.725 Y12.84
X48.165 Y15.3 F1200
X48.223 Y15.623 F100
G2 X48.557 Y15.868 I0.295 J-0.053
G1 X49.054 Y15.778
X49.284 Y15.735
X49.466 Y15.691
X49.757 Y15.453
X50.167 Y14.826
X50.318 Y14.091
X50.312 Y13.341
X50.165 Y12.606
X50.037 Y12.427
X49.868 Y12.24
X49.662 Y12.097
X49.428 Y12.004
X49.18 Y11.967
X48.929 Y11.987
X48.425 Y12.081
G2 X48.197 Y12.446 I0.063 J0.293
G1 X48.269 Y12.742
X48.867 Y15.178 F1200
X48.948 Y15.51 F100
G2 X49.284 Y15.735 I0.291 J-0.071
G1 X49.649 Y15.666
X50.013 Y15.579
X50.3 Y15.337
X50.702 Y14.704
X50.845 Y13.968
X50.832 Y13.218
X50.677 Y12.484
X50.549 Y12.31
X50.38 Y12.129
X50.175 Y11.989
X49.944 Y11.9
X49.699 Y11.864
X49.451 Y11.884
X48.929 Y11.987
G2 X48.703 Y12.337 I0.068 J0.292
G1 X48.766 Y12.656
X49.246 Y15.107 F1200
X49.309 Y15.428 F100
G2 X49.649 Y15.666 I0.294 J-0.058
G1 X50.376 Y15.524
X50.558 Y15.478
X50.839 Y15.229
X51.232 Y14.591
X51.371 Y13.854
X51.353 Y13.104
X51.195 Y12.371
X51.068 Y12.201
X50.898 Y12.02
X50.692 Y11.882
X50.46 Y11.793
X50.214 Y11.759
X49.966 Y11.782
X49.451 Y11.884
G2 X49.23 Y12.253 I0.068 J0.292
G1 X49.308 Y12.548
X49.95 Y14.972 F1200
X50.038 Y15.304 F100
G2 X50.376 Y15.524 I0.29 J-0.077
G1 X50.741 Y15.451
X51.104 Y15.36
X51.381 Y15.107
X51.765 Y14.463
X51.896 Y13.724
X51.872 Y12.975
X51.707 Y12.243
X51.582 Y12.081
X51.411 Y11.904
X51.206 Y11.77
X50.976 Y11.685
X50.733 Y11.652
X50.489 Y11.674
X49.966 Y11.782
G2 X49.743 Y12.136 I0.07 J0.292
G1 X49.81 Y12.451
X50.331 Y14.896 F1200
X50.399 Y15.218 F100
G2 X50.741 Y15.451 I0.293 J-0.062
G1 X51.243 Y15.348
X51.606 Y15.253
X51.888 Y15.007
X52.286 Y14.371
X52.419 Y13.633
X52.396 Y12.884
X52.237 Y12.151
X52.111 Y11.983
X51.939 Y11.801
X51.73 Y11.663
X51.496 Y11.576
X51.248 Y11.544
X50.999 Y11.569
X50.489 Y11.674
G2 X50.266 Y12.026 I0.07 J0.292
G1 X50.331 Y12.344
X50.833 Y14.796 F1200
X50.898 Y15.113 F100
G2 X51.243 Y15.348 I0.294 J-0.06
G1 X51.802 Y15.231
X52.165 Y15.136
X52.44 Y14.882
X52.819 Y14.234
X52.944 Y13.495
X52.914 Y12.746
X52.745 Y12.015
X52.618 Y11.853
X52.446 Y11.678
X52.239 Y11.545
X52.008 Y11.462
X51.764 Y11.432
X51.52 Y11.456
X50.999 Y11.569
G2 X50.78 Y11.924 I0.074 J0.291
G1 X50.849 Y12.24
X51.387 Y14.68 F1200
X51.458 Y15 F100
G2 X51.802 Y15.231 I0.293 J-0.065
G1 X52.333 Y15.117
X52.695 Y15.019
X52.968 Y14.762
X53.346 Y14.115
X53.467 Y13.374
X53.433 Y12.625
X53.262 Y11.895
X53.137 Y11.737
X52.963 Y11.561
X52.754 Y11.429
X52.521 Y11.346
X52.275 Y11.318
X52.029 Y11.346
X51.52 Y11.456
G2 X51.3 Y11.812 I0.074 J0.291
G1 X51.371 Y12.127
X51.915 Y14.569 F1200
X51.986 Y14.888 F100
G2 X52.333 Y15.117 I0.293 J-0.065
G1 X52.925 Y14.988
X53.106 Y14.939
X53.405 Y14.712
X53.847 Y14.106
X53.988 Y13.37
X53.972 Y12.62
X53.829 Y11.884
X53.69 Y11.682
X53.518 Y11.484
X53.303 Y11.333
X53.059 Y11.238
X52.799 Y11.202
X52.538 Y11.23
X52.029 Y11.346
G2 X51.815 Y11.709 I0.077 J0.29
G1 X51.892 Y12.018
X52.5 Y14.442 F1200
X52.581 Y14.766 F100
G2 X52.925 Y14.988 I0.291 J-0.073
G1 X53.425 Y14.874
X53.785 Y14.771
X54.053 Y14.509
X54.411 Y13.85
X54.52 Y13.108
X54.479 Y12.359
X54.272 Y11.638
X54.152 Y11.491
X53.977 Y11.319
X53.77 Y11.191
X53.539 Y11.111
X53.296 Y11.085
X53.053 Y11.112
X52.538 Y11.23
G2 X52.323 Y11.591 I0.077 J0.29
G1 X52.399 Y11.902
X52.997 Y14.333 F1200
X53.076 Y14.652 F100
G2 X53.425 Y14.874 I0.291 J-0.072
G1 X54.017 Y14.737
X54.198 Y14.685
X54.489 Y14.449
X54.913 Y13.83
X55.042 Y13.091
X55.013 Y12.342
X54.841 Y11.612
X54.7 Y11.417
X54.524 Y11.226
X54.308 Y11.082
X54.064 Y10.992
X53.806 Y10.961
X53.548 Y10.992
X53.053 Y11.112
G2 X52.841 Y11.481 I0.077 J0.29
G1 X52.923 Y11.782
X53.582 Y14.197 F1200
X53.67 Y14.521 F100
G2 X54.017 Y14.737 I0.289 J-0.079
G1 X54.517 Y14.616
X54.696 Y14.562
X55.003 Y14.347
X55.432 Y13.731
X55.563 Y12.993
X55.535 Y12.244
X55.369 Y11.512
X55.217 Y11.299
X55.041 Y11.105
X54.824 Y10.959
X54.579 Y10.867
X54.319 Y10.837
X54.06 Y10.868
X53.548 Y10.992
G2 X53.34 Y11.36 I0.081 J0.289
G1 X53.423 Y11.665
X54.079 Y14.081 F1200
X54.166 Y14.401 F100
G2 X54.517 Y14.616 I0.29 J-0.079
G1 X55.109 Y14.471
X55.289 Y14.417
X55.582 Y14.183
X55.972 Y13.542
X56.087 Y12.801
X56.043 Y12.052
X55.85 Y11.328
X55.699 Y11.133
X55.519 Y10.949
X55.302 Y10.812
X55.058 Y10.729
X54.802 Y10.705
X54.547 Y10.741
X54.06 Y10.868
G2 X53.853 Y11.243 I0.081 J0.289
G1 X53.942 Y11.539
X54.663 Y13.938 F1200
X54.761 Y14.263 F100
G2 X55.109 Y14.471 I0.287 J-0.086
G1 X55.65 Y14.33
X55.829 Y14.272
X56.115 Y14.03
X56.499 Y13.386
X56.607 Y12.644
X56.552 Y11.896
X56.353 Y11.173
X56.202 Y10.983
X56.022 Y10.804
X55.805 Y10.671
X55.564 Y10.592
X55.311 Y10.569
X55.06 Y10.605
X54.547 Y10.741
G2 X54.348 Y11.119 I0.087 J0.287
G1 X54.441 Y11.415
X55.195 Y13.805 F1200
X55.297 Y14.127 F100
G2 X55.65 Y14.33 I0.286 J-0.09
G1 X56.17 Y14.19
X56.348 Y14.132
X56.635 Y13.89
X57.02 Y13.247
X57.124 Y12.504
X57.064 Y11.756
X56.865 Y11.033
X56.711 Y10.84
X56.527 Y10.659
X56.306 Y10.525
X56.061 Y10.447
X55.803 Y10.428
X55.548 Y10.47
X55.276 Y10.548
X55.06 Y10.605
G2 X54.861 Y10.984 I0.087 J0.287
G1 X54.955 Y11.279
X55.714 Y13.666 F1200
X55.817 Y13.989 F100
G2 X56.17 Y14.19 I0.286 J-0.091
G1 X56.549 Y14.084
X56.904 Y13.963
X57.184 Y13.714
X57.549 Y13.058
X57.639 Y12.314
X57.568 Y11.567
X57.352 Y10.849
X57.201 Y10.67
X57.017 Y10.498
X56.799 Y10.372
X56.558 Y10.299
X56.306 Y10.282
X56.057 Y10.324
X55.548 Y10.47
G2 X55.352 Y10.835 I0.093 J0.285
G1 X55.439 Y11.151
X56.102 Y13.563 F1200
X56.187 Y13.873 F100
G2 X56.549 Y14.084 I0.289 J-0.08
G1 X57.09 Y13.929
X57.445 Y13.807
X57.717 Y13.549
X58.072 Y12.888
X58.153 Y12.142
X58.073 Y11.397
X57.851 Y10.68
X57.702 Y10.509
X57.516 Y10.339
X57.295 Y10.216
X57.053 Y10.146
X56.801 Y10.133
X56.553 Y10.178
X56.057 Y10.324
G2 X55.862 Y10.691 I0.093 J0.285
G1 X55.951 Y11.004
X56.64 Y13.408 F1200
X56.729 Y13.72 F100
G2 X57.09 Y13.929 I0.288 J-0.083
G1 X57.641 Y13.767
X57.994 Y13.641
X58.257 Y13.373
X58.594 Y12.703
X58.664 Y11.956
X58.574 Y11.212
X58.343 Y10.498
X58.197 Y10.337
X58.011 Y10.174
X57.793 Y10.056
X57.555 Y9.99
X57.307 Y9.979
X57.064 Y10.024
X56.553 Y10.178
G2 X56.363 Y10.549 I0.097 J0.284
G1 X56.457 Y10.86
X57.183 Y13.254 F1200
X57.277 Y13.565 F100
G2 X57.641 Y13.767 I0.287 J-0.087
G1 X58.182 Y13.603
X58.535 Y13.476
X58.789 Y13.2
X59.113 Y12.524
X59.174 Y11.776
X59.077 Y11.033
X58.84 Y10.321
X58.698 Y10.17
X58.511 Y10.009
X58.293 Y9.895
X58.054 Y9.832
X57.808 Y9.824
X57.566 Y9.871
X57.064 Y10.024
G2 X56.874 Y10.398 I0.097 J0.284
G1 X56.971 Y10.704
X57.721 Y13.091 F1200
X57.819 Y13.403 F100
G2 X58.182 Y13.603 I0.286 J-0.09
G1 X58.733 Y13.434
X59.085 Y13.304
X59.568 Y12.73
X59.706 Y11.993
X59.672 Y11.244
X59.498 Y10.514
X59.118 Y9.868
X59.088 Y9.847
X58.867 Y9.725
X58.624 Y9.658
X58.372 Y9.648
X58.124 Y9.695
X57.566 Y9.871
G2 X57.38 Y10.248 I0.1 J0.283
G1 X57.481 Y10.552
X58.265 Y12.926 F1200
X58.369 Y13.239 F100
G2 X58.733 Y13.434 I0.285 J-0.094
G1 X59.274 Y13.265
X59.45 Y13.2
X59.768 Y13
X60.148 Y12.354
X60.23 Y11.608
X60.148 Y10.863
X59.901 Y10.154
X59.807 Y10.009
X59.622 Y9.791
X59.387 Y9.629
X59.118 Y9.533
X58.833 Y9.51
X58.552 Y9.561
X58.124 Y9.695
G2 X57.938 Y10.071 I0.1 J0.283
G1 X58.037 Y10.377
X58.808 Y12.756 F1200
X58.909 Y13.068 F100
G2 X59.274 Y13.265 I0.285 J-0.092
G1 X59.8 Y13.099
X60.151 Y12.966
X60.397 Y12.683
X60.697 Y11.996
X60.734 Y11.247
X60.598 Y10.509
X60.308 Y9.818
X60.186 Y9.689
X59.997 Y9.531
X59.778 Y9.418
X59.54 Y9.357
X59.294 Y9.351
X59.052 Y9.4
X58.552 Y9.561
G2 X58.371 Y9.944 I0.102 J0.282
G1 X58.477 Y10.24
X59.323 Y12.596 F1200
X59.437 Y12.911 F100
G2 X59.8 Y13.099 I0.282 J-0.101
G1 X60.356 Y12.92
X60.532 Y12.854
X60.808 Y12.6
X61.194 Y11.957
X61.251 Y11.209
X61.141 Y10.467
X60.89 Y9.76
X60.731 Y9.573
X60.542 Y9.397
X60.317 Y9.27
X60.068 Y9.199
X59.81 Y9.188
X59.556 Y9.238
X59.052 Y9.4
G2 X58.874 Y9.789 I0.102 J0.282
G1 X58.983 Y10.078
X59.873 Y12.42 F1200
X59.994 Y12.738 F100
G2 X60.356 Y12.92 I0.28 J-0.107
G1 X60.736 Y12.798
X61.086 Y12.663
X61.365 Y12.413
X61.707 Y11.745
X61.752 Y10.997
X61.633 Y10.256
X61.371 Y9.553
X61.21 Y9.377
X61.019 Y9.212
X60.796 Y9.094
X60.552 Y9.03
X60.3 Y9.024
X60.053 Y9.075
X59.556 Y9.238
G2 X59.373 Y9.615 I0.102 J0.282
G1 X59.475 Y9.92
X60.266 Y12.293 F1200
X60.369 Y12.604 F100
G2 X60.736 Y12.798 I0.285 J-0.095
G1 X61.385 Y12.584
X61.56 Y12.517
X61.842 Y12.27
X62.21 Y11.616
X62.26 Y10.868
X62.147 Y10.126
X61.9 Y9.418
X61.732 Y9.227
X61.542 Y9.055
X61.316 Y8.931
X61.069 Y8.864
X60.812 Y8.856
X60.56 Y8.907
X60.053 Y9.075
G2 X59.877 Y9.465 I0.104 J0.281
G1 X59.989 Y9.753
X60.898 Y12.088 F1200
X61.022 Y12.405 F100
G2 X61.385 Y12.584 I0.28 J-0.109
G1 X61.828 Y12.439
X62.176 Y12.299
X62.431 Y12.024
X62.73 Y11.336
X62.756 Y10.587
X62.623 Y9.848
X62.338 Y9.155
X62.192 Y9.007
X62 Y8.852
X61.778 Y8.744
X61.538 Y8.688
X61.292 Y8.687
X61.051 Y8.741
X60.56 Y8.907
G2 X60.383 Y9.291 I0.104 J0.281
G1 X60.491 Y9.588
X61.348 Y11.939 F1200
X61.462 Y12.253 F100
G2 X61.828 Y12.439 I0.282 J-0.103
G1 X62.477 Y12.214
X62.651 Y12.145
X62.907 Y11.87
X63.231 Y11.194
X63.262 Y10.445
X63.132 Y9.706
X62.864 Y9.005
X62.707 Y8.842
X62.514 Y8.682
X62.29 Y8.57
X62.045 Y8.512
X61.795 Y8.51
X61.55 Y8.566
X61.051 Y8.741
G2 X60.883 Y9.137 I0.108 J0.28
G1 X61.001 Y9.418
X61.978 Y11.727 F1200
X62.113 Y12.045 F100
G2 X62.477 Y12.214 I0.276 J-0.117
G1 X62.92 Y12.062
X63.092 Y11.988
X63.368 Y11.735
X63.73 Y11.077
X63.771 Y10.328
X63.651 Y9.588
X63.402 Y8.881
X63.23 Y8.689
X63.033 Y8.516
X62.8 Y8.395
X62.544 Y8.332
X62.282
X62.026 Y8.394
X61.675 Y8.522
X61.55 Y8.566
G2 X61.381 Y8.957 I0.109 J0.279
G1 X61.496 Y9.246
X62.427 Y11.571 F1200
X62.553 Y11.886 F100
G2 X62.92 Y12.062 I0.279 J-0.111
G1 X63.356 Y11.901
X63.701 Y11.753
X63.954 Y11.477
X64.247 Y10.786
X64.264 Y10.036
X64.124 Y9.299
X63.833 Y8.608
X63.678 Y8.455
X63.481 Y8.302
X63.255 Y8.196
X63.011 Y8.144
X62.762 Y8.149
X62.52 Y8.209
X62.026 Y8.394
G2 X61.861 Y8.778 I0.115 J0.277
G1 X61.976 Y9.08
X62.865 Y11.417 F1200
X62.982 Y11.723 F100
G2 X63.356 Y11.901 I0.28 J-0.107
G1 X64.012 Y11.658
X64.182 Y11.579
X64.435 Y11.302
X64.746 Y10.62
X64.767 Y9.87
X64.625 Y9.134
X64.347 Y8.437
X64.182 Y8.272
X63.979 Y8.112
X63.743 Y8.003
X63.489 Y7.953
X63.23 Y7.963
X62.981 Y8.034
X62.52 Y8.209
G2 X62.361 Y8.608 I0.115 J0.277
G1 X62.485 Y8.888
X63.504 Y11.181 F1200
X63.643 Y11.495 F100
G2 X64.012 Y11.658 I0.274 J-0.122
G1 X64.575 Y11.429
X64.744 Y11.35
X64.981 Y11.059
X65.254 Y10.36
X65.257 Y9.61
X65.101 Y8.877
X64.801 Y8.189
X64.637 Y8.038
X64.435 Y7.89
X64.205 Y7.792
X63.959 Y7.749
X63.709 Y7.762
X63.468 Y7.831
X62.981 Y8.034
G2 X62.835 Y8.437 I0.125 J0.273
G1 X62.969 Y8.715
X64.052 Y10.968 F1200
X64.201 Y11.277 F100
G2 X64.575 Y11.429 I0.27 J-0.13
G1 X64.938 Y11.281
X65.277 Y11.122
X65.501 Y10.821
X65.756 Y10.116
X65.746 Y9.366
X65.577 Y8.635
X65.268 Y7.952
X65.111 Y7.814
X64.91 Y7.674
X64.682 Y7.581
X64.439 Y7.542
X64.193 Y7.557
X63.957 Y7.627
X63.468 Y7.831
G2 X63.318 Y8.222 I0.125 J0.273
G1 X63.444 Y8.517
X64.429 Y10.814 F1200
X64.559 Y11.117 F100
G2 X64.938 Y11.281 I0.276 J-0.118
G1 X65.46 Y11.06
X65.796 Y10.895
X66.228 Y10.282
X66.296 Y9.535
X66.191 Y8.792
X65.945 Y8.084
X65.505 Y7.477
X65.45 Y7.445
X65.206 Y7.342
X64.945 Y7.3
X64.682 Y7.322
X64.431 Y7.405
X63.957 Y7.627
G2 X63.809 Y8.02 I0.126 J0.272
G1 X63.938 Y8.313
X64.944 Y10.602 F1200
X65.076 Y10.902 F100
G2 X65.46 Y11.06 I0.275 J-0.121
G1 X66.016 Y10.82
X66.184 Y10.736
X66.471 Y10.494
X66.776 Y9.809
X66.779 Y9.059
X66.616 Y8.327
X66.291 Y7.651
X66.162 Y7.497
X65.949 Y7.301
X65.693 Y7.168
X65.41 Y7.106
X65.122 Y7.12
X64.847 Y7.208
X64.431 Y7.405
G2 X64.297 Y7.798 I0.138 J0.266
G1 X64.435 Y8.095
X65.494 Y10.367 F1200
X65.634 Y10.667 F100
G2 X66.016 Y10.82 I0.272 J-0.127
G1 X66.529 Y10.591
X66.863 Y10.42
X67.068 Y10.106
X67.286 Y9.388
X67.24 Y8.64
X67.022 Y7.922
X66.656 Y7.267
X66.461 Y7.103
X66.258 Y6.967
X66.028 Y6.882
X65.786 Y6.851
X65.542 Y6.876
X65.311 Y6.956
X65.104 Y7.086
G2 X64.992 Y7.442 I0.169 J0.248
G1 X65.13 Y7.8
X66.025 Y10.134 F1200
X66.135 Y10.421 F100
G2 X66.529 Y10.591 I0.28 J-0.107
G1 X66.98 Y10.387
X67.314 Y10.216
X67.53 Y9.909
X67.772 Y9.2
X67.726 Y8.451
X67.514 Y7.731
X67.169 Y7.066
X66.607 Y6.569
X66.548 Y6.55
X66.284 Y6.502
X66.016 Y6.519
X65.759 Y6.601
X65.531 Y6.743
X65.104 Y7.086
G2 X65.038 Y7.46 I0.196 J0.227
G1 X65.221 Y7.787
X66.433 Y9.95 F1200
X66.605 Y10.256 F100
G2 X66.98 Y10.387 I0.262 J-0.147
G1 X67.288 Y10.248
X67.647 Y10.071
X67.81 Y9.979
X68.027 Y9.673
X68.256 Y8.959
X68.202 Y8.211
X67.989 Y7.492
X67.644 Y6.826
X67.485 Y6.66
X67.28 Y6.487
X67.042 Y6.361
X66.784 Y6.287
X66.515 Y6.27
X66.249 Y6.31
X65.998 Y6.404
X65.772 Y6.549
X65.531 Y6.743
G2 X65.474 Y7.131 I0.196 J0.227
G1 X65.666 Y7.433
X67.079 Y9.657 F1200
X67.27 Y9.958 F100
G2 X67.647 Y10.071 I0.253 J-0.161
G1 X67.989 Y9.901
X68.189 Y9.79
X68.439 Y9.51
X68.742 Y8.824
X68.704 Y8.075
X68.507 Y7.351
X68.188 Y6.673
X67.673 Y6.127
X66.996 Y5.806
X66.851 Y5.802
X66.595 Y5.824
X66.351 Y5.906
X66.133 Y6.042
X65.952 Y6.226
X65.819 Y6.446
G2 X65.836 Y6.71 I0.277 J0.115
G1 X66.091 Y7.153
X67.434 Y9.48 F1200
X67.605 Y9.778 F100
G2 X67.989 Y9.901 I0.26 J-0.15
G1 X68.145 Y9.824
X68.38 Y9.69
X68.863 Y9.033
X68.984 Y8.868
X69.084 Y8.733
X69.189 Y8.373
X69.132 Y7.625
X68.905 Y6.91
X68.523 Y6.265
X67.999 Y5.728
X67.344 Y5.363
X67.114 Y5.345
X66.846 Y5.357
X66.589 Y5.434
X66.358 Y5.57
X66.167 Y5.758
X66.027 Y5.987
X65.819 Y6.446
G2 X65.929 Y6.81 I0.277 J0.115
G1 X66.239 Y7.018
X68.501 Y8.534 F1200
X68.707 Y8.672 F100
G2 X69.154 Y8.531 I0.167 J-0.249
G1 X69.4 Y7.821
X69.506 Y7.461
X69.375 Y6.723
X69.029 Y6.057
X68.544 Y5.485
X67.931 Y5.053
X67.213 Y4.838
X67.108 Y4.852
X66.871 Y4.909
X66.652 Y5.017
X66.463 Y5.171
X66.312 Y5.363
X66.207 Y5.584
X66.196 Y5.616
X66.027 Y5.987
G2 X66.156 Y6.362 I0.277 J0.115
G1 X66.462 Y6.537
X68.738 Y7.84 F1200
X68.972 Y7.973 F100
G2 X69.4 Y7.821 I0.149 J-0.26
G1 X69.661 Y7.068
X69.714 Y6.888
X69.634 Y6.142
X69.255 Y5.495
X68.729 Y4.961
X68.092 Y4.565
X67.378 Y4.333
X67.236 Y4.357
X67.008 Y4.421
X66.799 Y4.532
X66.619 Y4.686
X66.475 Y4.874
X66.376 Y5.089
X66.207 Y5.584
G2 X66.372 Y5.946 I0.287 J0.088
G1 X66.692 Y6.088
X68.986 Y7.112 F1200
X69.259 Y7.234 F100
G2 X69.661 Y7.068 I0.122 J-0.274
G1 X69.841 Y6.549
X69.943 Y6.189
X69.809 Y5.451
X69.371 Y4.842
X68.796 Y4.36
X68.131 Y4.013
X67.404 Y3.828
X67.326 Y3.848
X67.072 Y3.948
X66.85 Y4.107
X66.673 Y4.316
X66.554 Y4.561
X66.376 Y5.089
G2 X66.543 Y5.45 I0.287 J0.086
G1 X66.864 Y5.59
X69.165 Y6.596 F1200
X69.441 Y6.716 F100
G2 X69.841 Y6.549 I0.12 J-0.275
G1 X70.06 Y5.901
X70.111 Y5.72
X70.096 Y5.345
X69.85 Y4.637
X69.334 Y4.092
X68.707 Y3.681
X68.007 Y3.411
X67.826 Y3.396
X67.58 Y3.403
X67.341 Y3.465
X67.122 Y3.578
X66.934 Y3.738
X66.786 Y3.935
X66.685 Y4.161
X66.554 Y4.561
G2 X66.733 Y4.927 I0.287 J0.086
G1 X67.048 Y5.05
X69.381 Y5.961 F1200
X69.67 Y6.074 F100
G2 X70.06 Y5.901 I0.109 J-0.279
G1 X70.21 Y5.458
X70.304 Y5.095
X70.277 Y4.721
X69.972 Y4.036
X69.43 Y3.518
X68.785 Y3.135
X68.074 Y2.896
X67.836 Y2.907
X67.573 Y2.952
X67.328 Y3.059
X67.116 Y3.222
X66.95 Y3.432
X66.839 Y3.675
X66.685 Y4.161
G2 X66.869 Y4.522 I0.289 J0.08
G1 X67.188 Y4.642
X69.529 Y5.522 F1200
X69.823 Y5.633 F100
G2 X70.21 Y5.458 I0.106 J-0.281
G1 X70.414 Y4.809
X70.509 Y4.446
X70.427 Y4.08
X70.064 Y3.424
X69.496 Y2.934
X68.833 Y2.583
X68.109 Y2.388
X67.903 Y2.415
X67.663 Y2.475
X67.442 Y2.587
X67.251 Y2.746
X67.101 Y2.943
X66.999 Y3.169
X66.839 Y3.675
G2 X67.037 Y4.041 I0.289 J0.08
G1 X67.347 Y4.139
X69.732 Y4.897 F1200
X70.04 Y4.995 F100
G2 X70.414 Y4.809 I0.091 J-0.286
G1 X70.621 Y4.157
X70.669 Y3.976
X70.602 Y3.607
X70.262 Y2.938
X69.694 Y2.448
X69.032 Y2.096
X68.314 Y1.88
X68.087 Y1.906
X67.842 Y1.962
X67.615 Y2.073
X67.42 Y2.233
X67.267 Y2.432
X67.162 Y2.662
X66.999 Y3.169
G2 X67.212 Y3.541 I0.289 J0.082
G1 X67.51 Y3.62
X69.933 Y4.258 F1200
X70.262 Y4.345 F100
G2 X70.621 Y4.157 I0.076 J-0.29
G1 X70.74 Y3.788
X70.837 Y3.425
X70.764 Y3.057
X70.403 Y2.4
X69.826 Y1.921
X69.159 Y1.578
X68.438 Y1.371
X68.225 Y1.4
X67.988 Y1.46
X67.77 Y1.57
X67.582 Y1.727
X67.433 Y1.921
X67.33 Y2.143
X67.162 Y2.662
G2 X67.361 Y3.03 I0.289 J0.082
G1 X67.669 Y3.126
X70.056 Y3.874 F1200
X70.368 Y3.972 F100
G2 X70.74 Y3.788 I0.09 J-0.286
G1 X70.906 Y3.275
X71.006 Y2.913
X70.929 Y2.546
X70.567 Y1.89
X69.988 Y1.413
X69.32 Y1.072
X68.6 Y0.861
X68.395 Y0.889
X68.158 Y0.949
X67.94 Y1.06
X67.752 Y1.216
X67.603 Y1.41
X67.5 Y1.632
X67.33 Y2.143
G2 X67.528 Y2.513 I0.288 J0.085
G1 X67.833 Y2.609
X70.22 Y3.358 F1200
X70.535 Y3.456 F100
G2 X70.906 Y3.275 I0.09 J-0.286
G1 X71.122 Y2.626
X71.172 Y2.445
X71.106 Y2.076
X70.763 Y1.409
X70.187 Y0.928
X69.523 Y0.58
X68.807 Y0.355
X68.591 Y0.379
X68.347 Y0.435
X68.122 Y0.544
X67.928 Y0.702
X67.774 Y0.899
X67.669 Y1.126
X67.5 Y1.632
G2 X67.712 Y2.007 I0.288 J0.085
G1 X68.007 Y2.085
X70.432 Y2.724 F1200
X70.764 Y2.811 F100
G2 X71.122 Y2.626 I0.076 J-0.29
G1 X71.269 Y2.183
X71.32 Y2.003
X71.282 Y1.63
X70.977 Y0.944
X70.408 Y0.455
X69.75 Y0.096
X69.04 Y-0.145
X68.798 Y-0.127
X68.545 Y-0.077
X68.311 Y0.029
X68.108 Y0.187
X67.948 Y0.388
X67.838 Y0.62
X67.669 Y1.126
G2 X67.874 Y1.499 I0.288 J0.085
G1 X68.174 Y1.584
X70.58 Y2.273 F1200
X70.905 Y2.366 F100
G2 X71.269 Y2.183 I0.083 J-0.288
G1 X71.458 Y1.621
X71.508 Y1.44
X71.457 Y1.069
X71.111 Y0.403
X70.536 Y-0.078
X69.874 Y-0.431
X69.157 Y-0.652
X68.931 Y-0.627
X68.687 Y-0.572
X68.462 Y-0.463
X68.267 Y-0.306
X68.113 Y-0.11
X68.007 Y0.117
X67.838 Y0.62
G2 X68.049 Y0.996 I0.288 J0.085
G1 X68.344 Y1.074
X70.767 Y1.717 F1200
X71.1 Y1.805 F100
G2 X71.458 Y1.621 I0.077 J-0.29
G1 X71.58 Y1.258
X71.681 Y0.897
X71.612 Y0.528
X71.25 Y-0.129
X70.671 Y-0.605
X70.005 Y-0.95
X69.285 Y-1.161
X69.076 Y-1.133
X68.839 Y-1.074
X68.62 Y-0.964
X68.431 Y-0.808
X68.281 Y-0.615
X68.178 Y-0.393
X68.007 Y0.117
G2 X68.204 Y0.488 I0.288 J0.085
G1 X68.509 Y0.584
X70.894 Y1.339 F1200
X71.208 Y1.438 F100
G2 X71.58 Y1.258 I0.09 J-0.286
G1 X71.762 Y0.716
X71.863 Y0.355
X71.775 Y-0.01
X71.396 Y-0.657
X70.812 Y-1.127
X70.142 Y-1.465
X69.421 Y-1.671
X69.228 Y-1.642
X68.995 Y-1.58
X68.782 Y-1.469
X68.597 Y-1.314
X68.451 Y-1.123
X68.35 Y-0.904
X68.178 Y-0.393
G2 X68.378 Y-0.02 I0.288 J0.086
G1 X68.681 Y0.072
X71.075 Y0.8 F1200
X71.393 Y0.897 F100
G2 X71.762 Y0.716 I0.087 J-0.287
G1 X71.949 Y0.157
X72 Y-0.024
X71.953 Y-0.396
X71.653 Y-1.084
X71.084 Y-1.571
X70.425 Y-1.929
X69.713 Y-2.167
X69.481 Y-2.15
X69.227 Y-2.101
X68.993 Y-1.995
X68.789 Y-1.837
X68.628 Y-1.636
X68.517 Y-1.403
X68.35 Y-0.904
G2 X68.555 Y-0.53 I0.288 J0.086
G1 X68.854 Y-0.445
X71.261 Y0.246 F1200
X71.586 Y0.34 F100
G2 X71.949 Y0.157 I0.083 J-0.288
G1 X72.114 Y-0.333
X72.165 Y-0.514
X72.141 Y-0.888
X71.839 Y-1.574
X71.273 Y-2.065
X70.616 Y-2.428
X69.906 Y-2.669
X69.653 Y-2.652
X69.399 Y-2.604
X69.163 Y-2.498
X68.958 Y-2.34
X68.796 Y-2.138
X68.686 Y-1.904
X68.517 Y-1.403
G2 X68.721 Y-1.029 I0.288 J0.086
G1 X69.021 Y-0.942
X71.426 Y-0.244 F1200
X71.749 Y-0.15 F100
G2 X72.114 Y-0.333 I0.084 J-0.288
G1 X72.245 Y-0.723
X72.346 Y-1.084
X72.304 Y-1.456
X71.963 Y-2.124
X71.389 Y-2.607
X70.727 Y-2.959
X70.009 Y-3.176
X69.78 Y-3.151
X69.535 Y-3.096
X69.309 Y-2.987
X69.114 Y-2.83
X68.959 Y-2.633
X68.853 Y-2.405
X68.686 Y-1.904
G2 X68.879 Y-1.534 I0.288 J0.086
G1 X69.186 Y-1.432
X71.56 Y-0.646 F1200
X71.869 Y-0.543 F100
G2 X72.245 Y-0.723 I0.094 J-0.285
G1 X72.429 Y-1.273
X72.529 Y-1.634
X72.461 Y-2.003
X72.1 Y-2.66
X71.52 Y-3.136
X70.853 Y-3.479
X70.132 Y-3.685
X69.921 Y-3.657
X69.683 Y-3.598
X69.464 Y-3.487
X69.275 Y-3.331
X69.126 Y-3.137
X69.023 Y-2.914
X68.853 Y-2.405
G2 X69.051 Y-2.034 I0.288 J0.085
G1 X69.356 Y-1.939
X71.743 Y-1.19 F1200
X72.058 Y-1.091 F100
G2 X72.429 Y-1.273 I0.09 J-0.286
G1 X72.609 Y-1.814
X72.709 Y-2.175
X72.622 Y-2.54
X72.244 Y-3.188
X71.66 Y-3.658
X70.989 Y-3.994
X70.267 Y-4.196
X70.07 Y-4.166
X69.835 Y-4.104
X69.62 Y-3.991
X69.435 Y-3.833
X69.289 Y-3.639
X69.189 Y-3.417
X69.023 Y-2.914
G2 X69.224 Y-2.542 I0.288 J0.085
G1 X69.527 Y-2.451
X71.922 Y-1.728 F1200
X72.241 Y-1.631 F100
G2 X72.609 Y-1.814 I0.087 J-0.287
G1 X72.804 Y-2.407
X72.852 Y-2.588
X72.795 Y-2.959
X72.475 Y-3.637
X71.9 Y-4.119
X71.237 Y-4.47
X70.523 Y-4.698
X70.295 Y-4.677
X70.045 Y-4.624
X69.814 Y-4.514
X69.615 Y-4.354
X69.458 Y-4.153
X69.351 Y-3.92
X69.189 Y-3.417
G2 X69.399 Y-3.046 I0.288 J0.082
G1 X69.698 Y-2.964
X72.116 Y-2.308 F1200
X72.443 Y-2.219 F100
G2 X72.804 Y-2.407 I0.079 J-0.29
G1 X72.921 Y-2.77
X73.018 Y-3.132
X72.964 Y-3.503
X72.615 Y-4.167
X72.036 Y-4.644
X71.371 Y-4.991
X70.653 Y-5.206
X70.428 Y-5.179
X70.184 Y-5.121
X69.959 Y-5.008
X69.765 Y-4.847
X69.613 Y-4.647
X69.511 Y-4.417
X69.351 Y-3.92
G2 X69.548 Y-3.552 I0.288 J0.082
G1 X69.857 Y-3.453
X72.238 Y-2.686 F1200
X72.547 Y-2.586 F100
G2 X72.921 Y-2.77 I0.092 J-0.286
G1 X73.14 Y-3.456
X73.188 Y-3.638
X73.128 Y-4.008
X72.781 Y-4.673
X72.203 Y-5.15
X71.537 Y-5.496
X70.82 Y-5.714
X70.591 Y-5.687
X70.345 Y-5.629
X70.12 Y-5.517
X69.926 Y-5.356
X69.773 Y-5.155
X69.671 Y-4.925
X69.511 Y-4.417
G2 X69.726 Y-4.046 I0.289 J0.08
G1 X70.025 Y-3.97
X72.453 Y-3.35 F1200
X72.783 Y-3.266 F100
G2 X73.14 Y-3.456 I0.074 J-0.291
G1 X73.261 Y-3.837
X73.355 Y-4.2
X73.279 Y-4.567
X72.906 Y-5.218
X72.32 Y-5.686
X71.65 Y-6.023
X70.927 Y-6.224
X70.718 Y-6.193
X70.481 Y-6.13
X70.263 Y-6.016
X70.077 Y-5.856
X69.93 Y-5.659
X69.831 Y-5.435
X69.671 Y-4.925
G2 X69.873 Y-4.557 I0.289 J0.08
G1 X70.181 Y-4.465
X72.577 Y-3.745 F1200
X72.891 Y-3.65 F100
G2 X73.261 Y-3.837 I0.086 J-0.287
G1 X73.427 Y-4.366
X73.53 Y-4.727
X73.439 Y-5.091
X73.056 Y-5.736
X72.469 Y-6.202
X71.796 Y-6.534
X71.074 Y-6.736
X70.884 Y-6.706
X70.653 Y-6.644
X70.441 Y-6.533
X70.258 Y-6.379
X70.112 Y-6.189
X70.012 Y-5.971
X69.831 Y-5.435
G2 X70.036 Y-5.067 I0.289 J0.08
G1 X70.342 Y-4.978
X72.739 Y-4.279 F1200
X73.063 Y-4.184 F100
G2 X73.427 Y-4.366 I0.084 J-0.288
G1 X73.647 Y-5.015
X73.698 Y-5.196
X73.614 Y-5.561
X73.249 Y-6.216
X72.666 Y-6.688
X71.997 Y-7.028
X71.279 Y-7.244
X71.083 Y-7.218
X70.845 Y-7.16
X70.626 Y-7.05
X70.437 Y-6.895
X70.287 Y-6.701
X70.183 Y-6.479
X70.012 Y-5.971
G2 X70.226 Y-5.594 I0.287 J0.086
G1 X70.518 Y-5.522
X72.955 Y-4.914 F1200
X73.294 Y-4.83 F100
G2 X73.647 Y-5.015 I0.073 J-0.291
G1 X73.75 Y-5.319
X73.852 Y-5.68
X73.782 Y-6.048
X73.428 Y-6.709
X72.848 Y-7.184
X72.181 Y-7.529
X71.465 Y-7.751
X71.264 Y-7.726
X71.026 Y-7.669
X70.806 Y-7.56
X70.616 Y-7.406
X70.465 Y-7.214
X70.36 Y-6.993
X70.183 Y-6.479
G2 X70.378 Y-6.108 I0.287 J0.086
G1 X70.684 Y-6.009
X73.064 Y-5.24 F1200
X73.377 Y-5.139 F100
G2 X73.75 Y-5.319 I0.092 J-0.285
G1 X73.84 Y-5.583
X73.912 Y-5.744
X73.981 Y-5.919
X73.997 Y-6.293
X73.904 Y-6.657
X73.508 Y-7.294
X72.914 Y-7.751
X72.239 Y-8.079
X71.511 Y-8.259
X71.37 Y-8.232
X71.097 Y-8.141
X70.857 Y-7.982
X70.667 Y-7.767
X70.538 Y-7.51
X70.36 Y-6.993
G2 X70.549 Y-6.621 I0.287 J0.088
G1 X70.856 Y-6.516
X73.213 Y-5.707 F1200
X73.546 Y-5.593 F100
G2 X73.912 Y-5.744 I0.097 J-0.284
G1 X74.128 Y-6.223
X74.196 Y-6.397
X74.19 Y-6.772
X73.982 Y-7.493
X73.454 Y-8.025
X72.816 Y-8.42
X72.113 Y-8.681
X71.762 Y-8.713
X71.502 Y-8.705
X71.251 Y-8.637
X71.023 Y-8.511
X70.831 Y-8.335
X70.685 Y-8.12
X70.595 Y-7.876
X70.564 Y-7.617
G2 X70.747 Y-7.352 I0.3 J-0.01
G1 X71.156 Y-7.177
X73.437 Y-6.209 F1200
X73.741 Y-6.079 F100
G2 X74.128 Y-6.223 I0.117 J-0.276
G1 X74.275 Y-6.549 F90
X74.384 Y-6.637 F100
X74.524 Y-6.762
X74.517 Y-7.137
X74.315 Y-7.859
X73.806 Y-8.41
X73.187 Y-8.834
X72.501 Y-9.137
X71.76 Y-9.248
X71.026 Y-9.093
X70.791 Y-8.915
X70.622 Y-8.748
X70.498 Y-8.546
X70.427 Y-8.318
X70.415 Y-8.081
X70.462 Y-7.848
X70.564 Y-7.634
X70.598 Y-7.582
X70.643 Y-7.538
X70.695 Y-7.504
X70.753 Y-7.482
X71.271 Y-7.345
X73.63 Y-6.72 F1200
X74.127 Y-6.588 F100
G2 X74.384 Y-6.637 I0.077 J-0.29
G1 X74.55 Y-6.771
X74.69 Y-6.896
X74.795 Y-7.256
X74.794 Y-7.631
X74.547 Y-8.339
X74.036 Y-8.888
X73.418 Y-9.314
X72.734 Y-9.62
X72 Y-9.774
X71.253 Y-9.706
X70.57 Y-9.396
X70.429 Y-9.236
X70.276 Y-9.013
X70.182 Y-8.759
X70.153 Y-8.49
X70.191 Y-8.222
X70.293 Y-7.971
X70.454 Y-7.753
X70.494 Y-7.72
X70.539 Y-7.694
X70.588 Y-7.677
X71.197 Y-7.52
X73.795 Y-6.851 F1200
X74.298 Y-6.721 F100
G2 X74.55 Y-6.771 I0.074 J-0.287
G1 X74.812 Y-6.982
X74.952 Y-7.107
X75.115 Y-7.444
X75.127 Y-8.194
G2 X70.734 Y-10.094 I-3.237 J1.456
G1 X70.118 Y-9.657
X69.982 Y-9.437
X69.865 Y-9.175
X69.82 Y-8.892
X69.85 Y-8.606
X69.952 Y-8.338
X70.12 Y-8.106
X70.161 Y-8.072
X70.207 Y-8.046
X70.257 Y-8.029
X70.864 Y-7.874
X74.057 Y-7.059 F1200
X74.558 Y-6.931 F100
G2 X74.812 Y-6.982 I0.074 J-0.291
G1 X74.932 Y-7.079
X75.114 Y-7.165
X75.279 Y-7.253
X75.448 Y-7.588
X75.526 Y-7.955
X75.423 Y-8.698
G2 X70.284 Y-10.453 I-3.478 J1.781
G1 X69.712 Y-9.954
X69.596 Y-9.726
X69.504 Y-9.472
X69.476 Y-9.204
X69.514 Y-8.937
X69.616 Y-8.688
X69.776 Y-8.47
X70.12 Y-8.106
X70.166 Y-8.069
X70.218 Y-8.041
X70.275 Y-8.025
X70.872 Y-7.912
X74.343 Y-7.258 F1200
X74.939 Y-7.145 F100
X74.998 Y-7.14
X75.057 Y-7.147
X75.114 Y-7.165
X75.392 Y-7.296
X75.557 Y-7.385
X75.793 Y-7.676
X75.966 Y-8.406
G2 X74.097 Y-10.693 I-2.955 J0.508
G1 X73.84 Y-10.734
X72.748 Y-10.837 F90
X72.67 Y-10.916 F100
X72.377 Y-11.151
X71.653 Y-11.344
X70.909 Y-11.248
X70.206 Y-10.987
X69.582 Y-10.57
X69.14 Y-9.965
X69.129 Y-9.921
X69.101 Y-9.696
X69.119 Y-9.47
X69.183 Y-9.252
X69.29 Y-9.052
X69.472 Y-8.784
X69.528 Y-8.733
X69.776 Y-8.47
G2 X70.177 Y-8.452 I0.211 J-0.213
G1 X70.444 Y-8.672
X72.412 Y-10.292 F1200
X72.64 Y-10.48 F100
G2 X72.67 Y-10.916 I-0.191 J-0.232
G1 X72.067 Y-11.452
X71.815 Y-11.655
X71.076 Y-11.782
G2 X68.772 Y-10.221 I0.131 J2.674
G1 X68.771 Y-10.002
G2 X69.192 Y-9.73 I0.3 J-0.003
G1 X69.368 Y-9.807
X71.801 Y-10.881 F1200
X71.981 Y-10.961 F100
G2 X72.067 Y-11.452 I-0.121 J-0.274
G1 X71.656 Y-11.818
X70.952 Y-12.076
G2 X70.043 Y-12.048 I-0.375 J2.611
G1 X69.983 Y-12.02
X69.931 Y-11.98
X69.889 Y-11.929
X69.859 Y-11.871
X69.842 Y-11.807
X69.839 Y-11.741
X69.851 Y-11.677
X69.876 Y-11.616
X69.914 Y-11.563
X69.963 Y-11.519
X70.02 Y-11.486
X70.082 Y-11.467
X70.104 Y-11.464 F1200
X71.378 Y-11.308
X71.412 Y-11.303 F100
G2 X71.656 Y-11.818 I0.036 J-0.298
G1 X71.211 Y-12.007
X70.564 Y-12.203
X69.917 Y-12.007
X69.783 Y-11.95
X69.612 Y-11.877
X69.462 Y-11.805
G2 X69.432 Y-11.422 I0.311 J0.217
X69.742 Y-11.235 I0.299 J-0.145
X70.034 Y-11.43 I-0.011 J-0.332 F1200
X69.612 Y-11.877 I-0.303 J-0.137 F100
G1 X69.472 Y-11.818
X68.795 Y-10.916
X68.766 Y-9.824
X69.29 Y-9.052
X69.335 Y-9.003
X69.389 Y-8.966
X69.449 Y-8.941
X70.014 Y-8.778
X74.633 Y-7.444 F1200
X75.189 Y-7.283 F100
X75.257 Y-7.272
X75.326 Y-7.276
X75.392 Y-7.296
X75.886 Y-7.53
X76.051 Y-7.619
X76.248 Y-7.938
X76.404 Y-8.672
X76.194 Y-9.392
X75.806 Y-10.033
X75.3 Y-10.587
X75.117 Y-10.716
X74.869 Y-10.846
X74.596 Y-10.909
X74.316 Y-10.902
X74.047 Y-10.824
G2 X73.917 Y-10.403 I0.129 J0.271
G1 X74.062 Y-10.151
X75.332 Y-7.958 F1200
X75.507 Y-7.655 F100
G2 X75.886 Y-7.53 I0.26 J-0.15
G1 X76.024 Y-7.596
X76.295 Y-7.709
X76.465 Y-7.789
X76.664 Y-8.107
X76.77 Y-8.467
X76.775 Y-9.217
X76.503 Y-9.916
X76.083 Y-10.537
X75.545 Y-11.064
X75.326 Y-11.14
X75.096 Y-11.169
X74.865 Y-11.149
X74.643 Y-11.08
X74.047 Y-10.824
G2 X73.94 Y-10.368 I0.129 J0.271
G1 X74.093 Y-10.173
X75.703 Y-8.124 F1200
X75.954 Y-7.804 F100
G2 X76.295 Y-7.709 I0.236 J-0.185
G1 X76.639 Y-7.852
X76.808 Y-7.932
X77.043 Y-8.224
X77.278 Y-8.937
X77.16 Y-9.677
X76.851 Y-10.361
X76.411 Y-10.968
X76.293 Y-11.077
X76.092 Y-11.223
X75.865 Y-11.321
X75.621 Y-11.365
X75.373 Y-11.353
X75.134 Y-11.286
X74.643 Y-11.08
G2 X74.52 Y-10.644 I0.128 J0.271
G1 X74.67 Y-10.417
X76.073 Y-8.286 F1200
X76.283 Y-7.967 F100
G2 X76.639 Y-7.852 I0.251 J-0.165
G1 X76.966 Y-7.987
X77.305 Y-8.148
X77.525 Y-8.452
X77.741 Y-9.17
X77.619 Y-9.91
X77.324 Y-10.6
X76.904 Y-11.221
X76.752 Y-11.342
X76.556 Y-11.466
X76.339 Y-11.546
X76.109 Y-11.578
X75.878 Y-11.562
X75.656 Y-11.498
X75.134 Y-11.286
G2 X74.998 Y-10.861 I0.123 J0.274
G1 X75.14 Y-10.618
X76.418 Y-8.432 F1200
X76.602 Y-8.117 F100
G2 X76.966 Y-7.987 I0.259 J-0.151
G1 X77.116 Y-8.05
X77.449 Y-8.174
X77.622 Y-8.248
X77.882 Y-8.518
X78.058 Y-8.849
X78.182 Y-9.588
X78.021 Y-10.321
X77.705 Y-11.001
X77.255 Y-11.601
X77.206 Y-11.631
X76.981 Y-11.738
X76.737 Y-11.791
X76.488 Y-11.788
X76.246 Y-11.729
X76.024 Y-11.648
X75.656 Y-11.498
G2 X75.518 Y-11.076 I0.123 J0.274
G1 X75.659 Y-10.828
X76.909 Y-8.634 F1200
X77.094 Y-8.31 F100
G2 X77.449 Y-8.174 I0.261 J-0.149
G1 X77.839 Y-8.319
X78.011 Y-8.393
X78.3 Y-8.632
X78.645 Y-9.298
X78.625 Y-10.048
X78.413 Y-10.767
X78.061 Y-11.429
X77.928 Y-11.584
X77.731 Y-11.764
X77.497 Y-11.892
X77.239 Y-11.959
X76.972 Y-11.962
X76.712 Y-11.901
X76.246 Y-11.729
G2 X76.089 Y-11.32 I0.113 J0.278
G1 X76.218 Y-11.055
X77.32 Y-8.79 F1200
X77.475 Y-8.472 F100
G2 X77.839 Y-8.319 I0.27 J-0.131
G1 X78.341 Y-8.502
X78.514 Y-8.572
X78.798 Y-8.818
X79.135 Y-9.488
X79.108 Y-10.237
X78.905 Y-10.959
X78.57 Y-11.63
X78.389 Y-11.817
X78.197 Y-11.975
X77.975 Y-12.085
X77.733 Y-12.143
X77.485 Y-12.146
X77.243 Y-12.092
X76.712 Y-11.901
G2 X76.558 Y-11.488 I0.113 J0.278
G1 X76.688 Y-11.229
X77.82 Y-8.979 F1200
X77.984 Y-8.654 F100
G2 X78.341 Y-8.502 I0.268 J-0.135
G1 X78.858 Y-8.682
X79.032 Y-8.752
X79.305 Y-9.009
X79.621 Y-9.689
X79.591 Y-10.439
X79.395 Y-11.163
X79.069 Y-11.838
X78.898 Y-12.009
X78.706 Y-12.161
X78.486 Y-12.268
X78.248 Y-12.323
X78.003 Y-12.324
X77.765 Y-12.271
X77.243 Y-12.092
G2 X77.081 Y-11.678 I0.107 J0.28
G1 X77.208 Y-11.423
X78.339 Y-9.16 F1200
X78.501 Y-8.835 F100
G2 X78.858 Y-8.682 I0.268 J-0.134
G1 X79.3 Y-8.834
X79.475 Y-8.901
X79.755 Y-9.151
X80.114 Y-9.81
X80.096 Y-10.559
X79.918 Y-11.288
X79.617 Y-11.975
X79.441 Y-12.162
X79.251 Y-12.322
X79.03 Y-12.436
X78.79 Y-12.497
X78.542 Y-12.502
X78.299 Y-12.452
X77.765 Y-12.271
G2 X77.6 Y-11.863 I0.107 J0.28
G1 X77.724 Y-11.599
X78.792 Y-9.321 F1200
X78.945 Y-8.994 F100
G2 X79.3 Y-8.834 I0.272 J-0.127
G1 X79.863 Y-9.018
X80.038 Y-9.086
X80.303 Y-9.35
X80.603 Y-10.038
X80.581 Y-10.788
X80.403 Y-11.516
X80.095 Y-12.2
X79.939 Y-12.356
X79.75 Y-12.507
X79.533 Y-12.613
X79.298 Y-12.669
X79.056 Y-12.672
X78.82 Y-12.623
X78.299 Y-12.452
G2 X78.132 Y-12.041 I0.103 J0.282
G1 X78.255 Y-11.784
X79.351 Y-9.504 F1200
X79.509 Y-9.176 F100
G2 X79.863 Y-9.018 I0.27 J-0.13
G1 X80.226 Y-9.137
X80.576 Y-9.272
X80.819 Y-9.558
X81.092 Y-10.256
X81.07 Y-11.006
X80.89 Y-11.734
X80.581 Y-12.417
X80.442 Y-12.548
X80.209 Y-12.716
X79.941 Y-12.818
X79.656 Y-12.847
X79.372 Y-12.802
X78.82 Y-12.623
G2 X78.646 Y-12.225 I0.103 J0.282
G1 X78.762 Y-11.948
X79.731 Y-9.631 F1200
X79.866 Y-9.31 F100
G2 X80.226 Y-9.137 I0.277 J-0.116
G1 X80.574 Y-9.246
X80.725 Y-9.291
X80.902 Y-9.354
X81.183 Y-9.602
X81.385 Y-9.919
X81.588 Y-10.641
X81.53 Y-11.388
X81.32 Y-12.108
X80.953 Y-12.763
X80.904 Y-12.799
X80.683 Y-12.926
X80.439 Y-12.999
X80.185 Y-13.014
X79.934 Y-12.969
X79.372 Y-12.802
G2 X79.19 Y-12.405 I0.096 J0.284
G1 X79.301 Y-12.13
X80.24 Y-9.797 F1200
X80.371 Y-9.47 F100
G2 X80.725 Y-9.291 I0.278 J-0.112
G1 X81.115 Y-9.408
X81.292 Y-9.47
X81.603 Y-9.68
X82.018 Y-10.305
X82.092 Y-11.051
X81.982 Y-11.793
X81.722 Y-12.496
X81.616 Y-12.656
X81.436 Y-12.866
X81.21 Y-13.024
X80.952 Y-13.12
X80.677 Y-13.149
X80.404 Y-13.109
X79.934 Y-12.969
G2 X79.745 Y-12.589 I0.096 J0.284
G1 X79.846 Y-12.292
X80.648 Y-9.92 F1200
X80.755 Y-9.602 F100
G2 X81.115 Y-9.408 I0.284 J-0.096
G1 X81.484 Y-9.518
X81.666 Y-9.568
X81.844 Y-9.627
X82.148 Y-9.847
X82.533 Y-10.491
X82.592 Y-11.238
X82.477 Y-11.979
X82.221 Y-12.684
X82.063 Y-12.881
X81.88 Y-13.06
X81.662 Y-13.192
X81.418 Y-13.27
X81.164 Y-13.29
X80.911 Y-13.25
X80.404 Y-13.109
G2 X80.213 Y-12.719 I0.09 J0.286
G1 X80.317 Y-12.438
X81.193 Y-10.084 F1200
X81.315 Y-9.755 F100
G2 X81.666 Y-9.568 I0.281 J-0.105
G1 X82.207 Y-9.718
X82.385 Y-9.777
X82.676 Y-10.014
X83.043 Y-10.668
X83.094 Y-11.416
X82.977 Y-12.157
X82.722 Y-12.862
X82.564 Y-13.048
X82.382 Y-13.219
X82.165 Y-13.344
X81.927 Y-13.417
X81.678 Y-13.434
X81.431 Y-13.395
X80.911 Y-13.25
G2 X80.722 Y-12.857 I0.09 J0.286
G1 X80.828 Y-12.581
X81.73 Y-10.232 F1200
X81.857 Y-9.902 F100
G2 X82.207 Y-9.718 I0.28 J-0.108
G1 X82.593 Y-9.824
X82.951 Y-9.936
X83.221 Y-10.196
X83.554 Y-10.868
X83.594 Y-11.617
X83.472 Y-12.357
X83.21 Y-13.06
X83.071 Y-13.212
X82.893 Y-13.371
X82.684 Y-13.487
X82.455 Y-13.555
X82.217 Y-13.573
X81.981 Y-13.538
X81.431 Y-13.395
G2 X81.237 Y-13.013 I0.09 J0.286
G1 X81.336 Y-12.721
X82.133 Y-10.349 F1200
X82.244 Y-10.021 F100
G2 X82.593 Y-9.824 I0.284 J-0.096
G1 X83.232 Y-9.989
X83.411 Y-10.045
X83.685 Y-10.302
X84.053 Y-10.955
X84.107 Y-11.703
X83.999 Y-12.445
X83.762 Y-13.157
X83.621 Y-13.322
X83.442 Y-13.491
X83.23 Y-13.615
X82.996 Y-13.689
X82.751 Y-13.709
X82.508 Y-13.675
X81.981 Y-13.538
G2 X81.785 Y-13.146 I0.085 J0.288
G1 X81.887 Y-12.871
X82.762 Y-10.511 F1200
X82.886 Y-10.178 F100
G2 X83.232 Y-9.989 I0.281 J-0.104
G1 X83.668 Y-10.102
X83.85 Y-10.15
X84.142 Y-10.385
X84.553 Y-11.012
X84.624 Y-11.759
X84.536 Y-12.503
X84.324 Y-13.223
X84.182 Y-13.405
X84.009 Y-13.582
X83.8 Y-13.716
X83.567 Y-13.8
X83.32 Y-13.83
X83.074 Y-13.803
X82.508 Y-13.675
G2 X82.309 Y-13.29 I0.085 J0.288
G1 X82.407 Y-13.004
X83.216 Y-10.641 F1200
X83.332 Y-10.3 F100
G2 X83.668 Y-10.102 I0.284 J-0.097
G1 X84.231 Y-10.222
X84.412 Y-10.27
X84.697 Y-10.514
X85.065 Y-11.168
X85.135 Y-11.915
X85.049 Y-12.66
X84.831 Y-13.377
X84.696 Y-13.544
X84.522 Y-13.714
X84.316 Y-13.841
X84.087 Y-13.921
X83.845 Y-13.948
X83.604 Y-13.922
X83.074 Y-13.803
G2 X82.866 Y-13.416 I0.076 J0.29
G1 X82.96 Y-13.14
X83.778 Y-10.761 F1200
X83.895 Y-10.42 F100
G2 X84.231 Y-10.222 I0.284 J-0.097
G1 X84.594 Y-10.299
X84.957 Y-10.396
X85.227 Y-10.656
X85.577 Y-11.319
X85.647 Y-12.065
X85.561 Y-12.811
X85.342 Y-13.528
X85.22 Y-13.673
X85.049 Y-13.835
X84.847 Y-13.958
X84.624 Y-14.034
X84.389 Y-14.062
X84.154 Y-14.038
X83.604 Y-13.922
G2 X83.391 Y-13.549 I0.076 J0.29
G1 X83.475 Y-13.254
X84.159 Y-10.844 F1200
X84.253 Y-10.513 F100
G2 X84.594 Y-10.299 I0.289 J-0.082
G1 X85.091 Y-10.403
X85.454 Y-10.498
X85.722 Y-10.76
X86.084 Y-11.417
X86.163 Y-12.163
X86.086 Y-12.909
X85.88 Y-13.63
X85.761 Y-13.774
X85.59 Y-13.941
X85.387 Y-14.066
X85.161 Y-14.145
X84.925 Y-14.173
X84.687 Y-14.15
X84.154 Y-14.038
G2 X83.936 Y-13.669 I0.072 J0.291
G1 X84.016 Y-13.371
X84.662 Y-10.951 F1200
X84.75 Y-10.622 F100
G2 X85.091 Y-10.403 I0.29 J-0.077
G1 X85.686 Y-10.527
X85.867 Y-10.574
X86.158 Y-10.811
X86.582 Y-11.43
X86.684 Y-12.173
X86.63 Y-12.921
X86.454 Y-13.65
X86.328 Y-13.824
X86.159 Y-14.008
X85.953 Y-14.149
X85.721 Y-14.241
X85.474 Y-14.277
X85.225 Y-14.257
X84.687 Y-14.15
G2 X84.471 Y-13.776 I0.072 J0.291
G1 X84.555 Y-13.485
X85.25 Y-11.073 F1200
X85.347 Y-10.74 F100
G2 X85.686 Y-10.527 I0.288 J-0.083
G1 X86.034 Y-10.596
X86.399 Y-10.683
X86.695 Y-10.914
X87.097 Y-11.546
X87.202 Y-12.289
X87.154 Y-13.037
X86.976 Y-13.766
X86.845 Y-13.941
X86.676 Y-14.12
X86.471 Y-14.258
X86.241 Y-14.346
X85.997 Y-14.381
X85.752 Y-14.361
X85.225 Y-14.257
G2 X85.001 Y-13.899 I0.068 J0.292
G1 X85.07 Y-13.59
X85.623 Y-11.154 F1200
X85.697 Y-10.826 F100
G2 X86.034 Y-10.596 I0.293 J-0.066
G1 X86.575 Y-10.697
X86.94 Y-10.784
X87.226 Y-11.027
X87.615 Y-11.668
X87.722 Y-12.41
X87.675 Y-13.159
X87.495 Y-13.887
X87.375 Y-14.044
X87.21 Y-14.216
X87.012 Y-14.349
X86.79 Y-14.437
X86.555 Y-14.474
X86.317 Y-14.46
X85.752 Y-14.361
G2 X85.528 Y-14.001 I0.068 J0.292
G1 X85.599 Y-13.694
X86.162 Y-11.255 F1200
X86.238 Y-10.926 F100
G2 X86.575 Y-10.697 I0.292 J-0.068
G1 X86.945 Y-10.766
X87.102 Y-10.791
X87.286 Y-10.829
X87.605 Y-11.027
X87.854 Y-11.307
X88.174 Y-11.985
X88.244 Y-12.732
X88.161 Y-13.478
X87.906 Y-14.183
X87.856 Y-14.235
X87.649 Y-14.403
X87.408 Y-14.516
X87.146 Y-14.568
X86.88 Y-14.555
X86.317 Y-14.46
G2 X86.085 Y-14.1 I0.061 J0.294
G1 X86.152 Y-13.799
X86.698 Y-11.359 F1200
X86.773 Y-11.023 F100
G2 X87.102 Y-10.791 I0.293 J-0.066
G1 X87.72 Y-10.888
X87.904 Y-10.927
X88.46 Y-11.43
X88.708 Y-12.137
X88.763 Y-12.885
X88.664 Y-13.629
X88.421 Y-14.338
X88.4 Y-14.358
X88.201 Y-14.507
X87.974 Y-14.608
X87.73 Y-14.655
X87.482 Y-14.646
X86.88 Y-14.555
G2 X86.649 Y-14.191 I0.061 J0.294
G1 X86.72 Y-13.896
X87.31 Y-11.455 F1200
X87.392 Y-11.116 F100
G2 X87.72 Y-10.888 I0.292 J-0.07
G1 X88.218 Y-10.965
X88.402 Y-11.001
X88.701 Y-11.227
X89.141 Y-11.835
X89.29 Y-12.57
X89.269 Y-13.32
X89.106 Y-14.052
X89.055 Y-14.146
X88.9 Y-14.365
X88.696 Y-14.54
X88.456 Y-14.661
X88.193 Y-14.719
X87.925 Y-14.712
X87.482 Y-14.646
G2 X87.243 Y-14.29 I0.055 J0.295
G1 X87.306 Y-13.989
X87.821 Y-11.537 F1200
X87.892 Y-11.201 F100
G2 X88.218 Y-10.965 I0.294 J-0.062
G1 X88.599 Y-11.02
X88.967 Y-11.093
X89.261 Y-11.326
X89.672 Y-11.953
X89.812 Y-12.69
X89.787 Y-13.439
X89.623 Y-14.171
X89.513 Y-14.331
X89.351 Y-14.517
X89.151 Y-14.663
X88.923 Y-14.76
X88.68 Y-14.804
X88.433 Y-14.793
X87.925 Y-14.712
G2 X87.684 Y-14.362 I0.055 J0.295
G1 X87.743 Y-14.054
X88.209 Y-11.594 F1200
X88.272 Y-11.262 F100
G2 X88.599 Y-11.02 I0.295 J-0.056
G1 X89.129 Y-11.097
X89.493 Y-11.184
X89.785 Y-11.42
X90.195 Y-12.048
X90.333 Y-12.785
X90.31 Y-13.535
X90.151 Y-14.268
X90.032 Y-14.433
X89.869 Y-14.614
X89.671 Y-14.754
X89.447 Y-14.848
X89.207 Y-14.89
X88.964 Y-14.878
X88.433 Y-14.793
G2 X88.196 Y-14.441 I0.058 J0.294
G1 X88.257 Y-14.132
X88.736 Y-11.671 F1200
X88.801 Y-11.338 F100
G2 X89.129 Y-11.097 I0.294 J-0.057
G1 X89.778 Y-11.218
X89.96 Y-11.262
X90.263 Y-11.483
X90.705 Y-12.088
X90.853 Y-12.824
X90.843 Y-13.573
X90.702 Y-14.31
X90.571 Y-14.504
X90.402 Y-14.7
X90.193 Y-14.851
X89.954 Y-14.949
X89.699 Y-14.988
X89.441 Y-14.967
X89.129 Y-14.904
X88.964 Y-14.878
G2 X88.73 Y-14.516 I0.058 J0.294
G1 X88.799 Y-14.22
X89.365 Y-11.776 F1200
X89.441 Y-11.447 F100
G2 X89.778 Y-11.218 I0.292 J-0.068
G1 X90.221 Y-11.301
X90.584 Y-11.392
X90.869 Y-11.636
X91.255 Y-12.279
X91.383 Y-13.018
X91.357 Y-13.767
X91.179 Y-14.496
X91.055 Y-14.66
X90.885 Y-14.838
X90.68 Y-14.973
X90.45 Y-15.06
X90.206 Y-15.094
X89.962 Y-15.072
X89.441 Y-14.967
G2 X89.218 Y-14.612 I0.07 J0.292
G1 X89.285 Y-14.299
X89.812 Y-11.86 F1200
X89.883 Y-11.534 F100
G2 X90.221 Y-11.301 I0.293 J-0.063
G1 X90.87 Y-11.429
X91.052 Y-11.474
X91.344 Y-11.709
X91.766 Y-12.329
X91.905 Y-13.066
X91.886 Y-13.816
X91.729 Y-14.549
X91.6 Y-14.732
X91.432 Y-14.919
X91.227 Y-15.063
X90.995 Y-15.157
X90.747 Y-15.195
X90.497 Y-15.177
X89.962 Y-15.072
G2 X89.741 Y-14.705 I0.07 J0.292
G1 X89.818 Y-14.407
X90.446 Y-11.981 F1200
X90.532 Y-11.65 F100
G2 X90.87 Y-11.429 I0.29 J-0.075
G1 X91.313 Y-11.516
X91.495 Y-11.559
X91.809 Y-11.765
X92.273 Y-12.354
X92.425 Y-13.088
X92.42 Y-13.838
X92.286 Y-14.576
X92.147 Y-14.791
X91.981 Y-14.992
X91.773 Y-15.148
X91.533 Y-15.25
X91.277 Y-15.294
X91.017 Y-15.276
X90.497 Y-15.177
G2 X90.271 Y-14.817 I0.066 J0.293
G1 X90.341 Y-14.512
X90.9 Y-12.074 F1200
X90.976 Y-11.745 F100
G2 X91.313 Y-11.516 I0.292 J-0.067
G1 X91.875 Y-11.62
X92.058 Y-11.664
X92.371 Y-11.871
X92.805 Y-12.482
X92.952 Y-13.217
X92.943 Y-13.967
X92.794 Y-14.702
X92.657 Y-14.906
X92.492 Y-15.098
X92.288 Y-15.247
X92.056 Y-15.346
X91.807 Y-15.389
X91.555 Y-15.374
X91.017 Y-15.276
G2 X90.792 Y-14.912 I0.066 J0.293
G1 X90.865 Y-14.612
X91.459 Y-12.178 F1200
X91.539 Y-11.846 F100
G2 X91.875 Y-11.62 I0.291 J-0.071
G1 X92.405 Y-11.719
X92.588 Y-11.759
X92.896 Y-11.972
X93.33 Y-12.584
X93.477 Y-13.32
X93.466 Y-14.069
X93.316 Y-14.804
X93.182 Y-15.002
X93.017 Y-15.193
X92.814 Y-15.341
X92.582 Y-15.439
X92.333 Y-15.482
X92.082 Y-15.467
X91.555 Y-15.374
G2 X91.325 Y-15.009 I0.062 J0.293
G1 X91.398 Y-14.713
X91.992 Y-12.283 F1200
X92.075 Y-11.945 F100
G2 X92.405 Y-11.719 I0.291 J-0.071
G1 X92.967 Y-11.812
X93.151 Y-11.852
X93.448 Y-12.081
X93.861 Y-12.707
X94.003 Y-13.443
X93.986 Y-14.193
X93.829 Y-14.926
X93.702 Y-15.107
X93.54 Y-15.29
X93.342 Y-15.432
X93.117 Y-15.527
X92.877 Y-15.57
X92.633 Y-15.559
X92.227 Y-15.492
X92.082 Y-15.467
G2 X91.854 Y-15.099 I0.062 J0.293
G1 X91.928 Y-14.807
X92.551 Y-12.375 F1200
X92.638 Y-12.035 F100
G2 X92.967 Y-11.812 I0.291 J-0.074
G1 X93.331 Y-11.872
X93.697 Y-11.952
X93.986 Y-12.191
X94.39 Y-12.823
X94.527 Y-13.56
X94.506 Y-14.31
X94.346 Y-15.043
X94.228 Y-15.205
X94.066 Y-15.382
X93.869 Y-15.521
X93.647 Y-15.613
X93.41 Y-15.654
X93.169 Y-15.643
X92.633 Y-15.559
G2 X92.395 Y-15.207 I0.057 J0.295
G1 X92.455 Y-14.9
X92.934 Y-12.439 F1200
X92.997 Y-12.112 F100
G2 X93.331 Y-11.872 I0.294 J-0.057
G1 X93.855 Y-11.955
X94.223 Y-12.03
X94.507 Y-12.274
X94.911 Y-12.907
X95.05 Y-13.644
X95.032 Y-14.393
X94.879 Y-15.128
X94.765 Y-15.284
X94.605 Y-15.461
X94.41 Y-15.6
X94.189 Y-15.692
X93.954 Y-15.736
X93.715 Y-15.727
X93.169 Y-15.643
G2 X92.931 Y-15.292 I0.057 J0.295
G1 X92.99 Y-14.983
X93.462 Y-12.526 F1200
X93.526 Y-12.196 F100
G2 X93.855 Y-11.955 I0.295 J-0.057
G1 X94.412 Y-12.04
X94.595 Y-12.078
X94.911 Y-12.28
X95.404 Y-12.846
X95.569 Y-13.577
X95.58 Y-14.327
X95.464 Y-15.068
X95.341 Y-15.276
X95.184 Y-15.482
X94.982 Y-15.645
X94.748 Y-15.757
X94.494 Y-15.81
X94.235 Y-15.803
X93.715 Y-15.727
G2 X93.474 Y-15.374 I0.054 J0.295
G1 X93.534 Y-15.069
X94.017 Y-12.611 F1200
X94.082 Y-12.281 F100
G2 X94.412 Y-12.04 I0.294 J-0.058
G1 X94.922 Y-12.113
X95.291 Y-12.182
X95.577 Y-12.424
X95.969 Y-13.063
X96.108 Y-13.8
X96.098 Y-14.55
X95.927 Y-15.28
X95.822 Y-15.428
X95.664 Y-15.606
X95.472 Y-15.745
X95.254 Y-15.84
X95.021 Y-15.886
X94.783 Y-15.881
X94.235 Y-15.803
G2 X93.995 Y-15.451 I0.054 J0.295
G1 X94.054 Y-15.146
X94.532 Y-12.69 F1200
X94.598 Y-12.354 F100
G2 X94.922 Y-12.113 I0.294 J-0.057
G1 X95.515 Y-12.193
X95.699 Y-12.228
X96.003 Y-12.447
X96.466 Y-13.037
X96.629 Y-13.769
X96.638 Y-14.519
X96.505 Y-15.257
X96.389 Y-15.442
X96.233 Y-15.639
X96.036 Y-15.794
X95.809 Y-15.901
X95.564 Y-15.954
X95.313 Y-15.95
X94.783 Y-15.881
G2 X94.539 Y-15.523 I0.049 J0.296
G1 X94.601 Y-15.228
X95.12 Y-12.769 F1200
X95.191 Y-12.43 F100
G2 X95.515 Y-12.193 I0.294 J-0.062
G1 X95.862 Y-12.239
X96.232 Y-12.305
X96.543 Y-12.514
X96.991 Y-13.116
X97.156 Y-13.847
X97.164 Y-14.597
X97.034 Y-15.336
X96.914 Y-15.523
X96.759 Y-15.713
X96.566 Y-15.864
X96.344 Y-15.968
X96.104 Y-16.021
X95.859 Y-16.019
X95.313 Y-15.95
G2 X95.066 Y-15.609 I0.049 J0.296
G1 X95.114 Y-15.294
X95.489 Y-12.821 F1200
X95.538 Y-12.493 F100
G2 X95.862 Y-12.239 I0.297 J-0.045
G1 X96.404 Y-12.308
X96.773 Y-12.374
X97.078 Y-12.591
X97.518 Y-13.199
X97.683 Y-13.931
X97.69 Y-14.681
X97.561 Y-15.42
X97.446 Y-15.595
X97.291 Y-15.782
X97.098 Y-15.931
X96.878 Y-16.034
X96.64 Y-16.085
X96.396 Y-16.083
X95.859 Y-16.019
G2 X95.608 Y-15.678 I0.046 J0.296
G1 X95.656 Y-15.366
X96.03 Y-12.89 F1200
X96.079 Y-12.562 F100
G2 X96.404 Y-12.308 I0.297 J-0.045
G1 X96.954 Y-12.375
X97.325 Y-12.435
X97.621 Y-12.666
X98.046 Y-13.283
X98.21 Y-14.015
X98.217 Y-14.765
X98.088 Y-15.504
X97.978 Y-15.668
X97.824 Y-15.851
X97.633 Y-15.996
X97.416 Y-16.096
X97.182 Y-16.148
X96.943 Y-16.147
X96.396 Y-16.083
G2 X96.146 Y-15.74 I0.046 J0.296
G1 X96.195 Y-15.431
X96.583 Y-12.962 F1200
X96.635 Y-12.628 F100
G2 X96.954 Y-12.375 I0.296 J-0.047
G1 X97.496 Y-12.436
X97.681 Y-12.466
X98.008 Y-12.649
X98.532 Y-13.185
X98.725 Y-13.91
X98.765 Y-14.659
X98.677 Y-15.404
X98.558 Y-15.628
X98.408 Y-15.843
X98.212 Y-16.017
X97.98 Y-16.139
X97.726 Y-16.203
X97.464 Y-16.205
X96.943 Y-16.147
G2 X96.69 Y-15.804 I0.044 J0.297
G1 X96.738 Y-15.496
X97.124 Y-13.022 F1200
X97.176 Y-12.689 F100
G2 X97.496 Y-12.436 I0.296 J-0.046
G1 X98.047 Y-12.497
X98.417 Y-12.557
X98.709 Y-12.792
X99.117 Y-13.421
X99.278 Y-14.154
X99.289 Y-14.904
X99.132 Y-15.637
X99.034 Y-15.784
X98.88 Y-15.967
X98.69 Y-16.112
X98.473 Y-16.213
X98.239 Y-16.265
X98
X97.464 Y-16.205
G2 X97.212 Y-15.86 I0.044 J0.297
G1 X97.263 Y-15.555
X97.672 Y-13.083 F1200
X97.728 Y-12.747 F100
G2 X98.047 Y-12.497 I0.296 J-0.049
G1 X98.588 Y-12.558
X98.773 Y-12.588
X99.094 Y-12.781
X99.604 Y-13.331
X99.795 Y-14.056
X99.835 Y-14.805
X99.726 Y-15.547
X99.609 Y-15.76
X99.459 Y-15.97
X99.263 Y-16.139
X99.034 Y-16.258
X98.784 Y-16.32
X98.525 Y-16.323
X98 Y-16.265
G2 X97.747 Y-15.918 I0.043 J0.297
G1 X97.798 Y-15.615
X98.212 Y-13.144 F1200
X98.269 Y-12.807 F100
G2 X98.588 Y-12.558 I0.296 J-0.05
G1 X99.139 Y-12.618
X99.324 Y-12.646
X99.652 Y-12.827
X100.134 Y-13.402
X100.326 Y-14.127
X100.361 Y-14.876
X100.254 Y-15.618
X100.13 Y-15.834
X99.98 Y-16.036
X99.789 Y-16.2
X99.565 Y-16.315
X99.321 Y-16.377
X99.069 Y-16.381
X98.525 Y-16.323
G2 X98.273 Y-15.973 I0.043 J0.297
G1 X98.326 Y-15.673
X98.763 Y-13.206 F1200
X98.823 Y-12.865 F100
G2 X99.139 Y-12.618 I0.295 J-0.052
G1 X99.68 Y-12.673
X99.865 Y-12.701
X100.189 Y-12.89
X100.664 Y-13.471
X100.856 Y-14.196
X100.888 Y-14.945
X100.782 Y-15.687
X100.662 Y-15.893
X100.512 Y-16.094
X100.321 Y-16.255
X100.098 Y-16.369
X99.855 Y-16.429
X99.605 Y-16.433
X99.069 Y-16.381
G2 X98.813 Y-16.031 I0.04 J0.297
G1 X98.866 Y-15.735
X99.304 Y-13.261 F1200
X99.364 Y-12.92 F100
G2 X99.68 Y-12.673 I0.295 J-0.052
G1 X100.231 Y-12.727
X100.416 Y-12.753
X100.733 Y-12.954
X101.196 Y-13.544
X101.385 Y-14.27
X101.416 Y-15.019
X101.309 Y-15.762
X101.192 Y-15.956
X101.043 Y-16.151
X100.854 Y-16.308
X100.636 Y-16.42
X100.398 Y-16.48
X100.152 Y-16.486
X99.605 Y-16.433
G2 X99.349 Y-16.082 I0.04 J0.297
G1 X99.403 Y-15.787
X99.855 Y-13.318 F1200
X99.919 Y-12.972 F100
G2 X100.231 Y-12.727 I0.295 J-0.054
G1 X100.612 Y-12.761
X100.983 Y-12.814
X101.289 Y-13.031
X101.733 Y-13.635
X101.917 Y-14.362
X101.943 Y-15.112
X101.828 Y-15.853
X101.72 Y-16.024
X101.57 Y-16.213
X101.383 Y-16.364
X101.167 Y-16.471
X100.934 Y-16.528
X100.693 Y-16.534
X100.152 Y-16.486
G2 X99.891 Y-16.15 I0.037 J0.298
G1 X99.932 Y-15.84
X100.254 Y-13.356 F1200
X100.297 Y-13.022 F100
G2 X100.612 Y-12.761 I0.298 J-0.039
G1 X101.141 Y-12.81
X101.513 Y-12.859
X101.814 Y-13.082
X102.258 Y-13.686
X102.443 Y-14.413
X102.472 Y-15.162
X102.365 Y-15.905
X102.261 Y-16.07
X102.113 Y-16.257
X101.928 Y-16.408
X101.714 Y-16.515
X101.483 Y-16.574
X101.245 Y-16.581
X100.693 Y-16.534
G2 X100.432 Y-16.198 I0.037 J0.298
G1 X100.472 Y-15.887
X100.787 Y-13.407 F1200
X100.829 Y-13.071 F100
G2 X101.141 Y-12.81 I0.298 J-0.038
G1 X101.79 Y-12.862
X101.976 Y-12.887
X102.288 Y-13.096
X102.765 Y-13.674
X102.964 Y-14.397
X103.008 Y-15.146
X102.923 Y-15.891
X102.819 Y-16.072
X102.673 Y-16.272
X102.485 Y-16.434
X102.266 Y-16.55
X102.027 Y-16.614
X101.779 Y-16.623
X101.245 Y-16.581
G2 X100.982 Y-16.236 I0.034 J0.298
G1 X101.029 Y-15.939
X101.425 Y-13.458 F1200
X101.48 Y-13.115 F100
G2 X101.79 Y-12.862 I0.296 J-0.047
G1 X102.233 Y-12.898
X102.419 Y-12.919
X102.75 Y-13.097
X103.268 Y-13.639
X103.483 Y-14.357
X103.545 Y-15.105
X103.483 Y-15.852
X103.372 Y-16.068
X103.231 Y-16.279
X103.045 Y-16.452
X102.825 Y-16.577
X102.582 Y-16.649
X102.328 Y-16.663
X101.779 Y-16.623
G2 X101.515 Y-16.285 I0.034 J0.298
G1 X101.556 Y-15.979
X101.882 Y-13.501 F1200
X101.927 Y-13.159 F100
G2 X102.233 Y-12.898 I0.297 J-0.039
G1 X102.796 Y-12.934
X102.982 Y-12.955
X103.312 Y-13.134
X103.803 Y-13.7
X104.017 Y-14.419
X104.08 Y-15.166
X104.007 Y-15.913
X103.897 Y-16.118
X103.755 Y-16.323
X103.57 Y-16.491
X103.352 Y-16.612
X103.112 Y-16.682
X102.863 Y-16.695
X102.328 Y-16.663
G2 X102.059 Y-16.324 I0.028 J0.299
G1 X102.101 Y-16.025
X102.443 Y-13.536 F1200
X102.49 Y-13.193 F100
G2 X102.796 Y-12.934 I0.297 J-0.041
G1 X103.325 Y-12.967
X103.512 Y-12.986
X103.838 Y-13.171
X104.33 Y-13.737
X104.548 Y-14.455
X104.612 Y-15.202
X104.542 Y-15.949
X104.433 Y-16.15
X104.292 Y-16.354
X104.109 Y-16.52
X103.893 Y-16.642
X103.655 Y-16.712
X103.408 Y-16.727
X102.863 Y-16.695
G2 X102.594 Y-16.356 I0.028 J0.299
G1 X102.635 Y-16.057
X102.975 Y-13.572 F1200
X103.022 Y-13.226 F100
G2 X103.325 Y-12.967 I0.297 J-0.041
G1 X103.888 Y-12.997
X104.074 Y-13.016
X104.392 Y-13.215
X104.866 Y-13.796
X105.082 Y-14.514
X105.144 Y-15.262
X105.068 Y-16.008
X104.964 Y-16.194
X104.822 Y-16.392
X104.639 Y-16.554
X104.425 Y-16.672
X104.191 Y-16.74
X103.947 Y-16.755
X103.408 Y-16.727
G2 X103.137 Y-16.386 I0.026 J0.299
G1 X103.179 Y-16.091
X103.536 Y-13.602 F1200
X103.585 Y-13.254 F100
G2 X103.888 Y-12.997 I0.297 J-0.043
G1 X104.251 Y-13.016
X104.624 Y-13.054
X104.935 Y-13.263
X105.402 Y-13.85
X105.615 Y-14.569
X105.675 Y-15.317
X105.596 Y-16.063
X105.497 Y-16.234
X105.355 Y-16.427
X105.175 Y-16.585
X104.965 Y-16.7
X104.736 Y-16.767
X104.497 Y-16.782
X103.947 Y-16.755
G2 X103.674 Y-16.43 I0.026 J0.299
G1 X103.701 Y-16.117
X103.918 Y-13.623 F1200
X103.947 Y-13.29 F100
G2 X104.251 Y-13.016 I0.299 J-0.026
G1 X104.978 Y-13.05
X105.164 Y-13.067
X105.469 Y-13.287
X105.93 Y-13.878
X106.145 Y-14.597
X106.207 Y-15.344
X106.134 Y-16.091
X106.039 Y-16.256
X105.898 Y-16.449
X105.718 Y-16.607
X105.508 Y-16.723
X105.277 Y-16.79
X105.038 Y-16.806
X104.497 Y-16.782
G2 X104.223 Y-16.44 I0.023 J0.299
G1 X104.266 Y-16.149
X104.627 Y-13.657 F1200
X104.678 Y-13.307 F100
G2 X104.978 Y-13.05 I0.297 J-0.043
G1 X105.342 Y-13.066
X105.529 Y-13.084
X105.864 Y-13.252
X106.412 Y-13.764
X106.654 Y-14.474
X106.745 Y-15.218
X106.71 Y-15.967
X106.61 Y-16.186
X106.476 Y-16.407
X106.294 Y-16.591
X106.074 Y-16.727
X105.828 Y-16.807
X105.571 Y-16.829
X105.038 Y-16.806
G2 X104.763 Y-16.48 I0.023 J0.299
G1 X104.79 Y-16.171
X105.011 Y-13.676 F1200
X105.041 Y-13.34 F100
G2 X105.342 Y-13.066 I0.299 J-0.026
G1 X105.866 Y-13.086
X106.24 Y-13.119
X106.548 Y-13.333
X107.001 Y-13.93
X107.216 Y-14.649
X107.284 Y-15.396
X107.189 Y-16.139
X107.102 Y-16.292
X106.962 Y-16.486
X106.784 Y-16.645
X106.575 Y-16.761
X106.346 Y-16.83
X106.107 Y-16.848
X105.571 Y-16.829
G2 X105.293 Y-16.503 I0.021 J0.299
G1 X105.32 Y-16.195
X105.538 Y-13.699 F1200
X105.567 Y-13.36 F100
G2 X105.866 Y-13.086 I0.299 J-0.026
G1 X106.423 Y-13.107
X106.61 Y-13.123
X106.942 Y-13.297
X107.484 Y-13.815
X107.726 Y-14.525
X107.821 Y-15.269
X107.77 Y-16.017
X107.672 Y-16.23
X107.538 Y-16.447
X107.359 Y-16.627
X107.142 Y-16.762
X106.901 Y-16.843
X106.647 Y-16.866
X106.107 Y-16.848
G2 X105.83 Y-16.52 I0.021 J0.299
G1 X105.858 Y-16.214
X106.092 Y-13.719 F1200
X106.124 Y-13.379 F100
G2 X106.423 Y-13.107 I0.299 J-0.028
G1 X106.934 Y-13.122
X107.121 Y-13.136
X107.465 Y-13.286
X108.003 Y-13.808
X108.254 Y-14.515
X108.352 Y-15.259
X108.314 Y-16.008
X108.208 Y-16.238
X108.075 Y-16.456
X107.896 Y-16.638
X107.679 Y-16.774
X107.436 Y-16.855
X107.182 Y-16.879
X106.647 Y-16.866
G2 X106.366 Y-16.541 I0.018 J0.299
G1 X106.393 Y-16.236
X106.609 Y-13.737 F1200
X106.638 Y-13.396 F100
G2 X106.934 Y-13.122 I0.299 J-0.026
G1 X107.527 Y-13.136
X107.714 Y-13.151
X108.048 Y-13.321
X108.553 Y-13.875
X108.796 Y-14.585
X108.886 Y-15.329
X108.831 Y-16.077
X108.728 Y-16.283
X108.594 Y-16.49
X108.417 Y-16.662
X108.206 Y-16.79
X107.971 Y-16.868
X107.726 Y-16.892
X107.182 Y-16.879
G2 X106.901 Y-16.548 I0.018 J0.299
G1 X106.932 Y-16.249
X107.195 Y-13.752 F1200
X107.232 Y-13.405 F100
G2 X107.527 Y-13.136 I0.298 J-0.031
G1 X108.026 Y-13.146
X108.213 Y-13.159
X108.548 Y-13.328
X109.072 Y-13.865
X109.322 Y-14.572
X109.417 Y-15.316
X109.376 Y-16.065
X109.275 Y-16.276
X109.141 Y-16.488
X108.964 Y-16.664
X108.751 Y-16.796
X108.514 Y-16.876
X108.265 Y-16.901
X107.726 Y-16.892
G2 X107.442 Y-16.565 I0.015 J0.3
G1 X107.47 Y-16.264
X107.701 Y-13.764 F1200
X107.733 Y-13.419 F100
G2 X108.026 Y-13.146 I0.299 J-0.028
G1 X108.416 Y-13.153
X108.79 Y-13.178
X109.118 Y-13.359
X109.618 Y-13.919
X109.861 Y-14.628
X109.95 Y-15.373
X109.898 Y-16.121
X109.8 Y-16.311
X109.666 Y-16.514
X109.491 Y-16.682
X109.284 Y-16.807
X109.054 Y-16.885
X108.812 Y-16.909
X108.265 Y-16.901
G2 X107.98 Y-16.588 I0.015 J0.3
G1 X107.994 Y-16.272
X108.107 Y-13.772 F1200
X108.122 Y-13.439 F100
G2 X108.416 Y-13.153 I0.3 J-0.013
G1 X108.967 Y-13.16
X109.341 Y-13.182
X109.661 Y-13.378
X110.152 Y-13.945
X110.394 Y-14.655
X110.481 Y-15.4
X110.431 Y-16.148
X110.338 Y-16.325
X110.204 Y-16.524
X110.029 Y-16.69
X109.823 Y-16.814
X109.594 Y-16.889
X109.355 Y-16.914
X108.812 Y-16.909
G2 X108.525 Y-16.595 I0.013 J0.3
G1 X108.54 Y-16.283
X108.659 Y-13.782 F1200
X108.675 Y-13.446 F100
G2 X108.967 Y-13.16 I0.3 J-0.014
G1 X109.508 Y-13.165
X109.882 Y-13.187
X110.197 Y-13.39
X110.683 Y-13.961
X110.925 Y-14.671
X111.014 Y-15.416
X110.967 Y-16.165
X110.878 Y-16.333
X110.744 Y-16.53
X110.571 Y-16.694
X110.367 Y-16.817
X110.141 Y-16.893
X109.904 Y-16.918
X109.355 Y-16.914
G2 X109.068 Y-16.6 I0.013 J0.3
G1 X109.083 Y-16.287
X109.201 Y-13.787 F1200
X109.216 Y-13.451 F100
G2 X109.508 Y-13.165 I0.3 J-0.014
G1 X110.059 Y-13.168
X110.246 Y-13.178
X110.588 Y-13.333
X111.158 Y-13.819
X111.428 Y-14.519
X111.547 Y-15.26
X111.54 Y-16.01
X111.449 Y-16.234
X111.323 Y-16.462
X111.147 Y-16.653
X110.931 Y-16.798
X110.687 Y-16.889
X110.428 Y-16.919
X109.904 Y-16.918
G2 X109.615 Y-16.604 I0.011 J0.3
G1 X109.63 Y-16.293
X109.753 Y-13.792 F1200
X109.769 Y-13.453 F100
G2 X110.059 Y-13.168 I0.3 J-0.015
G1 X110.6 Y-13.169
X110.787 Y-13.179
X111.137 Y-13.314
X111.688 Y-13.822
X111.961 Y-14.521
X112.083 Y-15.261
X112.073 Y-16.011
X111.974 Y-16.247
X111.847 Y-16.471
X111.671 Y-16.659
X111.456 Y-16.802
X111.214 Y-16.89
X110.958 Y-16.92
X110.428 Y-16.919
G2 X110.14 Y-16.603 I0.011 J0.3
G1 X110.156 Y-16.294
X110.292 Y-13.793 F1200
X110.31 Y-13.453 F100
G2 X110.6 Y-13.169 I0.3 J-0.016
G1 X111.151
X111.338 Y-13.179
X111.685 Y-13.322
X112.226 Y-13.841
X112.498 Y-14.54
X112.618 Y-15.28
X112.601 Y-16.03
X112.502 Y-16.258
X112.374 Y-16.478
X112.2 Y-16.662
X111.987 Y-16.802
X111.748 Y-16.889
X111.495 Y-16.919
X110.958 Y-16.92
G2 X110.67 Y-16.602 I0.011 J0.3
G1 X110.688 Y-16.295
X110.841 Y-13.794 F1200
X110.862 Y-13.451 F100
G2 X111.151 Y-13.169 I0.299 J-0.018
G1 X111.692
X111.879 Y-13.178
X112.223 Y-13.328
X112.76 Y-13.851
X113.032 Y-14.55
X113.152 Y-15.291
X113.133 Y-16.04
X113.034 Y-16.263
X112.906 Y-16.481
X112.731 Y-16.664
X112.52 Y-16.802
X112.282 Y-16.888
X112.03 Y-16.918
X111.495 Y-16.919
G2 X111.206 Y-16.6 I0.01 J0.3
G1 X111.225 Y-16.296
X111.382 Y-13.793 F1200
X111.404 Y-13.45 F100
G2 X111.692 Y-13.169 I0.299 J-0.019
G1 X112.243 Y-13.167
X112.43 Y-13.176
X112.769 Y-13.336
X113.298 Y-13.868
X113.568 Y-14.568
X113.685 Y-15.308
X113.663 Y-16.058
X113.566 Y-16.271
X113.437 Y-16.486
X113.263 Y-16.666
X113.053 Y-16.802
X112.817 Y-16.886
X112.569 Y-16.916
X112.03 Y-16.918
G2 X111.741 Y-16.598 I0.01 J0.3
G1 X111.762 Y-16.295
X111.932 Y-13.792 F1200
X111.955 Y-13.447 F100
G2 X112.243 Y-13.167 I0.299 J-0.02
G1 X112.624 Y-13.166
X112.999 Y-13.183
X113.331 Y-13.357
X113.844 Y-13.903
X114.108 Y-14.606
X114.219 Y-15.347
X114.187 Y-16.097
X114.093 Y-16.292
X113.963 Y-16.499
X113.789 Y-16.673
X113.582 Y-16.804
X113.351 Y-16.885
X113.107 Y-16.914
X112.569 Y-16.916
G2 X112.278 Y-16.611 I0.009 J0.3
G1 X112.284 Y-16.293
X112.33 Y-13.791 F1200
X112.336 Y-13.46 F100
G2 X112.624 Y-13.166 I0.3 J-0.005
G1 X113.335 Y-13.163
X113.522 Y-13.172
X113.852 Y-13.351
X114.37 Y-13.893
X114.637 Y-14.594
X114.75 Y-15.335
X114.727 Y-16.085
X114.635 Y-16.282
X114.505 Y-16.492
X114.331 Y-16.668
X114.122 Y-16.801
X113.889 Y-16.883
X113.643 Y-16.912
X113.107 Y-16.914
G2 X112.817 Y-16.592 I0.009 J0.3
G1 X112.839 Y-16.291
X113.022 Y-13.787 F1200
X113.047 Y-13.441 F100
G2 X113.335 Y-13.163 I0.299 J-0.022
G1 X113.716 Y-13.162
X114.091 Y-13.179
X114.414 Y-13.369
X114.916 Y-13.926
X115.176 Y-14.63
X115.285 Y-15.372
X115.253 Y-16.121
X115.162 Y-16.302
X115.031 Y-16.506
X114.858 Y-16.675
X114.652 Y-16.803
X114.423 Y-16.883
X114.182 Y-16.91
X113.643 Y-16.912
G2 X113.353 Y-16.605 I0.01 J0.3
G1 X113.36 Y-16.289
X113.42 Y-13.787 F1200
X113.427 Y-13.454 F100
G2 X113.716 Y-13.162 I0.3 J-0.007
G1 X114.245 Y-13.16
X114.62 Y-13.179
X114.942 Y-13.371
X115.446 Y-13.926
X115.707 Y-14.629
X115.817 Y-15.371
X115.79 Y-16.121
X115.701 Y-16.3
X115.569 Y-16.504
X115.396 Y-16.675
X115.189 Y-16.803
X114.959 Y-16.883
X114.717 Y-16.91
X114.182
G2 X113.891 Y-16.604 I0.01 J0.3
G1 X113.898 Y-16.287
X113.95 Y-13.785 F1200
X113.957 Y-13.454 F100
G2 X114.245 Y-13.16 I0.3 J-0.006
G1 X114.894
X115.082 Y-13.169
X115.414 Y-13.342
X115.951 Y-13.866
X116.225 Y-14.564
X116.348 Y-15.304
X116.342 Y-16.054
X116.252 Y-16.257
X116.123 Y-16.474
X115.948 Y-16.657
X115.737 Y-16.794
X115.499 Y-16.88
X115.248 Y-16.909
X114.717 Y-16.91
G2 X114.428 Y-16.593 I0.01 J0.3
G1 X114.445 Y-16.286
X114.586 Y-13.784 F1200
X114.606 Y-13.442 F100
G2 X114.894 Y-13.16 I0.3 J-0.017
G1 X115.337 Y-13.159
X115.712 Y-13.18
X116.031 Y-13.377
X116.521 Y-13.945
X116.779 Y-14.649
X116.889 Y-15.391
X116.849 Y-16.14
X116.761 Y-16.311
X116.628 Y-16.514
X116.454 Y-16.682
X116.247 Y-16.808
X116.018 Y-16.885
X115.777 Y-16.911
X115.248 Y-16.909
G2 X114.958 Y-16.601 I0.01 J0.3
G1 X114.967 Y-16.285
X115.039 Y-13.784 F1200
X115.048 Y-13.45 F100
G2 X115.337 Y-13.159 I0.3 J-0.009
G1 X115.987 Y-13.162
X116.174 Y-13.172
X116.501 Y-13.354
X117.027 Y-13.889
X117.298 Y-14.589
X117.418 Y-15.329
X117.402 Y-16.079
X117.312 Y-16.274
X117.182 Y-16.488
X117.006 Y-16.668
X116.795 Y-16.802
X116.558 Y-16.886
X116.309 Y-16.913
X115.777 Y-16.911
G2 X115.49 Y-16.592 I0.012 J0.3
G1 X115.51 Y-16.286
X115.674 Y-13.784 F1200
X115.696 Y-13.442 F100
G2 X115.987 Y-13.162 I0.299 J-0.02
G1 X116.429 Y-13.164
X116.617 Y-13.174
X116.962 Y-13.32
X117.527 Y-13.813
X117.813 Y-14.507
X117.948 Y-15.244
X117.955 Y-15.994
X117.86 Y-16.229
X117.734 Y-16.457
X117.557 Y-16.649
X117.341 Y-16.795
X117.096 Y-16.885
X116.837 Y-16.915
X116.309 Y-16.913
G2 X116.021 Y-16.602 I0.012 J0.3
G1 X116.032 Y-16.288
X116.127 Y-13.787 F1200
X116.139 Y-13.452 F100
G2 X116.429 Y-13.164 I0.3 J-0.011
G1 X116.992 Y-13.166
X117.179 Y-13.175
X117.526 Y-13.317
X118.071 Y-13.834
X118.353 Y-14.528
X118.485 Y-15.267
X118.48 Y-16.017
X118.381 Y-16.248
X118.253 Y-16.471
X118.077 Y-16.658
X117.863 Y-16.8
X117.621 Y-16.887
X117.366 Y-16.917
X116.837 Y-16.915
G2 X116.549 Y-16.601 I0.011 J0.3
G1 X116.564 Y-16.29
X116.686 Y-13.789 F1200
X116.702 Y-13.451 F100
G2 X116.992 Y-13.166 I0.3 J-0.015
G1 X117.521 Y-13.167
X117.709 Y-13.176
X118.055 Y-13.32
X118.603 Y-13.831
X118.887 Y-14.526
X119.018 Y-15.264
X119.013 Y-16.014
X118.914 Y-16.246
X118.788 Y-16.468
X118.613 Y-16.655
X118.4 Y-16.797
X118.16 Y-16.885
X117.906 Y-16.916
X117.366 Y-16.917
G2 X117.078 Y-16.602 I0.011 J0.3
G1 X117.093 Y-16.292
X117.217 Y-13.792 F1200
X117.233 Y-13.452 F100
G2 X117.521 Y-13.167 I0.3 J-0.015
G1 X118.084 Y-13.165
X118.271 Y-13.174
X118.613 Y-13.328
X119.148 Y-13.854
X119.427 Y-14.55
X119.553 Y-15.29
X119.538 Y-16.04
X119.441 Y-16.26
X119.313 Y-16.477
X119.138 Y-16.66
X118.927 Y-16.798
X118.69 Y-16.884
X118.439 Y-16.914
X117.906 Y-16.916
G2 X117.616 Y-16.599 I0.009 J0.3
G1 X117.633 Y-16.293
X117.777 Y-13.79 F1200
X117.796 Y-13.448 F100
G2 X118.084 Y-13.165 I0.3 J-0.017
G1 X118.613 Y-13.163
X118.801 Y-13.172
X119.141 Y-13.328
X119.679 Y-13.851
X119.959 Y-14.547
X120.085 Y-15.286
X120.073 Y-16.036
X119.977 Y-16.255
X119.849 Y-16.473
X119.675 Y-16.656
X119.464 Y-16.794
X119.227 Y-16.881
X118.976 Y-16.911
X118.439 Y-16.914
G2 X118.149 Y-16.597 I0.009 J0.3
G1 X118.166 Y-16.291
X118.307 Y-13.789 F1200
X118.326 Y-13.446 F100
G2 X118.613 Y-13.163 I0.3 J-0.017
G1 X119.176 Y-13.16
X119.363 Y-13.168
X119.699 Y-13.336
X120.223 Y-13.873
X120.498 Y-14.571
X120.619 Y-15.311
X120.6 Y-16.06
X120.505 Y-16.268
X120.376 Y-16.481
X120.202 Y-16.659
X119.993 Y-16.794
X119.759 Y-16.879
X119.511 Y-16.908
X118.976 Y-16.911
G2 X118.685 Y-16.592 I0.009 J0.3
G1 X118.705 Y-16.289
X118.867 Y-13.785 F1200
X118.889 Y-13.441 F100
G2 X119.176 Y-13.16 I0.299 J-0.019
G1 X119.705 Y-13.157
X119.893 Y-13.165
X120.227 Y-13.335
X120.754 Y-13.869
X121.029 Y-14.567
X121.151 Y-15.307
X121.136 Y-16.057
X121.042 Y-16.262
X120.913 Y-16.476
X120.739 Y-16.655
X120.53 Y-16.791
X120.296 Y-16.875
X120.048 Y-16.905
X119.511 Y-16.908
G2 X119.221 Y-16.59 I0.009 J0.3
G1 X119.24 Y-16.286
X119.397 Y-13.783 F1200
X119.418 Y-13.438 F100
G2 X119.705 Y-13.157 I0.299 J-0.019
G1 X120.268 Y-13.154
X120.456 Y-13.162
X120.784 Y-13.343
X121.297 Y-13.89
X121.567 Y-14.59
X121.685 Y-15.33
X121.664 Y-16.08
X121.571 Y-16.274
X121.441 Y-16.483
X121.268 Y-16.658
X121.061 Y-16.79
X120.829 Y-16.873
X120.584 Y-16.902
X120.048 Y-16.905
G2 X119.757 Y-16.584 I0.009 J0.3
G1 X119.779 Y-16.283
X119.957 Y-13.779 F1200
X119.981 Y-13.432 F100
G2 X120.268 Y-13.154 I0.299 J-0.021
G1 X120.631 Y-13.152
X121.006 Y-13.168
X121.331 Y-13.355
X121.838 Y-13.908
X122.104 Y-14.609
X122.218 Y-15.35
X122.193 Y-16.1
X122.103 Y-16.284
X121.972 Y-16.49
X121.799 Y-16.661
X121.592 Y-16.791
X121.362 Y-16.871
X121.12 Y-16.899
X120.584 Y-16.902
G2 X120.293 Y-16.597 I0.009 J0.3
G1 X120.298 Y-16.279
X120.338 Y-13.778 F1200
X120.344 Y-13.446 F100
G2 X120.631 Y-13.152 I0.3 J-0.005
G1 X121.358 Y-13.148
X121.546 Y-13.157
X121.866 Y-13.351
X122.37 Y-13.907
X122.636 Y-14.608
X122.751 Y-15.349
X122.729 Y-16.099
X122.64 Y-16.281
X122.509 Y-16.487
X122.336 Y-16.659
X122.129 Y-16.789
X121.899 Y-16.869
X121.657 Y-16.897
X121.12 Y-16.899
G2 X120.83 Y-16.577 I0.009 J0.3
G1 X120.853 Y-16.277
X121.044 Y-13.773 F1200
X121.071 Y-13.425 F100
G2 X121.358 Y-13.148 I0.299 J-0.023
G1 X121.723 Y-13.147
X122.097 Y-13.164
X122.415 Y-13.363
X122.911 Y-13.926
X123.173 Y-14.629
X123.285 Y-15.37
X123.259 Y-16.12
X123.172 Y-16.293
X123.039 Y-16.495
X122.866 Y-16.664
X122.66 Y-16.791
X122.432 Y-16.869
X122.191 Y-16.896
X121.657 Y-16.897
G2 X121.366 Y-16.591 I0.009 J0.3
G1 X121.373 Y-16.274
X121.427 Y-13.773 F1200
X121.434 Y-13.44 F100
G2 X121.723 Y-13.147 I0.3 J-0.007
G1 X122.22 Y-13.146
X122.594 Y-13.165
X122.918 Y-13.353
X123.431 Y-13.901
X123.699 Y-14.601
X123.817 Y-15.342
X123.802 Y-16.092
X123.715 Y-16.273
X123.584 Y-16.481
X123.41 Y-16.655
X123.202 Y-16.786
X122.97 Y-16.868
X122.725 Y-16.896
X122.191
G2 X121.901 Y-16.594 I0.01 J0.3
G1 X121.904 Y-16.272
X121.928 Y-13.771 F1200
X121.931 Y-13.443 F100
G2 X122.22 Y-13.146 I0.3 J-0.003
G1 X122.743
X123.117 Y-13.164
X123.444 Y-13.347
X123.959 Y-13.892
X124.23 Y-14.592
X124.351 Y-15.332
X124.339 Y-16.082
X124.249 Y-16.27
X124.118 Y-16.48
X123.943 Y-16.655
X123.734 Y-16.787
X123.5 Y-16.869
X123.254 Y-16.896
X122.725
G2 X122.435 Y-16.594 I0.01 J0.3
G1 X122.437 Y-16.271
X122.451 Y-13.77 F1200
X122.453 Y-13.444 F100
G2 X122.743 Y-13.146 I0.3 J-0.002
G1 X123.315
X123.689 Y-13.166
X124.009 Y-13.362
X124.507 Y-13.923
X124.771 Y-14.625
X124.887 Y-15.366
X124.864 Y-16.115
X124.775 Y-16.292
X124.642 Y-16.496
X124.468 Y-16.666
X124.261 Y-16.793
X124.031 Y-16.871
X123.789 Y-16.898
X123.254 Y-16.896
G2 X122.965 Y-16.591 I0.011 J0.3
G1 X122.971 Y-16.271
X123.018 Y-13.77 F1200
X123.024 Y-13.44 F100
G2 X123.315 Y-13.146 I0.3 J-0.006
G1 X123.907 Y-13.148
X124.095 Y-13.158
X124.434 Y-13.317
X124.994 Y-13.816
X125.28 Y-14.509
X125.416 Y-15.247
X125.424 Y-15.997
X125.334 Y-16.217
X125.207 Y-16.444
X125.031 Y-16.635
X124.815 Y-16.779
X124.571 Y-16.869
X124.313 Y-16.899
X123.789 Y-16.898
G2 X123.501 Y-16.587 I0.011 J0.3
G1 X123.512 Y-16.273
X123.605 Y-13.771 F1200
X123.617 Y-13.437 F100
G2 X123.907 Y-13.148 I0.3 J-0.011
G1 X124.407 Y-13.149
X124.781 Y-13.169
X125.1 Y-13.366
X125.589 Y-13.935
X125.849 Y-14.639
X125.963 Y-15.38
X125.914 Y-16.128
X125.83 Y-16.296
X125.697 Y-16.499
X125.523 Y-16.669
X125.316 Y-16.795
X125.086 Y-16.874
X124.845 Y-16.9
X124.313 Y-16.899
G2 X124.025 Y-16.59 I0.011 J0.3
G1 X124.034 Y-16.274
X124.107 Y-13.773 F1200
X124.117 Y-13.44 F100
G2 X124.407 Y-13.149 I0.3 J-0.009
G1 X125 Y-13.151
X125.187 Y-13.16
X125.523 Y-13.326
X126.077 Y-13.832
X126.358 Y-14.527
X126.49 Y-15.265
X126.479 Y-16.015
X126.388 Y-16.231
X126.26 Y-16.455
X126.084 Y-16.643
X125.868 Y-16.785
X125.626 Y-16.873
X125.37 Y-16.902
X124.845 Y-16.9
G2 X124.557 Y-16.586 I0.011 J0.3
G1 X124.572 Y-16.275
X124.693 Y-13.774 F1200
X124.71 Y-13.436 F100
G2 X125 Y-13.151 I0.3 J-0.015
G1 X125.499 Y-13.152
X125.873 Y-13.173
X126.188 Y-13.377
X126.67 Y-13.951
X126.926 Y-14.656
X127.03 Y-15.399
X126.971 Y-16.147
X126.886 Y-16.31
X126.753 Y-16.511
X126.579 Y-16.677
X126.373 Y-16.802
X126.144 Y-16.879
X125.905 Y-16.904
X125.37 Y-16.902
G2 X125.082 Y-16.59 I0.012 J0.3
G1 X125.095 Y-16.276
X125.195 Y-13.775 F1200
X125.208 Y-13.44 F100
G2 X125.499 Y-13.152 I0.3 J-0.012
G1 X126.092 Y-13.155
X126.279 Y-13.165
X126.612 Y-13.336
X127.159 Y-13.85
X127.435 Y-14.547
X127.558 Y-15.287
X127.538 Y-16.037
X127.446 Y-16.249
X127.316 Y-16.471
X127.137 Y-16.658
X126.92 Y-16.797
X126.677 Y-16.882
X126.42 Y-16.908
X125.905 Y-16.904
G2 X125.617 Y-16.587 I0.012 J0.3
G1 X125.635 Y-16.279
X125.781 Y-13.777 F1200
X125.801 Y-13.437 F100
G2 X126.092 Y-13.155 I0.299 J-0.018
G1 X126.591 Y-13.161
X126.778 Y-13.173
X127.124 Y-13.317
X127.679 Y-13.822
X127.961 Y-14.517
X128.089 Y-15.256
X128.081 Y-16.006
X127.979 Y-16.245
X127.85 Y-16.472
X127.671 Y-16.661
X127.453 Y-16.803
X127.207 Y-16.89
X126.948 Y-16.917
X126.42 Y-16.908
G2 X126.136 Y-16.593 I0.015 J0.3
G1 X126.152 Y-16.28
X126.28 Y-13.78 F1200
X126.297 Y-13.445 F100
G2 X126.591 Y-13.161 I0.3 J-0.015
G1 X127.184 Y-13.17
X127.371 Y-13.182
X127.711 Y-13.34
X128.236 Y-13.875
X128.507 Y-14.575
X128.625 Y-15.315
X128.597 Y-16.065
X128.495 Y-16.286
X128.362 Y-16.505
X128.182 Y-16.687
X127.965 Y-16.822
X127.722 Y-16.903
X127.467 Y-16.927
X126.948 Y-16.917
G2 X126.664 Y-16.596 I0.015 J0.3
G1 X126.686 Y-16.289
X126.866 Y-13.789 F1200
X126.89 Y-13.449 F100
G2 X127.184 Y-13.17 I0.299 J-0.021
G1 X127.683 Y-13.181
X127.87 Y-13.195
X128.214 Y-13.344
X128.76 Y-13.859
X129.035 Y-14.556
X129.155 Y-15.297
X129.138 Y-16.046
X129.033 Y-16.284
X128.901 Y-16.507
X128.721 Y-16.693
X128.502 Y-16.832
X128.257 Y-16.916
X127.998 Y-16.94
X127.467 Y-16.927
G2 X127.186 Y-16.608 I0.018 J0.299
G1 X127.206 Y-16.295
X127.365 Y-13.797 F1200
X127.387 Y-13.462 F100
G2 X127.683 Y-13.181 I0.299 J-0.019
G1 X128.276 Y-13.195
X128.463 Y-13.209
X128.799 Y-13.374
X129.317 Y-13.917
X129.581 Y-14.619
X129.691 Y-15.361
X129.654 Y-16.11
X129.55 Y-16.328
X129.414 Y-16.544
X129.232 Y-16.723
X129.014 Y-16.855
X128.771 Y-16.934
X128.517 Y-16.954
X127.998 Y-16.94
G2 X127.718 Y-16.616 I0.018 J0.299
G1 X127.743 Y-16.309
X127.951 Y-13.812 F1200
X127.98 Y-13.471 F100
G2 X128.276 Y-13.195 I0.299 J-0.025
G1 X128.775 Y-13.211
X128.962 Y-13.227
X129.303 Y-13.383
X129.841 Y-13.906
X130.109 Y-14.606
X130.221 Y-15.348
X130.195 Y-16.097
X130.088 Y-16.331
X129.954 Y-16.552
X129.771 Y-16.735
X129.551 Y-16.871
X129.306 Y-16.952
X129.048 Y-16.973
X128.517 Y-16.954
G2 X128.239 Y-16.632 I0.021 J0.299
G1 X128.263 Y-16.32
X128.451 Y-13.824 F1200
X128.476 Y-13.489 F100
G2 X128.775 Y-13.211 I0.299 J-0.023
G1 X129.368 Y-13.232
X129.554 Y-13.248
X129.888 Y-13.419
X130.397 Y-13.97
X130.654 Y-14.674
X130.755 Y-15.418
X130.71 Y-16.166
X130.605 Y-16.38
X130.466 Y-16.594
X130.282 Y-16.77
X130.063 Y-16.9
X129.819 Y-16.975
X129.565 Y-16.992
X129.048 Y-16.973
G2 X128.77 Y-16.646 I0.021 J0.299
G1 X128.799 Y-16.34
X129.037 Y-13.844 F1200
X129.069 Y-13.503 F100
G2 X129.368 Y-13.232 I0.299 J-0.028
G1 X129.867 Y-13.253
X130.054 Y-13.271
X130.391 Y-13.434
X130.921 Y-13.965
X131.182 Y-14.668
X131.285 Y-15.411
X131.251 Y-16.16
X131.142 Y-16.39
X131.005 Y-16.609
X130.821 Y-16.79
X130.599 Y-16.922
X130.353 Y-17
X130.095 Y-17.018
X129.565 Y-16.992
G2 X129.291 Y-16.667 I0.025 J0.299
G1 X129.318 Y-16.355
X129.535 Y-13.862 F1200
X129.564 Y-13.527 F100
G2 X129.867 Y-13.253 I0.299 J-0.026
G1 X130.46 Y-13.281
X130.646 Y-13.299
X130.976 Y-13.477
X131.478 Y-14.035
X131.726 Y-14.743
X131.819 Y-15.487
X131.766 Y-16.235
X131.658 Y-16.445
X131.519 Y-16.654
X131.336 Y-16.827
X131.118 Y-16.953
X130.877 Y-17.027
X130.626 Y-17.043
X130.095 Y-17.018
G2 X129.822 Y-16.687 I0.025 J0.299
G1 X129.854 Y-16.382
X130.121 Y-13.89 F1200
X130.158 Y-13.549 F100
G2 X130.46 Y-13.281 I0.298 J-0.032
G1 X130.959 Y-13.306
X131.145 Y-13.325
X131.48 Y-13.495
X132.001 Y-14.034
X132.254 Y-14.74
X132.349 Y-15.484
X132.307 Y-16.233
X132.198 Y-16.456
