(prop3part1)
(T1  D=3 CR=0 - ZMIN=-15.917 - flat end mill)
G90 G94
G17
G21
G28 G91 Z0
G90

(Adaptive1)
T1
S18000 M3
G54
G0 X-3.329 Y-13.796
Z2.21
Z-9.39
G1 Z-9.69 F100
X-3.322 Y-13.792 Z-9.757
X-3.303 Y-13.781 Z-9.82
X-3.273 Y-13.762 Z-9.877
X-3.232 Y-13.737 Z-9.925
X-3.184 Y-13.708 Z-9.96
X-3.13 Y-13.675 Z-9.982
X-3.073 Y-13.64 Z-9.99
G2 X-1.494 Y-13.159 I1.729 J-2.84
G1 X-1.334 Y-13.157
X-1.146 Y-13.164
X-1.307 Y-14.355
X-1.255 Y-15.103
X-1.257 Y-15.558
X-1.292 Y-15.86
X-1.393 Y-16.146
X-1.555 Y-16.404
X-1.769 Y-16.619
X-2.026 Y-16.781
X-2.312 Y-16.883
X-2.614 Y-16.919
G2 X-2.883 Y-16.506 I0.008 J0.3
G1 X-2.806 Y-16.315
X-1.765 Y-13.755 F1000
X-1.598 Y-13.344 F100
G2 X-1.334 Y-13.157 I0.278 J-0.113
G1 X-1.13 Y-13.155
X-0.943 Y-13.162
X-1.106 Y-14.353
X-1.055 Y-15.101
X-1.076 Y-15.608
X-1.12 Y-15.901
X-1.227 Y-16.178
X-1.391 Y-16.425
X-1.604 Y-16.631
X-1.857 Y-16.786
X-2.137 Y-16.883
X-2.431 Y-16.918
G2 X-2.7 Y-16.503 I0.008 J0.3
G1 X-2.622 Y-16.314
X-1.564 Y-13.752 F1000
X-1.394 Y-13.34 F100
G2 X-1.13 Y-13.155 I0.277 J-0.115
G1 X-0.782 Y-13.151
X-0.595 Y-13.158
X-0.775 Y-13.731
X-1.036 Y-15.727
X-1.1 Y-15.999
X-1.218 Y-16.252
X-1.385 Y-16.476
X-1.595 Y-16.661
X-1.837 Y-16.8
X-2.103 Y-16.887
X-2.381 Y-16.917
G2 X-2.64 Y-16.482 I0.008 J0.3
G1 X-2.558 Y-16.32
X-1.247 Y-13.733 F1000
X-1.035 Y-13.315 F100
G2 X-0.782 Y-13.151 I0.268 J-0.136
G1 X-0.401 Y-13.146
X-0.214 Y-13.153
X-0.466 Y-13.698
X-1.036 Y-15.894
X-1.141 Y-16.172
X-1.305 Y-16.421
X-1.518 Y-16.628
X-1.772 Y-16.785
X-2.053 Y-16.882
X-2.348 Y-16.917
G2 X-2.596 Y-16.46 I0.008 J0.3
G1 X-2.513 Y-16.326
X-0.902 Y-13.709 F1000
X-0.642 Y-13.288 F100
G2 X-0.401 Y-13.146 I0.255 J-0.157
G1 X-0.039 Y-13.141
X0.149 Y-13.148
X-0.156 Y-13.665
X-1.014 Y-15.91
X-1.155 Y-16.189
X-1.347 Y-16.435
X-1.585 Y-16.638
X-1.858 Y-16.79
X-2.156 Y-16.884
X-2.467 Y-16.918
G2 X-2.713 Y-16.458 I0.008 J0.3
G1 X-2.631 Y-16.328
X-0.757 Y-13.34 F1000
X-0.743 Y-13.304
X-0.744 Y-13.266
X-0.759 Y-13.23
X-0.787 Y-13.203
X-0.822 Y-13.189
X-0.861
X-0.897 Y-13.204
X-0.924 Y-13.231
X-0.939 Y-13.266
X-0.94 Y-13.305
X-0.926 Y-13.341
X-0.899 Y-13.369
X-0.864 Y-13.384
X-0.825 Y-13.386
X-0.789 Y-13.372
X-0.782 Y-13.368
G2 X-0.039 Y-13.141 I0.819 J-1.354 F100
G1 X0.309 Y-13.136
X0.496 Y-13.143
G3 X-1.153 Y-16.363 I15.979 J-10.217
G1 X-1.365 Y-16.593
X-1.625 Y-16.767
X-1.918 Y-16.877
X-2.229 Y-16.916
G2 X-2.471 Y-16.451 I0.008 J0.3
G1 X-2.389 Y-16.328
X-0.41 Y-13.338 F1000
X-0.396 Y-13.303
Y-13.264
X-0.41 Y-13.228
X-0.438 Y-13.2
X-0.473 Y-13.185
X-0.512
X-0.548 Y-13.199
X-0.576 Y-13.226
X-0.591 Y-13.262
X-0.592 Y-13.3
X-0.578 Y-13.336
X-0.552 Y-13.365
X-0.516 Y-13.381
X-0.478 Y-13.382
X-0.441 Y-13.368
X-0.434 Y-13.364
G2 X0.309 Y-13.136 I0.821 J-1.353 F100
G1 X0.69 Y-13.131
X0.877 Y-13.138
G3 X-0.831 Y-16.189 I7.144 J-6.002
G1 X-1.016 Y-16.427
X-1.228 Y-16.63
X-1.479 Y-16.784
X-1.757 Y-16.88
X-2.049 Y-16.915
G2 X-2.284 Y-16.439 I0.007 J0.3
G1 X-2.206 Y-16.331
X-0.032 Y-13.337 F1000
X-0.016 Y-13.301
X-0.014 Y-13.262
X-0.028 Y-13.225
X-0.054 Y-13.197
X-0.09 Y-13.181
X-0.129 Y-13.179
X-0.165 Y-13.193
X-0.194 Y-13.219
X-0.21 Y-13.254
X-0.212 Y-13.293
X-0.198 Y-13.33
X-0.172 Y-13.359
X-0.136 Y-13.375
X-0.097 Y-13.377
X-0.061 Y-13.363
X-0.054 Y-13.359
G2 X0.69 Y-13.131 I0.821 J-1.353 F100
G1 X1.053 Y-13.126
X1.24 Y-13.132
X0.394 Y-13.985
X-0.637 Y-16.083
X-0.689 Y-16.181
X-0.852 Y-16.425
X-1.064 Y-16.629
X-1.315 Y-16.782
X-1.593 Y-16.878
X-1.885 Y-16.913
G2 X-2.113 Y-16.427 I0.007 J0.3
G1 X-2.038 Y-16.332
X0.328 Y-13.335 F1000
X0.346 Y-13.3
X0.349 Y-13.26
X0.337 Y-13.223
X0.311 Y-13.193
X0.276 Y-13.176
X0.237 Y-13.173
X0.199 Y-13.186
X0.17 Y-13.212
X0.153 Y-13.248
X0.151 Y-13.287
X0.164 Y-13.324
X0.191 Y-13.353
X0.226 Y-13.37
X0.265 Y-13.371
X0.302 Y-13.358
X0.309 Y-13.353
G2 X1.053 Y-13.126 I0.821 J-1.353 F100
G1 X1.4 Y-13.121
X1.587 Y-13.127
X0.696 Y-13.932
X-0.493 Y-16.021
X-0.507 Y-16.056
X-0.661 Y-16.337
X-0.876 Y-16.575
X-1.142 Y-16.756
X-1.442 Y-16.871
X-1.76 Y-16.912
G2 X-1.897 Y-16.348 I0.007 J0.3
G1 X-1.838 Y-16.316 Z-9.982
X-1.782 Y-16.286 Z-9.96
X-1.732 Y-16.259 Z-9.925
X-1.691 Y-16.236 Z-9.877
X-1.659 Y-16.219 Z-9.82
X-1.64 Y-16.208 Z-9.757
X-1.633 Y-16.205 Z-9.69
G0 Z2.21
X0.394 Y-13.51
Z-9.39
G1 Z-9.69 F100
X0.401 Y-13.506 Z-9.757
X0.419 Y-13.494 Z-9.82
X0.45 Y-13.476 Z-9.877
X0.49 Y-13.451 Z-9.925
X0.539 Y-13.421 Z-9.96
X0.593 Y-13.388 Z-9.982
X0.65 Y-13.353 Z-9.99
G2 X1.4 Y-13.121 I0.828 J-1.348
G1 X1.781 Y-13.115
X1.968 Y-13.122
X1.026 Y-13.868
G3 X-0.622 Y-16.459 I26.129 J-18.444
G1 X-0.832 Y-16.648
X-1.076 Y-16.79
X-1.343 Y-16.878
X-1.623 Y-16.91
G2 X-1.759 Y-16.347 I0.007 J0.3
G1 X-1.701 Y-16.315 Z-9.982
X-1.645 Y-16.285 Z-9.96
X-1.595 Y-16.257 Z-9.925
X-1.553 Y-16.235 Z-9.877
X-1.522 Y-16.218 Z-9.82
X-1.503 Y-16.207 Z-9.757
X-1.496 Y-16.203 Z-9.69
G0 Z2.21
X0.775 Y-13.504
Z-9.39
G1 Z-9.69 F100
X0.781 Y-13.501 Z-9.757
X0.8 Y-13.489 Z-9.82
X0.831 Y-13.47 Z-9.877
X0.871 Y-13.445 Z-9.925
X0.92 Y-13.416 Z-9.96
X0.974 Y-13.382 Z-9.982
X1.03 Y-13.347 Z-9.99
G2 X1.781 Y-13.115 I0.828 J-1.348
G1 X2.144 Y-13.11
X2.331 Y-13.117
X1.369 Y-13.836
X0.621 Y-14.777
X-0.175 Y-16.102
X-0.286 Y-16.276
X-0.453 Y-16.489
X-0.659 Y-16.665
X-0.896 Y-16.796
X-1.155 Y-16.879
X-1.424 Y-16.908
G2 X-1.56 Y-16.345 I0.007 J0.3
G1 X-1.502 Y-16.313 Z-9.982
X-1.446 Y-16.283 Z-9.96
X-1.396 Y-16.255 Z-9.925
X-1.354 Y-16.233 Z-9.877
X-1.323 Y-16.216 Z-9.82
X-1.303 Y-16.205 Z-9.757
X-1.297 Y-16.201 Z-9.69
G0 Z2.21
X1.138 Y-13.499
Z-9.39
G1 Z-9.69 F100
X1.144 Y-13.495 Z-9.757
X1.163 Y-13.484 Z-9.82
X1.193 Y-13.465 Z-9.877
X1.234 Y-13.44 Z-9.925
X1.282 Y-13.41 Z-9.96
X1.336 Y-13.377 Z-9.982
X1.393 Y-13.342 Z-9.99
G2 X2.144 Y-13.11 I0.828 J-1.348
G1 X2.491 Y-13.105
X2.679 Y-13.112
X1.712 Y-13.826
X0.894 Y-14.705
X0.217 Y-15.845
X-0.183 Y-16.48
X-0.28 Y-16.565
X-0.476 Y-16.709
X-0.694 Y-16.815
X-0.927 Y-16.882
X-1.168 Y-16.906
G2 X-1.305 Y-16.342 I0.007 J0.3
G1 X-1.246 Y-16.31 Z-9.982
X-1.19 Y-16.28 Z-9.96
X-1.14 Y-16.253 Z-9.925
X-1.099 Y-16.23 Z-9.877
X-1.067 Y-16.213 Z-9.82
X-1.048 Y-16.202 Z-9.757
X-1.041 Y-16.199 Z-9.69
G0 Z2.21
X1.485 Y-13.494
Z-9.39
G1 Z-9.69 F100
X1.492 Y-13.49 Z-9.757
X1.511 Y-13.479 Z-9.82
X1.541 Y-13.46 Z-9.877
X1.581 Y-13.435 Z-9.925
X1.63 Y-13.405 Z-9.96
X1.684 Y-13.372 Z-9.982
X1.741 Y-13.337 Z-9.99
G2 X2.491 Y-13.105 I0.828 J-1.348
G1 X2.872 Y-13.099
X3.059 Y-13.106
X2.073 Y-13.792
X1.209 Y-14.627
X0.112 Y-16.312
X-0.056 Y-16.512
X-0.259 Y-16.677
X-0.49 Y-16.799
X-0.74 Y-16.876
X-1 Y-16.904
G2 X-1.136 Y-16.341 I0.007 J0.3
G1 X-1.078 Y-16.309 Z-9.982
X-1.022 Y-16.278 Z-9.96
X-0.972 Y-16.251 Z-9.925
X-0.93 Y-16.228 Z-9.877
X-0.899 Y-16.211 Z-9.82
X-0.879 Y-16.201 Z-9.757
X-0.873 Y-16.197 Z-9.69
G0 Z2.21
X1.866 Y-13.489
Z-9.39
G1 Z-9.69 F100
X1.872 Y-13.485 Z-9.757
X1.891 Y-13.473 Z-9.82
X1.922 Y-13.454 Z-9.877
X1.962 Y-13.43 Z-9.925
X2.011 Y-13.4 Z-9.96
X2.065 Y-13.367 Z-9.982
X2.122 Y-13.332 Z-9.99
G2 X2.872 Y-13.099 I0.828 J-1.348
G1 X3.235 Y-13.094
X3.422 Y-13.101
X2.433 Y-13.783
X1.524 Y-14.569
X0.251 Y-16.356
X0.037 Y-16.582
X-0.223 Y-16.754
X-0.515 Y-16.862
X-0.824 Y-16.902
G2 X-0.962 Y-16.339 I0.007 J0.3
G1 X-0.903 Y-16.307 Z-9.982
X-0.848 Y-16.276 Z-9.96
X-0.798 Y-16.249 Z-9.925
X-0.756 Y-16.226 Z-9.877
X-0.725 Y-16.209 Z-9.82
X-0.705 Y-16.198 Z-9.757
X-0.699 Y-16.194 Z-9.69
G0 Z2.21
X2.229 Y-13.483
Z-9.39
G1 Z-9.69 F100
X2.235 Y-13.479 Z-9.757
X2.254 Y-13.468 Z-9.82
X2.285 Y-13.449 Z-9.877
X2.325 Y-13.424 Z-9.925
X2.373 Y-13.394 Z-9.96
X2.428 Y-13.361 Z-9.982
X2.484 Y-13.326 Z-9.99
G2 X3.235 Y-13.094 I0.828 J-1.348
G1 X3.582 Y-13.089
X3.77 Y-13.096
X2.787 Y-13.787
X1.844 Y-14.532
X0.383 Y-16.38
X0.17 Y-16.596
X-0.085 Y-16.759
X-0.37 Y-16.862
X-0.671 Y-16.9
G2 X-0.809 Y-16.337 I0.007 J0.3
G1 X-0.75 Y-16.305 Z-9.982
X-0.695 Y-16.274 Z-9.96
X-0.645 Y-16.247 Z-9.925
X-0.603 Y-16.224 Z-9.877
X-0.572 Y-16.207 Z-9.82
X-0.552 Y-16.196 Z-9.757
X-0.546 Y-16.192 Z-9.69
G0 Z2.21
X2.576 Y-13.478
Z-9.39
G1 Z-9.69 F100
X2.583 Y-13.474 Z-9.757
X2.602 Y-13.463 Z-9.82
X2.632 Y-13.444 Z-9.877
X2.673 Y-13.419 Z-9.925
X2.721 Y-13.389 Z-9.96
X2.775 Y-13.356 Z-9.982
X2.832 Y-13.321 Z-9.99
G2 X3.582 Y-13.089 I0.828 J-1.348
G1 X3.963 Y-13.084
X4.15 Y-13.09
X2.159 Y-14.435
G2 X0.138 Y-16.851 I-13.443 J9.196
G1 X-0.1 Y-16.875
X-0.315 Y-16.895
G2 X-0.452 Y-16.332 I0.007 J0.3
G1 X-0.394 Y-16.3 Z-9.982
X-0.338 Y-16.269 Z-9.96
X-0.288 Y-16.242 Z-9.925
X-0.247 Y-16.219 Z-9.877
X-0.215 Y-16.202 Z-9.82
X-0.196 Y-16.191 Z-9.757
X-0.189 Y-16.188 Z-9.69
G0 Z2.21
X2.957 Y-13.473
Z-9.39
G1 Z-9.69 F100
X2.963 Y-13.469 Z-9.757
X2.982 Y-13.457 Z-9.82
X3.013 Y-13.439 Z-9.877
X3.053 Y-13.414 Z-9.925
X3.102 Y-13.384 Z-9.96
X3.156 Y-13.351 Z-9.982
X3.213 Y-13.316 Z-9.99
G2 X3.963 Y-13.084 I0.828 J-1.348
G1 X4.326 Y-13.078
X4.513 Y-13.085
X2.524 Y-14.433
X0.868 Y-16.174
X0.718 Y-16.413
X0.519 Y-16.613
X0.28 Y-16.764
X0.015 Y-16.86
X-0.265 Y-16.894
G2 X-0.403 Y-16.331 I0.007 J0.3
G1 X-0.344 Y-16.299 Z-9.982
X-0.289 Y-16.269 Z-9.96
X-0.239 Y-16.241 Z-9.925
X-0.197 Y-16.219 Z-9.877
X-0.166 Y-16.201 Z-9.82
X-0.146 Y-16.191 Z-9.757
X-0.14 Y-16.187 Z-9.69
G0 Z2.21
X3.32 Y-13.468
Z-9.39
G1 Z-9.69 F100
X3.326 Y-13.464 Z-9.757
X3.345 Y-13.452 Z-9.82
X3.376 Y-13.433 Z-9.877
X3.416 Y-13.408 Z-9.925
X3.465 Y-13.379 Z-9.96
X3.519 Y-13.345 Z-9.982
X3.575 Y-13.31 Z-9.99
G2 X4.326 Y-13.078 I0.828 J-1.348
G1 X4.673 Y-13.073
X4.861 Y-13.08
X3.575 Y-13.975
X2.571 Y-14.636
X2.075 Y-15.197
X0.838 Y-16.494
X0.635 Y-16.661
X0.403 Y-16.786
X0.152 Y-16.864
X-0.109 Y-16.892
G2 X-0.247 Y-16.329 I0.007 J0.3
G1 X-0.188 Y-16.297 Z-9.982
X-0.132 Y-16.267 Z-9.96
X-0.083 Y-16.239 Z-9.925
X-0.041 Y-16.217 Z-9.877
X-0.01 Y-16.199 Z-9.82
X0.01 Y-16.189 Z-9.757
X0.017 Y-16.185 Z-9.69
G0 Z2.21
X3.667 Y-13.462
Z-9.39
G1 Z-9.69 F100
X3.674 Y-13.459 Z-9.757
X3.693 Y-13.447 Z-9.82
X3.723 Y-13.428 Z-9.877
X3.764 Y-13.403 Z-9.925
X3.812 Y-13.374 Z-9.96
X3.866 Y-13.34 Z-9.982
X3.923 Y-13.305 Z-9.99
G2 X4.673 Y-13.073 I0.828 J-1.348
G1 X5.054 Y-13.068
X5.241 Y-13.074
X3.246 Y-14.413
X2.3 Y-15.153
G2 X0.432 Y-16.892 I-3.979 J2.402
G1 X0.158 Y-16.889
X-0.109 Y-16.892
G2 X-0.247 Y-16.329 I0.007 J0.3
G1 X-0.188 Y-16.297 Z-9.982
X-0.132 Y-16.267 Z-9.96
X-0.083 Y-16.239 Z-9.925
X-0.041 Y-16.217 Z-9.877
X-0.01 Y-16.199 Z-9.82
X0.01 Y-16.189 Z-9.757
X0.017 Y-16.185 Z-9.69
G0 Z2.21
X4.048 Y-13.457
Z-9.39
G1 Z-9.69 F100
X4.054 Y-13.453 Z-9.757
X4.073 Y-13.441 Z-9.82
X4.104 Y-13.423 Z-9.877
X4.144 Y-13.398 Z-9.925
X4.193 Y-13.368 Z-9.96
X4.247 Y-13.335 Z-9.982
X4.304 Y-13.3 Z-9.99
G2 X5.054 Y-13.068 I0.828 J-1.348
G1 X5.417 Y-13.062
X5.604 Y-13.069
X3.613 Y-14.414
G3 X1.336 Y-16.556 I6.282 J-8.961
G1 X1.125 Y-16.686
X0.908 Y-16.793
X0.676 Y-16.86
X0.435 Y-16.885
X0.158 Y-16.889
G2 X0.02 Y-16.326 I0.006 J0.3
G1 X0.078 Y-16.294 Z-9.982
X0.134 Y-16.263 Z-9.96
X0.184 Y-16.236 Z-9.925
X0.225 Y-16.213 Z-9.877
X0.257 Y-16.196 Z-9.82
X0.276 Y-16.185 Z-9.757
X0.283 Y-16.181 Z-9.69
G0 Z2.21
X4.411 Y-13.452
Z-9.39
G1 Z-9.69 F100
X4.417 Y-13.448 Z-9.757
X4.436 Y-13.436 Z-9.82
X4.467 Y-13.417 Z-9.877
X4.507 Y-13.393 Z-9.925
X4.556 Y-13.363 Z-9.96
X4.61 Y-13.33 Z-9.982
X4.667 Y-13.295 Z-9.99
G2 X5.417 Y-13.062 I0.828 J-1.348
G1 X5.764 Y-13.057
X5.952 Y-13.064
X4.736 Y-13.908
G3 X1.544 Y-16.623 I5.498 J-9.701
G1 X1.283 Y-16.755
X1.013 Y-16.847
X0.73 Y-16.881
X0.435 Y-16.885
G2 X0.297 Y-16.322 I0.006 J0.3
G1 X0.355 Y-16.29 Z-9.982
X0.411 Y-16.259 Z-9.96
X0.461 Y-16.232 Z-9.925
X0.502 Y-16.209 Z-9.877
X0.534 Y-16.192 Z-9.82
X0.553 Y-16.181 Z-9.757
X0.56 Y-16.178 Z-9.69
G0 Z2.21
X4.758 Y-13.447
Z-9.39
G1 Z-9.69 F100
X4.765 Y-13.443 Z-9.757
X4.784 Y-13.431 Z-9.82
X4.814 Y-13.412 Z-9.877
X4.855 Y-13.388 Z-9.925
X4.903 Y-13.358 Z-9.96
X4.957 Y-13.325 Z-9.982
X5.014 Y-13.29 Z-9.99
G2 X5.764 Y-13.057 I0.828 J-1.348
G1 X6.145 Y-13.052
X6.332 Y-13.058
G3 X1.492 Y-16.692 I15.342 J-25.479
G1 X1.269 Y-16.789
X1.039 Y-16.855
X0.8 Y-16.88
X0.73 Y-16.881
G2 X0.591 Y-16.318 I0.006 J0.3
G1 X0.65 Y-16.286 Z-9.982
X0.705 Y-16.255 Z-9.96
X0.755 Y-16.228 Z-9.925
X0.797 Y-16.205 Z-9.877
X0.828 Y-16.188 Z-9.82
X0.848 Y-16.177 Z-9.757
X0.854 Y-16.173 Z-9.69
G0 Z2.21
X5.139 Y-13.441
Z-9.39
G1 Z-9.69 F100
X5.146 Y-13.437 Z-9.757
X5.164 Y-13.426 Z-9.82
X5.195 Y-13.407 Z-9.877
X5.235 Y-13.382 Z-9.925
X5.284 Y-13.352 Z-9.96
X5.338 Y-13.319 Z-9.982
X5.395 Y-13.284 Z-9.99
G2 X6.145 Y-13.052 I0.828 J-1.348
G1 X6.508 Y-13.047
X6.695 Y-13.053
X2.713 Y-15.743
X2.257 Y-16.339
X1.942 Y-16.585
X1.691 Y-16.741
X1.412 Y-16.839
X1.119 Y-16.875
X0.8 Y-16.88
G2 X0.661 Y-16.317 I0.006 J0.3
G1 X0.72 Y-16.285 Z-9.982
X0.775 Y-16.254 Z-9.96
X0.825 Y-16.227 Z-9.925
X0.867 Y-16.204 Z-9.877
X0.898 Y-16.187 Z-9.82
X0.918 Y-16.176 Z-9.757
X0.924 Y-16.172 Z-9.69
G0 Z2.21
X5.502 Y-13.436
Z-9.39
G1 Z-9.69 F100
X5.508 Y-13.432 Z-9.757
X5.527 Y-13.42 Z-9.82
X5.558 Y-13.402 Z-9.877
X5.598 Y-13.377 Z-9.925
X5.647 Y-13.347 Z-9.96
X5.701 Y-13.314 Z-9.982
X5.758 Y-13.279 Z-9.99
G2 X6.508 Y-13.047 I0.828 J-1.348
G1 X6.855 Y-13.042
X7.043 Y-13.048
X5.841 Y-13.883
X3.832 Y-15.201
X2.858 Y-15.904
X2.391 Y-16.491
X2.21 Y-16.619
X1.972 Y-16.754
X1.711 Y-16.839
X1.439 Y-16.871
X1.119 Y-16.875
G2 X0.981 Y-16.312 I0.006 J0.3
G1 X1.039 Y-16.28 Z-9.982
X1.095 Y-16.25 Z-9.96
X1.145 Y-16.222 Z-9.925
X1.186 Y-16.199 Z-9.877
X1.217 Y-16.182 Z-9.82
X1.237 Y-16.171 Z-9.757
X1.243 Y-16.168 Z-9.69
G0 Z2.21
X5.849 Y-13.431
Z-9.39
G1 Z-9.69 F100
X5.856 Y-13.427 Z-9.757
X5.875 Y-13.415 Z-9.82
X5.905 Y-13.397 Z-9.877
X5.946 Y-13.372 Z-9.925
X5.994 Y-13.342 Z-9.96
X6.048 Y-13.309 Z-9.982
X6.105 Y-13.274 Z-9.99
G2 X6.855 Y-13.042 I0.828 J-1.348
G1 X7.236 Y-13.036
X7.423 Y-13.043
G3 X2.265 Y-16.719 I24.644 J-40.034
G1 X1.971 Y-16.827
X1.661 Y-16.867
X1.439 Y-16.871
G2 X1.301 Y-16.308 I0.006 J0.3
G1 X1.359 Y-16.276 Z-9.982
X1.415 Y-16.245 Z-9.96
X1.465 Y-16.218 Z-9.925
X1.506 Y-16.195 Z-9.877
X1.538 Y-16.177 Z-9.82
X1.557 Y-16.167 Z-9.757
X1.564 Y-16.163 Z-9.69
G0 Z2.21
X6.23 Y-13.425
Z-9.39
G1 Z-9.69 F100
X6.237 Y-13.421 Z-9.757
X6.255 Y-13.41 Z-9.82
X6.286 Y-13.391 Z-9.877
X6.326 Y-13.366 Z-9.925
X6.375 Y-13.336 Z-9.96
X6.429 Y-13.303 Z-9.982
X6.486 Y-13.268 Z-9.99
G2 X7.236 Y-13.036 I0.828 J-1.348
G1 X7.599 Y-13.031
X7.786 Y-13.037
G3 X2.764 Y-16.559 I27.684 J-44.824
G1 X2.516 Y-16.726
X2.235 Y-16.826
X1.938 Y-16.863
X1.661 Y-16.867
G2 X1.522 Y-16.305 I0.006 J0.3
G1 X1.581 Y-16.272 Z-9.982
X1.636 Y-16.242 Z-9.96
X1.686 Y-16.214 Z-9.925
X1.728 Y-16.191 Z-9.877
X1.759 Y-16.174 Z-9.82
X1.778 Y-16.164 Z-9.757
X1.785 Y-16.16 Z-9.69
G0 Z2.21
X6.593 Y-13.42
Z-9.39
G1 Z-9.69 F100
X6.599 Y-13.416 Z-9.757
X6.618 Y-13.404 Z-9.82
X6.649 Y-13.386 Z-9.877
X6.689 Y-13.361 Z-9.925
X6.738 Y-13.331 Z-9.96
X6.792 Y-13.298 Z-9.982
X6.849 Y-13.263 Z-9.99
G2 X7.599 Y-13.031 I0.828 J-1.348
G1 X7.946 Y-13.026
X8.134 Y-13.032
G3 X2.718 Y-16.711 I235.317 J-352.268
G1 X2.459 Y-16.821
X2.179 Y-16.86
X1.938 Y-16.863
G2 X1.799 Y-16.301 I0.006 J0.3
G1 X1.858 Y-16.268 Z-9.982
X1.913 Y-16.238 Z-9.96
X1.963 Y-16.21 Z-9.925
X2.005 Y-16.187 Z-9.877
X2.036 Y-16.17 Z-9.82
X2.055 Y-16.16 Z-9.757
X2.062 Y-16.156 Z-9.69
G0 Z2.21
X6.941 Y-13.415
Z-9.39
G1 Z-9.69 F100
X6.947 Y-13.411 Z-9.757
X6.966 Y-13.399 Z-9.82
X6.996 Y-13.381 Z-9.877
X7.037 Y-13.356 Z-9.925
X7.085 Y-13.326 Z-9.96
X7.139 Y-13.293 Z-9.982
X7.196 Y-13.258 Z-9.99
G2 X7.946 Y-13.026 I0.828 J-1.348
G1 X8.327 Y-13.02
X8.514 Y-13.027
G2 X2.914 Y-16.758 I-104.376 J150.575
G1 X2.675 Y-16.83
X2.426 Y-16.856
X2.179 Y-16.86
G2 X2.041 Y-16.297 I0.006 J0.3
G1 X2.099 Y-16.265 Z-9.982
X2.155 Y-16.234 Z-9.96
X2.204 Y-16.207 Z-9.925
X2.246 Y-16.184 Z-9.877
X2.277 Y-16.167 Z-9.82
X2.297 Y-16.156 Z-9.757
X2.303 Y-16.152 Z-9.69
G0 Z2.21
X7.321 Y-13.409
Z-9.39
G1 Z-9.69 F100
X7.328 Y-13.405 Z-9.757
X7.347 Y-13.394 Z-9.82
X7.377 Y-13.375 Z-9.877
X7.417 Y-13.35 Z-9.925
X7.466 Y-13.321 Z-9.96
X7.52 Y-13.287 Z-9.982
X7.577 Y-13.252 Z-9.99
G2 X8.327 Y-13.02 I0.828 J-1.348
G1 X8.69 Y-13.015
X8.877 Y-13.022
G2 X3.262 Y-16.773 I-106.117 J152.763
G1 X3.023 Y-16.826
X2.784 Y-16.851
X2.426 Y-16.856
G2 X2.287 Y-16.293 I0.006 J0.3
G1 X2.346 Y-16.261 Z-9.982
X2.401 Y-16.231 Z-9.96
X2.451 Y-16.203 Z-9.925
X2.493 Y-16.18 Z-9.877
X2.524 Y-16.163 Z-9.82
X2.544 Y-16.152 Z-9.757
X2.55 Y-16.149 Z-9.69
G0 Z2.21
X7.684 Y-13.404
Z-9.39
G1 Z-9.69 F100
X7.69 Y-13.4 Z-9.757
X7.709 Y-13.389 Z-9.82
X7.74 Y-13.37 Z-9.877
X7.78 Y-13.345 Z-9.925
X7.829 Y-13.315 Z-9.96
X7.883 Y-13.282 Z-9.982
X7.94 Y-13.247 Z-9.99
G2 X8.69 Y-13.015 I0.828 J-1.348
G1 X9.037 Y-13.01
X9.225 Y-13.016
G2 X3.661 Y-16.746 I-74.073 J104.488
G1 X3.414 Y-16.818
X3.159 Y-16.846
X2.784 Y-16.851
G2 X2.645 Y-16.288 I0.006 J0.3
G1 X2.704 Y-16.256 Z-9.982
X2.76 Y-16.226 Z-9.96
X2.809 Y-16.198 Z-9.925
X2.851 Y-16.175 Z-9.877
X2.882 Y-16.158 Z-9.82
X2.902 Y-16.147 Z-9.757
X2.908 Y-16.144 Z-9.69
G0 Z2.21
X8.032 Y-13.399
Z-9.39
G1 Z-9.69 F100
X8.038 Y-13.395 Z-9.757
X8.057 Y-13.384 Z-9.82
X8.087 Y-13.365 Z-9.877
X8.128 Y-13.34 Z-9.925
X8.176 Y-13.31 Z-9.96
X8.23 Y-13.277 Z-9.982
X8.287 Y-13.242 Z-9.99
G2 X9.037 Y-13.01 I0.828 J-1.348
G1 X9.418 Y-13.004
X9.606 Y-13.011
X6.915 Y-14.825
X4.219 Y-16.631
X3.995 Y-16.743
X3.756 Y-16.814
X3.507 Y-16.841
X3.159 Y-16.846
G2 X3.021 Y-16.283 I0.006 J0.3
G1 X3.079 Y-16.251 Z-9.982
X3.135 Y-16.22 Z-9.96
X3.185 Y-16.193 Z-9.925
X3.226 Y-16.17 Z-9.877
X3.258 Y-16.152 Z-9.82
X3.277 Y-16.142 Z-9.757
X3.284 Y-16.138 Z-9.69
G0 Z2.21
X8.412 Y-13.394
Z-9.39
G1 Z-9.69 F100
X8.419 Y-13.39 Z-9.757
X8.438 Y-13.378 Z-9.82
X8.468 Y-13.359 Z-9.877
X8.509 Y-13.334 Z-9.925
X8.557 Y-13.305 Z-9.96
X8.611 Y-13.271 Z-9.982
X8.668 Y-13.237 Z-9.99
G2 X9.418 Y-13.004 I0.828 J-1.348
G1 X9.781 Y-12.999
X9.968 Y-13.006
G2 X4.346 Y-16.759 I-102.086 J146.827
G1 X4.109 Y-16.811
X3.871 Y-16.835
X3.507 Y-16.841
G2 X3.369 Y-16.278 I0.006 J0.3
G1 X3.427 Y-16.246 Z-9.982
X3.483 Y-16.215 Z-9.96
X3.533 Y-16.188 Z-9.925
X3.574 Y-16.165 Z-9.877
X3.605 Y-16.147 Z-9.82
X3.625 Y-16.137 Z-9.757
X3.631 Y-16.133 Z-9.69
G0 Z2.21
X8.775 Y-13.388
Z-9.39
G1 Z-9.69 F100
X8.782 Y-13.384 Z-9.757
X8.8 Y-13.373 Z-9.82
X8.831 Y-13.354 Z-9.877
X8.871 Y-13.329 Z-9.925
X8.92 Y-13.299 Z-9.96
X8.974 Y-13.266 Z-9.982
X9.031 Y-13.231 Z-9.99
G2 X9.781 Y-12.999 I0.828 J-1.348
G1 X10.129 Y-12.994
X10.316 Y-13.001
G2 X4.751 Y-16.73 I-75.401 J106.487
G1 X4.504 Y-16.802
X4.249 Y-16.83
X3.871 Y-16.835
G2 X3.733 Y-16.272 I0.006 J0.3
G1 X3.791 Y-16.24 Z-9.982
X3.847 Y-16.21 Z-9.96
X3.897 Y-16.182 Z-9.925
X3.938 Y-16.159 Z-9.877
X3.97 Y-16.142 Z-9.82
X3.989 Y-16.131 Z-9.757
X3.996 Y-16.128 Z-9.69
G0 Z2.21
X9.123 Y-13.383
Z-9.39
G1 Z-9.69 F100
X9.129 Y-13.379 Z-9.757
X9.148 Y-13.368 Z-9.82
X9.178 Y-13.349 Z-9.877
X9.219 Y-13.324 Z-9.925
X9.267 Y-13.294 Z-9.96
X9.321 Y-13.261 Z-9.982
X9.378 Y-13.226 Z-9.99
G2 X10.129 Y-12.994 I0.828 J-1.348
G1 X10.509 Y-12.988
X10.697 Y-12.995
X8.005 Y-14.809
X5.309 Y-16.615
X5.085 Y-16.727
X4.846 Y-16.798
X4.598 Y-16.825
X4.249 Y-16.83
G2 X4.111 Y-16.267 I0.006 J0.3
G1 X4.169 Y-16.235 Z-9.982
X4.225 Y-16.204 Z-9.96
X4.274 Y-16.177 Z-9.925
X4.316 Y-16.154 Z-9.877
X4.347 Y-16.137 Z-9.82
X4.367 Y-16.126 Z-9.757
X4.373 Y-16.122 Z-9.69
G0 Z2.21
X9.503 Y-13.378
Z-9.39
G1 Z-9.69 F100
X9.51 Y-13.374 Z-9.757
X9.529 Y-13.362 Z-9.82
X9.559 Y-13.343 Z-9.877
X9.6 Y-13.319 Z-9.925
X9.648 Y-13.289 Z-9.96
X9.702 Y-13.256 Z-9.982
X9.759 Y-13.221 Z-9.99
G2 X10.509 Y-12.988 I0.828 J-1.348
G1 X10.872 Y-12.983
X11.059 Y-12.99
G2 X5.437 Y-16.743 I-101.907 J146.57
G1 X5.199 Y-16.795
X4.962 Y-16.819
X4.598 Y-16.825
G2 X4.459 Y-16.262 I0.006 J0.3
G1 X4.518 Y-16.23 Z-9.982
X4.573 Y-16.199 Z-9.96
X4.623 Y-16.172 Z-9.925
X4.665 Y-16.149 Z-9.877
X4.696 Y-16.132 Z-9.82
X4.715 Y-16.121 Z-9.757
X4.722 Y-16.117 Z-9.69
G0 Z2.21
X9.866 Y-13.372
Z-9.39
G1 Z-9.69 F100
X9.873 Y-13.369 Z-9.757
X9.892 Y-13.357 Z-9.82
X9.922 Y-13.338 Z-9.877
X9.962 Y-13.313 Z-9.925
X10.011 Y-13.284 Z-9.96
X10.065 Y-13.25 Z-9.982
X10.122 Y-13.215 Z-9.99
G2 X10.872 Y-12.983 I0.828 J-1.348
G1 X11.22 Y-12.978
X11.407 Y-12.985
G2 X5.841 Y-16.715 I-75.395 J106.479
G1 X5.594 Y-16.786
X5.34 Y-16.814
X4.962 Y-16.819
G2 X4.823 Y-16.257 I0.006 J0.3
G1 X4.882 Y-16.224 Z-9.982
X4.937 Y-16.194 Z-9.96
X4.987 Y-16.166 Z-9.925
X5.029 Y-16.144 Z-9.877
X5.06 Y-16.126 Z-9.82
X5.08 Y-16.116 Z-9.757
X5.086 Y-16.112 Z-9.69
G0 Z2.21
X10.214 Y-13.368
Z-9.39
G1 Z-9.69 F100
X10.22 Y-13.364 Z-9.757
X10.239 Y-13.352 Z-9.82
X10.27 Y-13.333 Z-9.877
X10.31 Y-13.308 Z-9.925
X10.358 Y-13.279 Z-9.96
X10.412 Y-13.245 Z-9.982
X10.469 Y-13.21 Z-9.99
G2 X11.22 Y-12.978 I0.829 J-1.348
G1 X11.6 Y-12.973
X11.788 Y-12.979
X9.097 Y-14.792
X6.401 Y-16.599
X6.178 Y-16.711
X5.938 Y-16.782
X5.689 Y-16.809
X5.34 Y-16.814
G2 X5.201 Y-16.251 I0.006 J0.3
G1 X5.26 Y-16.219 Z-9.982
X5.315 Y-16.188 Z-9.96
X5.365 Y-16.161 Z-9.925
X5.407 Y-16.138 Z-9.877
X5.438 Y-16.121 Z-9.82
X5.458 Y-16.11 Z-9.757
X5.464 Y-16.106 Z-9.69
G0 Z2.21
X10.594 Y-13.362
Z-9.39
G1 Z-9.69 F100
X10.601 Y-13.358 Z-9.757
X10.62 Y-13.346 Z-9.82
X10.65 Y-13.328 Z-9.877
X10.691 Y-13.303 Z-9.925
X10.739 Y-13.273 Z-9.96
X10.793 Y-13.24 Z-9.982
X10.85 Y-13.205 Z-9.99
G2 X11.6 Y-12.973 I0.829 J-1.348
G1 X11.963 Y-12.967
X12.151 Y-12.974
G2 X6.527 Y-16.728 I-100.349 J144.215
G1 X6.29 Y-16.78
X6.055 Y-16.804
X5.689 Y-16.809
G2 X5.551 Y-16.246 I0.006 J0.3
G1 X5.609 Y-16.214 Z-9.982
X5.665 Y-16.183 Z-9.96
X5.715 Y-16.156 Z-9.925
X5.756 Y-16.133 Z-9.877
X5.788 Y-16.116 Z-9.82
X5.807 Y-16.105 Z-9.757
X5.814 Y-16.101 Z-9.69
G0 Z2.21
X10.957 Y-13.357
Z-9.39
G1 Z-9.69 F100
X10.964 Y-13.353 Z-9.757
X10.983 Y-13.341 Z-9.82
X11.013 Y-13.322 Z-9.877
X11.054 Y-13.297 Z-9.925
X11.102 Y-13.268 Z-9.96
X11.156 Y-13.235 Z-9.982
X11.213 Y-13.2 Z-9.99
G2 X11.963 Y-12.967 I0.829 J-1.348
G1 X12.311 Y-12.962
X12.498 Y-12.968
G2 X6.931 Y-16.699 I-71.234 J100.278
G1 X6.685 Y-16.77
X6.43 Y-16.798
X6.055 Y-16.804
G2 X5.916 Y-16.241 I0.006 J0.3
G1 X5.975 Y-16.209 Z-9.982
X6.03 Y-16.178 Z-9.96
X6.08 Y-16.151 Z-9.925
X6.122 Y-16.128 Z-9.877
X6.153 Y-16.11 Z-9.82
X6.172 Y-16.1 Z-9.757
X6.179 Y-16.096 Z-9.69
G0 Z2.21
X11.305 Y-13.352
Z-9.39
G1 Z-9.69 F100
X11.312 Y-13.348 Z-9.757
X11.331 Y-13.337 Z-9.82
X11.361 Y-13.318 Z-9.877
X11.401 Y-13.293 Z-9.925
X11.45 Y-13.263 Z-9.96
X11.504 Y-13.23 Z-9.982
X11.561 Y-13.195 Z-9.99
G2 X12.311 Y-12.962 I0.83 J-1.347
G1 X12.691 Y-12.956
X12.879 Y-12.962
X10.884 Y-14.301
X7.69 Y-16.457
X7.499 Y-16.579
X7.275 Y-16.694
X7.034 Y-16.766
X6.784 Y-16.793
X6.43 Y-16.798
G2 X6.292 Y-16.235 I0.006 J0.3
G1 X6.35 Y-16.203 Z-9.982
X6.406 Y-16.173 Z-9.96
X6.456 Y-16.145 Z-9.925
X6.497 Y-16.122 Z-9.877
X6.529 Y-16.105 Z-9.82
X6.548 Y-16.094 Z-9.757
X6.555 Y-16.091 Z-9.69
G0 Z2.21
X11.686 Y-13.346
Z-9.39
G1 Z-9.69 F100
X11.692 Y-13.342 Z-9.757
X11.711 Y-13.331 Z-9.82
X11.742 Y-13.312 Z-9.877
X11.782 Y-13.287 Z-9.925
X11.831 Y-13.257 Z-9.96
X11.884 Y-13.224 Z-9.982
X11.941 Y-13.189 Z-9.99
G2 X12.691 Y-12.956 I0.83 J-1.347
G1 X13.054 Y-12.95
X13.242 Y-12.957
G2 X7.403 Y-16.804 I-45.554 J62.779
G1 X7.166 Y-16.787
X6.784 Y-16.793
G2 X6.645 Y-16.23 I0.006 J0.3
G1 X6.704 Y-16.198 Z-9.982
X6.759 Y-16.167 Z-9.96
X6.809 Y-16.14 Z-9.925
X6.851 Y-16.117 Z-9.877
X6.882 Y-16.1 Z-9.82
X6.902 Y-16.089 Z-9.757
X6.908 Y-16.086 Z-9.69
G0 Z2.21
X12.049 Y-13.341
Z-9.39
G1 Z-9.69 F100
X12.055 Y-13.337 Z-9.757
X12.074 Y-13.325 Z-9.82
X12.104 Y-13.306 Z-9.877
X12.145 Y-13.281 Z-9.925
X12.193 Y-13.252 Z-9.96
X12.247 Y-13.218 Z-9.982
X12.304 Y-13.183 Z-9.99
G2 X13.054 Y-12.95 I0.83 J-1.347
G1 X13.402 Y-12.944
X13.589 Y-12.95
G2 X8.038 Y-16.673 I-458.362 J677.332
G1 X7.786 Y-16.753
X7.523 Y-16.782
X7.166 Y-16.787
G2 X7.027 Y-16.225 I0.006 J0.3
G1 X7.086 Y-16.192 Z-9.982
X7.142 Y-16.162 Z-9.96
X7.191 Y-16.134 Z-9.925
X7.233 Y-16.112 Z-9.877
X7.264 Y-16.094 Z-9.82
X7.284 Y-16.084 Z-9.757
X7.29 Y-16.08 Z-9.69
G0 Z2.21
X12.398 Y-13.339
Z-9.39
G1 Z-9.69 F100
X12.404 Y-13.335 Z-9.757
X12.423 Y-13.323 Z-9.82
X12.454 Y-13.304 Z-9.877
X12.494 Y-13.279 Z-9.925
X12.542 Y-13.249 Z-9.96
X12.596 Y-13.216 Z-9.982
X12.653 Y-13.18 Z-9.99
G2 X13.402 Y-12.944 I0.836 J-1.344
G1 X13.782 Y-12.936
X13.97 Y-12.942
G2 X8.372 Y-16.677 I-61.11 J85.523
G1 X8.128 Y-16.75
X7.876 Y-16.777
X7.523 Y-16.782
G2 X7.384 Y-16.219 I0.006 J0.3
G1 X7.442 Y-16.187 Z-9.982
X7.498 Y-16.157 Z-9.96
X7.548 Y-16.129 Z-9.925
X7.589 Y-16.106 Z-9.877
X7.621 Y-16.089 Z-9.82
X7.64 Y-16.078 Z-9.757
X7.647 Y-16.075 Z-9.69
G0 Z2.21
X12.779 Y-13.331
Z-9.39
G1 Z-9.69 F100
X12.785 Y-13.327 Z-9.757
X12.804 Y-13.315 Z-9.82
X12.834 Y-13.297 Z-9.877
X12.875 Y-13.271 Z-9.925
X12.923 Y-13.241 Z-9.96
X12.977 Y-13.208 Z-9.982
X13.033 Y-13.173 Z-9.99
G2 X13.782 Y-12.936 I0.836 J-1.344
G1 X14.145 Y-12.929
X14.333 Y-12.935
G2 X8.755 Y-16.67 I-89.137 J127.09
G1 X8.506 Y-16.743
X8.248 Y-16.772
X7.876 Y-16.777
G2 X7.738 Y-16.214 I0.006 J0.3
G1 X7.796 Y-16.182 Z-9.982
X7.852 Y-16.152 Z-9.96
X7.902 Y-16.124 Z-9.925
X7.943 Y-16.101 Z-9.877
X7.974 Y-16.084 Z-9.82
X7.994 Y-16.073 Z-9.757
X8 Y-16.07 Z-9.69
G0 Z2.21
X13.141 Y-13.324
Z-9.39
G1 Z-9.69 F100
X13.148 Y-13.32 Z-9.757
X13.167 Y-13.308 Z-9.82
X13.197 Y-13.289 Z-9.877
X13.237 Y-13.264 Z-9.925
X13.286 Y-13.234 Z-9.96
X13.34 Y-13.201 Z-9.982
X13.396 Y-13.165 Z-9.99
G2 X14.145 Y-12.929 I0.836 J-1.344
G1 X14.493 Y-12.922
X14.68 Y-12.927
G2 X9.121 Y-16.657 I-71.068 J99.92
G1 X8.86 Y-16.736
X8.59 Y-16.767
X8.248 Y-16.772
G2 X8.11 Y-16.209 I0.006 J0.3
G1 X8.168 Y-16.177 Z-9.982
X8.224 Y-16.146 Z-9.96
X8.274 Y-16.119 Z-9.925
X8.315 Y-16.096 Z-9.877
X8.346 Y-16.079 Z-9.82
X8.366 Y-16.068 Z-9.757
X8.372 Y-16.064 Z-9.69
G0 Z2.21
X13.49 Y-13.319
Z-9.39
G1 Z-9.69 F100
X13.496 Y-13.315 Z-9.757
X13.515 Y-13.303 Z-9.82
X13.545 Y-13.284 Z-9.877
X13.586 Y-13.259 Z-9.925
X13.634 Y-13.229 Z-9.96
X13.688 Y-13.195 Z-9.982
X13.744 Y-13.16 Z-9.99
G2 X14.493 Y-12.922 I0.838 J-1.342
G1 X14.873 Y-12.914
X15.061 Y-12.919
X11.097 Y-15.608
X9.601 Y-16.565
X9.384 Y-16.671
X9.153 Y-16.737
X8.914 Y-16.762
X8.59 Y-16.767
G2 X8.452 Y-16.204 I0.006 J0.3
G1 X8.51 Y-16.172 Z-9.982
X8.566 Y-16.141 Z-9.96
X8.616 Y-16.114 Z-9.925
X8.657 Y-16.091 Z-9.877
X8.689 Y-16.074 Z-9.82
X8.708 Y-16.063 Z-9.757
X8.715 Y-16.059 Z-9.69
G0 Z2.21
X13.87 Y-13.31
Z-9.39
G1 Z-9.69 F100
X13.877 Y-13.306 Z-9.757
X13.896 Y-13.295 Z-9.82
X13.926 Y-13.276 Z-9.877
X13.966 Y-13.25 Z-9.925
X14.015 Y-13.22 Z-9.96
X14.068 Y-13.187 Z-9.982
X14.125 Y-13.151 Z-9.99
G2 X14.873 Y-12.914 I0.838 J-1.342
G1 X15.236 Y-12.906
X15.424 Y-12.911
G2 X9.764 Y-16.682 I-77.014 J109.45
G1 X9.523 Y-16.732
X9.283 Y-16.757
X8.914 Y-16.762
G2 X8.775 Y-16.199 I0.006 J0.3
G1 X8.834 Y-16.167 Z-9.982
X8.889 Y-16.137 Z-9.96
X8.939 Y-16.109 Z-9.925
X8.981 Y-16.086 Z-9.877
X9.012 Y-16.069 Z-9.82
X9.031 Y-16.058 Z-9.757
X9.038 Y-16.055 Z-9.69
G0 Z2.21
X14.233 Y-13.302
Z-9.39
G1 Z-9.69 F100
X14.24 Y-13.298 Z-9.757
X14.259 Y-13.287 Z-9.82
X14.289 Y-13.268 Z-9.877
X14.329 Y-13.243 Z-9.925
X14.377 Y-13.212 Z-9.96
X14.431 Y-13.179 Z-9.982
X14.488 Y-13.143 Z-9.99
G2 X15.236 Y-12.906 I0.838 J-1.342
G1 X15.584 Y-12.898
X15.771 Y-12.903
G2 X10.125 Y-16.685 I-68.134 J95.602
G1 X9.891 Y-16.728
X9.662 Y-16.751
X9.283 Y-16.757
G2 X9.145 Y-16.194 I0.006 J0.3
G1 X9.203 Y-16.162 Z-9.982
X9.259 Y-16.131 Z-9.96
X9.309 Y-16.104 Z-9.925
X9.35 Y-16.081 Z-9.877
X9.382 Y-16.064 Z-9.82
X9.401 Y-16.053 Z-9.757
X9.408 Y-16.049 Z-9.69
G0 Z2.21
X14.582 Y-13.296
Z-9.39
G1 Z-9.69 F100
X14.588 Y-13.292 Z-9.757
X14.607 Y-13.281 Z-9.82
X14.637 Y-13.262 Z-9.877
X14.677 Y-13.236 Z-9.925
X14.725 Y-13.206 Z-9.96
X14.779 Y-13.172 Z-9.982
X14.836 Y-13.137 Z-9.99
G2 X15.584 Y-12.898 I0.841 J-1.341
G1 X15.965 Y-12.889
X16.152 Y-12.893
X12.181 Y-15.601
G2 X10.29 Y-16.731 I-4.575 J5.508
G1 X10.04 Y-16.746
X9.662 Y-16.751
G2 X9.523 Y-16.188 I0.006 J0.3
G1 X9.582 Y-16.156 Z-9.982
X9.637 Y-16.126 Z-9.96
X9.687 Y-16.098 Z-9.925
X9.729 Y-16.075 Z-9.877
X9.76 Y-16.058 Z-9.82
X9.779 Y-16.047 Z-9.757
X9.786 Y-16.044 Z-9.69
G0 Z2.21
X14.962 Y-13.287
Z-9.39
G1 Z-9.69 F100
X14.969 Y-13.283 Z-9.757
X14.987 Y-13.271 Z-9.82
X15.018 Y-13.252 Z-9.877
X15.058 Y-13.227 Z-9.925
X15.106 Y-13.197 Z-9.96
X15.16 Y-13.163 Z-9.982
X15.216 Y-13.128 Z-9.99
G2 X15.965 Y-12.889 I0.841 J-1.341
G1 X16.327 Y-12.88
X16.515 Y-12.885
G2 X10.888 Y-16.667 I-84.599 J119.769
G1 X10.648 Y-16.716
X10.411 Y-16.74
X10.04 Y-16.746
G2 X9.902 Y-16.183 I0.006 J0.3
G1 X9.96 Y-16.151 Z-9.982
X10.016 Y-16.12 Z-9.96
X10.066 Y-16.093 Z-9.925
X10.107 Y-16.07 Z-9.877
X10.138 Y-16.053 Z-9.82
X10.158 Y-16.042 Z-9.757
X10.165 Y-16.038 Z-9.69
G0 Z2.21
X15.325 Y-13.279
Z-9.39
G1 Z-9.69 F100
X15.332 Y-13.275 Z-9.757
X15.35 Y-13.263 Z-9.82
X15.381 Y-13.244 Z-9.877
X15.421 Y-13.219 Z-9.925
X15.469 Y-13.188 Z-9.96
X15.523 Y-13.155 Z-9.982
X15.579 Y-13.119 Z-9.99
G2 X16.327 Y-12.88 I0.841 J-1.341
G1 X16.675 Y-12.871
X16.862 Y-12.876
G2 X11.295 Y-16.639 I-65.159 J90.396
G1 X11.048 Y-16.707
X10.795 Y-16.735
X10.411 Y-16.74
G2 X10.272 Y-16.178 I0.006 J0.3
G1 X10.331 Y-16.145 Z-9.982
X10.386 Y-16.115 Z-9.96
X10.436 Y-16.087 Z-9.925
X10.477 Y-16.064 Z-9.877
X10.509 Y-16.047 Z-9.82
X10.528 Y-16.036 Z-9.757
X10.535 Y-16.033 Z-9.69
G0 Z2.21
X15.673 Y-13.271
Z-9.39
G1 Z-9.69 F100
X15.679 Y-13.267 Z-9.757
X15.698 Y-13.255 Z-9.82
X15.728 Y-13.236 Z-9.877
X15.769 Y-13.211 Z-9.925
X15.817 Y-13.18 Z-9.96
X15.87 Y-13.147 Z-9.982
X15.927 Y-13.111 Z-9.99
G2 X16.675 Y-12.871 I0.842 J-1.34
G1 X17.056 Y-12.862
X17.243 Y-12.867
G2 X11.844 Y-16.528 I-152.124 J218.525
G1 X11.622 Y-16.635
X11.386 Y-16.704
X11.142 Y-16.73
X10.795 Y-16.735
G2 X10.656 Y-16.172 I0.006 J0.3
G1 X10.715 Y-16.14 Z-9.982
X10.77 Y-16.109 Z-9.96
X10.82 Y-16.082 Z-9.925
X10.862 Y-16.059 Z-9.877
X10.893 Y-16.042 Z-9.82
X10.912 Y-16.031 Z-9.757
X10.919 Y-16.027 Z-9.69
G0 Z2.21
X16.054 Y-13.261
Z-9.39
G1 Z-9.69 F100
X16.06 Y-13.257 Z-9.757
X16.079 Y-13.246 Z-9.82
X16.109 Y-13.227 Z-9.877
X16.149 Y-13.201 Z-9.925
X16.197 Y-13.171 Z-9.96
X16.251 Y-13.137 Z-9.982
X16.308 Y-13.102 Z-9.99
G2 X17.056 Y-12.862 I0.842 J-1.34
G1 X17.418 Y-12.853
X17.606 Y-12.858
G2 X11.994 Y-16.646 I-79.625 J111.921
G1 X11.751 Y-16.699
X11.509 Y-16.724
X11.142 Y-16.73
G2 X11.003 Y-16.167 I0.006 J0.3
G1 X11.062 Y-16.135 Z-9.982
X11.117 Y-16.104 Z-9.96
X11.167 Y-16.077 Z-9.925
X11.209 Y-16.054 Z-9.877
X11.24 Y-16.037 Z-9.82
X11.259 Y-16.026 Z-9.757
X11.266 Y-16.022 Z-9.69
G0 Z2.21
X16.416 Y-13.253
Z-9.39
G1 Z-9.69 F100
X16.423 Y-13.249 Z-9.757
X16.442 Y-13.237 Z-9.82
X16.472 Y-13.218 Z-9.877
X16.512 Y-13.192 Z-9.925
X16.56 Y-13.162 Z-9.96
X16.614 Y-13.128 Z-9.982
X16.67 Y-13.093 Z-9.99
G2 X17.418 Y-12.853 I0.842 J-1.34
G1 X17.766 Y-12.845
X17.953 Y-12.85
G2 X12.356 Y-16.646 I-75.854 J105.824
G1 X12.117 Y-16.695
X11.88 Y-16.719
X11.509 Y-16.724
G2 X11.37 Y-16.162 I0.006 J0.3
G1 X11.429 Y-16.129 Z-9.982
X11.484 Y-16.099 Z-9.96
X11.534 Y-16.071 Z-9.925
X11.576 Y-16.048 Z-9.877
X11.607 Y-16.031 Z-9.82
X11.626 Y-16.02 Z-9.757
X11.633 Y-16.017 Z-9.69
G0 Z2.21
X16.764 Y-13.244
Z-9.39
G1 Z-9.69 F100
X16.77 Y-13.24 Z-9.757
X16.789 Y-13.228 Z-9.82
X16.819 Y-13.209 Z-9.877
X16.859 Y-13.184 Z-9.925
X16.908 Y-13.153 Z-9.96
X16.961 Y-13.12 Z-9.982
X17.018 Y-13.084 Z-9.99
G2 X17.766 Y-12.845 I0.841 J-1.341
G1 X18.147 Y-12.836
X18.334 Y-12.841
G2 X12.74 Y-16.619 I-50.08 J68.116
G1 X12.5 Y-16.687
X12.252 Y-16.713
X11.88 Y-16.719
G2 X11.741 Y-16.156 I0.006 J0.3
G1 X11.8 Y-16.124 Z-9.982
X11.855 Y-16.093 Z-9.96
X11.905 Y-16.066 Z-9.925
X11.947 Y-16.043 Z-9.877
X11.978 Y-16.026 Z-9.82
X11.998 Y-16.015 Z-9.757
X12.004 Y-16.011 Z-9.69
G0 Z2.21
X17.144 Y-13.235
Z-9.39
G1 Z-9.69 F100
X17.151 Y-13.231 Z-9.757
X17.17 Y-13.219 Z-9.82
X17.2 Y-13.2 Z-9.877
X17.24 Y-13.175 Z-9.925
X17.288 Y-13.144 Z-9.96
X17.342 Y-13.111 Z-9.982
X17.399 Y-13.075 Z-9.99
G2 X18.147 Y-12.836 I0.841 J-1.341
G1 X18.509 Y-12.827
X18.697 Y-12.832
G2 X13.101 Y-16.629 I-86.051 J120.809
G1 X12.859 Y-16.682
X12.618 Y-16.708
X12.252 Y-16.713
G2 X12.113 Y-16.151 I0.006 J0.3
G1 X12.171 Y-16.118 Z-9.982
X12.227 Y-16.088 Z-9.96
X12.276 Y-16.06 Z-9.925
X12.318 Y-16.037 Z-9.877
X12.349 Y-16.02 Z-9.82
X12.369 Y-16.009 Z-9.757
X12.375 Y-16.006 Z-9.69
G0 Z2.21
X17.507 Y-13.226
Z-9.39
G1 Z-9.69 F100
X17.514 Y-13.222 Z-9.757
X17.532 Y-13.21 Z-9.82
X17.563 Y-13.191 Z-9.877
X17.603 Y-13.166 Z-9.925
X17.651 Y-13.136 Z-9.96
X17.705 Y-13.102 Z-9.982
X17.761 Y-13.066 Z-9.99
G2 X18.509 Y-12.827 I0.841 J-1.341
G1 X18.857 Y-12.819
X19.044 Y-12.824
G2 X13.456 Y-16.631 I-76.731 J106.628
G1 X13.221 Y-16.678
X12.989 Y-16.702
X12.618 Y-16.708
G2 X12.479 Y-16.145 I0.006 J0.3
G1 X12.537 Y-16.113 Z-9.982
X12.593 Y-16.082 Z-9.96
X12.642 Y-16.055 Z-9.925
X12.684 Y-16.032 Z-9.877
X12.715 Y-16.014 Z-9.82
X12.735 Y-16.004 Z-9.757
X12.741 Y-16 Z-9.69
G0 Z2.21
X17.855 Y-13.218
Z-9.39
G1 Z-9.69 F100
X17.861 Y-13.214 Z-9.757
X17.88 Y-13.202 Z-9.82
X17.91 Y-13.183 Z-9.877
X17.951 Y-13.158 Z-9.925
X17.999 Y-13.127 Z-9.96
X18.052 Y-13.094 Z-9.982
X18.109 Y-13.058 Z-9.99
G2 X18.857 Y-12.819 I0.841 J-1.34
G1 X19.238 Y-12.81
X19.425 Y-12.814
G2 X13.86 Y-16.595 I-60.459 J82.997
G1 X13.617 Y-16.667
X13.366 Y-16.695
X12.989 Y-16.702
G2 X12.849 Y-16.139 I0.006 J0.3
G1 X12.908 Y-16.107 Z-9.982
X12.963 Y-16.076 Z-9.96
X13.013 Y-16.049 Z-9.925
X13.055 Y-16.026 Z-9.877
X13.086 Y-16.009 Z-9.82
X13.106 Y-15.998 Z-9.757
X13.112 Y-15.994 Z-9.69
G0 Z2.21
X18.236 Y-13.209
Z-9.39
G1 Z-9.69 F100
X18.242 Y-13.205 Z-9.757
X18.261 Y-13.193 Z-9.82
X18.291 Y-13.174 Z-9.877
X18.331 Y-13.148 Z-9.925
X18.379 Y-13.118 Z-9.96
X18.433 Y-13.085 Z-9.982
X18.49 Y-13.049 Z-9.99
G2 X19.238 Y-12.81 I0.841 J-1.34
G1 X19.601 Y-12.801
X19.788 Y-12.806
G2 X14.201 Y-16.613 I-98.159 J138.015
G1 X13.968 Y-16.664
X13.735 Y-16.688
X13.366 Y-16.695
G2 X13.225 Y-16.133 I0.005 J0.3
G1 X13.283 Y-16.101 Z-9.982
X13.338 Y-16.07 Z-9.96
X13.388 Y-16.042 Z-9.925
X13.43 Y-16.019 Z-9.877
X13.461 Y-16.002 Z-9.82
X13.48 Y-15.991 Z-9.757
X13.487 Y-15.987 Z-9.69
G0 Z2.21
X18.598 Y-13.2
Z-9.39
G1 Z-9.69 F100
X18.605 Y-13.196 Z-9.757
X18.624 Y-13.184 Z-9.82
X18.654 Y-13.165 Z-9.877
X18.694 Y-13.14 Z-9.925
X18.742 Y-13.109 Z-9.96
X18.796 Y-13.076 Z-9.982
X18.853 Y-13.04 Z-9.99
G2 X19.601 Y-12.801 I0.841 J-1.34
G1 X19.948 Y-12.792
X20.135 Y-12.797
G2 X14.608 Y-16.577 I-68.828 J94.732
G1 X14.36 Y-16.651
X14.104 Y-16.681
X13.735 Y-16.688
G2 X13.594 Y-16.126 I0.005 J0.3
G1 X13.652 Y-16.094 Z-9.982
X13.708 Y-16.063 Z-9.96
X13.757 Y-16.035 Z-9.925
X13.799 Y-16.012 Z-9.877
X13.83 Y-15.994 Z-9.82
X13.849 Y-15.984 Z-9.757
X13.856 Y-15.98 Z-9.69
G0 Z2.21
X18.946 Y-13.191
Z-9.39
G1 Z-9.69 F100
X18.952 Y-13.187 Z-9.757
X18.971 Y-13.176 Z-9.82
X19.001 Y-13.157 Z-9.877
X19.042 Y-13.131 Z-9.925
X19.09 Y-13.101 Z-9.96
X19.144 Y-13.067 Z-9.982
X19.2 Y-13.032 Z-9.99
G2 X19.948 Y-12.792 I0.841 J-1.34
G1 X20.329 Y-12.783
X20.516 Y-12.788
G2 X15.161 Y-16.458 I-527.433 J763.814
G1 X14.938 Y-16.572
X14.699 Y-16.645
X14.45 Y-16.674
X14.104 Y-16.681
G2 X13.963 Y-16.119 I0.005 J0.3
G1 X14.021 Y-16.086 Z-9.982
X14.077 Y-16.055 Z-9.96
X14.126 Y-16.028 Z-9.925
X14.168 Y-16.005 Z-9.877
X14.199 Y-15.987 Z-9.82
X14.218 Y-15.976 Z-9.757
X14.225 Y-15.973 Z-9.69
G0 Z2.21
X19.327 Y-13.182
Z-9.39
G1 Z-9.69 F100
X19.333 Y-13.178 Z-9.757
X19.352 Y-13.166 Z-9.82
X19.382 Y-13.147 Z-9.877
X19.422 Y-13.122 Z-9.925
X19.47 Y-13.092 Z-9.96
X19.524 Y-13.058 Z-9.982
X19.581 Y-13.023 Z-9.99
G2 X20.329 Y-12.783 I0.841 J-1.34
G1 X20.692 Y-12.774
X20.879 Y-12.779
G2 X15.291 Y-16.584 I-103.191 J145.523
G1 X15.052 Y-16.639
X14.812 Y-16.666
X14.45 Y-16.674
G2 X14.308 Y-16.112 I0.004 J0.3
G1 X14.366 Y-16.079 Z-9.982
X14.421 Y-16.048 Z-9.96
X14.471 Y-16.021 Z-9.925
X14.512 Y-15.997 Z-9.877
X14.544 Y-15.98 Z-9.82
X14.563 Y-15.969 Z-9.757
X14.569 Y-15.965 Z-9.69
G0 Z2.21
X19.69 Y-13.173
Z-9.39
G1 Z-9.69 F100
X19.696 Y-13.169 Z-9.757
X19.715 Y-13.158 Z-9.82
X19.745 Y-13.139 Z-9.877
X19.785 Y-13.113 Z-9.925
X19.833 Y-13.083 Z-9.96
X19.887 Y-13.049 Z-9.982
X19.944 Y-13.014 Z-9.99
G2 X20.692 Y-12.774 I0.841 J-1.34
G1 X21.039 Y-12.766
X21.227 Y-12.771
G2 X15.694 Y-16.554 I-78.129 J108.313
G1 X15.446 Y-16.628
X15.191 Y-16.658
X14.812 Y-16.666
G2 X14.67 Y-16.104 I0.004 J0.3
G1 X14.728 Y-16.071 Z-9.982
X14.783 Y-16.04 Z-9.96
X14.833 Y-16.013 Z-9.925
X14.874 Y-15.989 Z-9.877
X14.906 Y-15.972 Z-9.82
X14.925 Y-15.961 Z-9.757
X14.932 Y-15.958 Z-9.69
G0 Z2.21
X20.037 Y-13.165
Z-9.39
G1 Z-9.69 F100
X20.043 Y-13.161 Z-9.757
X20.062 Y-13.149 Z-9.82
X20.092 Y-13.13 Z-9.877
X20.133 Y-13.105 Z-9.925
X20.181 Y-13.075 Z-9.96
X20.235 Y-13.041 Z-9.982
X20.291 Y-13.006 Z-9.99
G2 X21.039 Y-12.766 I0.841 J-1.34
G1 X21.42 Y-12.757
X21.607 Y-12.762
X18.932 Y-14.602
X16.252 Y-16.434
X16.029 Y-16.548
X15.791 Y-16.621
X15.543 Y-16.65
X15.191 Y-16.658
G2 X15.048 Y-16.096 I0.004 J0.3
G1 X15.106 Y-16.063 Z-9.982
X15.162 Y-16.032 Z-9.96
X15.211 Y-16.004 Z-9.925
X15.253 Y-15.981 Z-9.877
X15.284 Y-15.964 Z-9.82
X15.303 Y-15.953 Z-9.757
X15.31 Y-15.949 Z-9.69
G0 Z2.21
X20.418 Y-13.156
Z-9.39
G1 Z-9.69 F100
X20.424 Y-13.152 Z-9.757
X20.443 Y-13.14 Z-9.82
X20.473 Y-13.121 Z-9.877
X20.513 Y-13.096 Z-9.925
X20.562 Y-13.066 Z-9.96
X20.615 Y-13.032 Z-9.982
X20.672 Y-12.996 Z-9.99
G2 X21.42 Y-12.757 I0.841 J-1.34
G1 X21.783 Y-12.748
X21.97 Y-12.753
G2 X16.382 Y-16.56 I-103.323 J145.653
G1 X16.144 Y-16.614
X15.907 Y-16.641
X15.543 Y-16.65
G2 X15.399 Y-16.088 I0.003 J0.3
G1 X15.457 Y-16.055 Z-9.982
X15.512 Y-16.024 Z-9.96
X15.562 Y-15.996 Z-9.925
X15.603 Y-15.973 Z-9.877
X15.634 Y-15.956 Z-9.82
X15.654 Y-15.945 Z-9.757
X15.66 Y-15.941 Z-9.69
G0 Z2.21
X20.781 Y-13.147
Z-9.39
G1 Z-9.69 F100
X20.787 Y-13.143 Z-9.757
X20.806 Y-13.131 Z-9.82
X20.836 Y-13.112 Z-9.877
X20.876 Y-13.087 Z-9.925
X20.924 Y-13.057 Z-9.96
X20.978 Y-13.023 Z-9.982
X21.035 Y-12.988 Z-9.99
G2 X21.783 Y-12.748 I0.841 J-1.34
G1 X22.13 Y-12.74
X22.318 Y-12.745
G2 X16.786 Y-16.528 I-77.136 J106.833
G1 X16.54 Y-16.602
X16.285 Y-16.632
X15.907 Y-16.641
G2 X15.763 Y-16.08 I0.003 J0.3
G1 X15.821 Y-16.047 Z-9.982
X15.877 Y-16.016 Z-9.96
X15.926 Y-15.988 Z-9.925
X15.968 Y-15.964 Z-9.877
X15.999 Y-15.947 Z-9.82
X16.018 Y-15.936 Z-9.757
X16.025 Y-15.932 Z-9.69
G0 Z2.21
X21.128 Y-13.139
Z-9.39
G1 Z-9.69 F100
X21.134 Y-13.135 Z-9.757
X21.153 Y-13.123 Z-9.82
X21.184 Y-13.104 Z-9.877
X21.224 Y-13.079 Z-9.925
X21.272 Y-13.048 Z-9.96
X21.326 Y-13.015 Z-9.982
X21.382 Y-12.979 Z-9.99
G2 X22.13 Y-12.74 I0.841 J-1.34
G1 X22.511 Y-12.73
X22.698 Y-12.735
X20.024 Y-14.575
X17.344 Y-16.407
X17.121 Y-16.521
X16.883 Y-16.595
X16.635 Y-16.624
X16.285 Y-16.632
G2 X16.142 Y-16.071 I0.003 J0.3
G1 X16.2 Y-16.038 Z-9.982
X16.255 Y-16.007 Z-9.96
X16.305 Y-15.979 Z-9.925
X16.346 Y-15.955 Z-9.877
X16.377 Y-15.938 Z-9.82
X16.396 Y-15.927 Z-9.757
X16.403 Y-15.923 Z-9.69
G0 Z2.21
X21.509 Y-13.129
Z-9.39
G1 Z-9.69 F100
X21.515 Y-13.125 Z-9.757
X21.534 Y-13.114 Z-9.82
X21.564 Y-13.095 Z-9.877
X21.604 Y-13.069 Z-9.925
X21.653 Y-13.039 Z-9.96
X21.706 Y-13.005 Z-9.982
X21.763 Y-12.97 Z-9.99
G2 X22.511 Y-12.73 I0.841 J-1.34
G1 X22.874 Y-12.722
X23.061 Y-12.727
G2 X17.473 Y-16.534 I-103.95 J146.555
G1 X17.236 Y-16.588
X16.999 Y-16.615
X16.635 Y-16.624
G2 X16.491 Y-16.062 I0.003 J0.3
G1 X16.549 Y-16.029 Z-9.982
X16.604 Y-15.998 Z-9.96
X16.654 Y-15.97 Z-9.925
X16.695 Y-15.947 Z-9.877
X16.726 Y-15.93 Z-9.82
X16.745 Y-15.919 Z-9.757
X16.752 Y-15.915 Z-9.69
G0 Z2.21
X21.872 Y-13.121
Z-9.39
G1 Z-9.69 F100
X21.878 Y-13.117 Z-9.757
X21.897 Y-13.105 Z-9.82
X21.927 Y-13.086 Z-9.877
X21.967 Y-13.061 Z-9.925
X22.015 Y-13.03 Z-9.96
X22.069 Y-12.997 Z-9.982
X22.126 Y-12.961 Z-9.99
G2 X22.874 Y-12.722 I0.841 J-1.34
G1 X23.221 Y-12.713
X23.409 Y-12.718
G2 X17.878 Y-16.502 I-76.898 J106.48
G1 X17.631 Y-16.576
X17.377 Y-16.606
X16.999 Y-16.615
G2 X16.855 Y-16.053 I0.003 J0.3
G1 X16.913 Y-16.021 Z-9.982
X16.968 Y-15.99 Z-9.96
X17.018 Y-15.962 Z-9.925
X17.059 Y-15.938 Z-9.877
X17.09 Y-15.921 Z-9.82
X17.11 Y-15.91 Z-9.757
X17.116 Y-15.906 Z-9.69
G0 Z2.21
X22.219 Y-13.112
Z-9.39
G1 Z-9.69 F100
X22.226 Y-13.108 Z-9.757
X22.244 Y-13.096 Z-9.82
X22.275 Y-13.077 Z-9.877
X22.315 Y-13.052 Z-9.925
X22.363 Y-13.022 Z-9.96
X22.417 Y-12.988 Z-9.982
X22.473 Y-12.953 Z-9.99
G2 X23.221 Y-12.713 I0.841 J-1.34
G1 X23.602 Y-12.704
X23.789 Y-12.709
X21.115 Y-14.549
X18.435 Y-16.381
X18.213 Y-16.495
X17.974 Y-16.568
X17.726 Y-16.597
X17.377 Y-16.606
G2 X17.233 Y-16.044 I0.003 J0.3
G1 X17.291 Y-16.011 Z-9.982
X17.346 Y-15.98 Z-9.96
X17.396 Y-15.952 Z-9.925
X17.437 Y-15.929 Z-9.877
X17.469 Y-15.912 Z-9.82
X17.488 Y-15.901 Z-9.757
X17.494 Y-15.897 Z-9.69
G0 Z2.21
X22.6 Y-13.103
Z-9.39
G1 Z-9.69 F100
X22.606 Y-13.099 Z-9.757
X22.625 Y-13.087 Z-9.82
X22.655 Y-13.068 Z-9.877
X22.695 Y-13.043 Z-9.925
X22.744 Y-13.013 Z-9.96
X22.797 Y-12.979 Z-9.982
X22.854 Y-12.944 Z-9.99
G2 X23.602 Y-12.704 I0.841 J-1.34
G1 X23.965 Y-12.695
X24.152 Y-12.7
G2 X18.565 Y-16.507 I-103.346 J145.669
G1 X18.328 Y-16.562
X18.091 Y-16.588
X17.726 Y-16.597
G2 X17.582 Y-16.036 I0.003 J0.3
G1 X17.64 Y-16.003 Z-9.982
X17.696 Y-15.972 Z-9.96
X17.745 Y-15.944 Z-9.925
X17.786 Y-15.921 Z-9.877
X17.818 Y-15.903 Z-9.82
X17.837 Y-15.892 Z-9.757
X17.843 Y-15.889 Z-9.69
G0 Z2.21
X22.963 Y-13.094
Z-9.39
G1 Z-9.69 F100
X22.969 Y-13.09 Z-9.757
X22.988 Y-13.079 Z-9.82
X23.018 Y-13.06 Z-9.877
X23.058 Y-13.034 Z-9.925
X23.107 Y-13.004 Z-9.96
X23.16 Y-12.97 Z-9.982
X23.217 Y-12.935 Z-9.99
G2 X23.965 Y-12.695 I0.841 J-1.34
G1 X24.312 Y-12.687
X24.5 Y-12.692
G2 X18.969 Y-16.475 I-76.844 J106.401
G1 X18.723 Y-16.549
X18.469 Y-16.579
X18.091 Y-16.588
G2 X17.946 Y-16.027 I0.003 J0.3
G1 X18.005 Y-15.994 Z-9.982
X18.06 Y-15.963 Z-9.96
X18.109 Y-15.935 Z-9.925
X18.151 Y-15.912 Z-9.877
X18.182 Y-15.894 Z-9.82
X18.201 Y-15.883 Z-9.757
X18.208 Y-15.88 Z-9.69
G0 Z2.21
X23.31 Y-13.086
Z-9.39
G1 Z-9.69 F100
X23.317 Y-13.082 Z-9.757
X23.335 Y-13.07 Z-9.82
X23.366 Y-13.051 Z-9.877
X23.406 Y-13.026 Z-9.925
X23.454 Y-12.996 Z-9.96
X23.508 Y-12.962 Z-9.982
X23.564 Y-12.926 Z-9.99
G2 X24.312 Y-12.687 I0.841 J-1.34
G1 X24.693 Y-12.678
X24.88 Y-12.683
X22.206 Y-14.522
X19.526 Y-16.354
X19.304 Y-16.468
X19.065 Y-16.542
X18.817 Y-16.571
X18.469 Y-16.579
G2 X18.325 Y-16.018 I0.003 J0.3
G1 X18.383 Y-15.985 Z-9.982
X18.438 Y-15.954 Z-9.96
X18.488 Y-15.926 Z-9.925
X18.529 Y-15.903 Z-9.877
X18.56 Y-15.885 Z-9.82
X18.58 Y-15.874 Z-9.757
X18.586 Y-15.87 Z-9.69
G0 Z2.21
X23.691 Y-13.077
Z-9.39
G1 Z-9.69 F100
X23.697 Y-13.073 Z-9.757
X23.716 Y-13.061 Z-9.82
X23.746 Y-13.042 Z-9.877
X23.787 Y-13.017 Z-9.925
X23.835 Y-12.986 Z-9.96
X23.888 Y-12.953 Z-9.982
X23.945 Y-12.917 Z-9.99
G2 X24.693 Y-12.678 I0.841 J-1.34
G1 X25.056 Y-12.669
X25.243 Y-12.674
G2 X19.656 Y-16.481 I-103.186 J145.435
G1 X19.418 Y-16.535
X19.181 Y-16.562
X18.817 Y-16.571
G2 X18.673 Y-16.009 I0.003 J0.3
G1 X18.731 Y-15.976 Z-9.982
X18.787 Y-15.945 Z-9.96
X18.836 Y-15.917 Z-9.925
X18.878 Y-15.894 Z-9.877
X18.909 Y-15.877 Z-9.82
X18.928 Y-15.866 Z-9.757
X18.935 Y-15.862 Z-9.69
G0 Z2.21
X24.054 Y-13.068
Z-9.39
G1 Z-9.69 F100
X24.06 Y-13.064 Z-9.757
X24.079 Y-13.052 Z-9.82
X24.109 Y-13.033 Z-9.877
X24.149 Y-13.008 Z-9.925
X24.198 Y-12.978 Z-9.96
X24.251 Y-12.944 Z-9.982
X24.308 Y-12.908 Z-9.99
G2 X25.056 Y-12.669 I0.841 J-1.34
G1 X25.403 Y-12.661
X25.591 Y-12.665
G2 X20.06 Y-16.449 I-76.784 J106.314
G1 X19.813 Y-16.523
X19.559 Y-16.553
X19.181 Y-16.562
G2 X19.037 Y-16 I0.003 J0.3
G1 X19.095 Y-15.968 Z-9.982
X19.151 Y-15.937 Z-9.96
X19.2 Y-15.909 Z-9.925
X19.242 Y-15.885 Z-9.877
X19.273 Y-15.868 Z-9.82
X19.292 Y-15.857 Z-9.757
X19.299 Y-15.853 Z-9.69
G0 Z2.21
X24.401 Y-13.06
Z-9.39
G1 Z-9.69 F100
X24.408 Y-13.056 Z-9.757
X24.426 Y-13.044 Z-9.82
X24.457 Y-13.025 Z-9.877
X24.497 Y-13 Z-9.925
X24.545 Y-12.969 Z-9.96
X24.599 Y-12.936 Z-9.982
X24.655 Y-12.9 Z-9.99
G2 X25.403 Y-12.661 I0.841 J-1.34
G1 X25.784 Y-12.651
X25.971 Y-12.656
X23.297 Y-14.496
X20.617 Y-16.328
X20.395 Y-16.442
X20.156 Y-16.516
X19.908 Y-16.544
X19.559 Y-16.553
G2 X19.415 Y-15.991 I0.003 J0.3
G1 X19.473 Y-15.959 Z-9.982
X19.529 Y-15.928 Z-9.96
X19.578 Y-15.9 Z-9.925
X19.62 Y-15.876 Z-9.877
X19.651 Y-15.859 Z-9.82
X19.67 Y-15.848 Z-9.757
X19.677 Y-15.844 Z-9.69
G0 Z2.21
X24.782 Y-13.05
Z-9.39
G1 Z-9.69 F100
X24.788 Y-13.046 Z-9.757
X24.807 Y-13.035 Z-9.82
X24.837 Y-13.016 Z-9.877
X24.878 Y-12.99 Z-9.925
X24.926 Y-12.96 Z-9.96
X24.979 Y-12.926 Z-9.982
X25.036 Y-12.891 Z-9.99
G2 X25.784 Y-12.651 I0.841 J-1.34
G1 X26.147 Y-12.643
X26.334 Y-12.647
G2 X20.747 Y-16.455 I-103.277 J145.568
G1 X20.509 Y-16.509
X20.272 Y-16.536
X19.908 Y-16.544
G2 X19.764 Y-15.983 I0.003 J0.3
G1 X19.822 Y-15.95 Z-9.982
X19.877 Y-15.919 Z-9.96
X19.927 Y-15.891 Z-9.925
X19.968 Y-15.868 Z-9.877
X20 Y-15.85 Z-9.82
X20.019 Y-15.84 Z-9.757
X20.025 Y-15.836 Z-9.69
G0 Z2.21
X25.145 Y-13.042
Z-9.39
G1 Z-9.69 F100
X25.151 Y-13.038 Z-9.757
X25.17 Y-13.026 Z-9.82
X25.2 Y-13.007 Z-9.877
X25.24 Y-12.982 Z-9.925
X25.289 Y-12.951 Z-9.96
X25.342 Y-12.918 Z-9.982
X25.399 Y-12.882 Z-9.99
G2 X26.147 Y-12.643 I0.841 J-1.34
G1 X26.494 Y-12.634
X26.682 Y-12.639
G2 X21.151 Y-16.423 I-76.819 J106.365
G1 X20.905 Y-16.496
X20.65 Y-16.527
X20.272 Y-16.536
G2 X20.128 Y-15.974 I0.003 J0.3
G1 X20.186 Y-15.942 Z-9.982
X20.242 Y-15.91 Z-9.96
X20.291 Y-15.883 Z-9.925
X20.333 Y-15.859 Z-9.877
X20.364 Y-15.842 Z-9.82
X20.383 Y-15.831 Z-9.757
X20.39 Y-15.827 Z-9.69
G0 Z2.21
X25.492 Y-13.033
Z-9.39
G1 Z-9.69 F100
X25.499 Y-13.029 Z-9.757
X25.517 Y-13.017 Z-9.82
X25.548 Y-12.998 Z-9.877
X25.588 Y-12.973 Z-9.925
X25.636 Y-12.943 Z-9.96
X25.69 Y-12.909 Z-9.982
X25.746 Y-12.874 Z-9.99
G2 X26.494 Y-12.634 I0.841 J-1.34
G1 X26.875 Y-12.625
X27.063 Y-12.63
X24.388 Y-14.47
X21.708 Y-16.302
X21.486 Y-16.416
X21.247 Y-16.489
X20.999 Y-16.518
X20.65 Y-16.527
G2 X20.506 Y-15.965 I0.003 J0.3
G1 X20.565 Y-15.932 Z-9.982
X20.62 Y-15.901 Z-9.96
X20.669 Y-15.873 Z-9.925
X20.711 Y-15.85 Z-9.877
X20.742 Y-15.833 Z-9.82
X20.761 Y-15.822 Z-9.757
X20.768 Y-15.818 Z-9.69
G0 Z2.21
X25.873 Y-13.024
Z-9.39
G1 Z-9.69 F100
X25.879 Y-13.02 Z-9.757
X25.898 Y-13.008 Z-9.82
X25.928 Y-12.989 Z-9.877
X25.969 Y-12.964 Z-9.925
X26.017 Y-12.934 Z-9.96
X26.071 Y-12.9 Z-9.982
X26.127 Y-12.865 Z-9.99
G2 X26.875 Y-12.625 I0.841 J-1.34
G1 X27.238 Y-12.616
X27.425 Y-12.621
G2 X21.838 Y-16.428 I-103.29 J145.587
G1 X21.6 Y-16.483
X21.363 Y-16.509
X20.999 Y-16.518
G2 X20.855 Y-15.957 I0.003 J0.3
G1 X20.913 Y-15.924 Z-9.982
X20.969 Y-15.893 Z-9.96
X21.018 Y-15.865 Z-9.925
X21.059 Y-15.842 Z-9.877
X21.091 Y-15.824 Z-9.82
X21.11 Y-15.813 Z-9.757
X21.117 Y-15.81 Z-9.69
G0 Z2.21
X26.236 Y-13.015
Z-9.39
G1 Z-9.69 F100
X26.242 Y-13.011 Z-9.757
X26.261 Y-12.999 Z-9.82
X26.291 Y-12.98 Z-9.877
X26.332 Y-12.955 Z-9.925
X26.38 Y-12.925 Z-9.96
X26.433 Y-12.891 Z-9.982
X26.49 Y-12.856 Z-9.99
G2 X27.238 Y-12.616 I0.841 J-1.34
G1 X27.585 Y-12.608
X27.773 Y-12.613
G2 X22.242 Y-16.396 I-76.82 J106.365
G1 X21.996 Y-16.47
X21.741 Y-16.5
X21.363 Y-16.509
G2 X21.219 Y-15.948 I0.003 J0.3
G1 X21.277 Y-15.915 Z-9.982
X21.333 Y-15.884 Z-9.96
X21.382 Y-15.856 Z-9.925
X21.424 Y-15.833 Z-9.877
X21.455 Y-15.815 Z-9.82
X21.474 Y-15.804 Z-9.757
X21.481 Y-15.801 Z-9.69
G0 Z2.21
X26.583 Y-13.007
Z-9.39
G1 Z-9.69 F100
X26.59 Y-13.003 Z-9.757
X26.609 Y-12.991 Z-9.82
X26.639 Y-12.972 Z-9.877
X26.679 Y-12.947 Z-9.925
X26.727 Y-12.917 Z-9.96
X26.781 Y-12.883 Z-9.982
X26.837 Y-12.847 Z-9.99
G2 X27.585 Y-12.608 I0.841 J-1.34
G1 X27.966 Y-12.599
X28.154 Y-12.604
X25.479 Y-14.443
X22.799 Y-16.276
X22.577 Y-16.39
X22.338 Y-16.463
X22.09 Y-16.492
X21.741 Y-16.5
G2 X21.597 Y-15.939 I0.003 J0.3
G1 X21.656 Y-15.906 Z-9.982
X21.711 Y-15.875 Z-9.96
X21.76 Y-15.847 Z-9.925
X21.802 Y-15.824 Z-9.877
X21.833 Y-15.806 Z-9.82
X21.852 Y-15.795 Z-9.757
X21.859 Y-15.792 Z-9.69
G0 Z2.21
X26.964 Y-12.998
Z-9.39
G1 Z-9.69 F100
X26.97 Y-12.994 Z-9.757
X26.989 Y-12.982 Z-9.82
X27.019 Y-12.963 Z-9.877
X27.06 Y-12.938 Z-9.925
X27.108 Y-12.907 Z-9.96
X27.162 Y-12.874 Z-9.982
X27.218 Y-12.838 Z-9.99
G2 X27.966 Y-12.599 I0.841 J-1.34
G1 X28.329 Y-12.59
X28.516 Y-12.595
G2 X22.929 Y-16.402 I-103.289 J145.585
G1 X22.691 Y-16.456
X22.454 Y-16.483
X22.09 Y-16.492
G2 X21.946 Y-15.93 I0.003 J0.3
G1 X22.004 Y-15.898 Z-9.982
X22.06 Y-15.866 Z-9.96
X22.109 Y-15.839 Z-9.925
X22.151 Y-15.815 Z-9.877
X22.182 Y-15.798 Z-9.82
X22.201 Y-15.787 Z-9.757
X22.208 Y-15.783 Z-9.69
G0 Z2.21
X27.327 Y-12.989
Z-9.39
G1 Z-9.69 F100
X27.333 Y-12.985 Z-9.757
X27.352 Y-12.973 Z-9.82
X27.382 Y-12.954 Z-9.877
X27.423 Y-12.929 Z-9.925
X27.471 Y-12.899 Z-9.96
X27.524 Y-12.865 Z-9.982
X27.581 Y-12.829 Z-9.99
G2 X28.329 Y-12.59 I0.841 J-1.34
G1 X28.677 Y-12.582
X28.864 Y-12.586
G2 X23.333 Y-16.37 I-76.82 J106.365
G1 X23.087 Y-16.444
X22.832 Y-16.474
X22.454 Y-16.483
G2 X22.31 Y-15.922 I0.003 J0.3
G1 X22.369 Y-15.889 Z-9.982
X22.424 Y-15.858 Z-9.96
X22.473 Y-15.83 Z-9.925
X22.515 Y-15.806 Z-9.877
X22.546 Y-15.789 Z-9.82
X22.565 Y-15.778 Z-9.757
X22.572 Y-15.774 Z-9.69
G0 Z2.21
X27.674 Y-12.98
Z-9.39
G1 Z-9.69 F100
X27.681 Y-12.976 Z-9.757
X27.7 Y-12.965 Z-9.82
X27.73 Y-12.946 Z-9.877
X27.77 Y-12.92 Z-9.925
X27.818 Y-12.89 Z-9.96
X27.872 Y-12.856 Z-9.982
X27.929 Y-12.821 Z-9.99
G2 X28.677 Y-12.582 I0.841 J-1.34
G1 X29.057 Y-12.572
X29.245 Y-12.577
X26.57 Y-14.417
X23.89 Y-16.249
X23.668 Y-16.363
X23.429 Y-16.437
X23.181 Y-16.465
X22.832 Y-16.474
G2 X22.688 Y-15.912 I0.003 J0.3
G1 X22.747 Y-15.88 Z-9.982
X22.802 Y-15.849 Z-9.96
X22.851 Y-15.821 Z-9.925
X22.893 Y-15.797 Z-9.877
X22.924 Y-15.78 Z-9.82
X22.943 Y-15.769 Z-9.757
X22.95 Y-15.765 Z-9.69
G0 Z2.21
X28.055 Y-12.971
Z-9.39
G1 Z-9.69 F100
X28.061 Y-12.967 Z-9.757
X28.08 Y-12.955 Z-9.82
X28.111 Y-12.936 Z-9.877
X28.151 Y-12.911 Z-9.925
X28.199 Y-12.881 Z-9.96
X28.253 Y-12.847 Z-9.982
X28.309 Y-12.812 Z-9.99
G2 X29.057 Y-12.572 I0.841 J-1.34
G1 X29.42 Y-12.564
X29.607 Y-12.568
G2 X24.02 Y-16.376 I-103.299 J145.6
G1 X23.783 Y-16.43
X23.545 Y-16.457
X23.181 Y-16.465
G2 X23.037 Y-15.904 I0.003 J0.3
G1 X23.095 Y-15.871 Z-9.982
X23.151 Y-15.84 Z-9.96
X23.2 Y-15.812 Z-9.925
X23.242 Y-15.789 Z-9.877
X23.273 Y-15.771 Z-9.82
X23.292 Y-15.76 Z-9.757
X23.299 Y-15.757 Z-9.69
G0 Z2.21
X28.418 Y-12.963
Z-9.39
G1 Z-9.69 F100
X28.424 Y-12.959 Z-9.757
X28.443 Y-12.947 Z-9.82
X28.473 Y-12.928 Z-9.877
X28.514 Y-12.902 Z-9.925
X28.562 Y-12.872 Z-9.96
X28.616 Y-12.839 Z-9.982
X28.672 Y-12.803 Z-9.99
G2 X29.42 Y-12.564 I0.841 J-1.34
G1 X29.768 Y-12.555
X29.955 Y-12.56
G2 X24.424 Y-16.343 I-77.124 J106.814
G1 X24.178 Y-16.417
X23.924 Y-16.447
X23.545 Y-16.457
G2 X23.401 Y-15.895 I0.003 J0.3
G1 X23.46 Y-15.862 Z-9.982
X23.515 Y-15.831 Z-9.96
X23.564 Y-15.803 Z-9.925
X23.606 Y-15.78 Z-9.877
X23.637 Y-15.763 Z-9.82
X23.656 Y-15.752 Z-9.757
X23.663 Y-15.748 Z-9.69
G0 Z2.21
X28.765 Y-12.954
Z-9.39
G1 Z-9.69 F100
X28.772 Y-12.95 Z-9.757
X28.791 Y-12.938 Z-9.82
X28.821 Y-12.919 Z-9.877
X28.861 Y-12.894 Z-9.925
X28.909 Y-12.864 Z-9.96
X28.963 Y-12.83 Z-9.982
X29.019 Y-12.794 Z-9.99
G2 X29.768 Y-12.555 I0.841 J-1.341
G1 X30.148 Y-12.546
X30.336 Y-12.551
G2 X24.978 Y-16.224 I-504.666 J730.446
G1 X24.756 Y-16.337
X24.518 Y-16.41
X24.271 Y-16.439
X23.924 Y-16.447
G2 X23.78 Y-15.886 I0.003 J0.3
G1 X23.838 Y-15.853 Z-9.982
X23.893 Y-15.822 Z-9.96
X23.943 Y-15.794 Z-9.925
X23.984 Y-15.771 Z-9.877
X24.015 Y-15.753 Z-9.82
X24.034 Y-15.743 Z-9.757
X24.041 Y-15.739 Z-9.69
G0 Z2.21
X29.146 Y-12.945
Z-9.39
G1 Z-9.69 F100
X29.152 Y-12.941 Z-9.757
X29.171 Y-12.929 Z-9.82
X29.201 Y-12.91 Z-9.877
X29.242 Y-12.885 Z-9.925
X29.29 Y-12.855 Z-9.96
X29.344 Y-12.821 Z-9.982
X29.4 Y-12.785 Z-9.99
G2 X30.148 Y-12.546 I0.841 J-1.341
G1 X30.511 Y-12.537
X30.699 Y-12.542
G2 X25.114 Y-16.347 I-108.237 J152.872
G1 X24.874 Y-16.403
X24.634 Y-16.43
X24.271 Y-16.439
G2 X24.127 Y-15.878 I0.003 J0.3
G1 X24.185 Y-15.845 Z-9.982
X24.24 Y-15.814 Z-9.96
X24.29 Y-15.786 Z-9.925
X24.331 Y-15.763 Z-9.877
X24.362 Y-15.745 Z-9.82
X24.381 Y-15.734 Z-9.757
X24.388 Y-15.73 Z-9.69
G0 Z2.21
X29.509 Y-12.936
Z-9.39
G1 Z-9.69 F100
X29.515 Y-12.932 Z-9.757
X29.534 Y-12.92 Z-9.82
X29.564 Y-12.901 Z-9.877
X29.605 Y-12.876 Z-9.925
X29.653 Y-12.846 Z-9.96
X29.706 Y-12.812 Z-9.982
X29.763 Y-12.777 Z-9.99
G2 X30.511 Y-12.537 I0.841 J-1.341
G1 X30.905 Y-12.53
X31.093 Y-12.536
G3 X25.698 Y-16.219 I96.413 J-147.024
G1 X25.477 Y-16.324
X25.245 Y-16.394
X25.003 Y-16.421
X24.634 Y-16.43
G2 X24.49 Y-15.869 I0.003 J0.3
G1 X24.548 Y-15.836 Z-9.982
X24.603 Y-15.805 Z-9.96
X24.653 Y-15.777 Z-9.925
X24.694 Y-15.754 Z-9.877
X24.725 Y-15.736 Z-9.82
X24.745 Y-15.725 Z-9.757
X24.751 Y-15.722 Z-9.69
G0 Z2.21
X29.9 Y-12.921
Z-9.39
G1 Z-9.69 F100
X29.906 Y-12.917 Z-9.757
X29.925 Y-12.905 Z-9.82
X29.956 Y-12.886 Z-9.877
X29.996 Y-12.861 Z-9.925
X30.044 Y-12.831 Z-9.96
X30.098 Y-12.798 Z-9.982
X30.155 Y-12.763 Z-9.99
G2 X30.905 Y-12.53 I0.83 J-1.347
G1 X31.092 Y-12.527
X31.279 Y-12.533
X30.723 Y-13.036
X28.684 Y-14.308
G2 X25.812 Y-16.289 I-9.281 J10.377
G1 X25.559 Y-16.381
X25.29 Y-16.414
X25.003 Y-16.421
G2 X24.859 Y-15.86 I0.003 J0.3
G1 X24.917 Y-15.827 Z-9.982
X24.972 Y-15.796 Z-9.96
X25.022 Y-15.768 Z-9.925
X25.063 Y-15.745 Z-9.877
X25.094 Y-15.727 Z-9.82
X25.114 Y-15.716 Z-9.757
X25.12 Y-15.713 Z-9.69
G0 Z-9.39
X30.086 Y-12.918
G1 Z-9.69 F100
X30.093 Y-12.914 Z-9.757
X30.112 Y-12.902 Z-9.82
X30.142 Y-12.883 Z-9.877
X30.183 Y-12.858 Z-9.925
X30.231 Y-12.828 Z-9.96
X30.285 Y-12.795 Z-9.982
X30.342 Y-12.76 Z-9.99
G2 X31.092 Y-12.527 I0.83 J-1.347
G1 X31.296 Y-12.524
X31.484 Y-12.53
X30.978 Y-13.083
X30.355 Y-13.502
X28.315 Y-14.771
X27.784 Y-15.301
X26.267 Y-16.212
X26.055 Y-16.316
X25.83 Y-16.381
X25.596 Y-16.407
X25.29 Y-16.414
G2 X25.146 Y-15.853 I0.003 J0.3
G1 X25.205 Y-15.82 Z-9.982
X25.26 Y-15.789 Z-9.96
X25.309 Y-15.761 Z-9.925
X25.351 Y-15.738 Z-9.877
X25.382 Y-15.72 Z-9.82
X25.401 Y-15.71 Z-9.757
X25.408 Y-15.706 Z-9.69
G0 Z-9.39
X30.291 Y-12.914
G1 Z-9.69 F100
X30.297 Y-12.91 Z-9.757
X30.316 Y-12.899 Z-9.82
X30.347 Y-12.88 Z-9.877
X30.387 Y-12.855 Z-9.925
X30.436 Y-12.825 Z-9.96
X30.49 Y-12.792 Z-9.982
X30.546 Y-12.757 Z-9.99
G2 X31.296 Y-12.524 I0.83 J-1.347
G1 X31.62 Y-12.519
X31.807 Y-12.525
X31.277 Y-13.055
X30.691 Y-13.523
X28.659 Y-14.806
G2 X26.005 Y-16.437 I-4.728 J4.717
G1 X25.596 Y-16.407
G2 X25.452 Y-15.846 I0.003 J0.3
G1 X25.51 Y-15.813 Z-9.982
X25.565 Y-15.782 Z-9.96
X25.615 Y-15.754 Z-9.925
X25.656 Y-15.731 Z-9.877
X25.687 Y-15.713 Z-9.82
X25.707 Y-15.702 Z-9.757
X25.713 Y-15.698 Z-9.69
G0 Z-9.39
X30.615 Y-12.909
G1 Z-9.69 F100
X30.621 Y-12.905 Z-9.757
X30.64 Y-12.894 Z-9.82
X30.67 Y-12.875 Z-9.877
X30.711 Y-12.85 Z-9.925
X30.759 Y-12.82 Z-9.96
X30.813 Y-12.787 Z-9.982
X30.87 Y-12.752 Z-9.99
G2 X31.62 Y-12.519 I0.83 J-1.347
G1 X31.95 Y-12.514
X32.137 Y-12.522
X31.586 Y-13.03
X31.017 Y-13.519
X30.399 Y-13.945
X28.366 Y-15.225
G2 X26.398 Y-16.388 I-2.471 J1.936
G1 X25.992 Y-16.397
G2 X25.848 Y-15.836 I0.003 J0.3
G1 X25.906 Y-15.803 Z-9.982
X25.961 Y-15.772 Z-9.96
X26.011 Y-15.744 Z-9.925
X26.052 Y-15.721 Z-9.877
X26.084 Y-15.703 Z-9.82
X26.103 Y-15.693 Z-9.757
X26.109 Y-15.689 Z-9.69
G0 Z-9.39
X30.942 Y-12.899
G1 Z-9.69 F100
X30.948 Y-12.895 Z-9.757
X30.967 Y-12.883 Z-9.82
X30.998 Y-12.865 Z-9.877
X31.038 Y-12.84 Z-9.925
X31.087 Y-12.811 Z-9.96
X31.141 Y-12.778 Z-9.982
X31.198 Y-12.743 Z-9.99
G2 X31.95 Y-12.514 I0.822 J-1.352
G1 X32.33 Y-12.511
X32.518 Y-12.518
X31.007 Y-13.727
X30.409 Y-14.181
X28.368 Y-15.447
X27.847 Y-15.987
X27.461 Y-16.203
X27.26 Y-16.295
X27.046 Y-16.354
X26.826 Y-16.377
X26.398 Y-16.388
G2 X26.254 Y-15.826 I0.003 J0.3
G1 X26.312 Y-15.794 Z-9.982
X26.367 Y-15.762 Z-9.96
X26.417 Y-15.735 Z-9.925
X26.458 Y-15.711 Z-9.877
X26.489 Y-15.694 Z-9.82
X26.508 Y-15.683 Z-9.757
X26.515 Y-15.679 Z-9.69
G0 Z-9.39
X31.323 Y-12.895
G1 Z-9.69 F100
X31.329 Y-12.891 Z-9.757
X31.348 Y-12.88 Z-9.82
X31.379 Y-12.861 Z-9.877
X31.419 Y-12.836 Z-9.925
X31.468 Y-12.807 Z-9.96
X31.522 Y-12.774 Z-9.982
X31.579 Y-12.739 Z-9.99
G2 X32.33 Y-12.511 I0.822 J-1.352
G1 X32.693 Y-12.507
X32.881 Y-12.515
G2 X27.186 Y-16.377 I-23.441 J28.435
G1 X26.924 Y-16.375
X26.826 Y-16.377
G2 X26.682 Y-15.816 I0.003 J0.3
G1 X26.74 Y-15.783 Z-9.982
X26.795 Y-15.752 Z-9.96
X26.845 Y-15.724 Z-9.925
X26.886 Y-15.701 Z-9.877
X26.917 Y-15.683 Z-9.82
X26.937 Y-15.672 Z-9.757
X26.943 Y-15.669 Z-9.69
G0 Z-9.39
X31.685 Y-12.892
G1 Z-9.69 F100
X31.692 Y-12.888 Z-9.757
X31.711 Y-12.876 Z-9.82
X31.741 Y-12.858 Z-9.877
X31.782 Y-12.833 Z-9.925
X31.831 Y-12.803 Z-9.96
X31.885 Y-12.77 Z-9.982
X31.942 Y-12.736 Z-9.99
G2 X32.693 Y-12.507 I0.822 J-1.352
G1 X33.041 Y-12.504
X33.228 Y-12.512
X31.294 Y-13.938
G2 X27.971 Y-16.11 I-10.565 J12.536
G1 X27.738 Y-16.249
X27.481 Y-16.335
X27.212 Y-16.368
X26.924 Y-16.375
G2 X26.78 Y-15.814 I0.003 J0.3
G1 X26.838 Y-15.781 Z-9.982
X26.894 Y-15.75 Z-9.96
X26.943 Y-15.722 Z-9.925
X26.985 Y-15.698 Z-9.877
X27.016 Y-15.681 Z-9.82
X27.035 Y-15.67 Z-9.757
X27.042 Y-15.666 Z-9.69
G0 Z-9.39
X32.033 Y-12.888
G1 Z-9.69 F100
X32.039 Y-12.884 Z-9.757
X32.058 Y-12.872 Z-9.82
X32.089 Y-12.854 Z-9.877
X32.129 Y-12.829 Z-9.925
X32.178 Y-12.8 Z-9.96
X32.232 Y-12.767 Z-9.982
X32.289 Y-12.732 Z-9.99
G2 X33.041 Y-12.504 I0.821 J-1.353
G1 X33.421 Y-12.501
X33.609 Y-12.508
X31.633 Y-13.876
G2 X27.819 Y-16.354 I-9.166 J9.931
G1 X27.594 Y-16.359
X27.212 Y-16.368
G2 X27.068 Y-15.807 I0.003 J0.3
G1 X27.126 Y-15.774 Z-9.982
X27.181 Y-15.743 Z-9.96
X27.231 Y-15.715 Z-9.925
X27.272 Y-15.692 Z-9.877
X27.303 Y-15.674 Z-9.82
X27.323 Y-15.663 Z-9.757
X27.329 Y-15.659 Z-9.69
G0 Z2.21
X32.413 Y-12.884
Z-9.39
G1 Z-9.69 F100
X32.42 Y-12.88 Z-9.757
X32.439 Y-12.869 Z-9.82
X32.469 Y-12.85 Z-9.877
X32.51 Y-12.826 Z-9.925
X32.559 Y-12.796 Z-9.96
X32.613 Y-12.763 Z-9.982
X32.67 Y-12.729 Z-9.99
G2 X33.421 Y-12.501 I0.821 J-1.353
G1 X33.784 Y-12.498
X33.972 Y-12.505
G3 X30.167 Y-15.283 I62.197 J-89.183
G2 X28.24 Y-16.336 I-5.073 J6.996
G1 X28.014 Y-16.349
X27.594 Y-16.359
G2 X27.45 Y-15.797 I0.003 J0.3
G1 X27.508 Y-15.765 Z-9.982
X27.563 Y-15.734 Z-9.96
X27.613 Y-15.706 Z-9.925
X27.654 Y-15.682 Z-9.877
X27.685 Y-15.665 Z-9.82
X27.705 Y-15.654 Z-9.757
X27.711 Y-15.65 Z-9.69
G0 Z2.21
X32.776 Y-12.881
Z-9.39
G1 Z-9.69 F100
X32.783 Y-12.877 Z-9.757
X32.802 Y-12.866 Z-9.82
X32.832 Y-12.847 Z-9.877
X32.873 Y-12.822 Z-9.925
X32.921 Y-12.793 Z-9.96
X32.976 Y-12.76 Z-9.982
X33.033 Y-12.725 Z-9.99
G2 X33.784 Y-12.498 I0.821 J-1.353
G1 X34.132 Y-12.495
X34.319 Y-12.502
X32.348 Y-13.876
G2 X28.653 Y-16.347 I-11.262 J12.842
G1 X28.418 Y-16.339
X28.014 Y-16.349
G2 X27.87 Y-15.787 I0.003 J0.3
G1 X27.928 Y-15.754 Z-9.982
X27.983 Y-15.723 Z-9.96
X28.033 Y-15.695 Z-9.925
X28.074 Y-15.672 Z-9.877
X28.106 Y-15.655 Z-9.82
X28.125 Y-15.644 Z-9.757
X28.131 Y-15.64 Z-9.69
G0 Z2.21
X33.124 Y-12.878
Z-9.39
G1 Z-9.69 F100
X33.13 Y-12.874 Z-9.757
X33.149 Y-12.862 Z-9.82
X33.18 Y-12.844 Z-9.877
X33.22 Y-12.819 Z-9.925
X33.269 Y-12.79 Z-9.96
X33.323 Y-12.757 Z-9.982
X33.38 Y-12.722 Z-9.99
G2 X34.132 Y-12.495 I0.82 J-1.353
G1 X34.512 Y-12.491
X34.7 Y-12.499
G3 X30.247 Y-15.713 I31.625 J-48.504
G2 X28.825 Y-16.322 I-1.681 J1.963
G1 X28.418 Y-16.339
G2 X28.274 Y-15.777 I0.003 J0.3
G1 X28.332 Y-15.745 Z-9.982
X28.387 Y-15.714 Z-9.96
X28.437 Y-15.686 Z-9.925
X28.478 Y-15.662 Z-9.877
X28.51 Y-15.645 Z-9.82
X28.529 Y-15.634 Z-9.757
X28.535 Y-15.63 Z-9.69
G0 Z2.21
X33.504 Y-12.875
Z-9.39
G1 Z-9.69 F100
X33.511 Y-12.871 Z-9.757
X33.53 Y-12.859 Z-9.82
X33.56 Y-12.841 Z-9.877
X33.601 Y-12.816 Z-9.925
X33.65 Y-12.787 Z-9.96
X33.704 Y-12.754 Z-9.982
X33.761 Y-12.719 Z-9.99
G2 X34.512 Y-12.491 I0.82 J-1.353
G1 X34.875 Y-12.488
X35.063 Y-12.496
X33.066 Y-13.833
G2 X29.843 Y-16.169 I-22.982 J28.322
G1 X29.649 Y-16.247
X29.449 Y-16.298
X29.242 Y-16.319
X28.826 Y-16.329
G2 X28.682 Y-15.768 I0.003 J0.3
G1 X28.74 Y-15.735 Z-9.982
X28.795 Y-15.704 Z-9.96
X28.845 Y-15.676 Z-9.925
X28.886 Y-15.653 Z-9.877
X28.918 Y-15.635 Z-9.82
X28.937 Y-15.624 Z-9.757
X28.943 Y-15.62 Z-9.69
G0 Z2.21
X33.867 Y-12.871
Z-9.39
G1 Z-9.69 F100
X33.874 Y-12.868 Z-9.757
X33.893 Y-12.856 Z-9.82
X33.923 Y-12.838 Z-9.877
X33.964 Y-12.813 Z-9.925
X34.012 Y-12.783 Z-9.96
X34.067 Y-12.751 Z-9.982
X34.124 Y-12.716 Z-9.99
G2 X34.875 Y-12.488 I0.82 J-1.353
G1 X35.223 Y-12.485
X35.41 Y-12.493
X34.102 Y-13.392
X32.088 Y-14.702
G2 X29.65 Y-16.355 I-4.189 J3.557
G1 X29.242 Y-16.319
G2 X29.098 Y-15.758 I0.003 J0.3
G1 X29.156 Y-15.725 Z-9.982
X29.212 Y-15.694 Z-9.96
X29.261 Y-15.666 Z-9.925
X29.303 Y-15.642 Z-9.877
X29.334 Y-15.625 Z-9.82
X29.353 Y-15.614 Z-9.757
X29.36 Y-15.61 Z-9.69
G0 Z2.21
X34.215 Y-12.868
Z-9.39
G1 Z-9.69 F100
X34.221 Y-12.865 Z-9.757
X34.24 Y-12.853 Z-9.82
X34.271 Y-12.835 Z-9.877
X34.311 Y-12.81 Z-9.925
X34.36 Y-12.78 Z-9.96
X34.414 Y-12.748 Z-9.982
X34.471 Y-12.713 Z-9.99
G2 X35.223 Y-12.485 I0.82 J-1.353
G1 X35.604 Y-12.482
X35.791 Y-12.49
X33.788 Y-13.817
X33.031 Y-14.332
X32.02 Y-14.982
G2 X29.987 Y-16.301 I-2.601 J1.783
G1 X29.635 Y-16.309
G2 X29.491 Y-15.748 I0.003 J0.3
G1 X29.549 Y-15.715 Z-9.982
X29.604 Y-15.684 Z-9.96
X29.654 Y-15.656 Z-9.925
X29.695 Y-15.633 Z-9.877
X29.727 Y-15.615 Z-9.82
X29.746 Y-15.605 Z-9.757
X29.752 Y-15.601 Z-9.69
G0 Z2.21
X34.595 Y-12.865
Z-9.39
G1 Z-9.69 F100
X34.602 Y-12.861 Z-9.757
X34.621 Y-12.85 Z-9.82
X34.651 Y-12.831 Z-9.877
X34.692 Y-12.807 Z-9.925
X34.741 Y-12.777 Z-9.96
X34.795 Y-12.744 Z-9.982
X34.852 Y-12.71 Z-9.99
G2 X35.604 Y-12.482 I0.82 J-1.353
G1 X35.966 Y-12.479
X36.154 Y-12.487
X32.153 Y-15.149
X31.634 Y-15.69
X31.014 Y-16.112
X30.791 Y-16.214
X30.583 Y-16.27
X30.369 Y-16.292
X29.987 Y-16.301
G2 X29.843 Y-15.74 I0.003 J0.3
G1 X29.902 Y-15.707 Z-9.982
X29.957 Y-15.676 Z-9.96
X30.006 Y-15.648 Z-9.925
X30.048 Y-15.624 Z-9.877
X30.079 Y-15.607 Z-9.82
X30.098 Y-15.596 Z-9.757
X30.105 Y-15.592 Z-9.69
G0 Z2.21
X34.958 Y-12.862
Z-9.39
G1 Z-9.69 F100
X34.965 Y-12.858 Z-9.757
X34.984 Y-12.847 Z-9.82
X35.014 Y-12.828 Z-9.877
X35.055 Y-12.804 Z-9.925
X35.103 Y-12.774 Z-9.96
X35.158 Y-12.741 Z-9.982
X35.215 Y-12.707 Z-9.99
G2 X35.966 Y-12.479 I0.82 J-1.353
G1 X36.314 Y-12.476
X36.501 Y-12.484
G3 X31.034 Y-16.159 I110.755 J-170.654
G1 X30.748 Y-16.253
X30.45 Y-16.29
X30.369 Y-16.292
G2 X30.225 Y-15.73 I0.003 J0.3
G1 X30.283 Y-15.698 Z-9.982
X30.338 Y-15.666 Z-9.96
X30.388 Y-15.639 Z-9.925
X30.429 Y-15.615 Z-9.877
X30.46 Y-15.598 Z-9.82
X30.48 Y-15.587 Z-9.757
X30.486 Y-15.583 Z-9.69
G0 Z2.21
X35.306 Y-12.859
Z-9.39
G1 Z-9.69 F100
X35.312 Y-12.855 Z-9.757
X35.331 Y-12.844 Z-9.82
X35.362 Y-12.825 Z-9.877
X35.402 Y-12.801 Z-9.925
X35.451 Y-12.771 Z-9.96
X35.505 Y-12.738 Z-9.982
X35.562 Y-12.704 Z-9.99
G2 X36.314 Y-12.476 I0.82 J-1.353
G1 X36.695 Y-12.473
X36.882 Y-12.48
G3 X31.558 Y-16.06 I134.156 J-205.282
G1 X31.33 Y-16.178
X31.085 Y-16.254
X30.83 Y-16.282
X30.45 Y-16.29
G2 X30.306 Y-15.728 I0.003 J0.3
G1 X30.365 Y-15.696 Z-9.982
X30.42 Y-15.665 Z-9.96
X30.469 Y-15.637 Z-9.925
X30.511 Y-15.613 Z-9.877
X30.542 Y-15.596 Z-9.82
X30.561 Y-15.585 Z-9.757
X30.568 Y-15.581 Z-9.69
G0 Z2.21
X35.686 Y-12.856
Z-9.39
G1 Z-9.69 F100
X35.693 Y-12.852 Z-9.757
X35.712 Y-12.84 Z-9.82
X35.742 Y-12.822 Z-9.877
X35.783 Y-12.797 Z-9.925
X35.832 Y-12.768 Z-9.96
X35.886 Y-12.735 Z-9.982
X35.943 Y-12.7 Z-9.99
G2 X36.695 Y-12.473 I0.82 J-1.353
G1 X37.057 Y-12.469
X37.245 Y-12.477
G2 X31.706 Y-16.157 I-70.666 J100.354
G1 X31.46 Y-16.246
X31.198 Y-16.276
X30.83 Y-16.282
G2 X30.69 Y-15.719 I0.006 J0.3
G1 X30.749 Y-15.687 Z-9.982
X30.804 Y-15.656 Z-9.96
X30.854 Y-15.629 Z-9.925
X30.895 Y-15.606 Z-9.877
X30.927 Y-15.589 Z-9.82
X30.946 Y-15.578 Z-9.757
X30.953 Y-15.574 Z-9.69
G0 Z2.21
X36.049 Y-12.853
Z-9.39
G1 Z-9.69 F100
X36.056 Y-12.849 Z-9.757
X36.075 Y-12.837 Z-9.82
X36.105 Y-12.819 Z-9.877
X36.146 Y-12.794 Z-9.925
X36.195 Y-12.765 Z-9.96
X36.249 Y-12.732 Z-9.982
X36.306 Y-12.697 Z-9.99
G2 X37.057 Y-12.469 I0.82 J-1.353
G1 X37.405 Y-12.466
X37.592 Y-12.474
G3 X32.259 Y-16.055 I125.593 J-192.85
G1 X32.031 Y-16.169
X31.788 Y-16.243
X31.535 Y-16.27
X31.198 Y-16.276
G2 X31.059 Y-15.713 I0.006 J0.3
G1 X31.117 Y-15.681 Z-9.982
X31.173 Y-15.65 Z-9.96
X31.222 Y-15.623 Z-9.925
X31.264 Y-15.6 Z-9.877
X31.295 Y-15.583 Z-9.82
X31.315 Y-15.572 Z-9.757
X31.321 Y-15.568 Z-9.69
G0 Z2.21
X36.397 Y-12.85
Z-9.39
G1 Z-9.69 F100
X36.403 Y-12.846 Z-9.757
X36.422 Y-12.834 Z-9.82
X36.453 Y-12.816 Z-9.877
X36.493 Y-12.791 Z-9.925
X36.542 Y-12.762 Z-9.96
X36.596 Y-12.729 Z-9.982
X36.653 Y-12.694 Z-9.99
G2 X37.405 Y-12.466 I0.82 J-1.353
G1 X37.786 Y-12.463
X37.973 Y-12.471
X35.969 Y-13.797
X32.708 Y-15.977
X32.584 Y-16.055
X32.36 Y-16.169
X32.119 Y-16.24
X31.869 Y-16.266
X31.535 Y-16.27
G2 X31.395 Y-15.708 I0.006 J0.3
G1 X31.454 Y-15.675 Z-9.982
X31.509 Y-15.645 Z-9.96
X31.559 Y-15.617 Z-9.925
X31.601 Y-15.594 Z-9.877
X31.632 Y-15.577 Z-9.82
X31.651 Y-15.566 Z-9.757
X31.658 Y-15.563 Z-9.69
G0 Z2.21
X36.777 Y-12.846
Z-9.39
G1 Z-9.69 F100
X36.784 Y-12.843 Z-9.757
X36.803 Y-12.831 Z-9.82
X36.833 Y-12.813 Z-9.877
X36.874 Y-12.788 Z-9.925
X36.923 Y-12.758 Z-9.96
X36.977 Y-12.726 Z-9.982
X37.034 Y-12.691 Z-9.99
G2 X37.786 Y-12.463 I0.82 J-1.353
G1 X38.149 Y-12.46
X38.336 Y-12.468
G2 X32.7 Y-16.192 I-107.094 J155.951
G1 X32.467 Y-16.24
X32.235 Y-16.262
X31.869 Y-16.266
G2 X31.733 Y-15.702 I0.008 J0.3
G1 X31.791 Y-15.67 Z-9.982
X31.847 Y-15.64 Z-9.96
X31.897 Y-15.613 Z-9.925
X31.939 Y-15.59 Z-9.877
X31.97 Y-15.573 Z-9.82
X31.99 Y-15.562 Z-9.757
X31.996 Y-15.559 Z-9.69
G0 Z2.21
X37.14 Y-12.843
Z-9.39
G1 Z-9.69 F100
X37.147 Y-12.839 Z-9.757
X37.166 Y-12.828 Z-9.82
X37.196 Y-12.809 Z-9.877
X37.237 Y-12.785 Z-9.925
X37.286 Y-12.755 Z-9.96
X37.34 Y-12.722 Z-9.982
X37.397 Y-12.688 Z-9.99
G2 X38.149 Y-12.46 I0.82 J-1.353
G1 X38.496 Y-12.457
X38.683 Y-12.465
G2 X33.104 Y-16.16 I-66.795 J94.79
G1 X32.858 Y-16.232
X32.603 Y-16.258
X32.235 Y-16.262
G2 X32.099 Y-15.699 I0.008 J0.3
G1 X32.157 Y-15.667 Z-9.982
X32.213 Y-15.636 Z-9.96
X32.263 Y-15.609 Z-9.925
X32.305 Y-15.586 Z-9.877
X32.336 Y-15.569 Z-9.82
X32.356 Y-15.559 Z-9.757
X32.362 Y-15.555 Z-9.69
G0 Z2.21
X37.488 Y-12.841
Z-9.39
G1 Z-9.69 F100
X37.494 Y-12.837 Z-9.757
X37.513 Y-12.825 Z-9.82
X37.544 Y-12.807 Z-9.877
X37.585 Y-12.782 Z-9.925
X37.633 Y-12.753 Z-9.96
X37.687 Y-12.72 Z-9.982
X37.744 Y-12.685 Z-9.99
G2 X38.496 Y-12.457 I0.821 J-1.353
G1 X38.877 Y-12.454
X39.064 Y-12.461
X37.06 Y-13.787
X33.826 Y-15.944
X33.665 Y-16.046
X33.441 Y-16.159
X33.2 Y-16.23
X32.95 Y-16.255
X32.603 Y-16.258
G2 X32.468 Y-15.695 I0.008 J0.3
G1 X32.526 Y-15.663 Z-9.982
X32.582 Y-15.633 Z-9.96
X32.632 Y-15.606 Z-9.925
X32.674 Y-15.583 Z-9.877
X32.705 Y-15.566 Z-9.82
X32.724 Y-15.555 Z-9.757
X32.731 Y-15.552 Z-9.69
G0 Z2.21
X37.869 Y-12.837
Z-9.39
G1 Z-9.69 F100
X37.875 Y-12.833 Z-9.757
X37.894 Y-12.822 Z-9.82
X37.925 Y-12.803 Z-9.877
X37.965 Y-12.779 Z-9.925
X38.014 Y-12.749 Z-9.96
X38.068 Y-12.716 Z-9.982
X38.125 Y-12.682 Z-9.99
G2 X38.877 Y-12.454 I0.821 J-1.353
G1 X39.24 Y-12.45
X39.427 Y-12.458
G2 X33.779 Y-16.185 I-99.124 J144.067
G1 X33.549 Y-16.23
X33.32 Y-16.252
X32.95 Y-16.255
G2 X32.814 Y-15.692 I0.008 J0.3
G1 X32.873 Y-15.66 Z-9.982
X32.929 Y-15.629 Z-9.96
X32.979 Y-15.602 Z-9.925
X33.021 Y-15.58 Z-9.877
X33.052 Y-15.563 Z-9.82
X33.071 Y-15.552 Z-9.757
X33.078 Y-15.548 Z-9.69
G0 Z2.21
X38.232 Y-12.834
Z-9.39
G1 Z-9.69 F100
X38.238 Y-12.83 Z-9.757
X38.257 Y-12.819 Z-9.82
X38.288 Y-12.8 Z-9.877
X38.328 Y-12.775 Z-9.925
X38.377 Y-12.746 Z-9.96
X38.431 Y-12.713 Z-9.982
X38.488 Y-12.678 Z-9.99
G2 X39.24 Y-12.45 I0.821 J-1.353
G1 X39.587 Y-12.447
X39.774 Y-12.454
G2 X34.191 Y-16.15 I-68.782 J97.828
G1 X33.943 Y-16.222
X33.686 Y-16.249
X33.32 Y-16.252
G2 X33.185 Y-15.688 I0.008 J0.3
G1 X33.243 Y-15.656 Z-9.982
X33.299 Y-15.626 Z-9.96
X33.349 Y-15.599 Z-9.925
X33.391 Y-15.576 Z-9.877
X33.422 Y-15.559 Z-9.82
X33.442 Y-15.549 Z-9.757
X33.448 Y-15.545 Z-9.69
G0 Z2.21
X38.58 Y-12.833
Z-9.39
G1 Z-9.69 F100
X38.587 Y-12.829 Z-9.757
X38.605 Y-12.818 Z-9.82
X38.636 Y-12.799 Z-9.877
X38.677 Y-12.774 Z-9.925
X38.725 Y-12.745 Z-9.96
X38.779 Y-12.712 Z-9.982
X38.836 Y-12.677 Z-9.99
G2 X39.587 Y-12.447 I0.825 J-1.351
G1 X39.968 Y-12.442
X40.155 Y-12.449
X36.152 Y-15.107
G2 X34.299 Y-16.231 I-4.378 J5.129
G1 X34.043 Y-16.245
X33.686 Y-16.249
G2 X33.551 Y-15.685 I0.008 J0.3
G1 X33.61 Y-15.653 Z-9.982
X33.665 Y-15.623 Z-9.96
X33.715 Y-15.596 Z-9.925
X33.757 Y-15.573 Z-9.877
X33.789 Y-15.556 Z-9.82
X33.808 Y-15.545 Z-9.757
X33.815 Y-15.542 Z-9.69
G0 Z2.21
X38.961 Y-12.829
Z-9.39
G1 Z-9.69 F100
X38.967 Y-12.825 Z-9.757
X38.986 Y-12.813 Z-9.82
X39.017 Y-12.795 Z-9.877
X39.057 Y-12.77 Z-9.925
X39.106 Y-12.74 Z-9.96
X39.16 Y-12.707 Z-9.982
X39.217 Y-12.672 Z-9.99
G2 X39.968 Y-12.442 I0.825 J-1.351
G1 X40.331 Y-12.438
X40.518 Y-12.445
G2 X34.925 Y-16.143 I-102.756 J149.343
G1 X34.674 Y-16.215
X34.415 Y-16.242
X34.043 Y-16.245
G2 X33.907 Y-15.682 I0.008 J0.3
G1 X33.966 Y-15.65 Z-9.982
X34.022 Y-15.62 Z-9.96
X34.072 Y-15.593 Z-9.925
X34.113 Y-15.57 Z-9.877
X34.145 Y-15.553 Z-9.82
X34.164 Y-15.542 Z-9.757
X34.171 Y-15.539 Z-9.69
G0 Z2.21
X39.324 Y-12.824
Z-9.39
G1 Z-9.69 F100
X39.33 Y-12.82 Z-9.757
X39.349 Y-12.809 Z-9.82
X39.38 Y-12.79 Z-9.877
X39.42 Y-12.765 Z-9.925
X39.469 Y-12.736 Z-9.96
X39.523 Y-12.703 Z-9.982
X39.58 Y-12.668 Z-9.99
G2 X40.331 Y-12.438 I0.825 J-1.351
G1 X40.678 Y-12.433
X40.866 Y-12.44
G2 X35.281 Y-16.132 I-211.466 J313.822
G1 X35.027 Y-16.211
X34.761 Y-16.239
X34.415 Y-16.242
G2 X34.28 Y-15.679 I0.008 J0.3
G1 X34.339 Y-15.647 Z-9.982
X34.395 Y-15.617 Z-9.96
X34.445 Y-15.589 Z-9.925
X34.486 Y-15.567 Z-9.877
X34.518 Y-15.55 Z-9.82
X34.537 Y-15.539 Z-9.757
X34.544 Y-15.536 Z-9.69
G0 Z2.21
X39.672 Y-12.822
Z-9.39
G1 Z-9.69 F100
X39.678 Y-12.818 Z-9.757
X39.697 Y-12.807 Z-9.82
X39.728 Y-12.788 Z-9.877
X39.768 Y-12.763 Z-9.925
X39.817 Y-12.733 Z-9.96
X39.871 Y-12.7 Z-9.982
X39.928 Y-12.665 Z-9.99
G2 X40.678 Y-12.433 I0.828 J-1.349
G1 X41.059 Y-12.428
X41.246 Y-12.435
X37.249 Y-15.102
X35.799 Y-16.037
X35.579 Y-16.145
X35.343 Y-16.212
X35.099 Y-16.236
X34.761 Y-16.239
G2 X34.626 Y-15.676 I0.008 J0.3
G1 X34.685 Y-15.644 Z-9.982
X34.74 Y-15.614 Z-9.96
X34.79 Y-15.586 Z-9.925
X34.832 Y-15.564 Z-9.877
X34.864 Y-15.547 Z-9.82
X34.883 Y-15.536 Z-9.757
X34.89 Y-15.533 Z-9.69
G0 Z2.21
X40.053 Y-12.817
Z-9.39
G1 Z-9.69 F100
X40.059 Y-12.813 Z-9.757
X40.078 Y-12.801 Z-9.82
X40.109 Y-12.783 Z-9.877
X40.149 Y-12.758 Z-9.925
X40.197 Y-12.728 Z-9.96
X40.252 Y-12.695 Z-9.982
X40.308 Y-12.66 Z-9.99
G2 X41.059 Y-12.428 I0.828 J-1.349
G1 X41.422 Y-12.423
X41.609 Y-12.43
G2 X35.941 Y-16.161 I-83.847 J121.184
G1 X35.702 Y-16.21
X35.464 Y-16.233
X35.099 Y-16.236
G2 X34.964 Y-15.673 I0.008 J0.3
G1 X35.022 Y-15.641 Z-9.982
X35.078 Y-15.611 Z-9.96
X35.128 Y-15.584 Z-9.925
X35.17 Y-15.561 Z-9.877
X35.201 Y-15.544 Z-9.82
X35.221 Y-15.533 Z-9.757
X35.227 Y-15.53 Z-9.69
G0 Z2.21
X40.416 Y-12.812
Z-9.39
G1 Z-9.69 F100
X40.422 Y-12.808 Z-9.757
X40.441 Y-12.796 Z-9.82
X40.471 Y-12.777 Z-9.877
X40.512 Y-12.753 Z-9.925
X40.56 Y-12.723 Z-9.96
X40.614 Y-12.69 Z-9.982
X40.671 Y-12.655 Z-9.99
G2 X41.422 Y-12.423 I0.828 J-1.349
G1 X41.769 Y-12.418
X41.957 Y-12.424
G2 X36.342 Y-16.139 I-62.623 J88.545
G1 X36.097 Y-16.205
X35.846 Y-16.23
X35.464 Y-16.233
G2 X35.329 Y-15.67 I0.008 J0.3
G1 X35.387 Y-15.638 Z-9.982
X35.443 Y-15.608 Z-9.96
X35.493 Y-15.58 Z-9.925
X35.535 Y-15.558 Z-9.877
X35.566 Y-15.541 Z-9.82
X35.586 Y-15.53 Z-9.757
X35.592 Y-15.527 Z-9.69
G0 Z2.21
X40.764 Y-12.808
Z-9.39
G1 Z-9.69 F100
X40.77 Y-12.804 Z-9.757
X40.789 Y-12.792 Z-9.82
X40.819 Y-12.774 Z-9.877
X40.86 Y-12.749 Z-9.925
X40.908 Y-12.719 Z-9.96
X40.962 Y-12.686 Z-9.982
X41.019 Y-12.651 Z-9.99
G2 X41.769 Y-12.418 I0.83 J-1.348
G1 X42.15 Y-12.412
X42.337 Y-12.419
X38.346 Y-15.096
X37.027 Y-15.947
X36.896 Y-16.027
X36.676 Y-16.136
X36.441 Y-16.203
X36.197 Y-16.227
X35.846 Y-16.23
G2 X35.711 Y-15.666 I0.008 J0.3
G1 X35.769 Y-15.635 Z-9.982
X35.825 Y-15.604 Z-9.96
X35.875 Y-15.577 Z-9.925
X35.917 Y-15.555 Z-9.877
X35.948 Y-15.537 Z-9.82
X35.968 Y-15.527 Z-9.757
X35.974 Y-15.523 Z-9.69
G0 Z2.21
X41.144 Y-12.802
Z-9.39
G1 Z-9.69 F100
X41.151 Y-12.798 Z-9.757
X41.17 Y-12.787 Z-9.82
X41.2 Y-12.768 Z-9.877
X41.241 Y-12.743 Z-9.925
X41.289 Y-12.713 Z-9.96
X41.343 Y-12.68 Z-9.982
X41.4 Y-12.645 Z-9.99
G2 X42.15 Y-12.412 I0.83 J-1.348
G1 X42.513 Y-12.406
X42.7 Y-12.413
G2 X37.05 Y-16.149 I-85.211 J122.736
G1 X36.807 Y-16.2
X36.565 Y-16.224
X36.197 Y-16.227
G2 X36.061 Y-15.663 I0.008 J0.3
G1 X36.12 Y-15.632 Z-9.982
X36.176 Y-15.601 Z-9.96
X36.226 Y-15.574 Z-9.925
X36.268 Y-15.551 Z-9.877
X36.299 Y-15.534 Z-9.82
X36.318 Y-15.524 Z-9.757
X36.325 Y-15.52 Z-9.69
G0 Z2.21
X41.507 Y-12.797
Z-9.39
G1 Z-9.69 F100
X41.514 Y-12.793 Z-9.757
X41.532 Y-12.781 Z-9.82
X41.563 Y-12.762 Z-9.877
X41.603 Y-12.737 Z-9.925
X41.652 Y-12.708 Z-9.96
X41.706 Y-12.674 Z-9.982
X41.763 Y-12.639 Z-9.99
G2 X42.513 Y-12.406 I0.83 J-1.348
G1 X42.86 Y-12.401
X43.048 Y-12.408
G2 X37.453 Y-16.129 I-72.964 J103.623
G1 X37.205 Y-16.195
X36.951 Y-16.22
X36.565 Y-16.224
G2 X36.43 Y-15.66 I0.008 J0.3
G1 X36.488 Y-15.628 Z-9.982
X36.544 Y-15.598 Z-9.96
X36.594 Y-15.571 Z-9.925
X36.636 Y-15.548 Z-9.877
X36.667 Y-15.531 Z-9.82
X36.687 Y-15.521 Z-9.757
X36.693 Y-15.517 Z-9.69
G0 Z2.21
X41.855 Y-12.791
Z-9.39
G1 Z-9.69 F100
X41.861 Y-12.788 Z-9.757
X41.88 Y-12.776 Z-9.82
X41.911 Y-12.757 Z-9.877
X41.951 Y-12.732 Z-9.925
X41.999 Y-12.702 Z-9.96
X42.053 Y-12.669 Z-9.982
X42.11 Y-12.634 Z-9.99
G2 X42.86 Y-12.401 I0.83 J-1.347
G1 X43.241 Y-12.395
X43.428 Y-12.402
G2 X38.008 Y-16.019 I-181.927 J266.719
G1 X37.785 Y-16.125
X37.548 Y-16.193
X37.303 Y-16.217
X36.951 Y-16.22
G2 X36.816 Y-15.657 I0.008 J0.3
G1 X36.875 Y-15.625 Z-9.982
X36.931 Y-15.595 Z-9.96
X36.981 Y-15.568 Z-9.925
X37.022 Y-15.545 Z-9.877
X37.054 Y-15.528 Z-9.82
X37.073 Y-15.517 Z-9.757
X37.08 Y-15.514 Z-9.69
G0 Z2.21
X42.235 Y-12.786
Z-9.39
G1 Z-9.69 F100
X42.242 Y-12.782 Z-9.757
X42.261 Y-12.77 Z-9.82
X42.291 Y-12.751 Z-9.877
X42.332 Y-12.726 Z-9.925
X42.38 Y-12.696 Z-9.96
X42.434 Y-12.663 Z-9.982
X42.491 Y-12.628 Z-9.99
G2 X43.241 Y-12.395 I0.83 J-1.347
G1 X43.604 Y-12.389
X43.791 Y-12.396
G2 X38.154 Y-16.139 I-84.091 J120.519
G1 X37.911 Y-16.191
X37.67 Y-16.214
X37.303 Y-16.217
G2 X37.168 Y-15.654 I0.008 J0.3
G1 X37.226 Y-15.622 Z-9.982
X37.282 Y-15.592 Z-9.96
X37.332 Y-15.565 Z-9.925
X37.374 Y-15.542 Z-9.877
X37.405 Y-15.525 Z-9.82
X37.425 Y-15.514 Z-9.757
X37.431 Y-15.511 Z-9.69
G0 Z2.21
X42.598 Y-12.78
Z-9.39
G1 Z-9.69 F100
X42.605 Y-12.776 Z-9.757
X42.624 Y-12.764 Z-9.82
X42.654 Y-12.746 Z-9.877
X42.695 Y-12.721 Z-9.925
X42.743 Y-12.691 Z-9.96
X42.797 Y-12.658 Z-9.982
X42.854 Y-12.623 Z-9.99
G2 X43.604 Y-12.389 I0.83 J-1.347
G1 X43.951 Y-12.384
X44.139 Y-12.39
G2 X38.508 Y-16.145 I-73.126 J103.559
G1 X38.275 Y-16.189
X38.044 Y-16.211
X37.67 Y-16.214
G2 X37.535 Y-15.651 I0.008 J0.3
G1 X37.593 Y-15.619 Z-9.982
X37.649 Y-15.589 Z-9.96
X37.699 Y-15.562 Z-9.925
X37.741 Y-15.539 Z-9.877
X37.772 Y-15.522 Z-9.82
X37.792 Y-15.511 Z-9.757
X37.798 Y-15.508 Z-9.69
G0 Z2.21
X42.946 Y-12.774
Z-9.39
G1 Z-9.69 F100
X42.952 Y-12.77 Z-9.757
X42.971 Y-12.759 Z-9.82
X43.002 Y-12.74 Z-9.877
X43.042 Y-12.715 Z-9.925
X43.09 Y-12.685 Z-9.96
X43.144 Y-12.652 Z-9.982
X43.201 Y-12.617 Z-9.99
G2 X43.951 Y-12.384 I0.83 J-1.347
G1 X44.332 Y-12.378
X44.519 Y-12.385
G2 X38.905 Y-16.115 I-51.38 J71.243
G1 X38.663 Y-16.183
X38.414 Y-16.208
X38.044 Y-16.211
G2 X37.909 Y-15.648 I0.008 J0.3
G1 X37.967 Y-15.616 Z-9.982
X38.023 Y-15.585 Z-9.96
X38.073 Y-15.558 Z-9.925
X38.115 Y-15.536 Z-9.877
X38.146 Y-15.519 Z-9.82
X38.166 Y-15.508 Z-9.757
X38.172 Y-15.504 Z-9.69
G0 Z2.21
X43.327 Y-12.768
Z-9.39
G1 Z-9.69 F100
X43.333 Y-12.765 Z-9.757
X43.352 Y-12.753 Z-9.82
X43.382 Y-12.734 Z-9.877
X43.423 Y-12.709 Z-9.925
X43.471 Y-12.679 Z-9.96
X43.525 Y-12.646 Z-9.982
X43.582 Y-12.611 Z-9.99
G2 X44.332 Y-12.378 I0.83 J-1.347
G1 X44.695 Y-12.372
X44.882 Y-12.379
G2 X39.263 Y-16.129 I-98.212 J141.086
G1 X39.02 Y-16.181
X38.778 Y-16.205
X38.414 Y-16.208
G2 X38.278 Y-15.644 I0.008 J0.3
G1 X38.337 Y-15.612 Z-9.982
X38.393 Y-15.582 Z-9.96
X38.443 Y-15.555 Z-9.925
X38.485 Y-15.532 Z-9.877
X38.516 Y-15.515 Z-9.82
X38.535 Y-15.505 Z-9.757
X38.542 Y-15.501 Z-9.69
G0 Z2.21
X43.689 Y-12.763
Z-9.39
G1 Z-9.69 F100
X43.696 Y-12.759 Z-9.757
X43.715 Y-12.747 Z-9.82
X43.745 Y-12.728 Z-9.877
X43.786 Y-12.704 Z-9.925
X43.834 Y-12.674 Z-9.96
X43.888 Y-12.64 Z-9.982
X43.945 Y-12.605 Z-9.99
G2 X44.695 Y-12.372 I0.83 J-1.347
G1 X45.042 Y-12.367
X45.23 Y-12.373
G2 X39.669 Y-16.104 I-81.978 J116.182
G1 X39.418 Y-16.174
X39.16 Y-16.201
X38.778 Y-16.205
G2 X38.643 Y-15.641 I0.008 J0.3
G1 X38.701 Y-15.609 Z-9.982
X38.757 Y-15.579 Z-9.96
X38.807 Y-15.552 Z-9.925
X38.849 Y-15.529 Z-9.877
X38.88 Y-15.512 Z-9.82
X38.9 Y-15.501 Z-9.757
X38.906 Y-15.498 Z-9.69
G0 Z2.21
X44.037 Y-12.757
Z-9.39
G1 Z-9.69 F100
X44.043 Y-12.753 Z-9.757
X44.062 Y-12.742 Z-9.82
X44.093 Y-12.723 Z-9.877
X44.133 Y-12.698 Z-9.925
X44.182 Y-12.668 Z-9.96
X44.236 Y-12.635 Z-9.982
X44.292 Y-12.6 Z-9.99
G2 X45.042 Y-12.367 I0.83 J-1.347
G1 X45.423 Y-12.361
X45.61 Y-12.367
G2 X40.005 Y-16.101 I-52.407 J72.594
G1 X39.764 Y-16.172
X39.514 Y-16.198
X39.16 Y-16.201
G2 X39.025 Y-15.638 I0.008 J0.3
G1 X39.084 Y-15.606 Z-9.982
X39.139 Y-15.575 Z-9.96
X39.189 Y-15.548 Z-9.925
X39.231 Y-15.526 Z-9.877
X39.262 Y-15.509 Z-9.82
X39.282 Y-15.498 Z-9.757
X39.289 Y-15.494 Z-9.69
G0 Z2.21
X44.418 Y-12.751
Z-9.39
G1 Z-9.69 F100
X44.424 Y-12.747 Z-9.757
X44.443 Y-12.736 Z-9.82
X44.473 Y-12.717 Z-9.877
X44.514 Y-12.692 Z-9.925
X44.562 Y-12.662 Z-9.96
X44.616 Y-12.629 Z-9.982
X44.673 Y-12.594 Z-9.99
G2 X45.423 Y-12.361 I0.83 J-1.347
G1 X45.786 Y-12.355
X45.973 Y-12.362
G2 X40.356 Y-16.118 I-99.415 J142.601
G1 X40.116 Y-16.17
X39.878 Y-16.193
X39.514 Y-16.198
G2 X39.377 Y-15.635 I0.007 J0.3
G1 X39.436 Y-15.602 Z-9.982
X39.492 Y-15.572 Z-9.96
X39.541 Y-15.545 Z-9.925
X39.583 Y-15.522 Z-9.877
X39.615 Y-15.505 Z-9.82
X39.634 Y-15.494 Z-9.757
X39.641 Y-15.491 Z-9.69
G0 Z2.21
X44.78 Y-12.746
Z-9.39
G1 Z-9.69 F100
X44.787 Y-12.742 Z-9.757
X44.806 Y-12.73 Z-9.82
X44.836 Y-12.711 Z-9.877
X44.877 Y-12.687 Z-9.925
X44.925 Y-12.657 Z-9.96
X44.979 Y-12.623 Z-9.982
X45.036 Y-12.588 Z-9.99
G2 X45.786 Y-12.355 I0.83 J-1.347
G1 X46.133 Y-12.35
X46.321 Y-12.356
G2 X40.76 Y-16.09 I-75.796 J106.857
G1 X40.511 Y-16.162
X40.255 Y-16.189
X39.878 Y-16.193
G2 X39.741 Y-15.63 I0.007 J0.3
G1 X39.799 Y-15.598 Z-9.982
X39.855 Y-15.568 Z-9.96
X39.905 Y-15.541 Z-9.925
X39.946 Y-15.518 Z-9.877
X39.978 Y-15.501 Z-9.82
X39.997 Y-15.49 Z-9.757
X40.004 Y-15.486 Z-9.69
G0 Z2.21
X45.128 Y-12.741
Z-9.39
G1 Z-9.69 F100
X45.135 Y-12.737 Z-9.757
X45.153 Y-12.725 Z-9.82
X45.184 Y-12.706 Z-9.877
X45.224 Y-12.681 Z-9.925
X45.273 Y-12.652 Z-9.96
X45.327 Y-12.618 Z-9.982
X45.384 Y-12.583 Z-9.99
G2 X46.133 Y-12.35 I0.831 J-1.347
G1 X46.514 Y-12.344
X46.702 Y-12.35
G2 X41.1 Y-16.087 I-54.482 J75.607
G1 X40.858 Y-16.158
X40.609 Y-16.185
X40.255 Y-16.189
G2 X40.118 Y-15.626 I0.007 J0.3
G1 X40.177 Y-15.594 Z-9.982
X40.232 Y-15.563 Z-9.96
X40.282 Y-15.536 Z-9.925
X40.324 Y-15.513 Z-9.877
X40.355 Y-15.496 Z-9.82
X40.375 Y-15.486 Z-9.757
X40.381 Y-15.482 Z-9.69
G0 Z2.21
X45.509 Y-12.735
Z-9.39
G1 Z-9.69 F100
X45.515 Y-12.731 Z-9.757
X45.534 Y-12.719 Z-9.82
X45.565 Y-12.7 Z-9.877
X45.605 Y-12.675 Z-9.925
X45.653 Y-12.645 Z-9.96
X45.707 Y-12.612 Z-9.982
X45.764 Y-12.577 Z-9.99
G2 X46.514 Y-12.344 I0.831 J-1.347
G1 X46.877 Y-12.338
X47.064 Y-12.344
G2 X41.442 Y-16.108 I-98.09 J140.45
G1 X41.209 Y-16.156
X40.977 Y-16.18
X40.609 Y-16.185
G2 X40.47 Y-15.622 I0.006 J0.3
G1 X40.529 Y-15.59 Z-9.982
X40.584 Y-15.559 Z-9.96
X40.634 Y-15.532 Z-9.925
X40.676 Y-15.509 Z-9.877
X40.707 Y-15.492 Z-9.82
X40.727 Y-15.481 Z-9.757
X40.733 Y-15.477 Z-9.69
G0 Z2.21
X45.872 Y-12.729
Z-9.39
G1 Z-9.69 F100
X45.878 Y-12.725 Z-9.757
X45.897 Y-12.713 Z-9.82
X45.927 Y-12.694 Z-9.877
X45.968 Y-12.669 Z-9.925
X46.016 Y-12.64 Z-9.96
X46.07 Y-12.606 Z-9.982
X46.127 Y-12.571 Z-9.99
G2 X46.877 Y-12.338 I0.831 J-1.347
G1 X47.224 Y-12.332
X47.412 Y-12.338
G2 X41.846 Y-16.075 I-64.417 J89.933
G1 X41.6 Y-16.147
X41.346 Y-16.174
X40.977 Y-16.18
G2 X40.839 Y-15.617 I0.006 J0.3
G1 X40.897 Y-15.585 Z-9.982
X40.953 Y-15.554 Z-9.96
X41.003 Y-15.527 Z-9.925
X41.044 Y-15.504 Z-9.877
X41.075 Y-15.487 Z-9.82
X41.095 Y-15.476 Z-9.757
X41.102 Y-15.472 Z-9.69
G0 Z2.21
X46.22 Y-12.724
Z-9.39
G1 Z-9.69 F100
X46.226 Y-12.72 Z-9.757
X46.245 Y-12.709 Z-9.82
X46.275 Y-12.69 Z-9.877
X46.316 Y-12.665 Z-9.925
X46.364 Y-12.635 Z-9.96
X46.418 Y-12.602 Z-9.982
X46.475 Y-12.566 Z-9.99
G2 X47.224 Y-12.332 I0.832 J-1.346
G1 X47.605 Y-12.325
X47.793 Y-12.332
X45.8 Y-13.674
X42.593 Y-15.84
X42.412 Y-15.955
X42.189 Y-16.07
X41.948 Y-16.142
X41.699 Y-16.169
X41.346 Y-16.174
G2 X41.208 Y-15.612 I0.006 J0.3
G1 X41.266 Y-15.579 Z-9.982
X41.322 Y-15.549 Z-9.96
X41.372 Y-15.521 Z-9.925
X41.413 Y-15.499 Z-9.877
X41.445 Y-15.481 Z-9.82
X41.464 Y-15.471 Z-9.757
X41.471 Y-15.467 Z-9.69
G0 Z2.21
X46.6 Y-12.718
Z-9.39
G1 Z-9.69 F100
X46.607 Y-12.714 Z-9.757
X46.626 Y-12.702 Z-9.82
X46.656 Y-12.683 Z-9.877
X46.696 Y-12.658 Z-9.925
X46.745 Y-12.628 Z-9.96
X46.799 Y-12.595 Z-9.982
X46.856 Y-12.56 Z-9.99
G2 X47.605 Y-12.325 I0.832 J-1.346
G1 X47.968 Y-12.319
X48.155 Y-12.325
G2 X42.318 Y-16.18 I-45.177 J62.068
G1 X42.081 Y-16.164
X41.699 Y-16.169
G2 X41.56 Y-15.607 I0.006 J0.3
G1 X41.618 Y-15.574 Z-9.982
X41.674 Y-15.544 Z-9.96
X41.723 Y-15.516 Z-9.925
X41.765 Y-15.493 Z-9.877
X41.796 Y-15.476 Z-9.82
X41.816 Y-15.465 Z-9.757
X41.822 Y-15.462 Z-9.69
G0 Z2.21
X46.963 Y-12.711
Z-9.39
G1 Z-9.69 F100
X46.97 Y-12.707 Z-9.757
X46.989 Y-12.696 Z-9.82
X47.019 Y-12.677 Z-9.877
X47.059 Y-12.652 Z-9.925
X47.108 Y-12.622 Z-9.96
X47.162 Y-12.589 Z-9.982
X47.218 Y-12.554 Z-9.99
G2 X47.968 Y-12.319 I0.832 J-1.346
G1 X48.316 Y-12.313
X48.503 Y-12.319
G2 X42.946 Y-16.051 I-369.078 J543.514
G1 X42.696 Y-16.129
X42.436 Y-16.158
X42.081 Y-16.164
G2 X41.942 Y-15.601 I0.006 J0.3
G1 X42 Y-15.569 Z-9.982
X42.056 Y-15.538 Z-9.96
X42.105 Y-15.511 Z-9.925
X42.147 Y-15.488 Z-9.877
X42.178 Y-15.47 Z-9.82
X42.198 Y-15.46 Z-9.757
X42.204 Y-15.456 Z-9.69
G0 Z2.21
X47.311 Y-12.707
Z-9.39
G1 Z-9.69 F100
X47.318 Y-12.703 Z-9.757
X47.337 Y-12.691 Z-9.82
X47.367 Y-12.672 Z-9.877
X47.407 Y-12.647 Z-9.925
X47.456 Y-12.617 Z-9.96
X47.51 Y-12.584 Z-9.982
X47.566 Y-12.548 Z-9.99
G2 X48.316 Y-12.313 I0.834 J-1.345
G1 X48.696 Y-12.306
X48.884 Y-12.311
X44.903 Y-15.004
X43.598 Y-15.873
X43.486 Y-15.943
X43.265 Y-16.056
X43.027 Y-16.126
X42.78 Y-16.153
X42.436 Y-16.158
G2 X42.297 Y-15.595 I0.006 J0.3
G1 X42.355 Y-15.563 Z-9.982
X42.411 Y-15.533 Z-9.96
X42.461 Y-15.505 Z-9.925
X42.502 Y-15.482 Z-9.877
X42.534 Y-15.465 Z-9.82
X42.553 Y-15.454 Z-9.757
X42.56 Y-15.451 Z-9.69
G0 Z2.21
X47.692 Y-12.699
Z-9.39
G1 Z-9.69 F100
X47.698 Y-12.695 Z-9.757
X47.717 Y-12.684 Z-9.82
X47.748 Y-12.665 Z-9.877
X47.788 Y-12.64 Z-9.925
X47.836 Y-12.61 Z-9.96
X47.89 Y-12.576 Z-9.982
X47.947 Y-12.541 Z-9.99
G2 X48.696 Y-12.306 I0.834 J-1.345
G1 X49.059 Y-12.299
X49.247 Y-12.305
G2 X43.612 Y-16.075 I-86.574 J123.266
G1 X43.379 Y-16.124
X43.148 Y-16.147
X42.78 Y-16.153
G2 X42.641 Y-15.59 I0.006 J0.3
G1 X42.699 Y-15.558 Z-9.982
X42.755 Y-15.527 Z-9.96
X42.804 Y-15.5 Z-9.925
X42.846 Y-15.477 Z-9.877
X42.877 Y-15.46 Z-9.82
X42.897 Y-15.449 Z-9.757
X42.903 Y-15.445 Z-9.69
G0 Z2.21
X48.055 Y-12.692
Z-9.39
G1 Z-9.69 F100
X48.061 Y-12.688 Z-9.757
X48.08 Y-12.677 Z-9.82
X48.111 Y-12.658 Z-9.877
X48.151 Y-12.633 Z-9.925
X48.199 Y-12.603 Z-9.96
X48.253 Y-12.569 Z-9.982
X48.31 Y-12.534 Z-9.99
G2 X49.059 Y-12.299 I0.834 J-1.345
G1 X49.407 Y-12.292
X49.594 Y-12.297
G2 X44.016 Y-16.043 I-59.697 J82.857
G1 X43.772 Y-16.114
X43.52 Y-16.141
X43.148 Y-16.147
G2 X43.009 Y-15.584 I0.006 J0.3
G1 X43.067 Y-15.552 Z-9.982
X43.123 Y-15.522 Z-9.96
X43.172 Y-15.494 Z-9.925
X43.214 Y-15.471 Z-9.877
X43.245 Y-15.454 Z-9.82
X43.265 Y-15.443 Z-9.757
X43.271 Y-15.439 Z-9.69
G0 Z2.21
X48.403 Y-12.687
Z-9.39
G1 Z-9.69 F100
X48.41 Y-12.683 Z-9.757
X48.428 Y-12.672 Z-9.82
X48.459 Y-12.653 Z-9.877
X48.499 Y-12.628 Z-9.925
X48.547 Y-12.598 Z-9.96
X48.601 Y-12.564 Z-9.982
X48.658 Y-12.529 Z-9.99
G2 X49.407 Y-12.292 I0.837 J-1.343
G1 X49.787 Y-12.284
X49.975 Y-12.289
X45.997 Y-14.987
X44.729 Y-15.83
X44.576 Y-15.926
X44.355 Y-16.039
X44.117 Y-16.109
X43.87 Y-16.136
X43.52 Y-16.141
G2 X43.381 Y-15.579 I0.006 J0.3
G1 X43.439 Y-15.546 Z-9.982
X43.494 Y-15.516 Z-9.96
X43.544 Y-15.488 Z-9.925
X43.586 Y-15.465 Z-9.877
X43.617 Y-15.448 Z-9.82
X43.637 Y-15.437 Z-9.757
X43.643 Y-15.434 Z-9.69
G0 Z2.21
X48.784 Y-12.679
Z-9.39
G1 Z-9.69 F100
X48.79 Y-12.675 Z-9.757
X48.809 Y-12.664 Z-9.82
X48.839 Y-12.645 Z-9.877
X48.88 Y-12.62 Z-9.925
X48.928 Y-12.59 Z-9.96
X48.982 Y-12.556 Z-9.982
X49.038 Y-12.521 Z-9.99
G2 X49.787 Y-12.284 I0.837 J-1.343
G1 X50.15 Y-12.276
X50.338 Y-12.282
G2 X44.705 Y-16.058 I-82.608 J117.127
G1 X44.471 Y-16.106
X44.239 Y-16.13
X43.87 Y-16.136
G2 X43.731 Y-15.573 I0.006 J0.3
G1 X43.789 Y-15.541 Z-9.982
X43.845 Y-15.51 Z-9.96
X43.895 Y-15.483 Z-9.925
X43.936 Y-15.46 Z-9.877
X43.967 Y-15.443 Z-9.82
X43.987 Y-15.432 Z-9.757
X43.993 Y-15.428 Z-9.69
G0 Z2.21
X49.147 Y-12.672
Z-9.39
G1 Z-9.69 F100
X49.153 Y-12.668 Z-9.757
X49.172 Y-12.656 Z-9.82
X49.202 Y-12.637 Z-9.877
X49.243 Y-12.612 Z-9.925
X49.291 Y-12.582 Z-9.96
X49.345 Y-12.549 Z-9.982
X49.401 Y-12.513 Z-9.99
G2 X50.15 Y-12.276 I0.837 J-1.343
G1 X50.498 Y-12.269
X50.685 Y-12.274
G2 X45.11 Y-16.026 I-58.292 J80.601
G1 X44.865 Y-16.097
X44.613 Y-16.124
X44.239 Y-16.13
G2 X44.1 Y-15.567 I0.006 J0.3
G1 X44.159 Y-15.535 Z-9.982
X44.214 Y-15.505 Z-9.96
X44.264 Y-15.477 Z-9.925
X44.306 Y-15.454 Z-9.877
X44.337 Y-15.437 Z-9.82
X44.356 Y-15.426 Z-9.757
X44.363 Y-15.422 Z-9.69
G0 Z2.21
X49.494 Y-12.665
Z-9.39
G1 Z-9.69 F100
X49.501 Y-12.661 Z-9.757
X49.52 Y-12.649 Z-9.82
X49.55 Y-12.63 Z-9.877
X49.59 Y-12.605 Z-9.925
X49.639 Y-12.575 Z-9.96
X49.692 Y-12.542 Z-9.982
X49.749 Y-12.506 Z-9.99
G2 X50.498 Y-12.269 I0.838 J-1.343
G1 X50.878 Y-12.261
X51.066 Y-12.266
G2 X45.657 Y-15.917 I-176.878 J256.268
G1 X45.436 Y-16.024
X45.2 Y-16.093
X44.956 Y-16.119
X44.613 Y-16.124
G2 X44.474 Y-15.562 I0.006 J0.3
G1 X44.532 Y-15.529 Z-9.982
X44.588 Y-15.499 Z-9.96
X44.638 Y-15.471 Z-9.925
X44.679 Y-15.448 Z-9.877
X44.711 Y-15.431 Z-9.82
X44.73 Y-15.42 Z-9.757
X44.737 Y-15.417 Z-9.69
G0 Z2.21
X49.875 Y-12.657
Z-9.39
G1 Z-9.69 F100
X49.881 Y-12.653 Z-9.757
X49.9 Y-12.641 Z-9.82
X49.931 Y-12.622 Z-9.877
X49.971 Y-12.597 Z-9.925
X50.019 Y-12.567 Z-9.96
X50.073 Y-12.534 Z-9.982
X50.13 Y-12.498 Z-9.99
G2 X50.878 Y-12.261 I0.838 J-1.343
G1 X51.241 Y-12.253
X51.429 Y-12.259
G2 X45.808 Y-16.034 I-85.979 J121.943
G1 X45.565 Y-16.088
X45.323 Y-16.113
X44.956 Y-16.119
G2 X44.817 Y-15.556 I0.006 J0.3
G1 X44.876 Y-15.524 Z-9.982
X44.931 Y-15.493 Z-9.96
X44.981 Y-15.466 Z-9.925
X45.023 Y-15.443 Z-9.877
X45.054 Y-15.426 Z-9.82
X45.073 Y-15.415 Z-9.757
X45.08 Y-15.411 Z-9.69
G0 Z2.21
X50.238 Y-12.649
Z-9.39
G1 Z-9.69 F100
X50.244 Y-12.645 Z-9.757
X50.263 Y-12.634 Z-9.82
X50.294 Y-12.615 Z-9.877
X50.334 Y-12.589 Z-9.925
X50.382 Y-12.559 Z-9.96
X50.436 Y-12.526 Z-9.982
X50.493 Y-12.491 Z-9.99
G2 X51.241 Y-12.253 I0.838 J-1.343
G1 X51.589 Y-12.246
X51.776 Y-12.251
G2 X46.159 Y-16.039 I-72.555 J101.523
G1 X45.928 Y-16.084
X45.699 Y-16.107
X45.323 Y-16.113
G2 X45.184 Y-15.55 I0.006 J0.3
G1 X45.242 Y-15.518 Z-9.982
X45.298 Y-15.488 Z-9.96
X45.348 Y-15.46 Z-9.925
X45.389 Y-15.437 Z-9.877
X45.42 Y-15.42 Z-9.82
X45.44 Y-15.409 Z-9.757
X45.447 Y-15.405 Z-9.69
G0 Z2.21
X50.585 Y-12.642
Z-9.39
G1 Z-9.69 F100
X50.592 Y-12.638 Z-9.757
X50.611 Y-12.626 Z-9.82
X50.641 Y-12.607 Z-9.877
X50.681 Y-12.582 Z-9.925
X50.73 Y-12.552 Z-9.96
X50.783 Y-12.518 Z-9.982
X50.84 Y-12.483 Z-9.99
G2 X51.589 Y-12.246 I0.838 J-1.343
G1 X51.969 Y-12.238
X52.157 Y-12.243
G2 X46.554 Y-16.006 I-49.603 J67.805
G1 X46.314 Y-16.075
X46.067 Y-16.101
X45.699 Y-16.107
G2 X45.56 Y-15.545 I0.006 J0.3
G1 X45.618 Y-15.512 Z-9.982
X45.674 Y-15.482 Z-9.96
X45.724 Y-15.454 Z-9.925
X45.765 Y-15.431 Z-9.877
X45.797 Y-15.414 Z-9.82
X45.816 Y-15.403 Z-9.757
X45.823 Y-15.4 Z-9.69
G0 Z2.21
X50.966 Y-12.634
Z-9.39
G1 Z-9.69 F100
X50.973 Y-12.63 Z-9.757
X50.991 Y-12.618 Z-9.82
X51.022 Y-12.599 Z-9.877
X51.062 Y-12.574 Z-9.925
X51.11 Y-12.544 Z-9.96
X51.164 Y-12.51 Z-9.982
X51.221 Y-12.475 Z-9.99
G2 X51.969 Y-12.238 I0.838 J-1.343
G1 X52.332 Y-12.23
X52.52 Y-12.235
G2 X46.916 Y-16.017 I-95.606 J135.639
G1 X46.674 Y-16.07
X46.433 Y-16.096
X46.067 Y-16.101
G2 X45.928 Y-15.539 I0.006 J0.3
G1 X45.986 Y-15.507 Z-9.982
X46.042 Y-15.476 Z-9.96
X46.092 Y-15.448 Z-9.925
X46.133 Y-15.425 Z-9.877
X46.164 Y-15.408 Z-9.82
X46.184 Y-15.397 Z-9.757
X46.19 Y-15.394 Z-9.69
G0 Z2.21
X51.329 Y-12.626
Z-9.39
G1 Z-9.69 F100
X51.335 Y-12.622 Z-9.757
X51.354 Y-12.61 Z-9.82
X51.385 Y-12.591 Z-9.877
X51.425 Y-12.566 Z-9.925
X51.473 Y-12.536 Z-9.96
X51.527 Y-12.503 Z-9.982
X51.584 Y-12.467 Z-9.99
G2 X52.332 Y-12.23 I0.838 J-1.343
G1 X52.68 Y-12.223
X52.867 Y-12.228
G2 X47.241 Y-16.032 I-67.577 J93.882
G1 X47.035 Y-16.071
X46.832 Y-16.089
X46.433 Y-16.096
G2 X46.293 Y-15.533 I0.006 J0.3
G1 X46.352 Y-15.501 Z-9.982
X46.407 Y-15.47 Z-9.96
X46.457 Y-15.443 Z-9.925
X46.499 Y-15.42 Z-9.877
X46.53 Y-15.402 Z-9.82
X46.55 Y-15.392 Z-9.757
X46.556 Y-15.388 Z-9.69
G0 Z2.21
X51.677 Y-12.619
Z-9.39
G1 Z-9.69 F100
X51.683 Y-12.615 Z-9.757
X51.702 Y-12.603 Z-9.82
X51.732 Y-12.584 Z-9.877
X51.772 Y-12.559 Z-9.925
X51.821 Y-12.529 Z-9.96
X51.874 Y-12.495 Z-9.982
X51.931 Y-12.46 Z-9.99
G2 X52.68 Y-12.223 I0.838 J-1.343
G1 X53.06 Y-12.215
X53.248 Y-12.22
G2 X47.89 Y-15.87 I-564.842 J823.395
G1 X47.666 Y-15.984
X47.426 Y-16.056
X47.177 Y-16.083
X46.832 Y-16.089
G2 X46.692 Y-15.527 I0.006 J0.3
G1 X46.751 Y-15.494 Z-9.982
X46.806 Y-15.464 Z-9.96
X46.856 Y-15.436 Z-9.925
X46.897 Y-15.413 Z-9.877
X46.929 Y-15.396 Z-9.82
X46.948 Y-15.385 Z-9.757
X46.955 Y-15.382 Z-9.69
G0 Z2.21
X52.057 Y-12.611
Z-9.39
G1 Z-9.69 F100
X52.064 Y-12.607 Z-9.757
X52.082 Y-12.595 Z-9.82
X52.113 Y-12.576 Z-9.877
X52.153 Y-12.551 Z-9.925
X52.201 Y-12.521 Z-9.96
X52.255 Y-12.487 Z-9.982
X52.312 Y-12.452 Z-9.99
G2 X53.06 Y-12.215 I0.838 J-1.343
G1 X53.423 Y-12.207
X53.611 Y-12.212
G2 X48.018 Y-15.997 I-102.446 J145.349
G1 X47.777 Y-16.052
X47.537 Y-16.077
X47.177 Y-16.083
G2 X47.037 Y-15.521 I0.005 J0.3
G1 X47.095 Y-15.489 Z-9.982
X47.151 Y-15.458 Z-9.96
X47.2 Y-15.43 Z-9.925
X47.242 Y-15.407 Z-9.877
X47.273 Y-15.39 Z-9.82
X47.293 Y-15.379 Z-9.757
X47.299 Y-15.376 Z-9.69
G0 Z2.21
X52.42 Y-12.603
Z-9.39
G1 Z-9.69 F100
X52.426 Y-12.599 Z-9.757
X52.445 Y-12.587 Z-9.82
X52.476 Y-12.568 Z-9.877
X52.516 Y-12.543 Z-9.925
X52.564 Y-12.513 Z-9.96
X52.618 Y-12.479 Z-9.982
X52.675 Y-12.444 Z-9.99
G2 X53.423 Y-12.207 I0.838 J-1.343
G1 X53.771 Y-12.199
X53.958 Y-12.205
G2 X48.419 Y-15.969 I-77.575 J108.19
G1 X48.17 Y-16.042
X47.914 Y-16.071
X47.537 Y-16.077
G2 X47.397 Y-15.515 I0.005 J0.3
G1 X47.455 Y-15.482 Z-9.982
X47.51 Y-15.452 Z-9.96
X47.56 Y-15.424 Z-9.925
X47.602 Y-15.401 Z-9.877
X47.633 Y-15.384 Z-9.82
X47.652 Y-15.373 Z-9.757
X47.659 Y-15.369 Z-9.69
G0 Z2.21
X52.768 Y-12.595
Z-9.39
G1 Z-9.69 F100
X52.774 Y-12.591 Z-9.757
X52.793 Y-12.58 Z-9.82
X52.823 Y-12.561 Z-9.877
X52.863 Y-12.536 Z-9.925
X52.912 Y-12.506 Z-9.96
X52.966 Y-12.472 Z-9.982
X53.022 Y-12.437 Z-9.99
G2 X53.771 Y-12.199 I0.838 J-1.343
G1 X54.152 Y-12.191
X54.339 Y-12.197
X51.661 Y-14.028
X48.977 Y-15.851
X48.753 Y-15.964
X48.514 Y-16.037
X48.265 Y-16.064
X47.914 Y-16.071
G2 X47.774 Y-15.508 I0.005 J0.3
G1 X47.833 Y-15.476 Z-9.982
X47.888 Y-15.445 Z-9.96
X47.938 Y-15.418 Z-9.925
X47.979 Y-15.395 Z-9.877
X48.011 Y-15.377 Z-9.82
X48.03 Y-15.367 Z-9.757
X48.037 Y-15.363 Z-9.69
G0 Z2.21
X53.148 Y-12.587
Z-9.39
G1 Z-9.69 F100
X53.155 Y-12.583 Z-9.757
X53.173 Y-12.572 Z-9.82
X53.204 Y-12.553 Z-9.877
X53.244 Y-12.528 Z-9.925
X53.292 Y-12.497 Z-9.96
X53.346 Y-12.464 Z-9.982
X53.403 Y-12.429 Z-9.99
G2 X54.152 Y-12.191 I0.838 J-1.343
G1 X54.514 Y-12.184
X54.702 Y-12.189
G2 X49.104 Y-15.979 I-101.749 J144.254
G1 X48.866 Y-16.032
X48.628 Y-16.058
X48.265 Y-16.064
G2 X48.124 Y-15.502 I0.005 J0.3
G1 X48.182 Y-15.47 Z-9.982
X48.237 Y-15.439 Z-9.96
X48.287 Y-15.411 Z-9.925
X48.328 Y-15.388 Z-9.877
X48.36 Y-15.371 Z-9.82
X48.379 Y-15.36 Z-9.757
X48.386 Y-15.356 Z-9.69
G0 Z2.21
X53.511 Y-12.58
Z-9.39
G1 Z-9.69 F100
X53.518 Y-12.576 Z-9.757
X53.536 Y-12.564 Z-9.82
X53.567 Y-12.545 Z-9.877
X53.607 Y-12.52 Z-9.925
X53.655 Y-12.49 Z-9.96
X53.709 Y-12.456 Z-9.982
X53.766 Y-12.421 Z-9.99
G2 X54.514 Y-12.184 I0.838 J-1.343
G1 X54.862 Y-12.176
X55.049 Y-12.182
G2 X49.508 Y-15.948 I-76.488 J106.556
G1 X49.261 Y-16.021
X49.005 Y-16.05
X48.628 Y-16.058
G2 X48.487 Y-15.495 I0.005 J0.3
G1 X48.545 Y-15.463 Z-9.982
X48.6 Y-15.432 Z-9.96
X48.65 Y-15.404 Z-9.925
X48.692 Y-15.381 Z-9.877
X48.723 Y-15.364 Z-9.82
X48.742 Y-15.353 Z-9.757
X48.749 Y-15.35 Z-9.69
G0 Z2.21
X53.859 Y-12.572
Z-9.39
G1 Z-9.69 F100
X53.865 Y-12.568 Z-9.757
X53.884 Y-12.557 Z-9.82
X53.914 Y-12.538 Z-9.877
X53.954 Y-12.512 Z-9.925
X54.003 Y-12.482 Z-9.96
X54.057 Y-12.449 Z-9.982
X54.113 Y-12.413 Z-9.99
G2 X54.862 Y-12.176 I0.838 J-1.343
G1 X55.243 Y-12.168
X55.43 Y-12.173
X52.751 Y-14.005
X50.066 Y-15.829
X49.843 Y-15.943
X49.604 Y-16.016
X49.356 Y-16.044
X49.005 Y-16.05
G2 X48.864 Y-15.488 I0.005 J0.3
G1 X48.922 Y-15.456 Z-9.982
X48.978 Y-15.425 Z-9.96
X49.028 Y-15.397 Z-9.925
X49.069 Y-15.374 Z-9.877
X49.1 Y-15.357 Z-9.82
X49.12 Y-15.346 Z-9.757
X49.126 Y-15.342 Z-9.69
G0 Z2.21
X54.239 Y-12.564
Z-9.39
G1 Z-9.69 F100
X54.246 Y-12.56 Z-9.757
X54.265 Y-12.548 Z-9.82
X54.295 Y-12.53 Z-9.877
X54.335 Y-12.504 Z-9.925
X54.383 Y-12.474 Z-9.96
X54.437 Y-12.441 Z-9.982
X54.494 Y-12.405 Z-9.99
G2 X55.243 Y-12.168 I0.838 J-1.343
G1 X55.605 Y-12.16
X55.793 Y-12.166
G2 X50.195 Y-15.957 I-102.852 J145.851
G1 X49.957 Y-16.01
X49.72 Y-16.036
X49.356 Y-16.044
G2 X49.214 Y-15.482 I0.004 J0.3
G1 X49.272 Y-15.449 Z-9.982
X49.327 Y-15.418 Z-9.96
X49.377 Y-15.39 Z-9.925
X49.418 Y-15.367 Z-9.877
X49.45 Y-15.35 Z-9.82
X49.469 Y-15.339 Z-9.757
X49.475 Y-15.335 Z-9.69
G0 Z2.21
X54.602 Y-12.556
Z-9.39
G1 Z-9.69 F100
X54.609 Y-12.552 Z-9.757
X54.627 Y-12.541 Z-9.82
X54.658 Y-12.522 Z-9.877
X54.698 Y-12.497 Z-9.925
X54.746 Y-12.467 Z-9.96
X54.8 Y-12.433 Z-9.982
X54.857 Y-12.398 Z-9.99
G2 X55.605 Y-12.16 I0.838 J-1.343
G1 X55.953 Y-12.153
X56.14 Y-12.158
G2 X50.599 Y-15.926 I-76.481 J106.534
G1 X50.352 Y-15.999
X50.098 Y-16.028
X49.72 Y-16.036
G2 X49.578 Y-15.474 I0.004 J0.3
G1 X49.636 Y-15.442 Z-9.982
X49.691 Y-15.411 Z-9.96
X49.741 Y-15.383 Z-9.925
X49.782 Y-15.36 Z-9.877
X49.814 Y-15.342 Z-9.82
X49.833 Y-15.332 Z-9.757
X49.839 Y-15.328 Z-9.69
G0 Z2.21
X54.95 Y-12.549
Z-9.39
G1 Z-9.69 F100
X54.956 Y-12.545 Z-9.757
X54.975 Y-12.533 Z-9.82
X55.005 Y-12.514 Z-9.877
X55.046 Y-12.489 Z-9.925
X55.094 Y-12.459 Z-9.96
X55.148 Y-12.426 Z-9.982
X55.204 Y-12.39 Z-9.99
G2 X55.953 Y-12.153 I0.838 J-1.343
G1 X56.334 Y-12.145
X56.521 Y-12.15
X53.842 Y-13.982
X51.157 Y-15.807
X50.934 Y-15.92
X50.695 Y-15.993
X50.447 Y-16.021
X50.098 Y-16.028
G2 X49.955 Y-15.466 I0.004 J0.3
G1 X50.014 Y-15.434 Z-9.982
X50.069 Y-15.403 Z-9.96
X50.119 Y-15.375 Z-9.925
X50.16 Y-15.352 Z-9.877
X50.191 Y-15.335 Z-9.82
X50.211 Y-15.324 Z-9.757
X50.217 Y-15.32 Z-9.69
G0 Z2.21
X55.33 Y-12.541
Z-9.39
G1 Z-9.69 F100
X55.337 Y-12.537 Z-9.757
X55.356 Y-12.525 Z-9.82
X55.386 Y-12.506 Z-9.877
X55.426 Y-12.481 Z-9.925
X55.475 Y-12.451 Z-9.96
X55.528 Y-12.418 Z-9.982
X55.585 Y-12.382 Z-9.99
G2 X56.334 Y-12.145 I0.838 J-1.343
G1 X56.696 Y-12.137
X56.884 Y-12.143
G2 X51.286 Y-15.934 I-102.615 J145.497
G1 X51.048 Y-15.987
X50.811 Y-16.013
X50.447 Y-16.021
G2 X50.305 Y-15.459 I0.004 J0.3
G1 X50.363 Y-15.427 Z-9.982
X50.418 Y-15.396 Z-9.96
X50.468 Y-15.368 Z-9.925
X50.509 Y-15.345 Z-9.877
X50.54 Y-15.327 Z-9.82
X50.56 Y-15.316 Z-9.757
X50.566 Y-15.313 Z-9.69
G0 Z2.21
X55.693 Y-12.533
Z-9.39
G1 Z-9.69 F100
X55.7 Y-12.529 Z-9.757
X55.718 Y-12.518 Z-9.82
X55.749 Y-12.499 Z-9.877
X55.789 Y-12.473 Z-9.925
X55.837 Y-12.443 Z-9.96
X55.891 Y-12.41 Z-9.982
X55.948 Y-12.374 Z-9.99
G2 X56.696 Y-12.137 I0.838 J-1.343
G1 X57.044 Y-12.13
X57.231 Y-12.135
G2 X51.69 Y-15.903 I-76.501 J106.56
G1 X51.444 Y-15.976
X51.189 Y-16.005
X50.811 Y-16.013
G2 X50.669 Y-15.451 I0.004 J0.3
G1 X50.727 Y-15.419 Z-9.982
X50.782 Y-15.388 Z-9.96
X50.832 Y-15.36 Z-9.925
X50.873 Y-15.337 Z-9.877
X50.905 Y-15.319 Z-9.82
X50.924 Y-15.309 Z-9.757
X50.931 Y-15.305 Z-9.69
G0 Z2.21
X56.041 Y-12.526
Z-9.39
G1 Z-9.69 F100
X56.047 Y-12.522 Z-9.757
X56.066 Y-12.51 Z-9.82
X56.096 Y-12.491 Z-9.877
X56.137 Y-12.466 Z-9.925
X56.185 Y-12.436 Z-9.96
X56.239 Y-12.402 Z-9.982
X56.295 Y-12.367 Z-9.99
G2 X57.044 Y-12.13 I0.838 J-1.343
G1 X57.425 Y-12.122
X57.612 Y-12.127
X54.933 Y-13.959
X52.248 Y-15.784
X52.025 Y-15.897
X51.786 Y-15.97
X51.538 Y-15.998
X51.189 Y-16.005
G2 X51.047 Y-15.443 I0.004 J0.3
G1 X51.105 Y-15.411 Z-9.982
X51.161 Y-15.38 Z-9.96
X51.21 Y-15.352 Z-9.925
X51.252 Y-15.329 Z-9.877
X51.283 Y-15.311 Z-9.82
X51.302 Y-15.301 Z-9.757
X51.309 Y-15.297 Z-9.69
G0 Z2.21
X56.421 Y-12.518
Z-9.39
G1 Z-9.69 F100
X56.428 Y-12.514 Z-9.757
X56.447 Y-12.502 Z-9.82
X56.477 Y-12.483 Z-9.877
X56.517 Y-12.458 Z-9.925
X56.566 Y-12.428 Z-9.96
X56.619 Y-12.394 Z-9.982
X56.676 Y-12.359 Z-9.99
G2 X57.425 Y-12.122 I0.838 J-1.343
G1 X57.788 Y-12.114
X57.975 Y-12.119
G2 X52.377 Y-15.91 I-102.763 J145.714
G1 X52.139 Y-15.964
X51.902 Y-15.99
X51.538 Y-15.998
G2 X51.396 Y-15.436 I0.004 J0.3
G1 X51.454 Y-15.403 Z-9.982
X51.509 Y-15.372 Z-9.96
X51.559 Y-15.345 Z-9.925
X51.6 Y-15.321 Z-9.877
X51.632 Y-15.304 Z-9.82
X51.651 Y-15.293 Z-9.757
X51.657 Y-15.289 Z-9.69
G0 Z2.21
X56.784 Y-12.51
Z-9.39
G1 Z-9.69 F100
X56.791 Y-12.506 Z-9.757
X56.81 Y-12.494 Z-9.82
X56.84 Y-12.475 Z-9.877
X56.88 Y-12.45 Z-9.925
X56.928 Y-12.42 Z-9.96
X56.982 Y-12.387 Z-9.982
X57.039 Y-12.351 Z-9.99
G2 X57.788 Y-12.114 I0.838 J-1.343
G1 X58.135 Y-12.107
X58.322 Y-12.112
G2 X52.781 Y-15.879 I-76.465 J106.506
G1 X52.535 Y-15.953
X52.28 Y-15.982
X51.902 Y-15.99
G2 X51.76 Y-15.428 I0.004 J0.3
G1 X51.818 Y-15.396 Z-9.982
X51.873 Y-15.365 Z-9.96
X51.923 Y-15.337 Z-9.925
X51.965 Y-15.314 Z-9.877
X51.996 Y-15.296 Z-9.82
X52.015 Y-15.285 Z-9.757
X52.022 Y-15.282 Z-9.69
G0 Z2.21
X57.132 Y-12.503
Z-9.39
G1 Z-9.69 F100
X57.138 Y-12.499 Z-9.757
X57.157 Y-12.487 Z-9.82
X57.187 Y-12.468 Z-9.877
X57.228 Y-12.443 Z-9.925
X57.276 Y-12.413 Z-9.96
X57.33 Y-12.379 Z-9.982
X57.386 Y-12.344 Z-9.99
G2 X58.135 Y-12.107 I0.838 J-1.343
G1 X58.516 Y-12.098
X58.703 Y-12.104
X56.024 Y-13.936
X53.339 Y-15.76
X53.116 Y-15.874
X52.877 Y-15.946
X52.629 Y-15.975
X52.28 Y-15.982
G2 X52.138 Y-15.42 I0.004 J0.3
G1 X52.196 Y-15.388 Z-9.982
X52.252 Y-15.357 Z-9.96
X52.301 Y-15.329 Z-9.925
X52.343 Y-15.306 Z-9.877
X52.374 Y-15.288 Z-9.82
X52.393 Y-15.277 Z-9.757
X52.4 Y-15.274 Z-9.69
G0 Z2.21
X57.513 Y-12.495
Z-9.39
G1 Z-9.69 F100
X57.519 Y-12.491 Z-9.757
X57.538 Y-12.479 Z-9.82
X57.568 Y-12.46 Z-9.877
X57.608 Y-12.435 Z-9.925
X57.657 Y-12.405 Z-9.96
X57.71 Y-12.371 Z-9.982
X57.767 Y-12.336 Z-9.99
G2 X58.516 Y-12.098 I0.838 J-1.343
G1 X58.879 Y-12.091
X59.066 Y-12.096
G2 X53.468 Y-15.887 I-102.818 J145.795
G1 X53.23 Y-15.941
X52.993 Y-15.967
X52.629 Y-15.975
G2 X52.487 Y-15.413 I0.004 J0.3
G1 X52.545 Y-15.38 Z-9.982
X52.6 Y-15.349 Z-9.96
X52.65 Y-15.321 Z-9.925
X52.691 Y-15.298 Z-9.877
X52.723 Y-15.281 Z-9.82
X52.742 Y-15.27 Z-9.757
X52.749 Y-15.266 Z-9.69
G0 Z2.21
X57.875 Y-12.487
Z-9.39
G1 Z-9.69 F100
X57.882 Y-12.483 Z-9.757
X57.901 Y-12.471 Z-9.82
X57.931 Y-12.452 Z-9.877
X57.971 Y-12.427 Z-9.925
X58.019 Y-12.397 Z-9.96
X58.073 Y-12.363 Z-9.982
X58.13 Y-12.328 Z-9.99
G2 X58.879 Y-12.091 I0.838 J-1.343
G1 X59.226 Y-12.083
X59.414 Y-12.089
G2 X53.872 Y-15.856 I-76.478 J106.526
G1 X53.626 Y-15.929
X53.371 Y-15.959
X52.993 Y-15.967
G2 X52.851 Y-15.405 I0.004 J0.3
G1 X52.909 Y-15.372 Z-9.982
X52.965 Y-15.341 Z-9.96
X53.014 Y-15.314 Z-9.925
X53.056 Y-15.29 Z-9.877
X53.087 Y-15.273 Z-9.82
X53.106 Y-15.262 Z-9.757
X53.113 Y-15.259 Z-9.69
G0 Z2.21
X58.223 Y-12.479
Z-9.39
G1 Z-9.69 F100
X58.229 Y-12.475 Z-9.757
X58.248 Y-12.464 Z-9.82
X58.278 Y-12.445 Z-9.877
X58.319 Y-12.42 Z-9.925
X58.367 Y-12.39 Z-9.96
X58.421 Y-12.356 Z-9.982
X58.477 Y-12.321 Z-9.99
G2 X59.226 Y-12.083 I0.838 J-1.343
G1 X59.607 Y-12.075
X59.794 Y-12.081
X57.115 Y-13.913
X54.43 Y-15.737
X54.207 Y-15.85
X53.968 Y-15.923
X53.72 Y-15.951
X53.371 Y-15.959
G2 X53.229 Y-15.397 I0.004 J0.3
G1 X53.287 Y-15.364 Z-9.982
X53.343 Y-15.333 Z-9.96
X53.392 Y-15.306 Z-9.925
X53.434 Y-15.282 Z-9.877
X53.465 Y-15.265 Z-9.82
X53.484 Y-15.254 Z-9.757
X53.491 Y-15.25 Z-9.69
G0 Z2.21
X58.604 Y-12.471
Z-9.39
G1 Z-9.69 F100
X58.61 Y-12.467 Z-9.757
X58.629 Y-12.456 Z-9.82
X58.659 Y-12.437 Z-9.877
X58.699 Y-12.412 Z-9.925
X58.748 Y-12.381 Z-9.96
X58.801 Y-12.348 Z-9.982
X58.858 Y-12.313 Z-9.99
G2 X59.607 Y-12.075 I0.838 J-1.343
G1 X59.97 Y-12.068
X60.157 Y-12.073
G2 X54.559 Y-15.864 I-102.794 J145.76
G1 X54.322 Y-15.918
X54.084 Y-15.944
X53.72 Y-15.951
G2 X53.578 Y-15.39 I0.004 J0.3
G1 X53.636 Y-15.357 Z-9.982
X53.691 Y-15.326 Z-9.96
X53.741 Y-15.298 Z-9.925
X53.782 Y-15.275 Z-9.877
X53.814 Y-15.258 Z-9.82
X53.833 Y-15.247 Z-9.757
X53.84 Y-15.243 Z-9.69
G0 Z2.21
X58.966 Y-12.464
Z-9.39
G1 Z-9.69 F100
X58.973 Y-12.46 Z-9.757
X58.992 Y-12.448 Z-9.82
X59.022 Y-12.429 Z-9.877
X59.062 Y-12.404 Z-9.925
X59.111 Y-12.374 Z-9.96
X59.164 Y-12.34 Z-9.982
X59.221 Y-12.305 Z-9.99
G2 X59.97 Y-12.068 I0.838 J-1.343
G1 X60.317 Y-12.06
X60.505 Y-12.066
G2 X54.963 Y-15.833 I-76.467 J106.509
G1 X54.717 Y-15.906
X54.462 Y-15.936
X54.084 Y-15.944
G2 X53.942 Y-15.382 I0.004 J0.3
G1 X54 Y-15.349 Z-9.982
X54.056 Y-15.318 Z-9.96
