(propfaceoff)
(T1  D=3 CR=0 - ZMIN=-4 - flat end mill)
G90 G94
G17
G21
G28 G91 Z0
G90

(Adaptive2)
T1
S18000 M3
G54
G0 X-250.298 Y68.505
Z2.51
Z-3.4
G1 Z-3.7 F400
X-250.296 Y68.498 Z-3.767
X-250.291 Y68.476 Z-3.83
X-250.282 Y68.442 Z-3.887
X-250.27 Y68.396 Z-3.935
X-250.256 Y68.341 Z-3.97
X-250.24 Y68.279 Z-3.992
X-250.224 Y68.215 Z-4
G2 X-249.989 Y66.581 I-7.419 J-1.9
G1 Y66.431
X-250.192 Y65.841
G3 X-250.443 Y63.363 I11.297 J-2.398
X-250.477 Y57.124 I239.647 J-4.427
G1 X-250.486 Y16.567
X-250.489 Y1.281
X-250.413 Y0.978
X-250.251 Y0.711
X-249.821 Y0.259
X-249.272 Y-0.037
X-248.675 Y-0.218
G3 X-246.193 Y-0.441 I2.395 J12.731
X-239.954 Y-0.471 I4.395 J270.765
G1 X-216.244 Y-0.472
X-165.704 Y-0.476
X-115.165 Y-0.479
X-64.625 Y-0.483
X-14.086 Y-0.486
X-1.295 Y-0.487
X-0.99 Y-0.421
X-0.72 Y-0.264
X-0.261 Y0.159
X0.039 Y0.706
X0.224 Y1.301
G3 X0.452 Y3.783 I-12.479 J2.396
X0.482 Y10.022 I-265.282 J4.409
G1 X0.486 Y36.228
X0.489 Y63.681
X0.428 Y63.987
X0.274 Y64.259
X-0.145 Y64.721
X-0.691 Y65.024
X-1.286 Y65.211
G3 X-3.767 Y65.441 I-2.395 J-12.35
X-10.007 Y65.471 I-4.397 J-262.537
G1 X-21.862 Y65.472
X-72.401 Y65.476
X-122.941 Y65.48
X-173.48 Y65.484
X-224.02 Y65.487
X-247.574 Y65.489
X-247.88 Y65.43
X-248.156 Y65.285
X-248.635 Y64.884
X-248.959 Y64.351
X-249.166 Y63.763
G3 X-249.437 Y61.287 I10.962 J-2.452
X-249.475 Y57.544 I114.674 J-3.016
G1 X-249.478 Y53.176
X-249.481 Y39.449
X-249.488 Y2.636
X-249.423 Y2.331
X-249.292 Y2.048
X-248.926 Y1.543
X-248.419 Y1.179
X-247.845 Y0.934
G3 X-245.381 Y0.586 I2.523 J8.967
X-241.014 Y0.533 I3.401 J100.312
G1 X-236.646 Y0.529
X-186.107 Y0.525
X-135.567 Y0.522
X-85.028 Y0.519
X-34.488 Y0.515
X-2.667 Y0.513
X-2.36 Y0.57
X-2.073 Y0.693
X-1.559 Y1.046
X-1.187 Y1.547
X-0.935 Y2.118
X-0.773 Y2.72
G3 X-0.553 Y5.203 I-14.198 J2.512
X-0.52 Y8.947 I-134.68 J3.054
G1 X-0.517 Y13.314
Y18.306
X-0.511 Y62.294
X-0.562 Y62.602
X-0.679 Y62.891
X-1.024 Y63.411
X-1.52 Y63.789
X-2.089 Y64.045
X-2.691 Y64.21
G3 X-5.173 Y64.435 I-2.512 J-13.906
G1 X-5.797 Y64.451
G3 X-12.66 Y64.471 I-4.852 J-493.958
G1 X-56.337 Y64.475
X-106.876 Y64.478
X-157.416 Y64.482
X-207.955 Y64.486
X-246.016 Y64.489
X-246.328 Y64.48
X-246.633 Y64.413
X-246.917 Y64.284
X-247.426 Y63.923
X-247.796 Y63.422
X-248.048 Y62.851
X-248.212 Y62.249
G3 X-248.439 Y59.766 I14.044 J-2.539
X-248.476 Y53.527 I231.204 J-4.481
G1 X-248.488 Y3.612
X-248.386 Y3.317
X-248.079 Y2.773
X-247.613 Y2.359
X-247.062 Y2.066
X-246.47 Y1.87
G3 X-243.995 Y1.581 I2.591 J11.467
X-239.628 Y1.533 I3.46 J114.862
G1 X-235.885 Y1.529
X-198.448 Y1.526
X-147.908 Y1.523
X-97.369 Y1.519
X-46.829 Y1.516
X-3.777 Y1.513
X-3.472 Y1.578
X-3.185 Y1.7
X-2.664 Y2.044
X-2.274 Y2.531
X-2.004 Y3.093
X-1.824 Y3.691
G3 X-1.564 Y6.169 I-12.664 J2.58
G1 X-1.544 Y6.793
X-1.534 Y7.417
X-1.527 Y8.041
X-1.523 Y8.664
X-1.52 Y9.912
X-1.518 Y12.408
X-1.512 Y58.58
X-1.511 Y61.076
X-1.552 Y61.385
X-1.65 Y61.681
X-1.952 Y62.227
X-2.417 Y62.643
X-2.967 Y62.936
X-3.56 Y63.133
G3 X-6.034 Y63.42 I-2.586 J-11.494
X-10.401 Y63.467 I-3.458 J-116.139
G1 X-14.769 Y63.471
X-48.462 Y63.474
X-99.002 Y63.478
X-149.541 Y63.482
X-200.081 Y63.486
X-245.005 Y63.489
X-245.315 Y63.456
X-245.614 Y63.368
X-246.171 Y63.085
X-246.6 Y62.632
X-246.905 Y62.088
X-247.112 Y61.499
G3 X-247.42 Y59.028 I10.85 J-2.606
X-247.474 Y54.661 I106.308 J-3.489
G1 X-247.478 Y51.541
X-247.487 Y8.489
X-247.488 Y4.745
X-247.401 Y4.446
X-247.123 Y3.887
X-246.678 Y3.45
X-246.139 Y3.136
X-245.553 Y2.92
G3 X-243.085 Y2.593 I2.633 J10.38
X-238.718 Y2.533 I3.502 J97.362
G1 X-236.222 Y2.529
X-201.905 Y2.527
X-151.365 Y2.523
X-100.826 Y2.52
X-50.286 Y2.516
X-4.738 Y2.513
X-4.439 Y2.602
X-3.88 Y2.879
X-3.443 Y3.324
X-3.128 Y3.863
X-2.912 Y4.448
X-2.768 Y5.055
X-2.675 Y5.672
X-2.616 Y6.293
G3 X-2.524 Y11.283 I-76.723 J3.902
G1 X-2.517 Y13.779
X-2.512 Y56.831
Y59.951
X-2.546 Y60.261
X-2.633 Y60.56
X-2.912 Y61.119
X-3.358 Y61.555
X-3.897 Y61.869
X-4.483 Y62.083
G3 X-6.952 Y62.408 I-2.629 J-10.429
X-11.319 Y62.467 I-3.5 J-98.354
G1 X-14.439 Y62.471
X-48.756 Y62.474
X-99.295 Y62.478
X-149.835 Y62.482
X-200.374 Y62.486
X-244.051 Y62.489
X-244.358 Y62.437
X-244.652 Y62.332
X-245.193 Y62.021
X-245.611 Y61.557
X-245.908 Y61.009
X-246.111 Y60.419
G3 X-246.418 Y57.947 I11.131 J-2.636
G1 X-246.442 Y57.323
X-246.456 Y56.7
G3 X-246.478 Y50.46 I428.904 J-4.668
G1 X-246.488 Y6.16
X-246.467 Y5.849
X-246.394 Y5.545
X-246.144 Y4.974
X-245.717 Y4.519
X-245.188 Y4.188
X-244.608 Y3.958
G3 X-242.144 Y3.601 I2.656 J9.667
X-237.778 Y3.534 I3.53 J87.502
G1 X-235.282 Y3.529
X-197.221 Y3.526
X-146.682 Y3.523
X-96.142 Y3.519
X-45.603 Y3.516
X-6.294 Y3.513
X-5.67 Y3.53
X-5.376 Y3.635
X-4.834 Y3.942
X-4.412 Y4.402
X-4.109 Y4.948
X-3.901 Y5.536
G3 X-3.582 Y8.006 I-10.833 J2.656
X-3.522 Y12.997 I-112.465 J3.843
G1 X-3.517 Y17.365
X-3.512 Y58.545
X-3.516 Y59.169
X-3.597 Y59.47
X-3.858 Y60.037
X-4.291 Y60.487
X-4.821 Y60.815
X-5.402 Y61.044
X-6.007 Y61.197
X-6.622 Y61.297
G3 X-10.361 Y61.456 I-3.259 J-32.61
G1 X-10.985 Y61.465
X-12.232 Y61.469
X-14.728 Y61.471
X-57.156 Y61.475
X-107.696 Y61.478
X-158.236 Y61.482
X-208.775 Y61.486
X-243.092 Y61.489
X-243.397 Y61.422
X-243.975 Y61.187
X-244.44 Y60.771
X-244.783 Y60.25
X-245.022 Y59.673
G3 X-245.4 Y57.213 I9.216 J-2.672
X-245.472 Y52.223 I95.254 J-3.884
G1 X-245.479 Y48.479
Y46.607
X-245.487 Y7.299
X-245.456 Y6.676
X-245.238 Y6.091
X-244.834 Y5.615
X-244.321 Y5.261
X-243.749 Y5.011
G3 X-241.293 Y4.613 I2.684 J8.79
X-235.679 Y4.535 I4.217 J101.639
G1 X-230.063 Y4.528
X-185.139 Y4.525
X-134.6 Y4.522
X-84.06 Y4.519
X-33.52 Y4.515
X-7.315 Y4.513
X-6.691 Y4.531
X-6.104 Y4.742
X-5.622 Y5.138
X-5.262 Y5.648
X-5.008 Y6.218
G3 X-4.603 Y8.673 I-8.634 J2.685
X-4.524 Y13.663 I-87.332 J3.89
G1 X-4.517 Y16.783
X-4.516 Y27.39
X-4.512 Y57.339
X-4.513 Y57.963
X-4.559 Y58.272
X-4.657 Y58.568
X-4.953 Y59.117
X-5.405 Y59.547
X-5.947 Y59.857
X-6.533 Y60.07
G3 X-9.001 Y60.402 I-2.671 J-10.518
X-13.368 Y60.466 I-3.547 J-93.194
G1 X-15.864 Y60.471
X-23.351 Y60.472
X-73.891 Y60.476
X-124.43 Y60.48
X-174.97 Y60.484
X-225.509 Y60.488
X-241.732 Y60.489
X-242.355 Y60.456
X-242.935 Y60.225
X-243.405 Y59.815
X-243.755 Y59.298
X-244.001 Y58.725
G3 X-244.394 Y56.268 I8.938 J-2.689
X-244.472 Y51.278 I89.938 J-3.904
G1 X-244.479 Y48.158
X-244.483 Y27.568
X-244.487 Y8.225
X-244.47 Y7.914
X-244.403 Y7.609
X-244.163 Y7.033
X-243.746 Y6.569
X-243.225 Y6.226
X-242.648 Y5.987
G3 X-240.188 Y5.609 I2.684 J9.271
X-235.198 Y5.535 I3.893 J93.72
G1 X-232.078 Y5.529
X-214.608 Y5.527
X-164.068 Y5.524
X-113.529 Y5.521
X-62.989 Y5.517
X-12.449 Y5.514
X-8.082
X-7.772 Y5.548
X-7.473 Y5.637
X-6.914 Y5.915
X-6.476 Y6.359
X-6.158 Y6.896
X-5.937 Y7.479
G3 X-5.591 Y9.945 I-10.163 J2.685
X-5.518 Y16.184 I-139.981 J4.763
G1 X-5.514 Y38.022
X-5.513 Y50.501
X-5.512 Y56.74
X-5.558 Y57.362
X-5.796 Y57.939
X-6.211 Y58.406
X-6.729 Y58.752
X-7.304 Y58.996
G3 X-9.761 Y59.387 I-2.696 J-9.039
X-14.752 Y59.465 I-3.9 J-89.859
G1 X-17.871 Y59.471
X-48.445 Y59.474
X-98.984 Y59.478
X-149.524 Y59.482
X-200.064 Y59.486
X-240.62 Y59.489
X-241.244 Y59.481
X-241.541 Y59.385
X-242.093 Y59.094
X-242.526 Y58.645
X-242.841 Y58.106
X-243.059 Y57.522
G3 X-243.404 Y55.056 I10.272 J-2.693
X-243.473 Y51.313 I81.55 J-3.373
G1 X-243.477 Y50.065
X-243.479 Y46.946
X-243.487 Y9.509
X-243.482 Y8.885
X-243.404 Y8.583
X-243.149 Y8.013
X-242.724 Y7.556
X-242.199 Y7.219
X-241.621 Y6.983
G3 X-239.16 Y6.609 I2.689 J9.41
X-236.666 Y6.542 I2.607 J50.02
X-231.05 Y6.529 I4.255 J635.022
G1 X-186.126 Y6.525
X-135.587 Y6.522
X-85.047 Y6.519
X-34.508 Y6.515
X-9.55 Y6.514
X-8.926 Y6.515
X-8.621 Y6.583
X-8.044 Y6.82
X-7.578 Y7.235
X-7.233 Y7.755
X-6.99 Y8.329
G3 X-6.602 Y10.788 I-9.103 J2.698
X-6.523 Y15.778 I-90.193 J3.911
G1 X-6.517 Y18.898
X-6.515 Y30.129
X-6.512 Y55.71
X-6.539 Y56.334
X-6.771 Y56.913
X-7.18 Y57.384
X-7.695 Y57.736
X-8.268 Y57.984
G3 X-10.724 Y58.384 I-2.703 J-8.866
X-15.714 Y58.465 I-3.911 J-87.223
G1 X-18.21 Y58.471
X-30.065 Y58.472
X-80.604 Y58.476
X-131.144 Y58.48
X-181.683 Y58.484
X-232.223 Y58.488
X-239.71 Y58.489
X-240.334 Y58.459
X-240.915 Y58.232
X-241.387 Y57.825
X-241.74 Y57.31
X-241.989 Y56.738
G3 X-242.39 Y54.282 I8.852 J-2.707
X-242.472 Y49.292 I86.717 J-3.925
G1 X-242.479 Y46.796
X-242.486 Y16.847
X-242.487 Y10.607
X-242.486 Y9.983
X-242.425 Y9.677
X-242.202 Y9.094
X-241.796 Y8.62
X-241.282 Y8.267
X-240.71 Y8.017
G3 X-238.255 Y7.617 I2.7 J8.82
X-233.264 Y7.535 I3.912 J87.078
G1 X-230.769 Y7.529
X-200.195 Y7.526
X-149.656 Y7.523
X-99.116 Y7.52
X-48.577 Y7.516
X-10.516 Y7.514
X-9.892
X-9.287 Y7.666
X-8.77 Y8.016
X-8.375 Y8.499
X-8.09 Y9.054
X-7.894 Y9.646
G3 X-7.584 Y12.118 I-11.58 J2.705
X-7.521 Y18.357 I-145.523 J4.593
G1 X-7.514 Y40.195
X-7.512 Y54.546
X-7.518 Y55.17
X-7.603 Y55.47
X-7.876 Y56.031
X-8.312 Y56.477
X-8.844 Y56.804
X-9.425 Y57.031
G3 X-11.888 Y57.393 I-2.7 J-9.825
X-16.878 Y57.465 I-3.913 J-97.03
G1 X-19.998 Y57.472
X-70.538 Y57.476
X-121.077 Y57.48
X-171.617 Y57.483
X-222.156 Y57.487
X-238.379 Y57.489
X-239.003 Y57.486
X-239.31 Y57.432
X-239.896 Y57.217
X-240.374 Y56.817
X-240.732 Y56.305
X-240.984 Y55.734
G3 X-241.389 Y53.28 I8.719 J-2.701
X-241.472 Y48.289 I86.033 J-3.927
G1 X-241.479 Y45.794
X-241.484 Y25.203
X-241.487 Y11.477
X-241.479 Y10.853
X-241.394 Y10.553
X-241.126 Y9.989
X-240.694 Y9.539
X-240.165 Y9.208
X-239.585 Y8.977
G3 X-237.123 Y8.609 I2.701 J9.653
X-232.133 Y8.535 I3.914 J95.146
G1 X-229.013 Y8.529
X-206.551 Y8.527
X-156.011 Y8.523
X-105.472 Y8.52
X-54.932 Y8.517
X-11.256 Y8.514
X-10.633 Y8.545
X-10.057 Y8.785
X-9.59 Y9.199
X-9.244 Y9.718
X-9 Y10.292
G3 X-8.605 Y12.75 I-9.049 J2.713
G1 X-8.571 Y13.373
X-8.551 Y13.996
G3 X-8.517 Y20.236 I-296.721 J4.767
G1 X-8.512 Y53.305
X-8.513 Y53.929
X-8.559 Y54.237
X-8.655 Y54.534
X-8.946 Y55.086
X-9.395 Y55.519
X-9.934 Y55.834
X-10.518 Y56.053
G3 X-12.984 Y56.397 I-2.694 J-10.294
X-17.975 Y56.466 I-3.89 J-100.615
G1 X-21.095 Y56.472
X-68.515 Y56.475
X-119.054 Y56.479
X-169.594 Y56.483
X-220.133 Y56.487
X-237.604 Y56.488
X-238.227 Y56.47
X-238.524 Y56.375
X-239.077 Y56.086
X-239.513 Y55.639
X-239.83 Y55.101
X-240.051 Y54.518
G3 X-240.402 Y52.053 I10.167 J-2.704
X-240.473 Y47.062 I99.99 J-3.931
G1 X-240.48 Y43.942
X-240.484 Y25.224
X-240.486 Y12.745
Y12.121
X-240.446 Y11.812
X-240.356 Y11.513
X-240.078 Y10.954
X-239.638 Y10.512
X-239.105 Y10.188
X-238.523 Y9.963
G3 X-236.059 Y9.606 I2.695 J9.931
X-231.069 Y9.535 I3.913 J98.737
G1 X-227.949 Y9.529
X-204.239 Y9.527
X-153.699 Y9.523
X-103.16 Y9.52
X-52.62 Y9.516
X-12.064 Y9.514
X-11.754 Y9.555
X-11.457 Y9.65
X-10.904 Y9.939
X-10.471 Y10.388
X-10.157 Y10.927
X-9.939 Y11.512
G3 X-9.593 Y13.978 I-10.307 J2.703
X-9.523 Y18.344 I-86.528 J3.561
G1 X-9.517 Y20.216
X-9.515 Y32.695
X-9.513 Y52.661
X-9.548 Y53.284
X-9.767 Y53.869
X-10.165 Y54.349
X-10.674 Y54.709
X-11.243 Y54.965
G3 X-13.697 Y55.379 I-2.712 J-8.586
X-18.687 Y55.465 I-3.923 J-83.418
G1 X-21.182 Y55.471
X-24.302 Y55.472
X-74.842 Y55.476
X-125.381 Y55.48
X-175.921 Y55.484
X-226.46 Y55.488
X-236.444
X-237.068 Y55.485
X-237.372 Y55.416
X-237.948 Y55.177
X-238.413 Y54.76
X-238.758 Y54.241
X-239.001 Y53.666
G3 X-239.392 Y51.208 I9.112 J-2.71
X-239.473 Y46.218 I88.844 J-3.935
G1 X-239.48 Y43.722
X-239.485 Y16.892
X-239.486 Y13.149
X-239.408 Y12.53
X-239.126 Y11.973
X-238.686 Y11.53
X-238.154 Y11.204
X-237.574 Y10.975
G3 X-235.111 Y10.609 I2.708 J9.759
X-230.121 Y10.535 I3.921 J95.287
G1 X-227.001 Y10.528
X-193.932 Y10.526
X-143.393 Y10.523
X-92.853 Y10.519
X-42.313 Y10.516
X-12.988 Y10.514
X-12.682 Y10.574
X-12.098 Y10.794
X-11.622 Y11.198
X-11.266 Y11.71
X-11.015 Y12.281
G3 X-10.608 Y14.736 I-8.749 J2.712
X-10.523 Y19.726 I-84.947 J3.93
G1 X-10.517 Y22.222
X-10.515 Y30.333
X-10.513 Y51.547
X-10.521 Y52.171
X-10.609 Y52.47
X-10.885 Y53.03
X-11.323 Y53.475
X-11.855 Y53.8
X-12.436 Y54.028
G3 X-14.899 Y54.391 I-2.708 J-9.829
X-19.89 Y54.466 I-3.923 J-95.909
G1 X-23.009 Y54.472
X-37.984 Y54.473
X-88.524 Y54.477
X-139.063 Y54.481
X-189.603 Y54.485
X-235.775 Y54.488
X-236.397 Y54.44
X-236.966 Y54.185
X-237.425 Y53.762
X-237.766 Y53.239
X-238.006 Y52.664
X-238.169 Y52.061
X-238.278 Y51.447
G3 X-238.46 Y47.71 I29.773 J-3.32
X-238.48 Y42.719 I307.337 J-3.715
G1 X-238.486 Y14.641
X-238.485 Y14.017
X-238.43 Y13.71
X-238.218 Y13.123
X-237.819 Y12.644
X-237.308 Y12.286
X-236.738 Y12.032
G3 X-234.284 Y11.621 I2.712 J8.652
X-229.294 Y11.536 I3.927 J83.915
G1 X-226.798 Y11.529
X-176.259 Y11.525
X-125.719 Y11.521
X-75.18 Y11.518
X-24.64 Y11.515
X-14.033 Y11.514
X-13.725 Y11.566
X-13.136 Y11.772
X-12.652 Y12.166
X-12.288 Y12.672
X-12.03 Y13.24
G3 X-11.611 Y15.692 I-8.476 J2.711
X-11.524 Y20.682 I-82.328 J3.932
G1 X-11.516 Y23.178
X-11.513 Y50.008
Y50.632
X-11.535 Y51.255
X-11.743 Y51.844
X-12.135 Y52.329
X-12.641 Y52.694
X-13.209 Y52.953
G3 X-15.66 Y53.376 I-2.717 J-8.432
X-20.65 Y53.464 I-3.931 J-81.206
G1 X-23.146 Y53.472
X-59.959 Y53.475
X-110.498 Y53.479
X-161.038 Y53.483
X-211.577 Y53.487
X-234.663 Y53.488
X-235.287 Y53.47
X-235.873 Y53.255
X-236.353 Y52.856
X-236.713 Y52.347
X-236.969 Y51.778
G3 X-237.385 Y49.325 I8.577 J-2.718
X-237.473 Y44.335 I82.675 J-3.943
G1 X-237.48 Y41.839
X-237.483 Y27.488
X-237.486 Y15.009
X-237.427 Y14.703
X-237.209 Y14.118
X-236.808 Y13.64
X-236.297 Y13.282
X-235.727 Y13.029
G3 X-233.273 Y12.62 I2.708 J8.676
X-228.283 Y12.535 I3.926 J84.613
G1 X-225.787 Y12.529
X-200.829 Y12.526
X-150.29 Y12.523
X-99.75 Y12.52
X-49.211 Y12.516
X-15.517 Y12.514
X-14.894 Y12.518
X-14.591 Y12.595
X-14.021 Y12.848
X-13.562 Y13.271
X-13.222 Y13.794
X-12.984 Y14.371
G3 X-12.602 Y16.83 I-9.327 J2.71
X-12.523 Y21.821 I-90.825 J3.931
G1 X-12.516 Y24.316
Y27.436
X-12.513 Y49.274
X-12.514 Y49.898
X-12.553 Y50.208
X-12.645 Y50.506
X-12.927 Y51.063
X-13.372 Y51.5
X-13.908 Y51.818
X-14.492 Y52.04
G3 X-16.956 Y52.393 I-2.708 J-10.119
X-21.947 Y52.466 I-3.927 J-98.733
G1 X-25.067 Y52.472
X-39.417 Y52.473
X-89.957 Y52.477
X-140.497 Y52.481
X-191.036 Y52.485
X-233.464 Y52.488
X-234.088 Y52.485
X-234.392 Y52.414
X-234.966 Y52.168
X-235.428 Y51.749
X-235.77 Y51.227
X-236.009 Y50.651
G3 X-236.394 Y48.192 I9.269 J-2.709
G1 X-236.427 Y47.569
X-236.446 Y46.945
X-236.458 Y46.321
G3 X-236.48 Y40.706 I413.348 J-4.434
G1 X-236.486 Y16.372
X-236.461 Y15.749
X-236.255 Y15.16
X-235.862 Y14.674
X-235.357 Y14.308
X-234.79 Y14.048
G3 X-232.339 Y13.624 I2.715 J8.394
X-227.349 Y13.536 I3.931 J81.112
G1 X-224.853 Y13.529
X-217.366 Y13.528
X-166.826 Y13.524
X-116.287 Y13.521
X-65.747 Y13.517
X-16.455 Y13.514
X-15.831 Y13.523
X-15.233 Y13.699
X-14.729 Y14.067
X-14.346 Y14.559
X-14.071 Y15.119
X-13.881 Y15.714
G3 X-13.583 Y18.187 I-12.066 J2.713
X-13.521 Y22.554 I-100.891 J3.603
G1 X-13.516 Y25.05
X-13.513 Y48.76
X-13.567 Y49.381
X-13.818 Y49.953
X-14.24 Y50.412
X-14.763 Y50.754
X-15.338 Y50.995
G3 X-17.796 Y51.384 I-2.718 J-9.199
X-22.787 Y51.465 I-3.933 J-88.561
G1 X-25.282 Y51.472
X-27.154
X-77.694 Y51.476
X-128.233 Y51.48
X-178.773 Y51.484
X-229.312 Y51.488
X-232.432
X-233.056 Y51.487
X-233.361 Y51.419
X-233.938 Y51.183
X-234.405 Y50.77
X-234.753 Y50.252
X-234.998 Y49.678
G3 X-235.392 Y47.22 I9.032 J-2.708
X-235.473 Y42.23 I88.219 J-3.939
G1 X-235.48 Y39.734
X-235.485 Y17.272
X-235.453 Y16.649
X-235.211 Y16.074
X-234.797 Y15.607
X-234.28 Y15.259
X-233.706 Y15.013
G3 X-231.249 Y14.617 I2.713 J9.004
X-225.635 Y14.535 I4.259 J99.402
G1 X-221.268 Y14.528
X-175.096 Y14.525
X-124.556 Y14.521
X-74.016 Y14.518
X-23.477 Y14.514
X-17.237
X-16.615 Y14.553
X-16.043 Y14.802
X-15.58 Y15.22
X-15.237 Y15.741
X-14.995 Y16.317
G3 X-14.604 Y18.775 I-9.173 J2.719
X-14.523 Y23.765 I-88.247 J3.937
G1 X-14.516 Y26.261
X-14.513 Y47.475
X-14.52 Y48.099
X-14.597 Y48.401
X-14.851 Y48.971
X-15.274 Y49.429
X-15.798 Y49.768
X-16.375 Y50.006
G3 X-18.835 Y50.387 I-2.707 J-9.341
X-22.577 Y50.465 I-3.391 J-72.533
G1 X-23.825 Y50.47
X-26.321 Y50.472
X-73.117 Y50.476
X-123.656 Y50.48
X-174.196 Y50.484
X-224.736 Y50.488
X-231.599
X-232.223 Y50.47
X-232.816 Y50.277
X-233.309 Y49.894
X-233.681 Y49.393
X-233.947 Y48.829
G3 X-234.381 Y46.38 I8.196 J-2.718
X-234.473 Y41.39 I78.983 J-3.943
G1 X-234.481 Y38.894
X-234.485 Y18.304
X-234.463 Y17.68
X-234.234 Y17.1
X-233.827 Y16.627
X-233.313 Y16.274
X-232.741 Y16.024
G3 X-230.286 Y15.619 I2.713 J8.811
X-225.92 Y15.536 I3.569 J72.892
G1 X-224.048 Y15.529
X-216.56 Y15.528
X-175.38 Y15.525
X-124.84 Y15.521
X-74.301 Y15.518
X-23.761 Y15.514
X-18.146
X-17.835 Y15.545
X-17.534 Y15.626
X-16.97 Y15.893
X-16.521 Y16.326
X-16.192 Y16.856
X-15.963 Y17.436
G3 X-15.597 Y19.899 I-9.749 J2.705
X-15.522 Y24.889 I-95.518 J3.931
G1 X-15.516 Y28.009
X-15.513 Y46.727
X-15.555 Y47.35
X-15.797 Y47.925
X-16.211 Y48.391
X-16.729 Y48.739
X-17.303 Y48.985
G3 X-19.759 Y49.383 I-2.715 J-8.989
X-24.749 Y49.465 I-3.933 J-86.796
G1 X-26.621 Y49.472
X-58.443 Y49.475
X-77.161 Y49.476
X-127.701 Y49.48
X-178.24 Y49.484
X-228.78 Y49.488
X-230.652
X-231.275 Y49.47
X-231.862 Y49.258
X-232.345 Y48.863
X-232.708 Y48.355
X-232.966 Y47.787
G3 X-233.386 Y45.335 I8.486 J-2.713
X-233.473 Y40.345 I82.267 J-3.943
G1 X-233.481 Y37.849
X-233.485 Y19.131
X-233.452 Y18.821
X-233.367 Y18.521
X-233.094 Y17.96
X-232.656 Y17.516
X-232.123 Y17.192
X-231.541 Y16.966
G3 X-229.077 Y16.607 I2.704 J9.931
X-224.087 Y16.534 I3.925 J97.381
G1 X-220.967 Y16.528
X-217.847
X-167.308 Y16.524
X-116.768 Y16.521
X-66.228 Y16.517
X-19.433 Y16.514
X-18.809 Y16.53
X-18.213 Y16.714
X-17.712 Y17.086
X-17.333 Y17.582
X-17.061 Y18.144
X-16.875 Y18.739
G3 X-16.581 Y21.213 I-12.261 J2.711
X-16.521 Y25.58 I-102.831 J3.602
G1 X-16.516 Y28.076
X-16.513 Y45.547
X-16.522 Y46.17
X-16.61 Y46.47
X-16.886 Y47.029
X-17.324 Y47.474
X-17.856 Y47.8
X-18.437 Y48.028
G3 X-20.9 Y48.391 I-2.709 J-9.832
X-25.89 Y48.466 I-3.929 J-95.742
G1 X-28.386 Y48.472
X-38.369 Y48.473
X-88.909 Y48.477
X-139.448 Y48.481
X-189.988 Y48.485
X-229.296 Y48.488
X-229.92 Y48.487
X-230.229 Y48.446
X-230.527 Y48.352
X-231.082 Y48.068
X-231.517 Y47.62
X-231.833 Y47.082
X-232.053 Y46.498
G3 X-232.403 Y44.033 I10.221 J-2.707
X-232.475 Y39.043 I100.056 J-3.94
G1 X-232.481 Y35.923
X-232.485 Y20.324
X-232.449 Y19.701
X-232.227 Y19.118
X-231.825 Y18.641
X-231.313 Y18.284
X-230.743 Y18.031
G3 X-228.289 Y17.621 I2.716 J8.689
X-223.299 Y17.535 I3.931 J83.865
G1 X-220.803 Y17.528
X-202.085 Y17.527
X-151.545 Y17.523
X-101.005 Y17.52
X-50.466 Y17.516
X-20.516 Y17.514
X-19.893 Y17.518
X-19.59 Y17.593
X-19.019 Y17.844
X-18.56 Y18.267
X-18.221 Y18.791
X-17.984 Y19.368
G3 X-17.601 Y21.828 I-9.354 J2.713
X-17.522 Y26.818 I-90.675 J3.935
G1 X-17.516 Y29.314
X-17.514 Y36.177
Y44.289
Y44.913
X-17.56 Y45.221
X-17.655 Y45.518
X-17.943 Y46.071
X-18.39 Y46.507
X-18.927 Y46.825
X-19.511 Y47.046
G3 X-21.976 Y47.395 I-2.7 J-10.179
X-26.966 Y47.466 I-3.923 J-100.381
G1 X-30.086 Y47.472
X-58.164 Y47.475
X-108.703 Y47.479
X-159.243 Y47.482
X-209.782 Y47.486
X-228.501 Y47.488
X-229.125 Y47.482
X-229.727 Y47.319
X-230.239 Y46.962
X-230.631 Y46.476
X-230.912 Y45.919
X-231.106 Y45.326
G3 X-231.413 Y42.854 I11.747 J-2.712
X-231.476 Y38.487 I98.506 J-3.61
G1 X-231.481 Y35.991
X-231.485 Y21.641
X-231.481 Y21.017
X-231.426 Y20.71
X-231.212 Y20.123
X-230.813 Y19.644
X-230.303 Y19.285
X-229.733 Y19.03
X-229.134 Y18.857
G3 X-226.033 Y18.569 I3.009 J15.581
X-219.793 Y18.528 I4.641 J230.33
G1 X-178.613 Y18.525
X-128.073 Y18.522
X-77.534 Y18.518
X-26.994 Y18.515
X-21.379 Y18.514
X-20.755 Y18.534
X-20.164 Y18.734
X-19.675 Y19.121
X-19.306 Y19.625
X-19.043 Y20.19
G3 X-18.613 Y22.641 I-8.305 J2.72
X-18.523 Y27.63 I-79.746 J3.939
G1 X-18.516 Y30.126
X-18.514 Y43.853
X-18.593 Y44.472
X-18.876 Y45.028
X-19.316 Y45.47
X-19.848 Y45.796
X-20.429 Y46.024
G3 X-22.892 Y46.391 I-2.713 J-9.779
X-27.882 Y46.466 I-3.929 J-94.853
G1 X-30.378 Y46.472
X-35.369 Y46.473
X-85.909 Y46.477
X-136.448 Y46.481
X-186.988 Y46.485
X-227.544 Y46.488
X-228.168 Y46.482
X-228.468 Y46.395
X-229.03 Y46.125
X-229.476 Y45.688
X-229.803 Y45.156
X-230.032 Y44.576
G3 X-230.399 Y42.113 I9.767 J-2.714
X-230.475 Y38.371 I75.341 J-3.403
G1 X-230.479 Y37.123
X-230.481 Y34.627
X-230.484 Y22.772
Y22.148
X-230.448 Y21.839
X-230.363 Y21.538
X-230.093 Y20.976
X-229.658 Y20.529
X-229.127 Y20.201
X-228.546 Y19.973
G3 X-226.084 Y19.609 I2.706 J9.787
X-221.093 Y19.534 I3.925 J95.805
G1 X-217.973 Y19.528
X-197.383 Y19.526
X-146.844 Y19.523
X-96.304 Y19.519
X-45.764 Y19.516
X-22.679 Y19.514
X-22.055 Y19.516
X-21.746 Y19.562
X-21.45 Y19.661
X-20.899 Y19.954
X-20.469 Y20.405
X-20.156 Y20.945
X-19.938 Y21.53
G3 X-19.592 Y23.996 I-10.353 J2.709
X-19.521 Y28.987 I-100.888 J3.934
G1 X-19.515 Y32.106
X-19.514 Y42.713
X-19.546 Y43.337
X-19.782 Y43.914
X-20.194 Y44.383
X-20.711 Y44.732
X-21.284 Y44.98
G3 X-23.739 Y45.382 I-2.719 J-8.917
X-28.729 Y45.465 I-3.934 J-85.664
G1 X-31.225 Y45.472
X-71.158 Y45.476
X-121.697 Y45.48
X-172.237 Y45.483
X-222.777 Y45.487
X-226.52 Y45.488
X-227.144 Y45.486
X-227.745 Y45.317
X-228.253 Y44.956
X-228.641 Y44.466
X-228.918 Y43.908
X-229.11 Y43.314
G3 X-229.413 Y40.841 I11.911 J-2.716
X-229.476 Y36.474 I99.347 J-3.614
G1 X-229.481 Y33.978
X-229.484 Y23.371
X-229.453 Y22.748
X-229.244 Y22.16
X-228.853 Y21.674
X-228.347 Y21.309
X-227.78 Y21.049
G3 X-225.329 Y20.624 I2.718 J8.403
X-220.339 Y20.535 I3.932 J80.848
G1 X-217.843 Y20.528
X-207.86 Y20.527
X-157.32 Y20.524
X-106.781 Y20.52
X-56.241 Y20.517
X-23.172 Y20.515
X-22.552 Y20.582
X-21.99 Y20.853
X-21.541 Y21.286
X-21.21 Y21.815
X-20.976 Y22.394
G3 X-20.6 Y24.854 I-9.553 J2.719
X-20.522 Y29.845 I-91.839 J3.939
G1 X-20.515 Y32.34
X-20.514 Y36.708
Y41.7
X-20.538 Y42.323
X-20.769 Y42.903
X-21.178 Y43.374
X-21.692 Y43.727
X-22.264 Y43.976
G3 X-24.719 Y44.381 I-2.716 J-8.829
X-29.709 Y44.465 I-3.935 J-85.108
G1 X-32.205 Y44.472
X-64.65 Y44.475
X-115.19 Y44.479
X-165.73 Y44.483
X-216.269 Y44.487
X-225.628 Y44.488
X-226.252 Y44.475
X-226.842 Y44.271
X-227.33 Y43.882
X-227.698 Y43.379
X-227.959 Y42.812
G3 X-228.385 Y40.361 I8.372 J-2.716
X-228.474 Y35.371 I80.843 J-3.944
G1 X-228.482 Y32.875
X-228.484 Y24.764
X-228.483 Y24.14
X-228.447 Y23.83
X-228.362 Y23.53
X-228.09 Y22.969
X-227.652 Y22.524
X-227.119 Y22.199
X-226.538 Y21.972
G3 X-224.075 Y21.609 I2.71 J9.849
X-219.085 Y21.534 I3.928 J95.801
G1 X-216.589 Y21.528
X-210.35 Y21.527
X-159.81 Y21.524
X-109.27 Y21.52
X-58.731 Y21.517
X-24.414 Y21.515
X-23.79 Y21.526
X-23.195 Y21.715
X-22.7 Y22.094
X-22.324 Y22.593
X-22.056 Y23.156
X-21.872 Y23.752
G3 X-21.561 Y26.85 I-14.533 J3.023
X-21.517 Y33.089 I-203.275 J4.537
G1 X-21.515 Y36.209
X-21.514 Y40.577
X-21.519 Y41.201
X-21.611 Y41.499
X-21.896 Y42.054
X-22.339 Y42.493
X-22.875 Y42.813
X-23.457 Y43.037
G3 X-25.921 Y43.393 I-2.71 J-10.046
X-30.912 Y43.466 I-3.93 J-97.66
G1 X-34.032 Y43.473
X-65.853 Y43.475
X-116.392 Y43.479
X-166.932 Y43.483
X-217.472 Y43.487
X-224.335
X-224.959 Y43.486
X-225.267 Y43.439
X-225.563 Y43.339
X-226.112 Y43.042
X-226.539 Y42.587
X-226.849 Y42.046
X-227.065 Y41.46
G3 X-227.406 Y38.994 I10.479 J-2.706
X-227.476 Y34.003 I102.642 J-3.941
G1 X-227.482 Y30.883
X-227.483 Y25.268
X-227.434 Y24.646
X-227.191 Y24.071
X-226.775 Y23.606
X-226.256 Y23.26
X-225.683 Y23.015
G3 X-223.226 Y22.617 I2.719 J9.023
X-218.236 Y22.535 I3.934 J86.665
G1 X-215.74 Y22.528
X-205.133 Y22.527
X-154.593 Y22.523
X-104.054 Y22.52
X-53.514 Y22.516
X-25.437 Y22.515
X-24.813 Y22.519
X-24.514 Y22.608
X-23.954 Y22.885
X-23.512 Y23.325
X-23.187 Y23.858
X-22.961 Y24.439
G3 X-22.597 Y26.902 I-9.874 J2.716
X-22.521 Y31.892 I-95.243 J3.939
G1 X-22.515 Y34.388
X-22.514 Y39.38
X-22.515 Y40.004
X-22.573 Y40.31
X-22.791 Y40.895
X-23.195 Y41.37
X-23.708 Y41.725
X-24.28 Y41.976
X-24.88 Y42.147
G3 X-27.981 Y42.431 I-3.013 J-15.791
X-34.22 Y42.472 I-4.646 J-232.229
G1 X-75.401 Y42.476
X-125.94 Y42.48
X-176.48 Y42.484
X-223.9 Y42.487
X-224.517 Y42.399
X-225.068 Y42.104
X-225.502 Y41.657
X-225.821 Y41.121
X-226.045 Y40.538
G3 X-226.402 Y38.074 I10.052 J-2.715
X-226.476 Y33.083 I97.353 J-3.944
G1 X-226.483 Y29.964
Y26.22
X-226.459 Y25.909
X-226.386 Y25.606
X-226.136 Y25.034
X-225.715 Y24.574
X-225.192 Y24.233
X-224.615 Y23.995
G3 X-222.156 Y23.613 I2.706 J9.312
X-217.165 Y23.534 I3.928 J91.04
G1 X-214.67 Y23.528
X-191.584 Y23.526
X-141.044 Y23.522
X-90.505 Y23.519
X-39.965 Y23.516
X-26.238 Y23.515
X-25.616 Y23.557
X-25.043 Y23.805
X-24.582 Y24.225
X-24.238 Y24.746
X-23.996 Y25.321
G3 X-23.604 Y27.779 I-9.148 J2.72
X-23.522 Y32.769 I-87.796 J3.941
G1 X-23.515 Y35.265
X-23.514 Y39.008
X-23.575 Y39.314
X-23.799 Y39.897
X-24.204 Y40.372
X-24.717 Y40.727
X-25.288 Y40.977
G3 X-27.743 Y41.382 I-2.708 J-8.782
X-32.733 Y41.466 I-3.93 J-85.553
G1 X-35.229 Y41.472
X-42.093 Y41.473
X-92.632 Y41.477
X-143.172 Y41.481
X-193.711 Y41.485
X-222.413 Y41.487
X-223.037 Y41.485
X-223.342 Y41.422
X-223.923 Y41.194
X-224.393 Y40.784
X-224.744 Y40.268
X-224.991 Y39.695
G3 X-225.392 Y37.239 I8.927 J-2.716
X-225.475 Y32.249 I86.27 J-3.944
G1 X-225.482 Y29.753
X-225.483 Y27.257
X-225.434 Y26.635
X-225.186 Y26.062
X-224.768 Y25.599
X-224.249 Y25.254
X-223.674 Y25.01
G3 X-221.217 Y24.616 I2.715 J9.071
X-216.227 Y24.534 I3.932 J87.659
G1 X-213.731 Y24.528
X-170.679 Y24.524
X-120.139 Y24.521
X-69.6 Y24.518
X-27.171 Y24.515
X-26.861 Y24.542
X-26.559 Y24.62
X-25.991 Y24.88
X-25.537 Y25.308
X-25.204 Y25.835
X-24.97 Y26.414
G3 X-24.598 Y28.875 I-9.566 J2.706
X-24.529 Y31.37 I-49.972 J2.635
X-24.515 Y37.609 I-689.746 J4.592
G1 X-24.536 Y38.233
X-24.735 Y38.824
X-25.122 Y39.313
X-25.625 Y39.683
X-26.191 Y39.946
G3 X-28.641 Y40.375 I-2.717 J-8.29
X-33.631 Y40.465 I-3.934 J-79.889
G1 X-36.127 Y40.473
X-67.324 Y40.475
X-117.864 Y40.479
X-168.403 Y40.483
X-218.943 Y40.487
X-221.438
X-222.062
X-222.366 Y40.417
X-222.942 Y40.177
X-223.409 Y39.762
X-223.756 Y39.244
X-224 Y38.67
G3 X-224.394 Y36.212 I9.049 J-2.71
X-224.476 Y31.222 I88.135 J-3.942
G1 X-224.483 Y28.726
Y28.102
X-224.442 Y27.793
X-224.35 Y27.495
X-224.065 Y26.94
X-223.621 Y26.501
X-223.085 Y26.182
X-222.502 Y25.96
G3 X-220.038 Y25.606 I2.707 J10.098
X-215.047 Y25.534 I3.927 J98.679
G1 X-211.927 Y25.527
X-191.961 Y25.526
X-141.422 Y25.522
X-90.882 Y25.519
X-40.342 Y25.516
X-28.487 Y25.515
X-27.864 Y25.524
X-27.262 Y25.689
X-26.751 Y26.048
X-26.361 Y26.535
X-26.081 Y27.092
X-25.888 Y27.686
G3 X-25.583 Y30.158 I-11.803 J2.713
X-25.522 Y37.021 I-157.68 J4.829
G1 X-25.58 Y37.327
X-25.807 Y37.908
X-26.213 Y38.382
X-26.727 Y38.734
X-27.3 Y38.983
G3 X-29.756 Y39.383 I-2.709 J-8.884
X-34.746 Y39.466 I-3.929 J-86.521
G1 X-37.242 Y39.473
X-49.721 Y39.474
X-100.26 Y39.478
X-150.8 Y39.482
X-201.339 Y39.486
X-220.682 Y39.487
X-221.305 Y39.455
X-221.888 Y39.233
X-222.365 Y38.831
X-222.722 Y38.32
X-222.976 Y37.75
G3 X-223.389 Y35.296 I8.658 J-2.718
X-223.476 Y30.306 I83.464 J-3.945
G1 X-223.482 Y29.058
X-223.429 Y28.751
X-223.226 Y28.161
X-222.836 Y27.673
X-222.331 Y27.307
X-221.764 Y27.047
G3 X-219.313 Y26.623 I2.715 J8.404
X-214.323 Y26.535 I3.932 J81.144
G1 X-211.827 Y26.528
X-205.587 Y26.527
X-155.048 Y26.523
X-104.508 Y26.52
X-53.969 Y26.517
X-29.635 Y26.515
X-29.011 Y26.517
X-28.704 Y26.571
X-28.117 Y26.783
X-27.635 Y27.179
X-27.275 Y27.689
X-27.02 Y28.258
G3 X-26.608 Y30.712 I-8.633 J2.713
X-26.519 Y35.702 I-93.602 J4.154
G1 X-26.552 Y36.325
X-26.784 Y36.904
X-27.192 Y37.376
X-27.707 Y37.729
X-28.279 Y37.978
G3 X-30.734 Y38.382 I-2.712 J-8.827
X-35.724 Y38.466 I-3.931 J-85.578
G1 X-38.22 Y38.473
X-40.092
X-90.632 Y38.477
X-141.171 Y38.481
X-191.711 Y38.485
X-219.788 Y38.487
X-220.099 Y38.464
X-220.403 Y38.392
X-220.976 Y38.144
X-221.437 Y37.724
X-221.777 Y37.201
X-222.015 Y36.624
G3 X-222.397 Y34.165 I9.326 J-2.708
X-222.462 Y29.798 I60.874 J-3.08
G1 X-222.271 Y29.204
X-221.89 Y28.709
X-221.391 Y28.334
X-220.828 Y28.066
X-220.232 Y27.882
G3 X-217.133 Y27.572 I3.018 J14.553
X-210.894 Y27.53 I4.523 J204.68
G1 X-160.355 Y27.524
X-109.815 Y27.52
X-59.276 Y27.517
X-30.574 Y27.515
X-29.95
X-29.645 Y27.582
X-29.067 Y27.816
X-28.597 Y28.226
X-28.247 Y28.743
X-28 Y29.316
G3 X-27.603 Y31.773 I-8.949 J2.706
X-27.526 Y34.891 I-52.818 J2.866
G1 X-27.561 Y35.201
X-27.65 Y35.5
X-27.93 Y36.057
X-28.373 Y36.497
X-28.909 Y36.817
X-29.491 Y37.04
G3 X-31.956 Y37.395 I-2.705 J-10.066
X-36.946 Y37.467 I-3.926 J-98.635
G1 X-38.818 Y37.473
X-89.358 Y37.477
X-139.897 Y37.481
X-190.437 Y37.485
X-218.514 Y37.487
X-219.138 Y37.477
X-219.74 Y37.31
X-220.249 Y36.95
X-220.638 Y36.462
X-220.917 Y35.904
X-221.11 Y35.311
G3 X-221.415 Y32.838 I11.837 J-2.714
G1 X-221.441 Y32.215
X-221.456 Y31.591
X-221.462 Y30.967
X-221.399 Y30.661
X-221.17 Y30.081
X-220.761 Y29.609
X-220.245 Y29.259
X-219.672 Y29.013
G3 X-217.215 Y28.616 I2.71 J8.975
X-212.225 Y28.534 I3.93 J87.209
G1 X-209.729 Y28.527
X-208.481
X-157.942 Y28.524
X-107.402 Y28.52
X-56.862 Y28.517
X-31.281 Y28.515
X-30.658 Y28.552
X-30.079 Y28.786
X-29.609 Y29.195
X-29.257 Y29.711
X-29.008 Y30.283
G3 X-28.605 Y32.738 I-8.852 J2.713
G1 X-28.57 Y33.361
X-28.55 Y33.985
X-28.604 Y34.292
X-28.71 Y34.586
X-29.018 Y35.129
X-29.477 Y35.552
X-30.021 Y35.857
X-30.608 Y36.068
G3 X-33.076 Y36.4 I-2.698 J-10.705
X-39.315 Y36.472 I-4.783 J-143.889
G1 X-45.554 Y36.474
X-96.094 Y36.478
X-146.633 Y36.481
X-197.173 Y36.485
X-217.763 Y36.487
X-218.386 Y36.446
X-218.957 Y36.196
X-219.42 Y35.777
X-219.762 Y35.256
X-220.004 Y34.68
G3 X-220.388 Y31.911 I8.649 J-2.612
G1 X-220.318 Y31.606
X-220.079 Y31.03
X-219.66 Y30.567
X-219.137 Y30.226
X-218.561 Y29.988
G3 X-216.1 Y29.61 I2.697 J9.354
X-211.11 Y29.534 I3.921 J92.65
G1 X-208.614 Y29.527
X-197.383 Y29.526
X-146.844 Y29.523
X-96.304 Y29.519
X-45.764 Y29.516
X-32.662 Y29.515
X-32.038 Y29.517
X-31.729 Y29.565
X-31.434 Y29.666
X-30.885 Y29.963
X-30.458 Y30.417
X-30.147 Y30.958
X-29.932 Y31.544
X-29.786 Y32.151
X-29.69 Y32.767
X-29.693 Y33.079
X-29.751 Y33.386
X-29.865 Y33.676
X-30.189 Y34.209
X-30.663 Y34.615
X-31.216 Y34.904
X-31.808 Y35.102
G3 X-34.28 Y35.408 I-2.681 J-11.523
X-38.647 Y35.468 I-3.579 J-100.431
G1 X-41.143 Y35.473
X-60.485 Y35.475
X-111.025 Y35.479
X-161.564 Y35.483
X-212.104 Y35.487
X-216.471
X-217.095 Y35.482
X-217.399 Y35.409
X-217.972 Y35.162
X-218.432 Y34.741
X-218.774 Y34.219
X-219.013 Y33.643
X-219.173 Y33.04
X-219.154 Y32.728
X-219.07 Y32.428
X-218.79 Y31.87
X-218.338 Y31.44
X-217.796 Y31.132
X-217.208 Y30.921
G3 X-214.739 Y30.596 I2.67 J10.734
X-210.372 Y30.532 I3.572 J94.96
G1 X-207.877 Y30.527
X-178.551 Y30.525
X-128.012 Y30.522
X-77.472 Y30.518
X-33.172 Y30.516
X-32.552 Y30.582
X-31.989 Y30.852
X-31.54 Y31.285
X-31.374 Y31.549
X-31.243 Y31.832
X-31.182 Y32.138
X-31.205 Y32.449
X-31.306 Y32.745
X-31.623 Y33.282
X-32.103 Y33.681
X-32.661 Y33.959
X-33.257 Y34.144
G3 X-35.734 Y34.418 I-2.627 J-12.405
X-40.101 Y34.469 I-3.542 J-116.58
G1 X-43.221 Y34.473
X-83.777 Y34.477
X-134.317 Y34.481
X-184.856 Y34.484
G3 X-186.551 Y34.431 I0.031 J-27.947
G2 X-194.117 Y34.395 I-5.311 J321.841
G1 X-215.331 Y34.397
X-215.955 Y34.396
G3 X-216.937 Y33.966 I0.12 J-1.608
X-217.046 Y33.08 I0.672 J-0.532
G1 X-216.887 Y32.811
X-216.422 Y32.395
X-215.865 Y32.113
X-215.269 Y31.929
G3 X-212.791 Y31.667 I2.583 J12.567
X-207.176 Y31.618 I4.317 J172.127
G1 X-200.313 Y31.616
X-149.773 Y31.613
X-99.233 Y31.61
X-48.694 Y31.606
X-34.343 Y31.605
X-34.187 Y31.611
X-34.11 Y31.619
G2 X-33.791 Y31.32 I0.019 J-0.299
X-33.924 Y31.07 I-0.3 J0
G1 X-33.98 Y31.033 Z-3.992
X-34.033 Y30.998 Z-3.97
X-34.08 Y30.966 Z-3.935
X-34.119 Y30.94 Z-3.887
X-34.149 Y30.92 Z-3.83
X-34.168 Y30.908 Z-3.767
X-34.174 Y30.904 Z-3.7
G0 Z2
G28 G91 Z0
G90
G28 G91 X0 Y0
G90
M5
M30
