(propshortfaceoff)
(Machine)
(  vendor: Autodesk)
(  description: Generic 3-axis)
(T2  D=3 CR=1.5 - ZMIN=-4.99 - ball end mill)
G90 G94
G17
G21
G28 G91 Z0
G90

(Adaptive2)
T2
S15000 M3
G54
G0 X13.397 Y4.515
Z2.51
Z2
G2 X16.603 Y5.118 Z1.821 I1.603 J0.301 F333.3
X13.397 Y4.515 Z1.642 I-1.603 J-0.301
X16.603 Y5.118 Z1.463 I1.603 J0.301
X13.397 Y4.515 Z1.284 I-1.603 J-0.301
X16.603 Y5.118 Z1.105 I1.603 J0.301
X13.397 Y4.515 Z0.926 I-1.603 J-0.301
X16.603 Y5.118 Z0.747 I1.603 J0.301
X13.397 Y4.515 Z0.568 I-1.603 J-0.301
X16.603 Y5.118 Z0.389 I1.603 J0.301
X13.397 Y4.515 Z0.21 I-1.603 J-0.301
X16.603 Y5.118 Z0.031 I1.603 J0.301
X13.397 Y4.515 Z-0.148 I-1.603 J-0.301
X16.603 Y5.118 Z-0.326 I1.603 J0.301
X13.397 Y4.515 Z-0.505 I-1.603 J-0.301
X16.603 Y5.118 Z-0.684 I1.603 J0.301
X13.397 Y4.515 Z-0.863 I-1.603 J-0.301
X16.603 Y5.118 Z-1.042 I1.603 J0.301
X13.397 Y4.515 Z-1.221 I-1.603 J-0.301
X16.603 Y5.118 Z-1.4 I1.603 J0.301
X13.397 Y4.515 Z-1.579 I-1.603 J-0.301
X16.603 Y5.118 Z-1.758 I1.603 J0.301
X13.397 Y4.515 Z-1.937 I-1.603 J-0.301
X16.603 Y5.118 Z-2.116 I1.603 J0.301
X13.397 Y4.515 Z-2.295 I-1.603 J-0.301
X16.603 Y5.118 Z-2.474 I1.603 J0.301
X13.397 Y4.515 Z-2.653 I-1.603 J-0.301
X16.603 Y5.118 Z-2.832 I1.603 J0.301
X13.397 Y4.515 Z-3.011 I-1.603 J-0.301
X16.603 Y5.118 Z-3.19 I1.603 J0.301
X13.397 Y4.515 Z-3.369 I-1.603 J-0.301
X16.603 Y5.118 Z-3.548 I1.603 J0.301
X13.397 Y4.515 Z-3.727 I-1.603 J-0.301
X16.603 Y5.118 Z-3.906 I1.603 J0.301
X13.397 Y4.515 Z-4.085 I-1.603 J-0.301
X16.603 Y5.118 Z-4.264 I1.603 J0.301
X13.397 Y4.515 Z-4.443 I-1.603 J-0.301
X16.603 Y5.118 Z-4.621 I1.603 J0.301
X13.397 Y4.515 Z-4.8 I-1.603 J-0.301
X14.849 Y6.441 Z-4.895 I1.603 J0.301
X16.631 Y4.817 Z-4.99 I0.151 J-1.624
X13.369 Y4.817 I-1.631 J0
X16.631 Y4.817 I1.631 J0
X15 Y4.817 I-0.816 J0
S18000
G1 X14.998 Y4.854 F250
X15.148 Y4.85
X15.416 Y4.691
G3 X16.435 Y5.307 I0.276 J0.694
G1 X16.437 Y5.612
X16.575 Y5.555
G2 X16.875 Y4.893 I-0.632 J-0.685
G1 Y4.661
G2 X14.613 Y2.912 I-1.843 J0.046
X13.123 Y4.306 I0.334 J1.851
G1 X13.125 Y4.391
Y4.973
G2 X15.346 Y6.729 I1.841 J-0.045
X16.48 Y6.159 I-0.416 J-2.24
X16.658 Y5.965 I-0.289 J-0.443
G1 X16.677 Y5.916
X16.683 Y5.865
X16.675 Y5.813
X16.654 Y5.765
X16.622 Y5.725
X16.58 Y5.693
X16.532 Y5.674
X16.48 Y5.668
X16.428 Y5.676
X16.38 Y5.697
X16.323 Y5.731 Z-4.982
X16.269 Y5.764 Z-4.96
X16.22 Y5.793 Z-4.925
X16.179 Y5.818 Z-4.877
X16.149 Y5.836 Z-4.82
X16.13 Y5.848 Z-4.757
X16.123 Y5.851 Z-4.69
G0 Z-4.286
X13.5 Y3.961
Z-4.39
G1 Z-4.69 F250
X13.496 Y3.968 Z-4.757
X13.484 Y3.987 Z-4.82
X13.466 Y4.017 Z-4.877
X13.442 Y4.058 Z-4.925
X13.413 Y4.107 Z-4.96
X13.38 Y4.162 Z-4.982
X13.346 Y4.219 Z-4.99
G2 X13.125 Y4.973 I1.36 J0.809
X15.993 Y6.693 I1.882 J0.113
X16.873 Y4.894 I-1.065 J-1.636
G1 X16.866 Y4.829
X16.845 Y4.767
X16.812 Y4.712
X16.767 Y4.665
X16.713 Y4.628
X16.652 Y4.605
X16.588 Y4.595
X16.523 Y4.599
X16.46 Y4.617
X16.403 Y4.648
X16.354 Y4.691
X16.315 Y4.743
X16.305 Y4.762
X16.126 Y5.13
G2 X16.654 Y5.415 I0.27 J0.131
G1 X16.658 Y5.407
G2 X16.875 Y4.661 I-1.365 J-0.802
G1 Y4.024
G2 X16.253 Y2.952 I-1.369 J0.078
X13.213 Y3.4 I-1.292 J1.767
G1 X13.148 Y3.577
X13.125 Y3.763
Y4.391
X13.14 Y4.433 Z-4.984
X13.154 Y4.472 Z-4.968
X13.167 Y4.507 Z-4.941
X13.19 Y4.529 Z-4.902
X13.205 Y4.543 Z-4.856
X13.21 Y4.548 Z-4.805
G0 Z-4.286
X16.5 Y5.036
Z-4.39
G1 Z-4.69 F250
X16.504 Y5.029 Z-4.757
X16.516 Y5.01 Z-4.82
X16.534 Y4.979 Z-4.877
X16.558 Y4.939 Z-4.925
X16.587 Y4.89 Z-4.96
X16.62 Y4.835 Z-4.982
X16.654 Y4.778 Z-4.99
G2 X16.875 Y4.024 I-1.36 J-0.809
G1 Y3.598
G2 X16.335 Y2.65 I-1.201 J0.057
X13.788 Y2.478 I-1.407 J1.887
X13.151 Y3.081 I0.36 J1.017
G1 X13.125 Y3.296
Y3.763
X13.126 Y3.773
X13.142 Y3.824 Z-4.985
X13.159 Y3.872 Z-4.971
X13.174 Y3.917 Z-4.948
X13.21 Y3.951 Z-4.911
X13.24 Y3.978 Z-4.864
X13.262 Y3.999 Z-4.81
X13.276 Y4.012 Z-4.752
X13.28 Y4.016 Z-4.69
G0 Z-4.286
X16.5 Y4.609
Z-4.39
G1 Z-4.69 F250
X16.504 Y4.603 Z-4.757
X16.516 Y4.584 Z-4.82
X16.534 Y4.553 Z-4.877
X16.558 Y4.512 Z-4.925
X16.587 Y4.463 Z-4.96
X16.62 Y4.409 Z-4.982
X16.654 Y4.351 Z-4.99
G2 X16.875 Y3.598 I-1.36 J-0.809
G1 Y3.206
G2 X16.431 Y2.372 I-1.086 J0.043
X14.313 Y1.91 I-1.515 J1.858
X13.304 Y2.378 I0.307 J1.98
G1 X13.208 Y2.531
X13.146 Y2.698
X13.125 Y2.875
Y3.296
X13.132 Y3.327
X13.15 Y3.352
X13.176 Y3.368
X13.207 Y3.374
X15 Y3.328
X16.797 Y3.283
X16.826 Y3.276
X16.851 Y3.26
X16.868 Y3.235
X16.875 Y3.206
Y2.833
G2 X16.478 Y2.061 I-1.013 J0.032
X14.52 Y1.508 I-1.58 J1.85
X13.317 Y1.957 I0.101 J2.105
G1 X13.215 Y2.115
X13.148 Y2.288
X13.125 Y2.471
Y2.875
G2 X13.429 Y3.164 I0.3 J-0.01
G1 X13.749 Y3.16
X16.251 Y3.127 F1000
X16.579 Y3.123 F250
G2 X16.875 Y2.833 I-0.004 J-0.3
G1 Y2.464
G2 X16.47 Y1.705 I-0.998 J0.045
X14.511 Y1.14 I-1.62 J1.939
X13.462 Y1.45 I0.085 J2.216
X13.125 Y2.079 I0.423 J0.632
G1 Y2.471
G2 X13.426 Y2.761 I0.3 J-0.01
G1 X13.749 Y2.76
X16.251 Y2.754 F1000
X16.576 Y2.753 F250
G2 X16.875 Y2.464 I-0.001 J-0.3
G1 Y2.121
G2 X16.472 Y1.357 I-0.998 J0.038
X14.666 Y0.761 I-1.644 J1.946
X13.466 Y1.06 I-0.058 J2.325
X13.125 Y1.692 I0.424 J0.638
G1 Y2.079
G2 X13.421 Y2.368 I0.3 J-0.01
G1 X13.749 Y2.373
X16.251 Y2.406 F1000
X16.571 Y2.411 F250
G2 X16.875 Y2.121 I0.004 J-0.3
G1 Y1.74
G2 X16.572 Y1.101 I-0.908 J0.04
X14.808 Y0.395 I-1.738 J1.786
X13.465 Y0.678 I-0.202 J2.371
X13.125 Y1.31 I0.43 J0.639
G1 Y1.692
G2 X13.42 Y1.982 I0.3 J-0.01
G1 X13.749 Y1.987
X16.251 Y2.025 F1000
X16.571 Y2.03 F250
G2 X16.875 Y1.74 I0.005 J-0.3
G1 Y1.417
G2 X16.472 Y0.654 I-1.007 J0.044
X14.526 Y0.025 I-1.732 J2.034
X13.473 Y0.296 I-0.013 J2.133
X13.125 Y0.932 I0.413 J0.64
G1 Y1.31
G2 X13.415 Y1.6 I0.3 J-0.01
G1 X13.749 Y1.611
X16.251 Y1.695 F1000
X16.565 Y1.706 F250
G2 X16.875 Y1.417 I0.01 J-0.3
G1 Y1.047
G2 X16.576 Y0.4 I-0.921 J0.033
X14.825 Y-0.341 I-1.792 J1.796
X13.473 Y-0.083 I-0.254 J2.334
X13.125 Y0.556 I0.422 J0.645
G1 Y0.932
G2 X13.414 Y1.221 I0.3 J-0.01
G1 X13.749 Y1.233
X16.251 Y1.325 F1000
X16.564 Y1.336 F250
G2 X16.875 Y1.047 I0.011 J-0.3
G1 Y0.682
G2 X16.574 Y0.04 I-0.925 J0.043
X14.677 Y-0.716 I-1.835 J1.845
X13.475 Y-0.457 I-0.156 J2.199
X13.125 Y0.181 I0.415 J0.643
G1 Y0.556
G2 X13.413 Y0.845 I0.3 J-0.01
G1 X13.749 Y0.858
X16.251 Y0.958 F1000
X16.563 Y0.971 F250
G2 X16.875 Y0.682 I0.012 J-0.3
G1 Y0.372
G2 X16.428 Y-0.458 I-1.085 J0.049
X14.18 Y-1.058 I-1.78 J2.159
X13.315 Y-0.703 I0.113 J1.509
G1 X13.214 Y-0.548
X13.147 Y-0.377
X13.125 Y-0.194
Y0.181
G2 X13.407 Y0.47 I0.3 J-0.01
G1 X13.749 Y0.491
X16.251 Y0.643 F1000
X16.557 Y0.661 F250
G2 X16.875 Y0.372 I0.018 J-0.299
G1 Y0
G2 X16.481 Y-0.773 I-1.039 J0.043
X14.403 Y-1.452 I-1.819 J2.048
X13.38 Y-1.135 I0.008 J1.835
G1 X13.243 Y-0.971
X13.155 Y-0.777
X13.125 Y-0.567
Y-0.194
G2 X13.406 Y0.095 I0.3 J-0.01
G1 X13.749 Y0.116
X16.251 Y0.27 F1000
X16.557 Y0.289 F250
G2 X16.875 Y0 I0.018 J-0.299
G1 Y-0.37
G2 X16.479 Y-1.138 I-1.04 J0.05
X14.403 Y-1.822 I-1.824 J2.043
X13.336 Y-1.469 I-0.013 J1.75
G1 X13.224 Y-1.308
X13.15 Y-1.129
X13.125 Y-0.936
Y-0.567
G2 X13.406 Y-0.278 I0.3 J-0.01
G1 X13.749 Y-0.257
X16.251 Y-0.1 F1000
X16.556 Y-0.081 F250
G2 X16.875 Y-0.37 I0.019 J-0.299
G1 Y-0.723
G2 X16.483 Y-1.499 I-1.044 J0.04
X14.41 Y-2.192 I-1.833 J2.033
X13.335 Y-1.839 I-0.021 J1.747
G1 X13.223 Y-1.678
X13.15 Y-1.499
X13.125 Y-1.307
Y-0.936
G2 X13.405 Y-0.647 I0.3 J-0.01
G1 X13.749 Y-0.624
X16.251 Y-0.454 F1000
X16.555 Y-0.434 F250
G2 X16.875 Y-0.723 I0.02 J-0.299
G1 Y-1.076
G2 X16.433 Y-1.911 I-1.107 J0.052
X13.615 Y-2.393 I-1.818 J2.149
X13.123 Y-1.679 I0.302 J0.734
G1 X13.125 Y-1.307
G2 X13.403 Y-1.018 I0.3 J-0.01
G1 X13.749 Y-0.993
X16.251 Y-0.809 F1000
X16.553 Y-0.787 F250
G2 X16.875 Y-1.076 I0.022 J-0.299
G1 Y-1.464
G2 X16.481 Y-2.233 I-1.051 J0.053
X14.26 Y-2.92 I-1.855 J2.063
X13.337 Y-2.579 I0.061 J1.586
G1 X13.223 Y-2.42
X13.15 Y-2.241
X13.125 Y-2.049
Y-1.679
G2 X13.404 Y-1.391 I0.3 J-0.01
G1 X13.749 Y-1.367
X16.251 Y-1.196 F1000
X16.555 Y-1.175 F250
G2 X16.875 Y-1.464 I0.02 J-0.299
G1 Y-1.819
G2 X16.485 Y-2.597 I-1.05 J0.04
X14.415 Y-3.302 I-1.845 J2.024
X13.336 Y-2.952 I-0.029 J1.746
G1 X13.224 Y-2.79
X13.15 Y-2.611
X13.125 Y-2.418
Y-2.049
G2 X13.403 Y-1.76 I0.3 J-0.01
G1 X13.749 Y-1.735
X16.251 Y-1.552 F1000
X16.553 Y-1.53 F250
G2 X16.875 Y-1.819 I0.022 J-0.299
G1 Y-2.178
G2 X16.432 Y-3.013 I-1.116 J0.057
X13.616 Y-3.504 I-1.825 J2.142
X13.123 Y-2.79 I0.302 J0.736
G1 X13.125 Y-2.418
G2 X13.402 Y-2.13 I0.3 J-0.01
G1 X13.748 Y-2.103
X16.251 Y-1.912 F1000
X16.552 Y-1.889 F250
G2 X16.875 Y-2.178 I0.023 J-0.299
G1 Y-2.55
G2 X16.487 Y-3.331 I-1.056 J0.039
X14.269 Y-4.03 I-1.865 J2.049
X13.34 Y-3.692 I0.054 J1.595
G1 X13.225 Y-3.532
X13.15 Y-3.352
X13.125 Y-3.158
Y-2.79
G2 X13.402 Y-2.501 I0.3 J-0.01
G1 X13.748 Y-2.475
X16.251 Y-2.284 F1000
X16.552 Y-2.261 F250
G2 X16.875 Y-2.55 I0.023 J-0.299
G1 Y-2.919
G2 X16.486 Y-3.699 I-1.055 J0.039
X14.419 Y-4.411 I-1.851 J2.017
X13.338 Y-4.062 I-0.033 J1.748
G1 X13.224 Y-3.901
X13.15 Y-3.721
X13.125 Y-3.528
Y-3.158
G2 X13.402 Y-2.87 I0.3 J-0.01
G1 X13.748 Y-2.843
X16.251 Y-2.653 F1000
X16.552 Y-2.63 F250
G2 X16.875 Y-2.919 I0.023 J-0.299
G1 Y-3.273
G2 X16.438 Y-4.113 I-1.113 J0.045
X13.624 Y-4.617 I-1.834 J2.131
X13.123 Y-3.899 I0.295 J0.74
G1 X13.125 Y-3.528
G2 X13.401 Y-3.239 I0.3 J-0.01
G1 X13.748 Y-3.211
X16.252 Y-3.008 F1000
X16.551 Y-2.984 F250
G2 X16.875 Y-3.273 I0.024 J-0.299
G1 Y-3.658
G2 X16.486 Y-4.437 I-1.058 J0.041
X14.27 Y-5.138 I-1.867 J2.048
X13.34 Y-4.8 I0.053 J1.593
G1 X13.225 Y-4.641
X13.15 Y-4.461
X13.125 Y-4.267
Y-3.899
G2 X13.402 Y-3.61 I0.3 J-0.01
G1 X13.748 Y-3.583
X16.251 Y-3.392 F1000
X16.552 Y-3.369 F250
G2 X16.875 Y-3.658 I0.023 J-0.299
G1 Y-4.014
G2 X16.436 Y-4.852 I-1.116 J0.051
X13.622 Y-5.355 I-1.833 J2.132
X13.123 Y-4.638 I0.297 J0.739
G1 X13.125 Y-4.267
G2 X13.401 Y-3.979 I0.3 J-0.01
G1 X13.748 Y-3.951
X16.252 Y-3.749 F1000
X16.551 Y-3.725 F250
G2 X16.875 Y-4.014 I0.024 J-0.299
G1 Y-4.396
G2 X16.486 Y-5.174 I-1.059 J0.042
X14.27 Y-5.877 I-1.869 J2.047
X13.34 Y-5.539 I0.052 J1.593
G1 X13.225 Y-5.38
X13.15 Y-5.2
X13.125 Y-5.006
Y-4.638
G2 X13.402 Y-4.349 I0.3 J-0.01
G1 X13.748 Y-4.323
X16.251 Y-4.13 F1000
X16.552 Y-4.107 F250
G2 X16.875 Y-4.396 I0.023 J-0.299
G1 Y-4.759
G2 X16.432 Y-5.593 I-1.123 J0.062
X13.571 Y-6.072 I-1.825 J2.124
G1 X13.428 Y-5.965
X13.308 Y-5.835
X13.222 Y-5.681
G2 X13.428 Y-5.287 I0.281 J0.104
G1 X13.703 Y-5.214
X16.26 Y-4.543 F1000
X16.499 Y-4.48 F250
G2 X16.875 Y-4.759 I0.076 J-0.29
G1 Y-5.1
X16.868 Y-5.186
G2 X16.263 Y-6.097 I-1.281 J0.194
X13.884 Y-6.546 I-1.664 J2.288
G1 X13.747 Y-6.462
X13.628 Y-6.357
G2 X13.753 Y-5.88 I0.228 J0.195
G1 X13.947 Y-5.809
X16.282 Y-4.957 F1000
X16.465 Y-4.89 F250
G2 X16.868 Y-5.186 I0.103 J-0.282
X16.69 Y-5.893 I-1.668 J0.043
G1 X16.678 Y-5.924
X16.667 Y-5.95
G2 X15.271 Y-6.907 I-1.757 J1.067
X14.94 Y-6.969 I-0.352 J0.957
X14.802 Y-6.409 I0.01 J0.3
G1 X14.81 Y-6.404
X16.192 Y-5.612 F1000
X16.237 Y-5.586 F250
G2 X16.667 Y-5.95 I0.149 J-0.26
X14.575 Y-6.926 I-1.674 J0.859
X13.125 Y-5.006 I0.449 J1.846
G0 Z2.51
X16.813 Y5.499
Z-2.69
G1 Z-4.99 F250
G3 X16.437 Y5.612 I-0.358 J-0.51
G1 X16.357 Y5.613
X16.208 Y5.603
X16.061 Y5.635
X15.469 Y5.833
X15.164 Y5.896
X14.852 Y5.886
X14.554 Y5.794
X14.294 Y5.622
X14.092 Y5.384
X13.968 Y5.098
X13.931 Y4.788
X13.944 Y4.711
X14.016 Y4.408
X14.175 Y4.139
X14.406 Y3.929
X14.476 Y3.895
G2 X14.351 Y3.329 I-0.138 J-0.266
G1 X14.284 Y3.327 Z-4.982
X14.221 Y3.324 Z-4.96
X14.164 Y3.321 Z-4.925
X14.117 Y3.319 Z-4.877
X14.081 Y3.318 Z-4.82
X14.059 Y3.317 Z-4.757
X14.051 Y3.316 Z-4.69
G0 Z2.51
X27.173 Y-21.499
Z-2.69
G1 Z-4.99 F250
G2 X28.823 Y-21.5 I0.809 J-23.157
G1 X28.8 Y-21.468
X28.918 Y-21.375
X29.053 Y-21.31
X29.194 Y-21.259
X29.493 Y-21.17
X29.765 Y-21.017
X30.244 Y-20.617
X30.572 Y-20.086
X30.771 Y-19.495
X30.88 Y-18.88
G3 X30.975 Y-15.764 I-29.324 J2.457
G1 X30.981 Y-13.892
X30.986 Y19.177
X30.901 Y19.477
X30.751 Y19.751
X30.355 Y20.234
X29.827 Y20.565
X29.236 Y20.767
X28.622 Y20.878
G3 X25.506 Y20.975 I-2.462 J-28.792
G1 X23.634 Y20.982
X23.01
X0.86 Y20.989
X0.556 Y20.918
X0.277 Y20.779
X-0.217 Y20.398
X-0.561 Y19.877
X-0.772 Y19.29
X-0.889 Y18.677
G3 X-0.991 Y15.561 I27.066 J-2.447
G1 X-0.997 Y14.313
X-0.99 Y-6.277
X-0.986 Y-19.068
X-0.928 Y-19.375
X-0.799 Y-19.659
X-0.434 Y-20.165
X0.078 Y-20.521
X0.662 Y-20.741
X1.273 Y-20.864
G3 X3.765 Y-20.974 I2.136 J20.134
G1 X4.389 Y-20.98
X5.637 Y-20.982
X27.475 Y-20.989
X28.097 Y-20.943
X28.707 Y-20.808
X29.257 Y-20.513
X29.696 Y-20.07
X30.066 Y-19.568
X30.247 Y-18.971
G3 X30.461 Y-16.489 I-12.16 J2.302
G1 X30.473 Y-15.865
X30.477 Y-15.241
X30.48 Y-14.617
X30.481 Y-12.745
X30.486 Y17.828
X30.481 Y18.452
X30.285 Y19.045
X30.215 Y19.178
X30.111 Y19.472
X30.037 Y19.609
X29.936 Y19.727
X29.688 Y19.918
X29.109 Y20.149
X28.502 Y20.296
G3 X26.015 Y20.467 I-2.289 J-15.156
G1 X25.391 Y20.476
X24.767 Y20.479
X23.52 Y20.482
X14.16 Y20.485
X1.681 Y20.489
X1.075 Y20.344
G2 X0.436 Y20.098 I-0.85 J1.253 F225
G1 X0.307 Y20.009 F250
X0.199 Y19.896
X-0.129 Y19.366
X-0.286 Y18.762
G3 X-0.479 Y16.277 I13.873 J-2.328
G1 X-0.49 Y15.653
X-0.494 Y15.029
X-0.496 Y13.781
X-0.495 Y8.166
X-0.487 Y-16.168
X-0.486 Y-18.04
X-0.427 Y-18.661
X-0.294 Y-18.943
X-0.222 Y-19.075
X-0.17 Y-19.215
X-0.093 Y-19.518
X-0.012 Y-19.651
X0.095 Y-19.765
X0.351 Y-19.943
X0.935 Y-20.164
G3 X3.407 Y-20.454 I2.353 J9.4
X6.526 Y-20.482 I2.507 J104.687
G1 X24.621 Y-20.488
X26.493
X27.116 Y-20.481
X27.738 Y-20.431
X28.333 Y-20.244
X28.472 Y-20.187
X28.772 Y-20.102
X29.039 Y-19.939
X29.269 Y-19.729
X29.468 Y-19.489
X29.749 Y-18.932
G3 X29.963 Y-16.449 I-12.436 J2.32
G1 X29.974 Y-15.825
X29.978 Y-15.201
X29.981 Y-13.953
X29.982 Y-7.714
X29.983 Y-2.722
X29.986 Y17.868
X29.974 Y18.18
X29.852 Y18.792
X29.73 Y19.079
X29.528 Y19.317
X29.27 Y19.491
X28.7 Y19.747
G3 X26.218 Y19.963 I-2.336 J-12.472
X22.474 Y19.983 I-2.838 J-182.495
G1 X1.884 Y19.989
X1.269 Y19.881
X0.983 Y19.758
X0.721 Y19.589
X0.509 Y19.36
X0.225 Y18.804
G3 X0.016 Y15.696 I16.605 J-2.68
G1 X0.007 Y15.072
X0.005 Y14.448
X0.004 Y12.576
X0.014 Y-17.997
X0.081 Y-18.618
X0.217 Y-18.898
X0.284 Y-19.039
X0.46 Y-19.296
X0.714 Y-19.479
X1.277 Y-19.746
G3 X3.76 Y-19.962 I2.358 J12.69
X10.623 Y-19.982 I4.653 J417.77
G1 X26.222 Y-19.988
X26.846 Y-19.985
X27.469 Y-19.953
X28.075 Y-19.806
G3 X29.063 Y-19.095 I-0.353 J1.532
G1 X29.329 Y-18.53
G3 X29.473 Y-15.416 I-24.025 J2.668
G1 X29.479 Y-14.792
X29.481 Y-13.544
X29.485 Y12.662
Y17.653
X29.455 Y18.276
X29.369 Y18.576
X29.192 Y18.833
X28.946 Y19.025
X28.669 Y19.169
X28.074 Y19.357
G3 X24.958 Y19.475 I-2.609 J-27.714
G1 X23.71 Y19.482
X17.471 Y19.484
X1.872 Y19.489
X1.568 Y19.419
X1.279 Y19.301
X1.042 Y19.098
X0.856 Y18.848
X0.633 Y18.265
G3 X0.51 Y14.526 I33.664 J-2.976
G1 X0.504 Y12.654
X0.507 Y3.295
X0.514 Y-17.919
X0.544 Y-18.23
X0.634 Y-18.529
X0.793 Y-18.797
X1.028 Y-19.002
X1.299 Y-19.157
X1.891 Y-19.354
G3 X5.631 Y-19.474 I2.943 J33.244
G1 X7.503 Y-19.483
X26.221 Y-19.488
X26.845 Y-19.485
X27.468 Y-19.453
X28.069 Y-19.283
X28.327 Y-19.109
X28.536 Y-18.877
X28.703 Y-18.614
X28.894 Y-18.02
G3 X28.981 Y-13.654 I-63.872 J3.456
G1 X28.984 Y8.184
X28.985 Y17.543
X28.973 Y17.855
X28.947 Y18.009
G3 X28.343 Y18.687 I-1.045 J-0.322
G1 X27.757 Y18.902
G3 X23.391 Y18.982 I-3.515 J-72.398
G1 X15.904 Y18.985
X2.177 Y18.989
X1.869 Y18.941
X1.729 Y18.873
X1.476 Y18.689
X1.297 Y18.434
X1.08 Y17.849
G3 X1.004 Y13.483 I75.145 J-3.5
G1 X1.008 Y-1.492
X1.013 Y-17.091
Y-17.715
X1.049 Y-18.025
X1.108 Y-18.169
X1.192 Y-18.301
X1.4 Y-18.533
X1.666 Y-18.695
X2.255 Y-18.902
G3 X6.621 Y-18.982 I3.52 J73.234
G1 X25.963 Y-18.988
X26.587 Y-18.986
X27.211 Y-18.967
X27.516 Y-18.903
X27.805 Y-18.783
X28.043 Y-18.583
X28.21 Y-18.319
X28.43 Y-17.735
G3 X28.481 Y-12.744 I-135.979 J3.906
G1 X28.484 Y3.479
X28.485 Y17.206
X28.48 Y17.518
X28.444 Y17.669
X28.38 Y17.811
X28.195 Y18.063
X27.938 Y18.239
X27.347 Y18.439
G3 X23.604 Y18.482 I-3.3 J-126.336
G1 X16.116 Y18.485
X2.39 Y18.489
X2.239 Y18.448
G3 X1.658 Y17.753 I0.433 J-0.951
G1 X1.539 Y17.141
G3 X1.505 Y13.398 I122.962 J-2.998
G1 Y9.03
X1.513 Y-17.176
X1.516 Y-17.488
X1.547 Y-17.641
X1.605 Y-17.785
X1.691 Y-17.915
X1.911 Y-18.137
X2.184 Y-18.288
X2.789 Y-18.44
G3 X6.532 Y-18.482 I3.202 J120.651
G1 X19.011 Y-18.486
X24.626 Y-18.488
X25.874
X26.498 Y-18.487
X27.122 Y-18.47
X27.267 Y-18.413
X27.4 Y-18.331
X27.63 Y-18.121
X27.797 Y-17.857
X27.959 Y-17.255
X27.976 Y-15.383
X27.979 Y-14.759
X27.981 Y-13.511
X27.985 Y17.062
G3 X27.72 Y17.609 I-0.762 J-0.032
G1 X27.468 Y17.793
X26.869 Y17.968
G3 X22.501 Y17.982 I-4.572 J-707.269
G1 X16.262 Y17.985
X2.847 Y17.989
G3 X2.317 Y17.692 I0.07 J-0.747
G1 X2.157 Y17.425
X2.017 Y16.817
X2.006 Y14.945
X2.004 Y13.697
X2.005 Y7.457
X2.013 Y-16.876
X2.014 Y-17.188
X2.066 Y-17.336
X2.146 Y-17.469
X2.2 Y-17.526
X2.435 Y-17.731
X2.723 Y-17.85
X3.337 Y-17.965
X4.585 Y-17.975
X5.209 Y-17.979
X6.456 Y-17.982
X14.568 Y-17.985
X25.799 Y-17.988
X26.423 Y-17.987
G3 X27.124 Y-17.715 I0.093 J0.799
G1 X27.301 Y-17.458
X27.482 Y-16.861
X27.477 Y-16.237
X27.478 Y-14.989
X27.481 Y-13.117
X27.484 Y8.721
X27.485 Y16.52
G3 X27.067 Y17.296 I-0.771 J0.085
G1 X26.774 Y17.403
X26.154 Y17.479
X25.53 Y17.478
X23.035 Y17.482
X3.38 Y17.489
G3 X2.634 Y17.026 I-0.052 J-0.748
G1 X2.458 Y16.427
G2 X2.503 Y13.308 I-56.295 J-2.376
G1 X2.508 Y0.206
X2.513 Y-16.641
G3 X2.904 Y-17.277 I0.75 J0.023
G1 X3.192 Y-17.397
X3.811 Y-17.477
X4.435
X6.307 Y-17.481
X11.298 Y-17.484
X25.649 Y-17.488
X26.273 Y-17.487
G3 X26.755 Y-17.118 I-0.177 J0.729
G1 X26.88 Y-16.832
X26.99 Y-16.218
X26.983 Y-15.594
X26.981 Y-14.97
X26.982 Y-8.731
X26.985 Y16.227
G3 X26.46 Y16.93 I-0.75 J-0.012
G1 X25.848 Y17.054
G2 X23.354 Y16.985 I-2.083 J30.231
G1 X22.107 Y16.983
X3.7 Y16.988
G3 X3.016 Y16.438 I0.039 J-0.749
G1 X2.915 Y15.823
G2 X2.998 Y13.017 I-30.802 J-2.326
G1 X3.003 Y11.769
X3.013 Y-16.308
G3 X3.366 Y-16.802 I0.734 J0.152
G1 X3.65 Y-16.932
X4.271 Y-16.983
X4.895 Y-16.981
X14.255 Y-16.985
X21.118 Y-16.987
X25.798 Y-16.988
G3 X26.292 Y-16.636 I-0.151 J0.735
G1 X26.422 Y-16.352
X26.494 Y-15.732
X26.487 Y-15.108
X26.483 Y-14.484
X26.482 Y-13.237
X26.485 Y15.777
G3 X26.001 Y16.509 I-0.749 J0.03
G1 X25.699 Y16.588
G2 X22.588 Y16.489 I-2.504 J29.798
G1 X21.34 Y16.484
X14.476 Y16.485
X4.181 Y16.488
G3 X3.406 Y15.857 I-0.035 J-0.749
G1 X3.372 Y15.234
G2 X3.495 Y12.297 I-22.767 J-2.427
G1 X3.502 Y11.673
X3.504 Y9.801
X3.513 Y-15.781
G3 X4.047 Y-16.478 I0.75 J0.021
G1 X4.66 Y-16.594
G2 X7.569 Y-16.489 I2.304 J-23.521
G1 X8.817 Y-16.484
X10.065
X25.352 Y-16.488
G3 X25.904 Y-15.986 I-0.162 J0.732
G1 X26.033 Y-15.375
G2 X25.982 Y-11.632 I75.014 J2.887
G1 X25.985 Y15.353
G3 X25.363 Y16.136 I-0.749 J0.043
G1 X24.74 Y16.176
G2 X23.284 Y16.019 I-1.819 J9.991
X18.916 Y15.984 I-3.206 J129.313
G1 X4.566 Y15.988
G3 X3.807 Y15.337 I-0.015 J-0.75
G1 X3.79 Y14.713
G2 X3.986 Y12.333 I-12.364 J-2.216
G1 X3.997 Y11.709
X4.001 Y11.085
X4.004 Y9.837
X4.007 Y2.974
X4.013 Y-15.12
Y-15.432
G3 X4.484 Y-16.012 I0.74 J0.121
G1 X4.785 Y-16.093
G2 X8.526 Y-15.99 I2.959 J-39.663
G1 X10.398 Y-15.984
X24.748 Y-15.988
G3 X25.541 Y-15.379 I0.056 J0.748
G1 X25.593 Y-14.758
G2 X25.489 Y-11.77 I26.109 J2.406
G1 X25.482 Y-10.522
X25.484 Y6.324
X25.485 Y12.564
Y15.06
G3 X24.881 Y15.696 I-0.743 J-0.1
G1 X24.259 Y15.747
G2 X21.924 Y15.507 I-2.255 J10.43
X18.804 Y15.484 I-2.445 J124.649
G1 X5.078 Y15.488
G3 X4.214 Y14.779 I-0.097 J-0.763
G1 X4.247 Y14.156
G2 X4.477 Y11.925 I-10.62 J-2.226
X4.504 Y8.806 I-117.84 J-2.566
G1 X4.508 Y-0.553
X4.511 Y-11.16
X4.513 Y-14.904
G3 X5.165 Y-15.661 I0.75 J-0.014
G1 X5.789 Y-15.678
G2 X8.201 Y-15.498 I2.181 J-12.977
G1 X8.825 Y-15.489
X9.449 Y-15.486
X10.697 Y-15.484
X24.424 Y-15.488
G3 X25.116 Y-14.948 I-0.028 J0.749
G1 X25.171 Y-14.641
G2 X24.996 Y-11.95 I16.014 J2.396
G1 X24.987 Y-11.326
X24.984 Y-10.702
X24.983 Y-9.454
X24.985 Y10.512
Y14.567
G3 X24.31 Y15.305 I-0.75 J-0.009
G1 X23.686 Y15.302
G2 X21.694 Y15.027 I-2.167 J8.324
X17.951 Y14.985 I-2.923 J94.121
G1 X5.472 Y14.988
G3 X4.637 Y14.251 I-0.077 J-0.754
G1 X4.693 Y13.63
G2 X4.954 Y11.79 I-8.347 J-2.122
X5.004 Y8.047 I-83.754 J-3.005
G1 X5.007 Y1.183
X5.011 Y-10.672
X5.012 Y-14.415
G3 X5.604 Y-15.222 I0.751 J-0.07
G1 X5.914 Y-15.255
G2 X8.218 Y-15.012 I2.333 J-11.048
X11.338 Y-14.985 I2.515 J-110.834
G1 X17.577 Y-14.986
X23.972 Y-14.988
G3 X24.735 Y-14.341 I0.019 J0.75
G1 X24.756 Y-13.718
G2 X24.513 Y-11.699 I8.657 J2.063
X24.483 Y-8.579 I94.968 J2.49
G1 Y-1.092
X24.485 Y11.387
Y14.195
G3 X23.766 Y14.889 I-0.748 J-0.055
G1 X23.143 Y14.848
G2 X21.116 Y14.535 I-2.217 J7.646
X17.373 Y14.485 I-2.949 J80.079
G1 X11.133 Y14.486
X5.83 Y14.488
G3 X5.045 Y13.702 I-0.036 J-0.749
X5.306 Y12.441 I9.425 J1.291
G2 X5.492 Y9.149 I-19.473 J-2.752
G1 X5.502 Y8.525
X5.504 Y7.277
X5.507 Y1.038
X5.512 Y-13.313
X5.513 Y-14.093
G3 X6.188 Y-14.83 I0.75 J0.009
G1 X6.812 Y-14.828
G2 X8.57 Y-14.541 I1.969 J-6.543
X12.313 Y-14.485 I2.924 J-70.453
G1 X18.552 Y-14.486
X23.544 Y-14.488
G3 X24.331 Y-13.705 I0.038 J0.749
G1 X24.239 Y-13.088
G2 X24.007 Y-10.74 I11.476 J2.317
X23.983 Y-7.62 I123.107 J2.514
G1 Y1.739
X23.985 Y13.75
G3 X23.147 Y14.478 I-0.75 J-0.016
G1 X22.538 Y14.341
X22.34 Y14.285
G2 X19.864 Y14.013 I-2.435 J10.773
X16.744 Y13.986 I-2.477 J104.537
G1 X11.753
X6.137 Y13.988
G3 X5.495 Y13.082 I0.09 J-0.745
G2 X5.923 Y10.936 I-7.173 J-2.547
X5.999 Y7.818 I-42.008 J-2.584
G1 X6.005 Y6.57
X6.008 Y0.33
X6.012 Y-13.708
G3 X6.716 Y-14.418 I0.749 J0.039
G1 X7.339 Y-14.391
G2 X9.165 Y-14.055 I2.095 J-6.252
X11.659 Y-13.989 I2.232 J-37.15
G1 X12.283 Y-13.986
X14.155 Y-13.985
X23.202 Y-13.987
G3 X23.92 Y-13.291 I-0.031 J0.749
G1 X23.899 Y-12.668
G2 X23.548 Y-10.76 I5.856 J2.063
X23.486 Y-7.018 I59.096 J2.851
G1 X23.483 Y-2.65
X23.485 Y13.26
G3 X22.564 Y14.044 I-0.748 J0.054
G2 X20.546 Y13.586 I-2.527 J6.463
X17.429 Y13.492 I-2.581 J33.787
G1 X16.181 Y13.486
X13.062
X6.666 Y13.488
G3 X5.994 Y12.343 I-0.041 J-0.746
G2 X6.385 Y10.666 I-4.996 J-2.05
X6.496 Y7.55 I-28.441 J-2.57
G1 X6.503 Y6.926
X6.506 Y5.054
X6.512 Y-13.352
G3 X7.308 Y-13.957 I0.736 J0.143
G1 X7.921 Y-13.843
G2 X10.435 Y-13.521 I2.511 J-9.601
X14.802 Y-13.485 I3.261 J-133.5
G1 X22.602 Y-13.487
G3 X23.413 Y-13.126 I0.124 J0.813
X23.502 Y-12.598 I-0.646 J0.381
G2 X23.037 Y-10.027 I8.33 J2.832
X22.985 Y-6.284 I74.444 J2.905
G1 X22.983 Y-1.916
X22.984 Y12.903
G3 X21.814 Y13.53 I-0.747 J0.012
G2 X20.305 Y13.134 I-1.963 J4.406
X17.31 Y12.996 I-2.533 J22.465
X7.015 Y12.987 I-5.925 J920.932
G3 X6.435 Y11.793 I0.019 J-0.747
G2 X6.886 Y9.984 I-4.497 J-2.08
X6.995 Y7.492 I-23.69 J-2.289
G1 X7.001 Y6.868
X7.003 Y6.244
X7.006 Y4.372
X7.012 Y-12.786
G3 X7.953 Y-13.546 I0.749 J-0.035
G2 X10.203 Y-13.067 I2.507 J-6.252
X13.321 Y-12.991 I2.546 J-40.671
G1 X14.569 Y-12.986
X20.184 Y-12.987
X22.368
G3 X23.075 Y-12.006 I-0.006 J0.75
G2 X22.631 Y-10.394 I4.512 J2.11
X22.494 Y-7.407 I22.315 J2.526
X22.483 Y1.328 I809.079 J5.316
G1 X22.485 Y12.559
G3 X21.251 Y13.058 I-0.748 J-0.075
G2 X19.418 Y12.604 I-2.17 J4.836
X16.302 Y12.494 I-2.557 J28.192
G1 X15.678 Y12.488
X14.43 Y12.486
X7.567 Y12.487
G3 X6.774 Y11.405 I-0.107 J-0.753
G2 X7.271 Y10.101 I-2.602 J-1.739
X7.484 Y7.485 I-13.192 J-2.387
X7.506 Y3.741 I-169.946 J-2.888
G1 X7.511 Y-10.609
X7.512 Y-12.481
G3 X8.497 Y-13.093 I0.741 J0.094
G2 X10.018 Y-12.654 I2.029 J-4.176
X12.974 Y-12.498 I2.541 J-20.063
G1 X13.598 Y-12.489
X14.222 Y-12.487
X16.094 Y-12.486
X22.022 Y-12.487
G3 X22.526 Y-11.301 I-0.094 J0.74
G2 X22.128 Y-9.756 I4.778 J2.054
X21.994 Y-6.749 I23.268 J2.547
G1 X21.986 Y-6.125
X21.984 Y-4.877
X21.983 Y-0.51
X21.985 Y11.969
G3 X20.772 Y12.656 I-0.747 J0.095
G2 X19.299 Y12.175 I-1.834 J3.12
X16.439 Y12.001 I-2.473 J17.022
G1 X15.815 Y11.991
X15.191 Y11.988
X13.944 Y11.986
X8.328 Y11.987
X7.86
G3 X7.295 Y10.742 I-0.011 J-0.746
G2 X7.786 Y9.381 I-2.646 J-1.726
X7.986 Y6.672 I-14.32 J-2.419
X8.007 Y0.433 I-346.9 J-4.303
G1 X8.012 Y-12.046
G3 X9.195 Y-12.554 I0.739 J0.089
G2 X11.108 Y-12.097 I2.195 J-4.956
X14.225 Y-11.994 I2.557 J-30.124
G1 X14.849 Y-11.988
X16.721 Y-11.986
X21.556 Y-11.987
G3 X22.115 Y-10.793 I-0.037 J0.745
G2 X21.645 Y-9.209 I3.565 J1.919
X21.5 Y-6.864 I16.208 J2.18
X21.483 Y-0.625 I392.155 J4.185
G1 X21.485 Y11.542
G3 X20.237 Y12.218 I-0.751 J0.104
G2 X19.16 Y11.77 I-1.538 J2.179
X16.861 Y11.519 I-2.301 J10.407
X12.493 Y11.487 I-3.236 J145.906
G1 X8.282
G3 X7.733 Y10.202 I-0.026 J-0.748
G2 X8.255 Y8.912 I-2.233 J-1.652
X8.48 Y6.406 I-11.931 J-2.337
X8.506 Y3.287 I-125.24 J-2.58
G1 X8.508 Y-2.329
X8.51 Y-6.072
X8.511 Y-11.532
G3 X9.723 Y-12.144 I0.749 J-0.023
G2 X11.205 Y-11.669 I1.843 J-3.202
X14.103 Y-11.5 I2.489 J-17.741
X21.123 Y-11.487 I4.398 J-470.996
G3 X21.683 Y-10.255 I-0.012 J0.749
G2 X21.194 Y-8.869 I2.785 J1.761
X21.001 Y-6.131 I14.921 J2.428
X20.983 Y0.109 I356.747 J4.138
G1 X20.985 Y11.34
G3 X19.748 Y11.745 I-0.732 J-0.143
G2 X18.394 Y11.229 I-1.774 J2.617
X15.776 Y11.009 I-2.407 J12.962
X13.28 Y10.988 I-2.074 J99.334
G1 X10.784 Y10.986
X8.601 Y10.987
G3 X8.24 Y9.646 I0.087 J-0.742
G2 X8.752 Y8.347 I-2.462 J-1.72
X8.98 Y5.778 I-12.336 J-2.392
X9.005 Y2.658 I-122.823 J-2.534
G1 X9.008 Y-2.334
X9.011 Y-11.069
G3 X10.241 Y-11.698 I0.744 J-0.062
G2 X11.619 Y-11.205 I1.767 J-2.765
X14.336 Y-11.005 I2.431 J-14.473
X20.732 Y-10.988 I4.152 J-358.589
G3 X21.248 Y-9.725 I-0.035 J0.751
G2 X20.732 Y-8.433 I2.302 J1.669
X20.507 Y-5.897 I12.174 J2.355
X20.485 Y-0.905 I223.17 J3.511
G1 Y10.794
G3 X19.135 Y11.249 I-0.747 J0.013
G2 X17.824 Y10.735 I-1.702 J2.415
X15.234 Y10.51 I-2.391 J12.514
X8.994 Y10.488 I-4.176 J292.281
G3 X8.722 Y9.156 I0.176 J-0.729
G2 X9.243 Y7.84 I-2.586 J-1.785
X9.478 Y5.3 I-12.185 J-2.408
X9.508 Y-2.188 I-336.945 J-5.097
G1 X9.511 Y-10.611
G3 X10.774 Y-11.257 I0.749 J-0.094
G2 X12.076 Y-10.736 I1.673 J-2.293
X13.979 Y-10.526 I2.051 J-9.86
X20.374 Y-10.486 I4.526 J-211.381
G3 X20.798 Y-9.202 I-0.104 J0.746
G2 X20.319 Y-8.204 I1.749 J1.454
X20.039 Y-6.242 I8.325 J2.19
X19.986 Y-2.499 I76.764 J2.948
G1 X19.983 Y0.621
X19.985 Y10.292
G3 X18.607 Y10.793 I-0.749 J0.086
G2 X17.357 Y10.262 I-1.649 J2.145
X14.957 Y10.017 I-2.329 J10.946
X9.497 Y9.988 I-3.814 J202.129
G3 X9.177 Y8.605 I0.079 J-0.747
G2 X9.714 Y7.381 I-2.067 J-1.637
X9.971 Y5.024 I-10.511 J-2.336
X10.005 Y-0.592 I-197.634 J-4.027
G1 X10.011 Y-10.263
G3 X11.358 Y-10.75 I0.746 J-0.042
G2 X12.656 Y-10.238 I1.703 J-2.419
X15.228 Y-10.011 I2.386 J-12.332
X19.908 Y-9.988 I3.242 J-188.163
G3 X20.28 Y-8.616 I-0.05 J0.75
G2 X19.753 Y-7.351 I2.262 J1.683
X19.525 Y-5.341 I10.005 J2.156
X19.485 Y-1.598 I102.269 J2.95
G1 X19.484 Y3.394
Y9.945
G3 X18.269 Y10.532 I-0.731 J0.038
G1 X18.154 Y10.427
G2 X17.725 Y10.077 I-0.834 J0.585
X16.177 Y9.652 I-2.013 J4.293
X13.196 Y9.5 I-2.556 J20.837
G1 X12.572 Y9.491
X11.324 Y9.487
X10.7
X10.076
G3 X9.643 Y8.099 I-0.077 J-0.737
G2 X10.194 Y6.902 I-1.95 J-1.624
X10.46 Y4.753 I-9.46 J-2.26
X10.505 Y1.01 I-94.09 J-2.992
G1 X10.509 Y-2.733
X10.511 Y-9.909
G3 X11.889 Y-10.3 I0.747 J0.009
G2 X12.888 Y-9.823 I1.459 J-1.775
X15.018 Y-9.536 I2.259 J-8.7
X19.541 Y-9.486 I3.461 J-108.688
G3 X19.825 Y-8.101 I-0.101 J0.742
G2 X19.397 Y-7.312 I1.472 J1.31
X19.02 Y-5.313 I5.373 J2.049
X18.985 Y-1.569 I124.006 J3.029
G1 X18.984 Y3.422
Y9.662
G3 X17.609 Y9.866 I-0.728 J-0.169
G2 X16.825 Y9.415 I-1.416 J1.556
X15.861 Y9.119 I-1.271 J2.422
X13.682 Y9.006 I-1.963 J16.785
G3 X10.251 Y8.976 I3.561 J-603.712
X9.68 Y8.315 I0.144 J-0.702
G1 X9.525 Y7.545
X9.104 Y5.455 F1000
X6.47 Y-11.548
G3 X8.837 Y-14.489 I2.46 J-0.443
X11.417 Y-11.733 I0.094 J2.498
G1 X11.391 Y-11.548 F250
X11.291 Y-10.958
X11.134 Y-10.601
G2 X11.982 Y-9.733 I1.471 J-0.589
X14.015 Y-9.11 I3.176 J-6.741
X16.897 Y-8.999 I2.489 J-27.202
G1 X18.145 Y-8.987
X19.081 Y-8.986
G3 X19.428 Y-7.642 I-0.056 J0.731
G1 X19.356 Y-7.592 F225
G2 X18.816 Y-6.867 I2.597 J2.498 F250
G1 X18.741 Y-6.666
X18.662 Y-6.398
X18.59 Y-6.043
X18.522 Y-5.422
G2 X18.485 Y-1.679 I122.114 J3.093
G1 X18.484 Y2.689
Y9.084
G3 X17.833 Y9.828 I-0.709 J0.036
G1 X17.065 Y9.993
X9.127 Y11.702 F1000
G3 X7.286 Y8.572 I-0.459 J-1.836
G1 X7.287 Y8.571
G3 X8.718 Y7.974 I1.38 J1.295
X9.015 Y8.005 I-0.051 J1.892 F250
G1 X9.492 Y8.098
X9.704 Y8.197
G2 X10.293 Y7.781 I0 J-0.624
X10.888 Y5.793 I-6.414 J-3.003
X10.997 Y2.677 I-31.264 J-2.654
G1 X11.013 Y-1.275
X11.018 Y-5.227
X11.011 Y-9.178
G3 X11.531 Y-9.794 I0.696 J0.06
G2 X11.726 Y-10.076 I-0.105 J-0.282
G1 X11.814 Y-10.414
X11.821 Y-10.449
X11.829 Y-10.484
G3 X12.099 Y-11.121 I1.847 J0.408 F1000
G1 X12.1 Y-11.123
G3 X13.656 Y-11.967 I1.575 J1.047
G1 X21.015 Y-11.856
G3 X21.721 Y-11.689 I-0.072 J1.89
G1 X21.722
G3 X20.805 Y-8.079 I-0.779 J1.723
X20.449 Y-8.14 I0.138 J-1.887 F250
G1 X20.037 Y-8.239
X19.692 Y-8.42
G2 X18.122 Y-6.169 I1.477 J2.703
G1 X18.042 Y-5.627
G2 X17.988 Y-2.508 I55.273 J2.509
G1 X17.984 Y-0.636
Y8.723
G3 X16.84 Y9.33 I-0.749 J-0.031
G1 X16.228 Y8.857
G2 X15.396 Y8.593 I-1.098 J2.019
G1 X14.776 Y8.524
G2 X11.032 Y8.487 I-3.558 J169.708
G3 X10.536 Y7.307 I0.076 J-0.726
G1 X10.94 Y6.832
G2 X11.332 Y5.943 I-1.397 J-1.145
G1 X11.414 Y5.462
G2 X11.499 Y2.344 I-37.732 J-2.585
G1 X11.506 Y1.096
X11.508 Y-2.023
X11.51 Y-8.653
G3 X12.588 Y-9.37 I0.749 J-0.044
G1 X13.118 Y-9.04
G2 X13.957 Y-8.66 I1.08 J-1.271
G1 X14.395 Y-8.582
G2 X16.888 Y-8.499 I2.119 J-26.096
G1 X17.512 Y-8.491
X18.058 Y-8.488
X18.292
X18.37 Y-8.479
X18.75 Y-8.257
X18.866 Y-7.932
X19.393 Y-6.447 F1000
X22.659 Y8.714
G3 X22.288 Y10.709 I-2.432 J0.581
G1 X20.732 Y12.966
G3 X17.76 Y13.957 I-2.102 J-1.353
G1 X17.758 Y13.956
G3 X16.203 Y11.011 I0.872 J-2.343
G1 X16.329 Y10.453
G2 X16.605 Y9.718 I-3.255 J-1.642 F250
G1 X16.727 Y9.163
G2 X16.531 Y8.623 I-0.601 J-0.088
X15.776 Y8.207 I-1.192 J1.272
G1 X15.435 Y8.119
G2 X13.859 Y8.007 I-1.355 J7.877
G3 X11.364 Y7.978 I0.77 J-174.344
X10.786 Y7.17 I0.136 J-0.708
G1 X10.782 Y7.105
X10.764 Y7.042
X10.733 Y6.985
X10.691 Y6.936
X10.638 Y6.897
X10.579 Y6.87
X10.515 Y6.857
X10.449 Y6.858
X10.386 Y6.873
X10.327 Y6.902
X10.276 Y6.942
X10.235 Y6.993
X10.199 Y7.049 Z-4.982
X10.164 Y7.103 Z-4.96
X10.134 Y7.15 Z-4.925
X10.108 Y7.19 Z-4.877
X10.089 Y7.22 Z-4.82
X10.077 Y7.239 Z-4.757
X10.072 Y7.245 Z-4.69
G0 Z-3.186
X13.012 Y-10.879
Z-4.39
G1 Z-4.69 F250
X13.007 Y-10.873 Z-4.757
X12.993 Y-10.856 Z-4.82
X12.97 Y-10.828 Z-4.877
X12.941 Y-10.791 Z-4.925
X12.905 Y-10.747 Z-4.96
X12.865 Y-10.698 Z-4.982
X12.823 Y-10.646 Z-4.99
G2 X12.396 Y-9.987 I2.83 J2.298
G1 X12.135 Y-9.42
X12.189 Y-9.28
G2 X13.818 Y-8.202 I2.236 J-1.61
G1 X14.178 Y-8.121
G2 X16.591 Y-8.002 I2.032 J-16.684
G1 X17.527 Y-7.991
G3 X18.182 Y-7.802 I0.12 J0.812
X18.261 Y-6.809 I-0.508 J0.54
G1 X17.903 Y-6.398
G2 X17.631 Y-5.81 I1.086 J0.859
G1 X17.567 Y-5.497
X17.509 Y-4.957
G2 X17.483 Y1.283 I315.442 J4.407
G1 X17.484 Y8.224
X17.482 Y8.302
X17.472 Y8.379
X17.618 Y8.664
X17.901 Y8.676
X18.004 Y8.526
X18.07 Y8.43 F1000
X18.648 Y5.88
X20.738 Y-7.297
X20.562 Y-8.289
X20.166 Y-9.015
G2 X18.75 Y-10.009 I-2.056 J1.422
G1 X15.071 Y-10.907
G2 X12.631 Y-10.277 I-0.68 J2.406
X12.382 Y-9.989 I1.76 J1.775 F250
G1 X12.168 Y-9.646
X11.902 Y-9.081
G2 X13.063 Y-7.973 I2.016 J-0.949
X14.23 Y-7.626 I1.699 J-3.585
G1 X14.505 Y-7.516
X14.577 Y-7.48
X14.646 Y-7.44
X14.865 Y-7.194
X15.025 Y-7.014 F1000
X15.414 Y-5.03
X15.778 Y-4.597
X16.486 Y-4.187
G2 X17.601 Y-4.321 I0.452 J-0.942
G1 X18.947 Y-5.313
G2 X19.321 Y-6.365 I-0.645 J-0.822
X18.889 Y-6.999 I-1.019 J0.23 F250
G1 X18.361 Y-7.332
G2 X17.48 Y-6.585 I0.762 J1.793
G3 X16.368 Y-6.567 I-0.564 J-0.499
G1 X16.219 Y-6.765
G2 X15.888 Y-7.161 I-0.7 J0.248
G1 X15.486 Y-7.836
X14.457 Y-9.564 F1000
X14.363 Y-9.705
Y-9.706
G2 X13.125 Y-10.621 I-2.034 J1.454
G1 X12.523 Y-10.788
G2 X11.187 Y-10.697 I-0.505 J2.448
G1 X11.108 Y-10.672
G2 X10.117 Y-10.055 I0.791 J2.372
G1 X9.913 Y-9.847
G2 X9.268 Y-8.62 I1.804 J1.731
G1 X9.163 Y-6.589
X8.956 Y4.888
G2 X9.847 Y6.84 I2.5 J0.039
X10.517 Y7.244 I1.609 J-1.913 F250
G1 X10.81 Y7.351
G2 X11.585 Y6.606 I-0.422 J-1.214
G1 X11.678 Y6.408
X11.775 Y6.117
X11.855 Y5.78
X11.938 Y5.198
G2 X12.003 Y0.831 I-79.622 J-3.369
G1 X12.009 Y-4.16
X12.01 Y-7.436
G3 X12.606 Y-8.068 I0.698 J0.061
G1 X12.668 Y-8.091
X12.722 Y-8.127
X12.768 Y-8.174
X12.802 Y-8.23
X12.824 Y-8.292
X12.832 Y-8.357
X12.825 Y-8.422
X12.805 Y-8.484
X12.771 Y-8.54
X12.727 Y-8.588
X12.673 Y-8.624
X12.612 Y-8.649
X12.548 Y-8.667 Z-4.982
X12.487 Y-8.684 Z-4.96
X12.432 Y-8.699 Z-4.925
X12.386 Y-8.712 Z-4.877
X12.352 Y-8.721 Z-4.82
X12.33 Y-8.727 Z-4.757
X12.323 Y-8.729 Z-4.69
G0 Z-3.186
X13.484 Y9.57
Z-4.39
G1 Z-4.69 F250
X13.486 Y9.563 Z-4.757
X13.491 Y9.541 Z-4.82
X13.501 Y9.507 Z-4.877
X13.513 Y9.461 Z-4.925
X13.528 Y9.406 Z-4.96
X13.544 Y9.345 Z-4.982
X13.562 Y9.28 Z-4.99
G2 X13.684 Y8.504 I-3.52 J-0.951
G1 X13.691 Y7.98
X13.635 Y7.841
G2 X13.047 Y7.578 I-0.704 J0.787
G1 X12.717 Y7.525
X12.405 Y7.505
G3 X11.754 Y7.302 I-0.102 J-0.816
X11.569 Y6.963 I0.561 J-0.527
G1 X11.32 Y6.218
X10.783 Y4.605 F1000
X9.07 Y-3.188
G3 X9.693 Y-5.455 I2.439 J-0.549
X10.749 Y-6.118 I1.816 J1.718
G1 X10.908 Y-6.163 F250
X11.51 Y-6.313
X12.035
X12.173 Y-6.37
G2 X12.446 Y-7.067 I-0.923 J-0.764
G3 X13.903 Y-6.935 I0.714 J0.222
G1 X13.92 Y-6.87
X13.951 Y-6.811
X13.995 Y-6.76
X14.05 Y-6.72
X14.112 Y-6.693
X14.54 Y-6.576
X17.548 Y-5.752 F1000
X17.56 Y-5.749
X17.572 Y-5.747
X17.584 Y-5.745
G2 X17.814 Y-6.277 I0.044 J-0.297 F250
G1 X17.397 Y-6.584
G3 X16.709 Y-7.084 I0.738 J-1.739
G1 X16.656 Y-7.123
X16.596 Y-7.15
X16.532 Y-7.163
X16.467 Y-7.162
X16.403 Y-7.147
X16.344 Y-7.119
X16.293 Y-7.078
X16.252 Y-7.028
X16.222 Y-6.97
X16.206 Y-6.906
X16.204 Y-6.841
X16.713 Y0.209
X17.174 Y6.596
G2 X17.773 Y6.552 I0.299 J-0.022
X17.484 Y6.274 I-0.299 J0.022
G1 X17.406
G2 X17.097 Y6.78 I0.384 J0.583
G1 X17.045 Y7.014
X16.996 Y7.45
X16.99 Y7.762
G3 X16.529 Y8.34 I-0.689 J-0.076
G1 X16.472 Y8.376
X16.424 Y8.424
X16.388 Y8.481
X16.366 Y8.545
X16.358 Y8.612
G2 X16.635 Y8.911 I0.3 J0
G1 X16.703 Y8.909 F1000
X16.769 Y8.891
X17.584 Y8.569
X17.594 Y8.564
X17.605 Y8.56
X17.615 Y8.555
G2 X17.484 Y7.99 I-0.141 J-0.265 F250
G1 X16.86
G3 X15.676 Y7.675 I1.208 J-6.931
G1 X15.597 Y7.666
X15.563 Y7.652
X15.538 Y7.626
X15.525 Y7.592
X15.528 Y7.555
X15.546 Y7.523
X15.575 Y7.501
X15.61 Y7.493
X15.646 Y7.5
X15.676 Y7.521
X15.694 Y7.553
X15.698 Y7.589
X15.687 Y7.624
X15.662 Y7.651
X15.41 Y7.825
G3 X10.598 Y9.302 I-4.898 J-7.38 F1000
X10.297 Y9.042 I-0.003 J-0.3
G1 X8.024 Y-7.787
G3 X8.245 Y-8.118 I0.297 J-0.04
X12.946 Y-8.071 I2.267 J8.562
X13.566 Y-7.869 I-2.434 J8.516 F250
G1 X13.594 Y-7.852
X13.614 Y-7.826
X13.623 Y-7.794
X13.619 Y-7.761
X13.534 Y-7.461
X13.446 Y-7.161
X13.193 Y-6.591
G2 X12.672 Y-5.324 I1.972 J1.552
G1 X12.622 Y-4.75
X12.625 Y-4.126
Y4.61
X12.628 Y5.234
G2 X13.994 Y7.204 I2.495 J-0.271
G1 X14.054 Y7.222
X14.116 Y7.228
X14.178 Y7.22
X14.237 Y7.201
X14.29 Y7.17
X14.336 Y7.129
X14.373 Y7.079
X14.399 Y7.024
X14.413 Y6.964
X14.444 Y6.733
X16.347 Y-7.141 F1000
G2 X15.815 Y-7.368 I-0.297 J-0.041
X16.159 Y-6.902 I0.235 J0.187 F250
G1 X16.707 Y-7.141
X16.829 Y-7.238
X16.968 Y-7.309
X17.042 Y-7.335
X17.618 Y-7.386
X17.824 Y-7.4
G3 X20.382 Y-4.747 I0.062 J2.499 F1000
G1 X19.312 Y7.58
G3 X18.941 Y8.714 I-2.493 J-0.189
G1 X18.326 Y9.489
X18.241 Y9.564
G3 X16.628 Y10.184 I-1.649 J-1.879
G1 X15.071 Y10.166
G3 X12.552 Y8.277 I-0.094 J-2.498
G1 X12.523 Y8.151 F250
X12.405 Y7.505
X12.41 Y7.43
X12.255 Y7.16
X12.238 Y7.084
X12.197 Y6.774
X12.206 Y6.697
G2 X11.661 Y6.5 I-0.299 J-0.025
X11.796 Y6.95 I0.246 J0.171 F1000
G1 X16.171 Y8.706
X16.223 Y8.727 F250
G2 X16.601 Y8.31 I0.112 J-0.278
G1 X16.333 Y7.835
X16.27 Y7.692
X16.239 Y7.539
X16.24 Y7.461
G2 X15.676 Y7.327 I-0.3 J0.008
G1 X15.644 Y7.385 Z-4.982
X15.614 Y7.441 Z-4.96
X15.587 Y7.491 Z-4.925
X15.564 Y7.533 Z-4.877
X15.547 Y7.564 Z-4.82
X15.537 Y7.584 Z-4.757
X15.533 Y7.591 Z-4.69
G0 Z2
G28 G91 Z0
G90
G28 G91 X0 Y0
G90
M5
M30
