(prop3faceoff)
(Machine)
(  vendor: Autodesk)
(  description: Generic 3-axis)
(T1  D=3 CR=0 - ZMIN=-4.99 - flat end mill)
G90 G94
G17
G21
G28 G91 Z0
G90

(Adaptive2)
T1
S18000 M3
G54
G0 X-0.298 Y23.508
Z2.51
Z-4.39
G1 Z-4.69 F250
X-0.296 Y23.5 Z-4.757
X-0.29 Y23.479 Z-4.82
X-0.281 Y23.444 Z-4.877
X-0.27 Y23.398 Z-4.925
X-0.256 Y23.343 Z-4.96
X-0.24 Y23.282 Z-4.982
X-0.223 Y23.217 Z-4.99
G2 X0.012 Y21.584 I-7.419 J-1.9
G1 Y21.475
X-0.401 Y21.007
X-0.669 Y20.444
X-0.824 Y19.839
G3 X-0.97 Y17.35 I16.22 J-2.201
G1 X-0.976 Y16.726
X-0.978 Y15.479
X-0.986 Y-10.103
X-0.988 Y-19.15
X-0.908 Y-19.452
X-0.762 Y-19.728
X-0.371 Y-20.214
X0.155 Y-20.55
X0.744 Y-20.755
X1.358 Y-20.867
G3 X4.474 Y-20.967 I2.458 J28.188
G1 X6.346 Y-20.973
X7.594 Y-20.974
X58.134 Y-20.98
X108.673 Y-20.986
X118.968 Y-20.987
X119.279 Y-20.957
X119.571 Y-20.849
X119.835 Y-20.682
X120.295 Y-20.26
X120.604 Y-19.718
X120.79 Y-19.123
X120.89 Y-18.507
G3 X120.977 Y-15.39 I-32.177 J2.456
G1 X120.983 Y-13.518
X120.988 Y18.304
Y18.928
X120.966 Y19.239
X120.865 Y19.534
X120.704 Y19.801
X120.29 Y20.267
X119.752 Y20.584
X119.158 Y20.774
X118.542 Y20.877
G3 X115.425 Y20.967 I-2.456 J-31.086
G1 X113.553 Y20.973
X72.373 Y20.979
X21.834 Y20.986
X1.867 Y20.989
X1.555 Y20.984
X1.252 Y20.911
X0.968 Y20.781
X0.456 Y20.425
X0.08 Y19.927
X-0.168 Y19.355
X-0.316 Y18.748
G3 X-0.467 Y16.26 I15.876 J-2.212
G1 X-0.475 Y15.636
X-0.477 Y15.012
X-0.479 Y13.14
X-0.485 Y-8.074
X-0.488 Y-18.057
X-0.421 Y-18.677
X-0.147 Y-19.238
X0.288 Y-19.685
X0.824 Y-20.004
X1.413 Y-20.212
G3 X3.891 Y-20.452 I2.267 J10.456
X7.635 Y-20.473 I2.775 J160.848
G1 X38.832 Y-20.477
X89.372 Y-20.484
X118.073 Y-20.487
X118.692 Y-20.41
X119.252 Y-20.134
X119.697 Y-19.697
X120.015 Y-19.16
X120.222 Y-18.572
G3 X120.462 Y-16.093 I-10.568 J2.271
X120.483 Y-12.349 I-160.416 J2.784
G1 X120.485 Y0.129
X120.488 Y18.224
X120.363 Y18.835
X120.039 Y19.369
X119.571 Y19.781
X119.017 Y20.068
X118.42 Y20.25
G3 X115.937 Y20.456 I-2.258 J-12.179
G1 X115.313 Y20.467
X114.69 Y20.47
X113.442 Y20.473
X102.835 Y20.475
X89.108 Y20.477
X38.568 Y20.484
X2.379 Y20.489
X1.767 Y20.367
X1.225 Y20.059
X0.796 Y19.606
X0.489 Y19.063
X0.289 Y18.472
G3 X0.044 Y15.993 I10.826 J-2.317
X0.021 Y12.874 I125.351 J-2.504
G1 X0.019 Y7.258
X0.012 Y-17.076
X0.024 Y-17.7
X0.183 Y-18.303
X0.522 Y-18.827
X0.993 Y-19.236
X1.545 Y-19.527
X2.139 Y-19.717
G3 X4.619 Y-19.951 I2.326 J11.429
X7.739 Y-19.973 I2.496 J129.936
G1 X24.585 Y-19.976
X75.125 Y-19.982
X116.929 Y-19.987
X117.553 Y-19.983
X118.167 Y-19.87
X118.715 Y-19.572
X119.155 Y-19.129
X119.474 Y-18.594
X119.688 Y-18.007
G3 X119.956 Y-15.532 I-10.084 J2.341
X119.981 Y-13.036 I-83.094 J2.087
G1 X119.983 Y-10.541
X119.988 Y17.537
X119.876 Y18.151
X119.582 Y18.701
X119.141 Y19.142
X118.605 Y19.462
X118.019 Y19.676
G3 X115.544 Y19.946 I-2.349 J-10.05
X112.424 Y19.973 I-2.509 J-109.546
G1 X101.193 Y19.975
X50.654 Y19.982
X3.234 Y19.989
X2.612 Y19.933
X2.033 Y19.702
X1.547 Y19.311
X1.176 Y18.809
X0.917 Y18.241
X0.749 Y17.64
G3 X0.542 Y15.157 I13.199 J-2.351
X0.52 Y11.413 I169.322 J-2.868
G1 X0.513 Y-16.041
X0.514 Y-16.665
X0.556 Y-17.287
X0.765 Y-17.875
X1.139 Y-18.375
X1.628 Y-18.762
X2.187 Y-19.038
X2.784 Y-19.22
G3 X5.265 Y-19.449 I2.361 J12.018
X8.385 Y-19.473 I2.535 J125.655
G1 X14.624 Y-19.474
X65.164 Y-19.481
X115.703 Y-19.487
X116.327
X116.951 Y-19.483
X117.565 Y-19.369
X118.12 Y-19.083
X118.573 Y-18.654
X118.909 Y-18.129
X119.139 Y-17.549
G3 X119.447 Y-15.079 I-9.219 J2.406
X119.483 Y-10.712 I-137.567 J3.307
G1 X119.488 Y16.742
X119.428 Y17.363
X119.195 Y17.942
X118.805 Y18.429
X118.305 Y18.801
X117.739 Y19.064
X117.139 Y19.235
G3 X114.656 Y19.45 I-2.37 J-12.895
X109.041 Y19.473 I-3.914 J-272.017
G1 X58.501 Y19.481
X7.961 Y19.488
X4.218 Y19.489
X3.594 Y19.479
X2.98 Y19.366
X2.425 Y19.082
X1.969 Y18.656
X1.627 Y18.134
X1.389 Y17.557
X1.235 Y16.952
G3 X1.042 Y14.467 I14.455 J-2.372
X1.021 Y11.348 I148.079 J-2.573
G1 X1.016 Y-1.755
X1.013 Y-16.106
X1.062 Y-16.728
X1.272 Y-17.316
X1.637 Y-17.821
X2.119 Y-18.218
X2.674 Y-18.502
X3.268 Y-18.693
G3 X5.747 Y-18.944 I2.414 J11.475
X8.866 Y-18.972 I2.531 J106.739
G1 X13.234 Y-18.974
X59.406 Y-18.98
X109.946 Y-18.986
X115.561 Y-18.987
X116.185 Y-18.986
X116.806 Y-18.92
X117.386 Y-18.692
X117.879 Y-18.309
X118.261 Y-17.816
X118.534 Y-17.255
X118.716 Y-16.658
G3 X118.955 Y-14.178 I-12.062 J2.413
X118.982 Y-11.058 I-112.636 J2.535
G1 X118.984 Y-6.067
X118.988 Y15.771
X118.977 Y16.395
X118.859 Y17.008
X118.572 Y17.562
X118.145 Y18.017
X117.624 Y18.359
X117.047 Y18.598
X116.443 Y18.754
G3 X113.958 Y18.951 I-2.385 J-14.287
G1 X113.334 Y18.963
X112.71 Y18.968
X112.086 Y18.971
X110.838 Y18.973
X101.479 Y18.975
X62.171 Y18.981
X11.631 Y18.988
X4.768 Y18.989
X4.144 Y18.977
X3.531 Y18.86
X2.974 Y18.579
X2.512 Y18.16
X2.162 Y17.643
X1.916 Y17.07
X1.755 Y16.467
G3 X1.546 Y13.983 I13.841 J-2.417
X1.521 Y10.864 I130.964 J-2.605
G1 X1.518 Y5.248
X1.513 Y-15.342
X1.532 Y-15.966
X1.682 Y-16.571
X1.994 Y-17.112
X2.437 Y-17.551
X2.967 Y-17.88
X3.548 Y-18.108
G3 X6.016 Y-18.432 I2.467 J9.253
G1 X6.639 Y-18.453
X7.263 Y-18.463
X7.887 Y-18.468
X8.511 Y-18.471
X9.759 Y-18.473
X15.998 Y-18.475
X57.803 Y-18.48
X108.342 Y-18.486
X115.206 Y-18.487
X115.829 Y-18.474
X116.443 Y-18.361
X117.003 Y-18.086
X117.467 Y-17.669
X117.822 Y-17.155
X118.072 Y-16.584
X118.238 Y-15.983
G3 X118.456 Y-13.5 I-13.303 J2.419
X118.482 Y-10.38 I-121.74 J2.556
G1 X118.484 Y-5.389
X118.488 Y15.201
X118.476 Y15.825
X118.361 Y16.438
X118.084 Y16.997
X117.667 Y17.462
X117.153 Y17.816
X116.582 Y18.066
X115.98 Y18.23
G3 X113.497 Y18.447 I-2.427 J-13.479
G1 X112.873 Y18.461
X112.249 Y18.467
X111.625 Y18.47
X110.377 Y18.473
X105.386 Y18.475
X61.71 Y18.481
X11.17 Y18.488
X5.554
X4.93 Y18.485
X4.31 Y18.421
X3.724 Y18.207
X3.219 Y17.84
X2.82 Y17.36
X2.529 Y16.808
X2.331 Y16.217
G3 X2.056 Y13.741 I10.91 J-2.464
X2.02 Y9.998 I123.056 J-3.045
G1 X2.017 Y0.639
X2.013 Y-14.336
X2.015 Y-14.96
X2.058 Y-15.582
X2.247 Y-16.177
X2.592 Y-16.697
X3.057 Y-17.113
X3.599 Y-17.421
X4.186 Y-17.634
G3 X6.657 Y-17.934 I2.468 J10.021
X9.777 Y-17.971 I2.57 J85.382
G1 X12.273 Y-17.974
X60.316 Y-17.98
X110.856 Y-17.986
X114.6 Y-17.987
X115.224 Y-17.979
X115.84 Y-17.881
X116.408 Y-17.624
X116.888 Y-17.225
X117.26 Y-16.724
X117.527 Y-16.16
X117.707 Y-15.563
G3 X117.951 Y-13.083 I-12.246 J2.459
X117.984 Y-6.844 I-243.772 J4.399
G1 X117.987 Y14.371
X117.985 Y14.994
X117.931 Y15.616
X117.732 Y16.208
X117.379 Y16.722
X116.909 Y17.132
X116.363 Y17.434
X115.775 Y17.642
G3 X113.302 Y17.935 I-2.476 J-10.321
X107.687 Y17.972 I-3.979 J-178.877
G1 X57.147 Y17.981
X6.607 Y17.988
X5.984
X5.36 Y17.979
X4.742 Y17.894
X4.165 Y17.655
X3.674 Y17.271
X3.289 Y16.78
X3.009 Y16.222
X2.818 Y15.628
G3 X2.556 Y13.151 I11.528 J-2.475
X2.52 Y9.407 I126.165 J-3.065
G1 X2.517 Y1.92
X2.513 Y-13.679
X2.514 Y-14.303
X2.543 Y-14.926
X2.7 Y-15.53
X3.013 Y-16.07
X3.453 Y-16.512
X3.98 Y-16.846
X4.558 Y-17.081
G3 X7.022 Y-17.425 I2.509 J8.979
X10.765 Y-17.471 I2.975 J89.341
G1 X14.509 Y-17.474
X16.381 Y-17.475
X66.921 Y-17.481
X113.716 Y-17.487
X114.34 Y-17.485
X114.964 Y-17.454
X115.566 Y-17.29
X116.101 Y-16.969
X116.537 Y-16.523
X116.866 Y-15.993
X117.098 Y-15.414
G3 X117.436 Y-12.948 I-9.121 J2.507
X117.481 Y-9.205 I-91.514 J2.974
G1 X117.484 Y-4.837
X117.487 Y13.881
X117.483 Y14.505
X117.423 Y15.126
X117.213 Y15.714
X116.856 Y16.225
X116.383 Y16.633
X115.837 Y16.933
X115.248 Y17.14
G3 X112.775 Y17.433 I-2.494 J-10.463
X109.032 Y17.472 I-2.971 J-106.177
G1 X104.04 Y17.475
X99.048 Y17.476
X48.509 Y17.483
X6.705 Y17.488
X6.081 Y17.485
X5.459 Y17.434
X4.864 Y17.246
X4.341 Y16.905
X3.919 Y16.445
X3.604 Y15.907
X3.385 Y15.323
G3 X3.066 Y12.854 I9.73 J-2.512
G1 X3.044 Y12.23
X3.033 Y11.606
X3.027 Y10.982
X3.024 Y10.358
X3.021 Y9.11
X3.018 Y4.743
X3.014 Y-13.352
X3.019 Y-13.976
X3.079 Y-14.597
X3.283 Y-15.186
X3.638 Y-15.699
X4.108 Y-16.11
X4.652 Y-16.414
X5.239 Y-16.626
G3 X7.71 Y-16.931 I2.5 J10.111
X11.454 Y-16.972 I2.982 J101.798
G1 X15.821 Y-16.975
X27.052 Y-16.976
X77.592 Y-16.982
X113.157 Y-16.987
X113.781 Y-16.986
X114.404 Y-16.954
X115.008 Y-16.799
X115.55 Y-16.49
X115.996 Y-16.053
X116.335 Y-15.529
X116.575 Y-14.953
G3 X116.931 Y-12.491 I-8.794 J2.529
X116.981 Y-8.748 I-84.62 J2.995
G1 X116.984 Y-5.628
Y-4.38
X116.987 Y13.09
X116.986 Y13.714
X116.964 Y14.338
X116.825 Y14.946
X116.528 Y15.495
X116.101 Y15.95
X115.583 Y16.298
X115.011 Y16.546
X114.409 Y16.713
G3 X111.928 Y16.942 I-2.482 J-13.295
X105.688 Y16.975 I-4.415 J-251.047
G1 X86.346 Y16.977
X35.807 Y16.984
X7.105 Y16.988
X6.481 Y16.98
X5.861 Y16.909
X5.277 Y16.691
X4.77 Y16.327
X4.366 Y15.852
X4.067 Y15.304
X3.86 Y14.715
G3 X3.563 Y12.243 I10.466 J-2.51
X3.522 Y8.5 I102.952 J-3.007
G1 X3.518 Y4.132
X3.516 Y-2.731
X3.514 Y-12.715
X3.516 Y-13.339
X3.56 Y-13.961
X3.735 Y-14.56
X4.063 Y-15.091
X4.512 Y-15.524
X5.043 Y-15.851
X5.623 Y-16.082
G3 X8.088 Y-16.423 I2.531 J9.205
X11.831 Y-16.471 I3.001 J88.076
G1 X14.951 Y-16.474
X41.781 Y-16.478
X92.32 Y-16.484
X112.91 Y-16.486
X113.534 Y-16.478
X114.154 Y-16.402
X114.737 Y-16.181
X115.241 Y-15.813
X115.642 Y-15.335
X115.938 Y-14.786
X116.143 Y-14.197
G3 X116.44 Y-11.724 I-10.5 J2.516
X116.481 Y-7.981 I-103.089 J2.995
G1 X116.484 Y-3.613
X116.487 Y11.361
Y12.609
X116.486 Y13.233
X116.456 Y13.856
X116.306 Y14.462
X116.004 Y15.008
X115.574 Y15.46
X115.054 Y15.805
X114.48 Y16.05
G3 X112.02 Y16.418 I-2.542 J-8.587
X107.029 Y16.474 I-3.833 J-119.624
G1 X69.592 Y16.48
X19.052 Y16.487
X7.821 Y16.488
X7.197 Y16.485
X6.575 Y16.444
X5.974 Y16.278
X5.438 Y15.958
X4.998 Y15.515
X4.665 Y14.988
X4.428 Y14.41
G3 X4.074 Y11.947 I8.942 J-2.544
X4.022 Y8.204 I83.959 J-3.023
G1 X4.018 Y5.084
X4.014 Y-12.386
X4.023 Y-13.01
X4.099 Y-13.629
X4.318 Y-14.213
X4.685 Y-14.719
X5.161 Y-15.121
X5.709 Y-15.42
X6.297 Y-15.628
G3 X8.769 Y-15.93 I2.517 J10.348
G1 X9.393 Y-15.951
X10.016 Y-15.961
G3 X16.256 Y-15.975 I4.431 J589.759
G1 X60.556 Y-15.98
X111.096 Y-15.986
X112.343
X112.967 Y-15.981
X113.588 Y-15.914
X114.175 Y-15.704
X114.688 Y-15.349
X115.1 Y-14.881
X115.407 Y-14.337
X115.622 Y-13.751
G3 X115.936 Y-11.282 I-10.047 J2.534
X115.981 Y-7.538 I-95.307 J3.011
G1 X115.984 Y-4.419
X115.987 Y12.428
X115.977 Y13.052
X115.892 Y13.67
X115.662 Y14.25
X115.287 Y14.748
X114.804 Y15.144
X114.253 Y15.436
X113.662 Y15.638
G3 X111.189 Y15.931 I-2.525 J-10.731
X107.446 Y15.972 I-3.006 J-103.376
G1 X103.702 Y15.975
X99.335 Y15.976
X48.795 Y15.982
X8.239 Y15.988
X7.615 Y15.982
X6.993 Y15.929
X6.399 Y15.737
X5.875 Y15.399
X5.45 Y14.943
X5.13 Y14.407
X4.904 Y13.825
G3 X4.571 Y11.358 I9.517 J-2.542
X4.524 Y8.239 I72.327 J-2.656
G1 X4.519 Y6.367
X4.514 Y-11.727
X4.518 Y-12.351
X4.57 Y-12.973
X4.755 Y-13.569
X5.089 Y-14.096
X5.541 Y-14.525
X6.074 Y-14.85
X6.655 Y-15.079
G3 X9.12 Y-15.421 I2.546 J9.281
X12.863 Y-15.471 I3.019 J86.439
G1 X15.983 Y-15.475
X32.829 Y-15.477
X83.369 Y-15.483
X111.446 Y-15.486
X112.07 Y-15.485
X112.694 Y-15.466
X113.307 Y-15.35
X113.871 Y-15.084
X114.348 Y-14.681
X114.72 Y-14.181
X114.992 Y-13.619
X115.178 Y-13.023
G3 X115.444 Y-10.546 I-11.765 J2.518
X115.482 Y-6.803 I-114.584 J3.011
G1 X115.485 Y-2.435
X115.486 Y4.428
X115.487 Y11.915
X115.476 Y12.539
X115.394 Y13.158
X115.162 Y13.737
X114.789 Y14.237
X114.308 Y14.635
X113.758 Y14.929
X113.168 Y15.132
G3 X110.695 Y15.429 I-2.536 J-10.682
X106.952 Y15.472 I-3.019 J-100.623
G1 X103.208 Y15.475
X74.507 Y15.479
X23.967 Y15.486
X8.992 Y15.488
X8.369 Y15.486
X7.745 Y15.464
X7.135 Y15.333
X6.579 Y15.049
X6.113 Y14.634
X5.752 Y14.125
X5.49 Y13.559
X5.312 Y12.961
G3 X5.058 Y10.482 I12.38 J-2.524
X5.021 Y6.739 I119.039 J-3.032
G1 X5.018 Y2.371
X5.014 Y-10.732
Y-11.356
X5.024 Y-11.979
X5.099 Y-12.599
X5.317 Y-13.184
X5.678 Y-13.692
X6.151 Y-14.099
X6.696 Y-14.403
X7.283 Y-14.615
X7.891 Y-14.755
X8.509 Y-14.844
X9.13 Y-14.897
G3 X13.497 Y-14.97 I3.444 J76.168
G1 X16.616 Y-14.975
X59.669 Y-14.98
X110.208 Y-14.986
X111.456
X112.08 Y-14.975
X112.697 Y-14.882
X113.272 Y-14.639
X113.766 Y-14.258
X114.157 Y-13.772
X114.446 Y-13.219
X114.646 Y-12.628
G3 X114.939 Y-10.155 I-10.859 J2.539
X114.981 Y-6.411 I-102.058 J3.024
G1 X114.985 Y-2.668
X114.987 Y11.059
X114.984 Y11.683
X114.956 Y12.306
X114.81 Y12.913
X114.513 Y13.462
X114.087 Y13.918
X113.572 Y14.269
X113.001 Y14.522
X112.401 Y14.694
G3 X109.921 Y14.938 I-2.518 J-12.876
X106.178 Y14.972 I-3.015 J-124.717
G1 X101.186 Y14.975
X96.195 Y14.976
X45.655 Y14.983
X9.466 Y14.988
X8.842 Y14.986
X8.219 Y14.957
X7.611 Y14.817
X7.059 Y14.527
X6.596 Y14.108
X6.239 Y13.597
X5.981 Y13.028
X5.807 Y12.429
G3 X5.557 Y9.95 I12.709 J-2.53
X5.52 Y3.087 I248.682 J-4.8
G1 X5.514 Y-10.64
X5.518 Y-11.264
X5.561 Y-11.886
X5.727 Y-12.488
X6.044 Y-13.025
X6.484 Y-13.468
X7.008 Y-13.806
X7.584 Y-14.047
G3 X10.044 Y-14.416 I2.566 J8.738
X14.411 Y-14.471 I3.381 J95.044
G1 X19.403 Y-14.475
X39.993 Y-14.478
X90.533 Y-14.484
X110.499 Y-14.486
X111.123 Y-14.484
X111.746 Y-14.459
X112.356 Y-14.326
X112.913 Y-14.045
X113.38 Y-13.632
X113.743 Y-13.124
X114.007 Y-12.559
X114.187 Y-11.961
G3 X114.445 Y-9.483 I-12.188 J2.52
X114.482 Y-5.74 I-116.963 J3.027
G1 X114.485 Y-1.372
X114.487 Y10.483
X114.486 Y11.107
X114.461 Y11.73
X114.331 Y12.341
X114.05 Y12.898
X113.638 Y13.366
X113.131 Y13.73
X112.566 Y13.995
X111.969 Y14.175
G3 X109.491 Y14.435 I-2.533 J-12.224
X105.747 Y14.472 I-3.026 J-115.348
G1 X101.38 Y14.475
X63.319 Y14.48
X12.779 Y14.487
X9.66
X9.036 Y14.478
X8.416 Y14.403
X7.83 Y14.19
X7.32 Y13.83
X6.91 Y13.36
X6.604 Y12.816
X6.39 Y12.23
G3 X6.069 Y9.761 I10.028 J-2.555
X6.022 Y6.018 I92.076 J-3.048
G1 X6.018 Y2.898
X6.015 Y-10.205
X6.02 Y-10.829
X6.072 Y-11.45
X6.258 Y-12.046
X6.588 Y-12.576
X7.038 Y-13.008
X7.568 Y-13.336
X8.148 Y-13.568
G3 X10.612 Y-13.918 I2.564 J9.197
X14.979 Y-13.971 I3.387 J99.685
G1 X19.97 Y-13.975
X24.338 Y-13.976
X74.877 Y-13.982
X109.818 Y-13.986
X110.442 Y-13.985
X111.066 Y-13.975
X111.683 Y-13.88
X112.258 Y-13.638
X112.753 Y-13.258
X113.146 Y-12.774
X113.437 Y-12.222
X113.64 Y-11.632
G3 X113.937 Y-9.159 I-10.735 J2.548
X113.983 Y-2.296 I-204.166 J4.775
G1 X113.985 Y-1.048
X113.987 Y10.183
X113.981 Y10.807
X113.934 Y11.429
X113.755 Y12.027
X113.428 Y12.558
X112.981 Y12.993
X112.451 Y13.323
X111.874 Y13.559
G3 X109.411 Y13.918 I-2.563 J-8.972
X105.044 Y13.971 I-3.386 J-98.313
G1 X100.053 Y13.975
X76.967 Y13.979
X26.427 Y13.986
X10.205 Y13.987
X9.581 Y13.98
X8.96 Y13.913
X8.372 Y13.706
X7.855 Y13.356
X7.438 Y12.892
X7.124 Y12.353
X6.904 Y11.769
G3 X6.572 Y9.302 I9.75 J-2.565
X6.518 Y3.063 I166.609 J-4.567
G1 X6.515 Y-9.416
X6.516 Y-10.04
X6.536 Y-10.663
X6.654 Y-11.276
X6.92 Y-11.84
X7.321 Y-12.319
X7.82 Y-12.693
X8.38 Y-12.968
X8.975 Y-13.157
G3 X11.451 Y-13.432 I2.542 J11.609
G1 X12.074 Y-13.451
X12.698 Y-13.461
G3 X18.938 Y-13.475 I4.462 J602.943
G1 X63.238 Y-13.48
X109.41 Y-13.486
X110.034 Y-13.485
X110.657 Y-13.464
X111.27 Y-13.349
X111.837 Y-13.087
X112.318 Y-12.69
X112.696 Y-12.194
X112.973 Y-11.635
X113.164 Y-11.04
G3 X113.441 Y-8.565 I-11.544 J2.543
X113.485 Y-1.702 I-225.951 J4.884
G1 X113.487 Y9.529
X113.484 Y10.153
X113.454 Y10.777
X113.311 Y11.384
X113.017 Y11.934
X112.595 Y12.394
X112.082 Y12.75
X111.514 Y13.007
X110.915 Y13.183
G3 X108.436 Y13.436 I-2.535 J-12.585
X104.693 Y13.472 I-3.035 J-118.294
G1 X100.949 Y13.475
X86.599 Y13.477
X36.059 Y13.484
X11.101 Y13.488
X10.477 Y13.486
X9.854 Y13.466
X9.24 Y13.352
X8.673 Y13.092
X8.192 Y12.695
X7.813 Y12.199
X7.535 Y11.64
X7.343 Y11.046
G3 X7.063 Y8.571 I11.387 J-2.545
X7.017 Y1.708 I224.494 J-4.907
G1 X7.015 Y-8.899
X7.016 Y-9.523
X7.036 Y-10.147
X7.151 Y-10.76
X7.415 Y-11.325
X7.812 Y-11.807
X8.308 Y-12.185
X8.867 Y-12.461
X9.462 Y-12.652
G3 X11.937 Y-12.93 I2.55 J11.526
X18.8 Y-12.975 I4.878 J223.033
G1 X55.613 Y-12.98
X106.152 Y-12.986
X109.272
X109.896 Y-12.978
X110.517 Y-12.913
X111.108 Y-12.713
X111.627 Y-12.368
X112.048 Y-11.907
X112.366 Y-11.37
X112.59 Y-10.788
G3 X112.929 Y-8.322 I-9.535 J2.568
X112.981 Y-3.955 I-103.059 J3.396
G1 X112.985 Y1.037
X112.986 Y9.148
X112.981 Y9.772
X112.937 Y10.394
X112.763 Y10.993
X112.444 Y11.53
X112.002 Y11.97
X111.476 Y12.307
X110.901 Y12.547
G3 X108.44 Y12.915 I-2.569 J-8.782
X104.073 Y12.971 I-3.397 J-94.181
G1 X99.705 Y12.975
X92.218 Y12.976
X41.678 Y12.983
X11.729 Y12.988
X11.105 Y12.987
X10.481 Y12.976
X9.863 Y12.888
X9.285 Y12.655
X8.784 Y12.283
X8.384 Y11.804
X8.087 Y11.255
X7.878 Y10.667
G3 X7.568 Y8.196 I10.417 J-2.562
X7.518 Y1.957 I178.952 J-4.573
G1 X7.516 Y-4.906
X7.515 Y-8.65
X7.52 Y-9.274
X7.566 Y-9.896
X7.739 Y-10.495
X8.06 Y-11.03
X8.503 Y-11.47
X9.029 Y-11.805
X9.605 Y-12.045
G3 X12.066 Y-12.414 I2.578 J8.798
X16.433 Y-12.471 I3.395 J93.838
G1 X20.801 Y-12.475
X51.998 Y-12.479
X102.537 Y-12.485
X108.777 Y-12.486
X109.401 Y-12.478
X110.021 Y-12.413
X110.611 Y-12.209
X111.13 Y-11.863
X111.551 Y-11.402
X111.868 Y-10.865
X112.092 Y-10.282
G3 X112.429 Y-7.816 I-9.613 J2.572
X112.481 Y-3.449 I-102.808 J3.402
G1 X112.485 Y1.543
X112.486 Y8.406
X112.485 Y9.03
X112.467 Y9.654
X112.349 Y10.267
X112.083 Y10.831
X111.683 Y11.31
X111.185 Y11.686
X110.625 Y11.962
X110.031 Y12.152
G3 X107.555 Y12.431 I-2.549 J-11.517
X100.692 Y12.475 I-4.882 J-223.502
G1 X93.829 Y12.476
X43.289 Y12.483
X12.092 Y12.487
X11.468 Y12.486
X10.845 Y12.464
X10.232 Y12.346
X9.666 Y12.083
X9.186 Y11.684
X8.81 Y11.187
X8.533 Y10.627
X8.342 Y10.033
G3 X8.063 Y7.558 I11.488 J-2.547
X8.019 Y0.695 I216.425 J-4.812
G1 X8.016 Y-4.297
X8.015 Y-8.04
X8.017 Y-8.664
X8.052 Y-9.287
X8.2 Y-9.893
X8.498 Y-10.442
X8.922 Y-10.899
X9.436 Y-11.253
X10.006 Y-11.508
X10.605 Y-11.683
G3 X13.084 Y-11.935 I2.544 J12.702
X16.827 Y-11.972 I3.043 J117.558
G1 X20.571 Y-11.975
X52.392 Y-11.979
X102.932 Y-11.985
X107.923 Y-11.986
X108.547 Y-11.984
X109.171 Y-11.962
X109.783 Y-11.841
X110.347 Y-11.574
X110.824 Y-11.173
X111.199 Y-10.674
X111.473 Y-10.113
X111.663 Y-9.519
G3 X111.94 Y-7.043 I-11.566 J2.55
X111.985 Y-0.18 I-224.601 J4.889
G1 X111.986 Y7.931
X111.985 Y8.555
X111.961 Y9.179
X111.837 Y9.79
X111.565 Y10.352
X111.162 Y10.828
X110.661 Y11.2
X110.1 Y11.472
X109.505 Y11.659
G3 X107.028 Y11.931 I-2.552 J-11.811
X100.165 Y11.975 I-4.887 J-226.865
G1 X91.43 Y11.977
X40.89 Y11.984
X12.813 Y11.987
X12.189
X11.565 Y11.978
X10.945 Y11.903
X10.359 Y11.691
X9.846 Y11.335
X9.433 Y10.868
X9.122 Y10.327
X8.903 Y9.743
G3 X8.572 Y7.275 I9.819 J-2.571
X8.521 Y2.908 I105.557 J-3.414
G1 X8.516 Y-2.083
X8.515 Y-7.699
X8.522 Y-8.323
X8.575 Y-8.944
X8.763 Y-9.539
X9.095 Y-10.068
X9.546 Y-10.499
X10.077 Y-10.826
X10.656 Y-11.06
G3 X13.119 Y-11.416 I2.569 J9.072
X17.485 Y-11.471 I3.402 J97.239
G1 X21.853 Y-11.475
X56.794 Y-11.48
X107.334 Y-11.486
X107.958 Y-11.485
X108.581 Y-11.469
X109.197 Y-11.37
X109.77 Y-11.121
X110.261 Y-10.736
X110.65 Y-10.249
X110.938 Y-9.695
X111.139 Y-9.104
G3 X111.436 Y-6.632 I-10.879 J2.563
X111.482 Y-2.888 I-98.083 J3.056
G1 X111.485 Y0.231
X111.486 Y7.719
X111.479 Y8.343
X111.42 Y8.964
X111.231 Y9.558
X110.894 Y10.083
X110.44 Y10.511
X109.906 Y10.835
X109.327 Y11.066
G3 X106.863 Y11.417 I-2.577 J-9.244
X102.496 Y11.471 I-3.401 J-98.49
G1 X98.128 Y11.476
X85.025 Y11.477
X34.486 Y11.484
X13.272 Y11.487
X12.648
X12.024 Y11.475
X11.405 Y11.395
X10.823 Y11.171
X10.315 Y10.808
X9.908 Y10.335
X9.603 Y9.791
X9.39 Y9.204
G3 X9.071 Y6.735 I10.173 J-2.571
X9.017 Y0.496 I170.891 J-4.581
G1 X9.015 Y-6.991
X9.018 Y-7.615
X9.046 Y-8.239
X9.182 Y-8.848
X9.47 Y-9.401
X9.887 Y-9.865
X10.395 Y-10.227
X10.961 Y-10.49
X11.558 Y-10.671
G3 X14.036 Y-10.933 I2.548 J12.234
G1 X14.66 Y-10.952
G3 X20.899 Y-10.975 I4.533 J380.727
G1 X65.199 Y-10.981
X107.004 Y-10.986
X107.627 Y-10.983
X108.251 Y-10.953
X108.859 Y-10.813
X109.413 Y-10.527
X109.878 Y-10.111
X110.239 Y-9.602
X110.502 Y-9.036
X110.682 Y-8.439
G3 X110.943 Y-5.961 I-12.22 J2.54
G1 X110.962 Y-5.337
X110.971 Y-4.713
G3 X110.985 Y0.902 I-561.444 J4.188
G1 X110.986 Y7.142
X110.983 Y7.766
X110.934 Y8.388
X110.76 Y8.987
X110.439 Y9.522
X109.997 Y9.963
X109.472 Y10.3
X108.897 Y10.541
G3 X106.436 Y10.913 I-2.587 J-8.791
X102.07 Y10.971 I-3.408 J-91.965
G1 X97.702 Y10.976
X74.616 Y10.979
X24.076 Y10.986
X13.469 Y10.987
X12.845 Y10.984
X12.222 Y10.953
X11.616 Y10.807
X11.066 Y10.512
X10.606 Y10.09
X10.25 Y9.578
X9.992 Y9.01
X9.815 Y8.411
G3 X9.559 Y5.933 I12.525 J-2.549
X9.52 Y2.189 I115.439 J-3.066
G1 X9.517 Y-1.554
X9.515 Y-6.546
X9.519 Y-7.17
X9.554 Y-7.793
X9.706 Y-8.398
X10.005 Y-8.946
X10.429 Y-9.403
X10.943 Y-9.757
X11.513 Y-10.011
X12.112 Y-10.185
G3 X14.592 Y-10.435 I2.548 J12.845
X18.335 Y-10.472 I3.054 J117.571
G1 X22.079 Y-10.475
X27.071 Y-10.476
X77.61 Y-10.482
X106.312 Y-10.486
X106.936 Y-10.485
X107.559 Y-10.472
X108.175 Y-10.373
X108.75 Y-10.13
X109.244 Y-9.749
X109.637 Y-9.264
X109.929 Y-8.713
X110.132 Y-8.123
G3 X110.435 Y-5.651 I-10.683 J2.564
X110.485 Y0.588 I-181.747 J4.564
G1 X110.486 Y6.203
X110.485 Y6.827
X110.474 Y7.451
X110.396 Y8.07
X110.179 Y8.655
X109.818 Y9.164
X109.347 Y9.574
X108.804 Y9.881
X108.219 Y10.097
G3 X105.75 Y10.422 I-2.563 J-9.929
X101.383 Y10.472 I-3.405 J-107.655
G1 X96.392 Y10.476
X60.203 Y10.481
X14.031 Y10.487
X13.407 Y10.485
X12.784 Y10.458
X12.174 Y10.326
X11.617 Y10.045
X11.147 Y9.634
X10.781 Y9.129
X10.514 Y8.565
X10.33 Y7.969
G3 X10.061 Y5.492 I12.029 J-2.558
X10.019 Y-1.371 I222.676 J-4.82
G1 X10.015 Y-5.739
X10.016 Y-6.363
X10.028 Y-6.986
X10.115 Y-7.604
X10.34 Y-8.186
X10.708 Y-8.69
X11.184 Y-9.094
X11.73 Y-9.395
X12.317 Y-9.606
G3 X14.787 Y-9.923 I2.569 J10.235
X21.026 Y-9.975 I4.557 J172.827
G1 X43.488 Y-9.978
X94.028 Y-9.984
X105.883 Y-9.986
X106.507 Y-9.984
X107.13 Y-9.963
X107.744 Y-9.85
X108.311 Y-9.591
X108.796 Y-9.198
X109.178 Y-8.704
X109.459 Y-8.147
X109.653 Y-7.554
G3 X109.938 Y-5.08 I-11.333 J2.561
X109.983 Y1.783 I-207.817 J4.798
G1 X109.986 Y6.151
X109.981 Y6.775
X109.93 Y7.397
X109.754 Y7.995
X109.43 Y8.529
X108.987 Y8.967
X108.461 Y9.303
X107.885 Y9.543
G3 X105.424 Y9.913 I-2.585 J-8.815
X101.057 Y9.971 I-3.409 J-92.528
G1 X97.314 Y9.976
X92.322
X41.783 Y9.983
X14.329 Y9.987
X13.705 Y9.981
X13.083 Y9.932
X12.486 Y9.751
X11.954 Y9.425
X11.517 Y8.979
X11.184 Y8.452
X10.946 Y7.875
G3 X10.579 Y5.414 I8.876 J-2.582
X10.521 Y1.047 I94.12 J-3.423
G1 X10.516 Y-3.321
Y-5.816
X10.526 Y-6.44
X10.602 Y-7.059
X10.82 Y-7.644
X11.178 Y-8.155
X11.647 Y-8.567
X12.189 Y-8.875
X12.774 Y-9.093
X13.381 Y-9.238
G3 X16.489 Y-9.453 I2.84 J18.523
X24.6 Y-9.476 I5.374 J462.112
G1 X63.909 Y-9.481
X105.089 Y-9.486
X105.713 Y-9.485
X106.337 Y-9.478
X106.958 Y-9.42
X107.554 Y-9.233
X108.08 Y-8.898
X108.51 Y-8.445
X108.836 Y-7.914
X109.069 Y-7.335
G3 X109.425 Y-4.872 I-9.159 J2.583
G1 X109.452 Y-4.248
X109.466 Y-3.624
X109.474 Y-3.001
G3 X109.479 Y6.359 I-914.688 J5.251
G1 X109.417 Y6.98
X109.218 Y7.571
X108.878 Y8.094
X108.422 Y8.52
X107.888 Y8.842
X107.307 Y9.071
G3 X104.842 Y9.417 I-2.578 J-9.395
X100.476 Y9.471 I-3.412 J-99.083
G1 X96.108 Y9.476
X69.902 Y9.48
X19.363 Y9.487
X14.995
X14.371 Y9.484
X13.748 Y9.454
X13.14 Y9.314
X12.587 Y9.024
X12.124 Y8.606
X11.764 Y8.096
X11.502 Y7.53
X11.322 Y6.933
G3 X11.06 Y4.455 I12.286 J-2.554
X11.018 Y-2.408 I229.114 J-4.822
G1 X11.016 Y-4.904
X11.018 Y-5.528
X11.041 Y-6.152
X11.161 Y-6.764
X11.427 Y-7.328
X11.827 Y-7.807
X12.325 Y-8.182
X12.885 Y-8.458
X13.479 Y-8.649
G3 X15.954 Y-8.93 I2.553 J11.463
X19.698 Y-8.972 I3.057 J104.973
G1 X22.817 Y-8.975
X37.792 Y-8.977
X88.332 Y-8.984
X105.178 Y-8.985
X105.802 Y-8.98
X106.424 Y-8.927
X107.021 Y-8.745
X107.552 Y-8.418
X107.988 Y-7.972
X108.321 Y-7.444
X108.558 Y-6.867
G3 X108.923 Y-4.405 I-8.969 J2.589
X108.981 Y-0.039 I-93.42 J3.416
G1 X108.986 Y3.705
Y4.953
X108.983 Y5.577
X108.959 Y6.2
X108.828 Y6.81
X108.549 Y7.369
X108.14 Y7.839
X107.636 Y8.207
X107.073 Y8.476
X106.477 Y8.661
G3 X104 Y8.932 I-2.555 J-11.905
X97.137 Y8.974 I-4.792 J-220.946
G1 X94.017 Y8.976
X43.478 Y8.983
X15.4 Y8.987
X14.776 Y8.982
X14.154 Y8.941
X13.552 Y8.776
X13.01 Y8.467
X12.561 Y8.034
X12.216 Y7.514
X11.967 Y6.941
G3 X11.583 Y4.484 I8.505 J-2.59
X11.521 Y0.117 I88.381 J-3.428
G1 X11.516 Y-3.627
X11.517 Y-4.875
X11.527 Y-5.499
X11.616 Y-6.116
X11.848 Y-6.695
X12.219 Y-7.197
X12.697 Y-7.598
X13.244 Y-7.898
X13.832 Y-8.108
X14.44 Y-8.248
X15.057 Y-8.338
X15.679 Y-8.393
G3 X20.045 Y-8.47 I3.476 J73.195
G1 X22.541 Y-8.475
X66.217 Y-8.481
X104.278 Y-8.485
X104.902 Y-8.484
X105.525 Y-8.47
X106.143 Y-8.377
X106.722 Y-8.144
X107.221 Y-7.77
X107.619 Y-7.29
X107.915 Y-6.741
X108.123 Y-6.152
G3 X108.434 Y-3.682 I-10.42 J2.567
X108.482 Y1.309 I-128.306 J3.714
G1 X108.486 Y4.429
X108.484 Y5.053
X108.459 Y5.676
X108.334 Y6.288
X108.06 Y6.849
X107.656 Y7.324
X107.155 Y7.696
X106.594 Y7.968
X105.998 Y8.155
G3 X103.522 Y8.43 I-2.561 J-11.762
X96.659 Y8.476 I-4.896 J-221.954
G1 X63.59 Y8.48
X16.17 Y8.487
X15.546 Y8.485
X14.923 Y8.47
X14.307 Y8.366
X13.735 Y8.118
X13.244 Y7.733
X12.854 Y7.246
X12.566 Y6.692
X12.365 Y6.102
G3 X12.066 Y3.629 I10.859 J-2.567
X12.019 Y-2.61 I176.839 J-4.465
G1 X12.016 Y-3.858
X12.017 Y-4.482
X12.037 Y-5.106
X12.148 Y-5.72
X12.404 Y-6.289
X12.795 Y-6.775
X13.287 Y-7.159
X13.843 Y-7.442
X14.435 Y-7.639
G3 X16.909 Y-7.928 I2.56 J11.178
X20.652 Y-7.972 I3.062 J100.541
G1 X23.772 Y-7.975
X48.106 Y-7.979
X98.646 Y-7.985
X104.261
X104.885 Y-7.978
X105.505 Y-7.91
X106.096 Y-7.709
X106.615 Y-7.363
X107.037 Y-6.903
X107.356 Y-6.367
X107.582 Y-5.786
G3 X107.928 Y-3.321 I-9.462 J2.582
X107.982 Y3.542 I-174.573 J4.808
G1 X107.985 Y4.166
X107.979 Y4.79
X107.928 Y5.412
X107.748 Y6.009
X107.421 Y6.541
X106.975 Y6.977
X106.447 Y7.309
X105.87 Y7.547
G3 X103.409 Y7.914 I-2.586 J-8.904
X99.042 Y7.971 I-3.41 J-93.606
G1 X95.299 Y7.976
X79.7 Y7.978
X29.16 Y7.985
X16.681 Y7.987
X16.057 Y7.986
X15.434 Y7.969
X14.818 Y7.87
X14.245 Y7.623
X13.752 Y7.241
X13.36 Y6.755
X13.07 Y6.203
X12.868 Y5.612
G3 X12.567 Y3.14 I10.823 J-2.572
X12.526 Y-4.347 I198.711 J-4.833
G1 X12.586 Y-4.968
X12.779 Y-5.561
X13.119 Y-6.084
X13.574 Y-6.511
X14.108 Y-6.834
X14.688 Y-7.065
G3 X17.152 Y-7.417 I2.583 J9.28
X21.519 Y-7.471 I3.411 J97.664
G1 X25.886 Y-7.476
X33.998 Y-7.477
X84.537 Y-7.483
X103.256 Y-7.485
X103.88 Y-7.484
X104.503 Y-7.47
X105.121 Y-7.383
X105.701 Y-7.153
X106.204 Y-6.784
X106.607 Y-6.307
X106.907 Y-5.761
X107.118 Y-5.173
G3 X107.433 Y-2.703 I-10.305 J2.568
X107.478 Y4.16 I-178.835 J4.607
G1 X107.447 Y4.783
X107.297 Y5.388
X106.999 Y5.936
X106.574 Y6.393
X106.06 Y6.747
X105.491 Y7.004
X104.893 Y7.179
G3 X102.414 Y7.434 I-2.553 J-12.634
X95.551 Y7.474 I-4.795 J-235.267
G1 X91.807 Y7.477
X41.268 Y7.484
X16.934 Y7.487
X16.31 Y7.482
X15.687 Y7.447
X15.083 Y7.29
X14.537 Y6.987
X14.084 Y6.559
X13.734 Y6.042
X13.481 Y5.472
X13.308 Y4.872
G3 X13.057 Y2.393 I12.825 J-2.549
X13.024 Y-3.846 I189.839 J-4.12
G1 X13.085 Y-4.467
X13.281 Y-5.06
X13.619 Y-5.584
X14.074 Y-6.011
X14.607 Y-6.335
X15.187 Y-6.565
G3 X17.651 Y-6.916 I2.585 J9.318
X23.89 Y-6.971 I4.438 J149.958
G1 X74.43 Y-6.982
X103.131 Y-6.985
X103.755 Y-6.98
X104.377 Y-6.933
X104.978 Y-6.764
X105.515 Y-6.446
X105.958 Y-6.007
X106.298 Y-5.484
X106.542 Y-4.91
G3 X106.921 Y-2.451 I-8.648 J2.592
X106.975 Y3.788 I-128.305 J4.233
G1 X106.929 Y4.41
X106.747 Y5.006
X106.422 Y5.539
X105.976 Y5.976
X105.449 Y6.309
X104.872 Y6.548
G3 X102.411 Y6.914 I-2.581 J-8.887
X99.916 Y6.968 I-2.441 J-54.75
G1 X99.292 Y6.972
X98.044 Y6.974
X94.3 Y6.976
X49.376 Y6.982
X17.555 Y6.987
X16.931 Y6.985
X16.308 Y6.96
X15.697 Y6.833
X15.138 Y6.556
X14.665 Y6.149
X14.295 Y5.647
X14.024 Y5.085
X13.837 Y4.489
G3 X13.562 Y2.013 I11.782 J-2.563
X13.534 Y-3.602 I124.258 J-3.415
G1 X13.649 Y-4.216
X13.903 Y-4.786
X14.294 Y-5.271
X14.786 Y-5.655
X15.342 Y-5.939
X15.934 Y-6.136
X16.544 Y-6.266
X17.163 Y-6.349
X17.784 Y-6.4
G3 X22.151 Y-6.471 I3.475 J79.848
G1 X25.271 Y-6.476
X68.323 Y-6.481
X102.64 Y-6.485
X103.264 Y-6.48
X103.886 Y-6.432
X104.485 Y-6.258
X105.022 Y-5.94
X105.465 Y-5.5
X105.803 Y-4.976
X106.046 Y-4.401
G3 X106.422 Y-1.942 I-8.743 J2.593
X106.464 Y3.673 I-94.358 J3.526
G1 X106.336 Y4.284
X106.063 Y4.845
X105.658 Y5.32
X105.157 Y5.692
X104.596 Y5.965
X104.001 Y6.153
G3 X101.526 Y6.431 I-2.56 J-11.665
X97.782 Y6.473 I-3.062 J-105.423
G1 X94.663 Y6.476
X53.482 Y6.482
X17.917 Y6.486
X17.293 Y6.482
X16.671 Y6.443
X16.068 Y6.282
X15.524 Y5.977
X15.073 Y5.546
X14.725 Y5.027
X14.474 Y4.456
X14.303 Y3.856
G3 X14.057 Y1.376 I13.052 J-2.548
X14.028 Y-2.991 I107.778 J-2.879
G1 X14.117 Y-3.609
X14.348 Y-4.189
X14.717 Y-4.691
X15.194 Y-5.094
X15.741 Y-5.394
X16.328 Y-5.605
G3 X18.798 Y-5.923 I2.575 J10.27
X25.037 Y-5.976 I4.562 J171.119
G1 X66.217 Y-5.981
X101.782 Y-5.985
X102.406 Y-5.984
X103.03 Y-5.969
X103.646 Y-5.875
X104.225 Y-5.64
X104.723 Y-5.265
X105.121 Y-4.784
X105.417 Y-4.235
X105.624 Y-3.646
G3 X105.934 Y-1.175 I-10.46 J2.57
X105.961 Y3.191 I-70.492 J2.607
G1 X105.826 Y3.802
X105.55 Y4.361
X105.143 Y4.834
X104.64 Y5.204
X104.078 Y5.474
X103.482 Y5.659
G3 X101.005 Y5.931 I-2.561 J-11.907
X94.142 Y5.976 I-4.899 J-224.121
G1 X53.586 Y5.982
X18.645 Y5.987
X18.021 Y5.985
X17.397 Y5.969
X16.783 Y5.86
X16.214 Y5.605
X15.727 Y5.214
X15.342 Y4.723
X15.057 Y4.168
X14.859 Y3.576
G3 X14.565 Y1.103 I11.043 J-2.567
X14.54 Y-2.64 I59.773 J-2.273
G1 X14.662 Y-3.252
X14.925 Y-3.818
X15.323 Y-4.298
X15.82 Y-4.676
X16.378 Y-4.954
X16.972 Y-5.147
X17.583 Y-5.273
G3 X20.694 Y-5.456 I2.83 J21.596
X26.31 Y-5.476 I3.982 J337.981
G1 X68.114 Y-5.481
X101.183 Y-5.485
X101.807
X102.431 Y-5.476
X103.05 Y-5.4
X103.637 Y-5.187
X104.149 Y-4.831
X104.564 Y-4.365
X104.875 Y-3.824
X105.096 Y-3.24
G3 X105.43 Y-0.773 I-9.786 J2.582
X105.473 Y2.346 I-56.75 J2.351
G1 X105.413 Y2.967
X105.222 Y3.561
X104.883 Y4.084
X104.427 Y4.511
X103.894 Y4.834
X103.314 Y5.064
G3 X100.85 Y5.417 I-2.584 J-9.27
G1 X100.226 Y5.443
G3 X92.115 Y5.476 I-5.593 J-373.886
G1 X49.687 Y5.482
X19.114 Y5.486
X18.49 Y5.485
X17.866 Y5.463
X17.253 Y5.348
X16.687 Y5.086
X16.204 Y4.691
X15.823 Y4.197
X15.543 Y3.639
X15.35 Y3.046
G3 X15.064 Y0.572 I11.372 J-2.568
X15.032 Y-1.924 I46.463 J-1.846
G1 X15.107 Y-2.543
X15.319 Y-3.13
X15.675 Y-3.642
X16.142 Y-4.056
X16.683 Y-4.367
X17.267 Y-4.587
G3 X19.734 Y-4.92 I2.578 J9.79
X23.477 Y-4.973 I3.208 J95.496
G1 X25.973 Y-4.976
X74.016 Y-4.982
X100.846 Y-4.985
X101.47 Y-4.984
X102.094 Y-4.964
X102.708 Y-4.857
X103.28 Y-4.607
X103.769 Y-4.219
X104.156 Y-3.73
X104.442 Y-3.175
X104.642 Y-2.584
G3 X104.937 Y-0.111 I-10.91 J2.557
G1 X104.959 Y0.513
X104.97 Y1.136
X104.972 Y1.76
X104.925 Y2.382
X104.752 Y2.982
X104.432 Y3.517
X103.991 Y3.959
X103.466 Y4.296
X102.891 Y4.538
G3 X100.431 Y4.912 I-2.593 J-8.767
X96.064 Y4.972 I-3.417 J-90.789
G1 X92.321 Y4.976
X41.781 Y4.983
X19.319 Y4.986
X18.695 Y4.98
X18.073 Y4.926
X17.476 Y4.745
X16.946 Y4.416
X16.512 Y3.968
X16.18 Y3.439
X15.944 Y2.862
G3 X15.578 Y0.401 I8.967 J-2.59
G1 X15.551 Y-0.223
X15.538 Y-0.847
X15.543 Y-1.471
X15.621 Y-2.089
X15.846 Y-2.672
X16.209 Y-3.179
X16.682 Y-3.586
X17.227 Y-3.89
X17.813 Y-4.103
G3 X20.283 Y-4.422 I2.575 J10.196
X24.65 Y-4.472 I3.414 J107.945
G1 X29.641 Y-4.476
X33.385 Y-4.477
X83.925 Y-4.483
X100.147 Y-4.485
X100.771 Y-4.484
X101.395 Y-4.477
X102.015 Y-4.406
X102.605 Y-4.203
X103.122 Y-3.854
X103.543 Y-3.393
X103.86 Y-2.856
X104.085 Y-2.274
G3 X104.428 Y0.191 I-9.519 J2.581
G1 X104.453 Y0.815
X104.454 Y1.439
X104.382 Y2.059
X104.169 Y2.645
X103.811 Y3.156
X103.342 Y3.568
X102.8 Y3.876
X102.215 Y4.094
G3 X99.747 Y4.422 I-2.567 J-9.864
X95.38 Y4.472 I-3.412 J-106.118
G1 X91.012 Y4.477
X80.405 Y4.478
X29.866 Y4.485
X19.882 Y4.486
X19.258 Y4.483
X18.636 Y4.436
X18.035 Y4.268
X17.497 Y3.953
X17.051 Y3.516
X16.709 Y2.994
X16.464 Y2.421
G3 X16.082 Y-0.037 I8.592 J-2.594
G1 X16.057 Y-0.661
X16.079 Y-1.285
X16.223 Y-1.892
X16.52 Y-2.441
X16.945 Y-2.898
X17.459 Y-3.251
X18.028 Y-3.507
X18.627 Y-3.682
G3 X21.106 Y-3.935 I2.55 J12.696
X27.969 Y-3.976 I4.895 J244.268
G1 X47.311 Y-3.979
X97.851 Y-3.985
X99.723
X100.347 Y-3.984
X100.97 Y-3.971
X101.589 Y-3.891
X102.172 Y-3.667
X102.68 Y-3.306
X103.089 Y-2.834
X103.395 Y-2.29
X103.609 Y-1.704
G3 X103.898 Y1.388 I-9.198 J2.42
G1 X103.728 Y1.989
X103.408 Y2.525
X102.966 Y2.965
X102.441 Y3.302
X101.865 Y3.543
G3 X99.405 Y3.914 I-2.585 J-8.801
X95.038 Y3.972 I-3.415 J-92.264
G1 X91.294 Y3.977
X64.465 Y3.98
X20.789 Y3.986
X20.165
X19.541 Y3.974
X18.922 Y3.893
X18.337 Y3.675
X17.829 Y3.313
X17.42 Y2.842
X17.114 Y2.299
X16.897 Y1.713
X16.752 Y1.107
X16.66 Y0.49
X16.606 Y-0.132
X16.609 Y-0.756
X16.741 Y-1.366
X17.027 Y-1.92
X17.444 Y-2.384
X17.955 Y-2.743
X18.522 Y-3.002
X19.121 Y-3.179
G3 X21.599 Y-3.434 I2.551 J12.584
X28.463 Y-3.476 I4.896 J240.8
G1 X65.275 Y-3.481
X99.592 Y-3.485
X100.216 Y-3.48
X100.839 Y-3.439
X101.442 Y-3.28
X101.984 Y-2.97
X102.434 Y-2.538
X102.78 Y-2.018
X103.029 Y-1.447
X103.199 Y-0.846
X103.309 Y-0.232
X103.366 Y0.389
X103.331 Y1.012
X103.141 Y1.607
X102.797 Y2.128
X102.336 Y2.548
X101.798 Y2.864
X101.216 Y3.087
G3 X98.749 Y3.421 I-2.558 J-9.609
X95.006 Y3.473 I-3.207 J-96.131
G1 X92.51 Y3.476
X44.466 Y3.483
X20.756 Y3.486
X20.132 Y3.48
X19.512 Y3.414
X18.92 Y3.215
X18.399 Y2.873
X17.974 Y2.416
X17.653 Y1.881
X17.424 Y1.3
X17.272 Y0.695
X17.186 Y0.077
X17.215 Y-0.546
X17.407 Y-1.139
X17.756 Y-1.657
X18.222 Y-2.072
X18.763 Y-2.382
X19.348 Y-2.599
G3 X21.817 Y-2.923 I2.562 J9.948
X28.056 Y-2.976 I4.559 J169.607
G1 X36.791 Y-2.977
X87.33 Y-2.983
X98.561 Y-2.985
X99.185 Y-2.984
X99.809 Y-2.977
X100.431 Y-2.925
X101.027 Y-2.741
X101.558 Y-2.413
X101.993 Y-1.966
X102.325 Y-1.437
X102.561 Y-0.86
X102.711 Y-0.254
X102.751 Y0.369
X102.618 Y0.978
X102.317 Y1.525
X101.883 Y1.973
X101.359 Y2.313
X100.783 Y2.553
G3 X98.322 Y2.916 I-2.563 J-8.844
X93.955 Y2.972 I-3.407 J-95.668
G1 X89.587 Y2.977
X70.869 Y2.979
X21.577 Y2.986
X20.953 Y2.984
X20.33 Y2.962
X19.718 Y2.837
X19.156 Y2.566
X18.68 Y2.163
X18.307 Y1.663
X18.035 Y1.101
X17.869 Y0.5
X17.868 Y-0.124
X18.059 Y-0.718
X18.416 Y-1.23
X18.892 Y-1.634
X19.44 Y-1.93
X20.03 Y-2.135
G3 X22.503 Y-2.43 I2.522 J10.636
X26.246 Y-2.473 I3.044 J101.688
G1 X29.366 Y-2.476
X63.059 Y-2.48
X98.624 Y-2.485
X99.248 Y-2.481
X99.87 Y-2.434
X100.471 Y-2.265
X101.009 Y-1.95
X101.454 Y-1.513
X101.793 Y-0.989
X101.995 Y-0.399
X101.999 Y0.225
X101.797 Y0.815
X101.425 Y1.317
X100.937 Y1.705
X100.378 Y1.983
X99.783 Y2.171
G3 X97.306 Y2.435 I-2.511 J-11.798
X92.939 Y2.473 I-3.342 J-133.181
G1 X84.204 Y2.478
X42.399 Y2.483
X21.809 Y2.486
X21.185 Y2.479
X20.564 Y2.424
X19.968 Y2.24
X19.44 Y1.907
X19.011 Y1.453
G3 X18.784 Y0.254 I1.402 J-0.887
G1 X18.952 Y-0.347
X19.313 Y-0.856
X19.801 Y-1.245
X20.361 Y-1.518
X20.959 Y-1.699
G3 X23.439 Y-1.941 I2.46 J12.383
X27.182 Y-1.974 I3.009 J130.099
G1 X31.55 Y-1.977
X43.405 Y-1.978
X93.944 Y-1.984
X97.688 Y-1.985
X98.312 Y-1.984
X98.936 Y-1.973
X99.555 Y-1.898
X100.142 Y-1.686
X100.396 Y-1.504
G3 X100.891 Y-0.11 I-0.842 J1.085
G1 X100.798 Y0.188
X100.511 Y0.742
X100.061 Y1.174
X99.517 Y1.48
X98.926 Y1.681
G3 X96.449 Y1.941 I-2.414 J-11.048
X92.706 Y1.974 I-2.979 J-125.721
G1 X87.714 Y1.977
X59.636 Y1.981
G3 X57.4 Y1.946 I12.005 J-827.931
G1 X56.836 Y1.941
X56.212 Y1.939
X54.964 Y1.937
X22.519 Y1.941
X21.895 Y1.938
X21.272 Y1.906
X20.968 Y1.833
G3 X20.212 Y0.461 I0.379 J-1.104
G1 X20.303 Y0.163
X20.633 Y-0.367
X21.114 Y-0.763
X21.677 Y-1.033
X22.277 Y-1.203
G3 X24.761 Y-1.406 I2.353 J13.441
X29.129 Y-1.43 I3.235 J198.922
G1 X29.753 Y-1.431
G3 X34.12 Y-1.477 I3.239 J101.079
G1 X79.668 Y-1.483
G3 X81.904 Y-1.447 I-12.015 J827.829
G1 X82.468 Y-1.443
X83.092 Y-1.44
X84.34 Y-1.439
X97.443
X98.067 Y-1.436
X98.379 Y-1.423
G3 X99.056 Y0.583 I-0.126 J1.16
G1 X98.816 Y0.782
X98.249 Y1.043
X97.647 Y1.207
G3 X95.163 Y1.407 I-2.36 J-13.812
X87.676 Y1.432 I-5.056 J-394.161
G1 X70.205 Y1.435
X59.598 Y1.436
G2 X54.634 Y1.392 I-4.493 J229.276
G1 X46.523 Y1.393
X23.203 Y1.396
G2 X23.072 Y1.96 I0.01 J0.3
G1 X23.13 Y1.992 Z-4.982
X23.186 Y2.021 Z-4.96
X23.237 Y2.048 Z-4.925
X23.278 Y2.071 Z-4.877
X23.31 Y2.087 Z-4.82
X23.33 Y2.098 Z-4.757
X23.336 Y2.101 Z-4.69
G0 Z2
G28 G91 Z0
G90
G28 G91 X0 Y0
G90
M5
M30
