(prop2part2)
(Machine)
(  vendor: Autodesk)
(  description: Generic 3-axis)
(T1  D=3 CR=0 - ZMIN=-25.1 - flat end mill)
(T2  D=3 CR=1.5 - ZMIN=-25.735 - ball end mill)
G90 G94
G17
G21
G28 G91 Z0
G90

(Adaptive1 4)
T2
S18000 M3
G54
G0 X109.444 Y23.135
Z2
Z-0.382
G1 Z-0.682 F750
X109.449 Y23.129 Z-0.749
X109.462 Y23.111 Z-0.813
X109.484 Y23.083 Z-0.869
X109.514 Y23.046 Z-0.917
X109.549 Y23.001 Z-0.953
X109.588 Y22.951 Z-0.975
X109.629 Y22.898 Z-0.982
G2 X110.288 Y21.385 I-2.623 J-2.043
G1 X110.309 Y21.217
X110.324 Y21.021
G2 X108.716 Y20.779 I-1.706 J5.873
X108.117 Y20.799 I-0.099 J6.115 F675
G1 X107.788 Y20.71
X107.498 Y20.539
X107.258 Y20.303 F750
X106.881 Y19.744
X106.709 Y19.093
X106.653 Y17.747
G2 X107.446 Y11.116 I-23.908 J-6.223
G1 X107.424 Y8.422
G3 X109.641 Y5.815 I2.704 J0.053
G1 X110.971 Y5.6
X112.317 Y5.64
X113.664 Y5.63
X127.135 Y5.641
X128.482 Y5.666
X129.822 Y5.805
X131.164 Y5.918
X140.557 Y6.747
X151.292 Y7.693
X152.637 Y7.754
X172.819 Y8.734
X178.483 Y9.572
X178.799 Y9.688 F675
X179.076 Y9.879
X179.307 Y10.124 F750
X179.677 Y10.687
X179.868 Y11.333
X180.011 Y12.673
G2 X180.332 Y17.434 I9.866 J1.727
G1 X180.858 Y17.981
X181.53 Y18.314
X182.158 Y18.558
X182.79 Y18.791
X182.982 Y18.789
X183.154 Y18.636
X183.094 Y18.278
X181.723 Y10.083 F1200
G2 X180.533 Y8.251 I-2.481 J0.309
G1 X179.615 Y7.92
X173.186 Y6.85
X127.572 Y3.706
X110.734 Y3.72
X109.203 Y3.853
G2 X107.979 Y4.278 I0.179 J2.494
G1 X106.599 Y5.196
G2 X105.487 Y7.028 I1.374 J2.088
G1 X104.48 Y19.247
G2 X104.816 Y20.774 I2.487 J0.254
G1 X105.191 Y21.385
G2 X107.367 Y22.567 I2.125 J-1.318
G1 X108.897 Y22.54
G2 X110 Y21.931 I-0.151 J-1.575
X110.309 Y21.217 I-1.254 J-0.966 F750
G1 X110.347 Y20.912
X110.361 Y20.725
X109.682 Y20.407
X109.013 Y20.335
X108.361 Y20.164
X108.023 Y20.002
X107.868 Y19.935 F675
X107.728 Y19.842
X107.606 Y19.725
X107.513 Y19.585
X107.276 Y18.955 F750
X107.153 Y17.613
G2 X107.889 Y8.831 I-25.668 J-6.574
G3 X109.894 Y6.387 I2.646 J0.127
G1 X111.203 Y6.068
G2 X117.339 Y6.134 I4.225 J-106.478
G1 X126.769 Y6.141
G3 X132.142 Y6.506 I-1.423 J60.646
G1 X142.876 Y7.453
X150.928 Y8.163
X152.272 Y8.241
X153.618 Y8.302
X172.455 Y9.217
X173.792 Y9.377
X175.123 Y9.583
X177.789 Y9.975
X178.7 Y10.411 F675
X178.83 Y10.518
X178.947 Y10.64
X179.12 Y10.929 F750
X179.494 Y12.223
X179.44 Y13.569
G2 X179.824 Y17.378 I9.954 J0.922
X181.317 Y18.709 I2.467 J-1.264
G1 X182.148 Y19.348
X182.781 Y19.75
X183.433 Y19.921
X183.691 Y19.858
X183.789 Y19.553
X183.736 Y19.361
X181.197 Y10.083 F1200
G2 X179.615 Y8.413 I-2.403 J0.691
G1 X177.166 Y7.558
X173.492 Y7.058
X127.265 Y3.854
X111.04 Y3.777
X109.51 Y4.091
G2 X108.897 Y4.278 I0.419 J2.465
G1 X107.979 Y4.74
X107.038 Y5.426
X106.229 Y6.572
X105.795 Y7.639
X104.951 Y18.636
G2 X106.095 Y20.774 I2.5 J0.038
G1 X107.938 Y21.996
G2 X110.039 Y21.625 I0.847 J-1.337
X110.347 Y20.912 I-1.254 J-0.966 F750
G1 X110.386 Y20.606
X110.4 Y20.419
X109.794 Y19.978
X109.064 Y19.817
X108.478 Y19.688 F675
X108.333 Y19.604
X108.081 Y19.38
X107.905 Y19.092 F750
X107.707 Y18.449
X107.676 Y17.776
G2 X108.412 Y13.263 I-53.939 J-11.117
G1 X108.441 Y11.914
X108.42 Y9.22
X108.461 Y8.548
X108.665 Y7.906
G3 X109.971 Y6.882 I2.267 J1.545
G1 X111.28 Y6.564
G2 X120.001 Y6.626 I5.846 J-208.866
G3 X127.878 Y6.207 I7.648 J69.501
X139.205 Y7.583 I-104.059 J904.202
G1 X140.547 Y7.7
X141.55 Y7.836
X150.943 Y8.666
X152.288 Y8.741
X156.325 Y8.935
X172.47 Y9.718
G3 X177.801 Y10.5 I-15.933 J127.296
G1 X178.096 Y10.663 F675
X178.236 Y10.755 F750
X178.488 Y10.979
X178.812 Y11.57
X178.967 Y12.225
X178.977 Y13.572
G2 X179.613 Y17.96 I7.757 J1.117
G1 X180.143 Y18.505
X181.779 Y19.691
X182.064 Y19.718
X182.226 Y19.553
X182.189 Y19.288
X181.096 Y11.305 F1200
G2 X180.371 Y9.778 I-2.488 J0.246
G1 X179.793 Y9.167
G2 X178.163 Y8.25 I-1.951 J1.563
G1 X172.267 Y7.376
X139.511 Y4.441
G2 X138.495 Y7.265 I-0.035 J1.582
X138.899 Y7.497 I0.981 J-1.242 F750
G1 X139.205 Y7.583
G3 X145.635 Y8.591 I-15.301 J118.629
G2 X153.68 Y9.307 I10.314 J-70.256
G1 X172.516 Y10.221
G3 X176.92 Y10.866 I-15.66 J122.297
X177.511 Y10.965 I-20.063 J121.652 F675
G1 X177.812 Y11.125
X178.053 Y11.359
X178.238 Y11.641 F750
X178.359 Y11.955
X178.493 Y12.615
G2 X178.704 Y16.941 I13.41 J1.515
X180.969 Y19.716 I4.667 J-1.498
G1 X181.145 Y19.761
X181.414 Y19.553
X181.385 Y19.291
X180.471 Y11.305 F1200
G2 X179.605 Y9.721 I-2.479 J0.326
G1 X179.002 Y9.217
G2 X177.778 Y8.656 I-1.615 J1.908
G1 X173.798 Y8.178
X146.246 Y5.493
G2 X144.945 Y8.235 I-0.244 J1.564
X145.634 Y8.596 I1.057 J-1.178 F750
G3 X147.636 Y9.159 I-1.395 J8.797
G1 X148.319 Y9.47
G2 X162.515 Y10.237 I44.977 J-700.232
G1 X173.278 Y10.761
G2 X176.933 Y11.35 I7.904 J-37.406
G1 X177.256 Y11.453 F675
X177.536 Y11.64
X177.74 Y11.908
X177.864 Y12.221 F750
X178.016 Y12.877
G2 X178.408 Y17.612 I11.781 J1.409
X180.252 Y19.844 I5.536 J-2.697
G1 X180.576 Y19.858
X180.722 Y19.553
X180.711 Y19.43
X180.074 Y11.916 F1200
G2 X179.309 Y10.24 I-2.497 J0.128
G1 X179.002 Y9.921
G2 X178.084 Y9.291 I-1.839 J1.694
G1 X177.166 Y9.027
X172.88 Y8.432
X148.389 Y6.196
G2 X147.063 Y8.637 I0.004 J1.583
X147.633 Y9.167 I1.329 J-0.859 F750
G1 X147.759 Y9.23 F675
X147.777 Y9.247
X147.86 Y9.472 F750
X147.934 Y9.644
X148.631 Y9.923
G2 X154.379 Y10.325 I6.956 J-58.031
G1 X155.724 Y10.403
X157.07 Y10.466
X161.106 Y10.667
X173.215 Y11.258
G2 X176.107 Y11.75 I7.876 J-37.557
X176.703 Y11.823 I4.983 J-38.049 F675
G1 X176.857 Y11.899
X176.996 Y11.993
X177.233 Y12.233
X177.377 Y12.537 F750
X177.531 Y13.193
G2 X178.25 Y18.322 I9.131 J1.334
G1 X178.629 Y18.88
X179.073 Y19.484
X179.55 Y19.959
X179.754 Y20.04
X180.03 Y19.858
X180.024 Y19.622
X179.874 Y13.138 F1200
X179.474 Y11.61
X178.933 Y10.694
G2 X178.699 Y10.389 I-2.097 J1.361
G1 X178.696 Y10.385
G2 X177.166 Y9.577 I-1.861 J1.67
G1 X150.532 Y6.203
G2 X147.733 Y8.7 I-0.299 J2.482
X147.86 Y9.472 I2.5 J-0.016 F750
G1 X147.931 Y9.663
X148.005 Y9.835
X148.271 Y10.1
X148.959 Y10.398
G2 X154.027 Y10.754 I4.316 J-25.218
X164.323 Y11.325 I24.708 J-351.992
G1 X172.396 Y11.718
X173.741 Y11.785
X174.465 Y11.979
X175.791 Y12.219
X176.126 Y12.252
X176.29 Y12.29 F675
X176.445 Y12.356
X176.581 Y12.455
X176.802 Y12.709
X176.937 Y13.018
X177.096 Y14.355 F750
G2 X178.74 Y19.866 I6.964 J0.923
G1 X179.002 Y19.971
X179.204 Y19.858
X179.206 Y19.586
X179.268 Y13.138 F1200
G2 X178.812 Y11.61 I-2.499 J-0.086
G1 X178.696 Y11.433
G2 X177.472 Y10.29 I-2.219 J1.151
G1 X176.247 Y9.909
X173.492 Y9.464
X149.613 Y7.592
G2 X147.875 Y8.886 I-0.18 J1.572
X147.851 Y9.165 I1.558 J0.279 F750
G1 X147.931 Y9.663
X147.938 Y9.682
X147.939 Y9.946
X147.948 Y10.133
X148.471 Y10.671
G2 X154.653 Y11.217 I4.617 J-16.998
X159.157 Y11.579 I4.76 J-30.969
G1 X164.091 Y11.809
X169.024 Y12.048
X173.957 Y12.296
X174.679 Y12.499
X175.339 Y12.635
X175.67 Y12.693
X175.835 Y12.728 F675
X175.99 Y12.795
X176.126 Y12.894
X176.236 Y13.021
X176.394 Y13.319 F750
X176.564 Y13.971
X176.618 Y16.067
G2 X178.041 Y19.811 I8.031 J-0.908
G1 X178.074 Y19.859
X178.116 Y19.899
X178.166 Y19.93
X178.222 Y19.951
X178.282 Y19.96
X178.507 Y19.858
X178.541 Y19.624
X178.596 Y19.247 F1200
X178.781 Y13.749
G2 X178.499 Y12.527 I-2.499 J-0.067
G1 X178.188 Y11.916
G2 X176.86 Y10.694 I-2.242 J1.106
G1 X174.104 Y10.012
X149.613 Y8.424
G2 X148.158 Y9.2 I-0.092 J1.58
X147.939 Y9.946 I1.363 J0.804 F750
G1 Y10.251
X147.948 Y10.438
X148.124 Y10.77
X148.726 Y11.216
G2 X154.973 Y11.699 I4.491 J-17.456
X160.524 Y12.11 I5.281 J-33.585
G1 X165.008 Y12.355
X169.492 Y12.584
X173.978 Y12.797
X174.86 Y13.04
X175.439 Y13.199 F675
X175.586 Y13.281
X175.711 Y13.393
X175.905 Y13.669 F750
X176.105 Y14.312
G2 X177.389 Y19.726 I8.652 J0.807
X177.648 Y19.875 I0.259 J-0.151
G1 X177.778 Y19.845
X177.949 Y19.553
X178.215 Y14.054 F1200
G2 X176.952 Y11.61 I-2.486 J-0.263
G1 X176.247 Y11.171
G2 X175.023 Y10.748 I-1.401 J2.071
G1 X149.613 Y8.73
G2 X148.157 Y9.505 I-0.093 J1.58
X147.939 Y10.251 I1.363 J0.804 F750
G1 X147.938 Y10.694
X147.947 Y10.881
X148.157 Y11.192
X148.726 Y11.681
G2 X155.061 Y12.192 I4.557 J-16.938
X161.446 Y12.648 I5.949 J-38.39
X173.553 Y13.281 I55.703 J-949.247
G1 X174.221 Y13.364
X174.865 Y13.562
X175.019 Y13.63 F675
X175.155 Y13.73
X175.38 Y13.98
X175.515 Y14.289 F750
X175.728 Y15.619
G2 X176.835 Y19.763 I7.781 J0.142
G1 X177.101 Y19.924
X177.289 Y19.858
X177.342 Y19.589
X178.075 Y15.887 F1200
X177.793 Y14.054
G2 X177.308 Y12.832 I-2.484 J0.279
G1 X176.822 Y12.221
G2 X175.023 Y11.271 I-1.966 J1.544
G1 X149.613 Y9.173
G2 X148.156 Y9.948 I-0.094 J1.58
X147.938 Y10.694 I1.363 J0.804 F750
G1 X147.937 Y10.999
X147.946 Y11.187
X148.103 Y11.528
X148.341 Y11.817
X148.974 Y12.22
G2 X154.798 Y12.721 I4.396 J-16.99
X169.663 Y13.532 I22.655 J-278.764
G3 X173.764 Y13.833 I-5.074 J97.074
X174.361 Y13.892 I-9.175 J96.773 F675
G1 X174.511 Y13.986
X174.65 Y14.081
X174.767 Y14.202
X174.95 Y14.485 F750
X175.163 Y15.124
X175.32 Y16.462
G2 X176.394 Y19.995 I9.06 J-0.825
G1 X176.657 Y20.15
X176.86 Y20.072
X176.921 Y19.816
X176.983 Y19.553 F1200
X177.379 Y14.971
G2 X177.166 Y13.895 I-2.499 J-0.063
G1 X176.86 Y13.207
G2 X175.941 Y12.189 I-2.244 J1.102
G1 X175.635 Y11.976
G2 X174.41 Y11.615 I-1.296 J2.138
G1 X149.613 Y9.478
G2 X148.156 Y10.253 I-0.095 J1.58
X147.937 Y10.999 I1.363 J0.804 F750
G1 X147.936 Y11.473
X147.945 Y11.66
X148.116 Y11.994
X148.635 Y12.536
G2 X152.793 Y13.234 I3.909 J-10.545
G1 X154.14 Y13.256
X155.486 Y13.213
G2 X162.67 Y13.7 I7.399 J-55.994
G1 X166.368 Y13.886
X170.066 Y14.086
X173.763 Y14.299
X173.925 Y14.362 F675
X174.077 Y14.434
X174.21 Y14.538
X174.433 Y14.79
X174.582 Y15.092 F750
X174.916 Y16.397
G2 X175.498 Y19.232 I6.01 J0.242
G1 X175.753 Y19.856
G2 X176.026 Y20.032 I0.274 J-0.123
G1 X176.299 Y19.858
X176.33 Y19.745
X177.064 Y17.109 F1200
G2 X177.075 Y15.581 I-2.375 J-0.78
G1 X176.643 Y14.054
X176.028 Y13.138
G2 X174.104 Y12.112 I-2.02 J1.473
G1 X149.613 Y9.952
G2 X148.155 Y10.727 I-0.096 J1.58
X147.936 Y11.473 I1.363 J0.804 F750
G1 Y11.916
X147.946 Y12.103
X148.103 Y12.444
X148.599 Y13.006
G2 X153.912 Y13.735 I4.414 J-12.453
G3 X158.55 Y14.064 I0.267 J29.137
X172.781 Y14.73 I-17.317 J521.764
X173.38 Y14.767 I-31.548 J521.097 F675
G1 X173.539 Y14.829
X173.686 Y14.911
X173.814 Y15.021
X174.022 Y15.285 F750
X174.293 Y15.902
X174.58 Y17.218
G2 X175.285 Y20.027 I6.945 J-0.251
G1 X175.556 Y20.199
X175.698 Y20.163
X175.835 Y19.876
X176.722 Y18.025 F1200
X176.864 Y17.109
X176.366 Y14.971
G2 X175.847 Y13.993 I-2.413 J0.656
G1 X175.377 Y13.443
G2 X173.758 Y12.527 I-1.953 J1.561
G1 X149.613 Y10.389
G2 X148.155 Y11.165 I-0.095 J1.58
G1 X148.083 Y11.302 F750
X147.936 Y11.916
X147.937 Y12.389
X147.947 Y12.577
X148.093 Y12.922
X148.586 Y13.487
G2 X153.757 Y14.235 I4.434 J-12.397
G3 X158.136 Y14.52 I0.707 J22.884
X172.491 Y15.214 I-27.085 J709.138
X173.09 Y15.25 I-41.44 J708.445 F675
G1 X173.237 Y15.351
X173.494 Y15.569
X173.682 Y15.849 F750
X173.926 Y16.476
X174.166 Y17.802
X174.27 Y18.545
X174.445 Y19.195
X174.645 Y19.838
G2 X174.928 Y20.039 I0.283 J-0.099
G1 X175.227 Y19.795
X175.237 Y19.767
X176.104 Y17.414 F1200
G2 X175.941 Y15.409 I-2.363 J-0.817
G1 X175.329 Y14.329
G2 X174.104 Y13.214 I-2.2 J1.187
G1 X173.186 Y12.919
X149.613 Y10.862
G2 X148.153 Y11.642 I-0.094 J1.58
X147.937 Y12.389 I1.366 J0.799 F750
G1 Y12.832
X147.955 Y13.207
X148.145 Y13.53
X148.719 Y14.012
G2 X155.311 Y14.691 I4.882 J-15.078
X166.612 Y15.343 I12.314 J-115.09
X172.08 Y15.716 I20.117 J-254.467
X172.679 Y15.75 I14.649 J-254.84 F675
G1 X172.83 Y15.825
X173.095 Y16.033
X173.279 Y16.315 F750
X173.526 Y16.942
G2 X174.114 Y19.826 I16.263 J-1.813
G1 X174.41 Y20.035
X174.717 Y19.764
X174.723 Y19.751
X175.515 Y18.025 F1200
G2 X175.475 Y15.581 I-2.201 J-1.186
G1 X175.127 Y14.971
G2 X174.196 Y14.035 I-2.175 J1.233
G1 X173.067 Y13.443
X171.043 Y13.201
X149.613 Y11.314
G2 X148.157 Y12.087 I-0.095 J1.58
X147.937 Y12.832 I1.361 J0.807 F750
G1 X147.935 Y13.443
X147.943 Y13.631
X148.139 Y13.95
X148.678 Y14.472
G2 X155.062 Y15.201 I4.88 J-14.412
G1 X156.412 Y15.26
G2 X162.119 Y15.641 I4.979 J-31.614
X167.501 Y15.867 I5.106 J-57.574
X171.616 Y16.169 I6.354 J-58.292
X172.216 Y16.189 I2.239 J-58.595 F675
G1 X172.372 Y16.254
X172.512 Y16.347
X172.751 Y16.584 F750
G3 X173.435 Y19.274 I-4.882 J2.673
G1 X173.619 Y19.928
X173.908 Y20.146
X174.104 Y20.072
X174.174 Y19.87
X175.013 Y17.414 F1200
G2 X174.104 Y14.745 I-2.409 J-0.669
G1 X174.011 Y14.665
G2 X172.574 Y13.937 I-1.788 J1.748
G1 X149.613 Y11.929
G2 X148.157 Y12.698 I-0.097 J1.58
X147.935 Y13.443 I1.359 J0.811 F750
G1 X147.933 Y13.749
X147.945 Y14.123
X148.141 Y14.443
X148.692 Y14.952
G2 X154.935 Y15.706 I4.865 J-14.068
G1 X156.284 Y15.747
G2 X162.493 Y16.149 I5.379 J-34.984
X167.875 Y16.361 I4.503 J-45.862
X171.209 Y16.662 I5.11 J-37.947
X171.809 Y16.685 I1.776 J-38.249 F675
G1 X171.968 Y16.749
X172.111 Y16.837
X172.352 Y17.072 F750
X172.674 Y17.664
X173.026 Y18.964
X173.007 Y19.339
X173.111 Y20.004
G2 X173.406 Y20.247 I0.295 J-0.057
G1 X173.716 Y20.046
X173.717 Y20.044
X174.405 Y19.247 F1200
G2 X174.506 Y16.192 I-1.927 J-1.593
G1 X173.84 Y15.276
G2 X172.88 Y14.603 I-1.875 J1.653
G1 X171.961 Y14.386
X149.613 Y12.252
G2 X148.163 Y13.006 I-0.1 J1.579
X147.933 Y13.749 I1.35 J0.825 F750
G1 X147.925 Y14.222
X147.931 Y14.41
X148.065 Y14.76
X148.288 Y15.061
X148.891 Y15.508
G2 X155.548 Y16.186 I4.946 J-15.528
X159.507 Y16.6 I25.071 J-220.65
G3 X170.872 Y17.135 I-4.018 J206.634
X171.47 Y17.18 I-15.383 J206.099 F675
G1 X171.622 Y17.273
X171.893 Y17.472 F750
G3 X172.602 Y20.022 I-3.747 J2.415
G1 X172.663 Y20.163
X172.899 Y20.279
X173.135 Y20.163
X173.174 Y20.066
X173.869 Y18.331 F1200
G2 X172.574 Y15.139 I-2.327 J-0.915
G1 X171.655 Y14.827
X149.613 Y12.726
G2 X148.155 Y13.48 I-0.108 J1.579
X147.925 Y14.222 I1.35 J0.825 F750
G1 X147.917 Y14.665
X147.924 Y14.852
X148.046 Y15.207
X148.519 Y15.789
G2 X152.305 Y16.672 I4.024 J-8.691
G1 X153.463 Y16.734
X154.81 Y16.742
X156.156 Y16.678
G2 X163.324 Y17.181 I6.276 J-38.159
G1 X163.997 Y17.266
G3 X171.053 Y17.66 I-0.616 J74.39
G1 X171.208 Y17.723 F675
X171.489 Y17.91
X171.688 Y18.182 F750
X171.977 Y18.79
X172.091 Y19.963
X172.267 Y20.198
X172.574 Y20.16
X172.635 Y19.987
X172.681 Y19.858 F1200
X172.679 Y17.72
X172.177 Y17.109
X171.349 Y16.626
X149.613 Y13.169
G2 X148.147 Y13.922 I-0.116 J1.578
X147.917 Y14.665 I1.35 J0.825 F750
G1 X147.91 Y15.139
X147.924 Y15.513
X148.104 Y15.842
X148.656 Y16.35
G2 X153.808 Y17.219 I4.565 J-11.358
G1 X155.156 Y17.236
X156.5 Y17.148
G2 X162.872 Y17.631 I4.942 J-22.938
X168.047 Y17.867 I4.317 J-37.779
G1 X169.387 Y18.015
X170.56 Y18.122
X170.724 Y18.162 F675
X170.876 Y18.234
X171.144 Y18.439
X171.342 Y18.711
X171.556 Y19.35 F750
X171.588 Y20.023
G2 X172.159 Y20.126 I0.299 J-0.025
G1 X172.187 Y20.065 Z-0.975
X172.214 Y20.008 Z-0.953
X172.238 Y19.956 Z-0.917
X172.259 Y19.914 Z-0.869
X172.274 Y19.881 Z-0.813
X172.283 Y19.861 Z-0.749
X172.287 Y19.854 Z-0.682
G0 Z2
X148.299 Y14.132
Z-0.382
G1 Z-0.682 F750
X148.295 Y14.139 Z-0.749
X148.283 Y14.158 Z-0.813
X148.265 Y14.188 Z-0.869
X148.24 Y14.229 Z-0.917
X148.21 Y14.277 Z-0.953
X148.177 Y14.331 Z-0.975
X148.142 Y14.388 Z-0.982
G2 X147.91 Y15.139 I1.349 J0.828
G1 X147.902 Y15.749
X147.91 Y15.937
X148.089 Y16.266
X148.603 Y16.812
X148.89 Y16.937
X148.961 Y16.96
G2 X149.251 Y16.466 I0.069 J-0.292
G1 X149.236 Y16.449
X148.477 Y15.619 F1200
X148.424 Y15.561 F750
G2 X147.902 Y15.749 I-0.221 J0.202
G1 X147.898 Y16.192
X147.897 Y16.345
Y16.421
X147.902 Y16.484
G2 X148.419 Y16.411 I0.256 J-0.054
G1 X148.418 Y16.403 F1200
G2 X147.914 Y16.337 I-0.26 J0.027 F750
G1 X147.902 Y16.379
X147.897 Y16.421
X147.905 Y16.498
X147.913 Y16.525
X147.924 Y16.552
X147.984 Y16.641
G2 X148.282 Y16.311 I0.149 J-0.165
X147.931 Y16.384 I-0.149 J0.165
G1 X147.914 Y16.439
X147.911 Y16.496
X147.924 Y16.552
X147.956 Y16.607
X147.984 Y16.641
G2 X149.921 Y17.234 I6.322 J-17.2
X156.547 Y17.634 I4.441 J-18.495
X162.861 Y18.132 I4.936 J-22.288
X167.938 Y18.363 I4.145 J-35.218
G1 X169.28 Y18.496
X169.949 Y18.571
X170.285 Y18.602 F675
X170.44 Y18.667
X170.579 Y18.762
X170.813 Y19.005
X170.964 Y19.306 F750
X171.105 Y19.964
G2 X171.684 Y19.973 I0.291 J-0.073
G1 X171.703 Y19.909 Z-0.975
X171.72 Y19.848 Z-0.953
X171.736 Y19.793 Z-0.917
X171.749 Y19.748 Z-0.869
X171.758 Y19.713 Z-0.813
X171.764 Y19.692 Z-0.749
X171.766 Y19.685 Z-0.682
G0 Z2
X149.056 Y16.593
Z-0.382
G1 Z-0.682 F750
X149.061 Y16.599 Z-0.749
X149.076 Y16.615 Z-0.813
X149.1 Y16.641 Z-0.869
X149.133 Y16.676 Z-0.917
X149.171 Y16.718 Z-0.953
X149.214 Y16.764 Z-0.975
X149.26 Y16.813 Z-0.982
G2 X149.92 Y17.239 I1.162 J-1.075
G1 X152.062 Y17.82
X152.537 Y17.96
G2 X156.441 Y18.144 I2.428 J-9.981
X162.115 Y18.62 I4.679 J-21.728
X168.57 Y18.882 I6.275 J-75.046
G1 X169.309 Y18.991
X169.903 Y19.078 F675
X170.055 Y19.151
X170.582 Y19.57 F750
X170.76 Y19.629
X170.96 Y19.553
X171.043 Y19.228
X171.005 Y19.198
X169.512 Y18.025 F1200
X153.287 Y14.896
G2 X151.883 Y17.54 I-0.249 J1.563
X152.537 Y17.96 I1.155 J-1.082 F750
G1 X152.758 Y18.025
X152.981 Y18.12
X153.593 Y18.395
X154.292 Y18.668
G3 X159.199 Y19.085 I0.313 J25.39
G1 X160.548 Y19.106
X161.894 Y19.166
X163.24 Y19.116
X163.973 Y19.277
G3 X169.352 Y19.477 I-1.598 J115.374
G1 X169.999 Y19.688
X170.125 Y19.691
X170.326 Y19.553
X170.33 Y19.247
X170.23 Y19.202
X168.594 Y18.459 F1200
X165.408 Y17.72
X154.512 Y15.408
G2 X153.001 Y17.891 I-0.22 J1.567
X153.475 Y18.331 I1.291 J-0.916 F750
G1 X153.593 Y18.395
X154.986 Y19.021
X155.335 Y19.158
X156.68 Y19.233
G2 X163.141 Y19.636 I5.089 J-29.58
X168.623 Y19.876 I4.474 J-39.561
G1 X168.683 Y19.875
X168.741 Y19.86
X168.795 Y19.834
X168.843 Y19.796
X168.881 Y19.748
X168.909 Y19.692
X168.923 Y19.631
X168.925 Y19.568
X168.912 Y19.505
X168.886 Y19.447
X168.847 Y19.395
X168.798 Y19.352
X168.756 Y19.33 F1200
X168.711 Y19.315
X168.664 Y19.307
X154.662 Y18.039
G2 X154.389 Y18.51 I-0.027 J0.299
G1 X154.394 Y18.517
G2 X154.986 Y19.021 I1.291 J-0.916 F750
G1 X157.267 Y20.046
X157.573 Y19.998
X157.666 Y19.858
X157.582 Y19.563
X157.573 Y19.529 F1200
X149.788 Y7.945
G2 X148.695 Y7.106 I-2.01 J1.487
G1 X146.858 Y6.532
X142.878 Y5.802
X132.164 Y4.387
X128.184 Y3.956
X110.428 Y4.408
X108.285 Y5.246
G2 X107.312 Y5.979 I0.973 J2.303
G1 X106.691 Y6.723
X106.278 Y7.639
X105.393 Y18.025
G2 X105.53 Y18.939 I2.498 J0.095
G1 X105.531 Y18.942
G2 X106.142 Y19.906 I2.361 J-0.822
G1 X107.673 Y21.44
G2 X107.977 Y21.691 I1.151 J-1.086
G1 X107.979 Y21.692
G2 X110.077 Y21.32 I0.845 J-1.338
X110.386 Y20.606 I-1.254 J-0.966 F750
G1 X110.428 Y20.271
X110.442 Y20.084
X109.918 Y19.548
X109.274 Y19.351
X108.945 Y19.279 F675
X108.796 Y19.201
X108.664 Y19.097
X108.444 Y18.841
X108.298 Y18.538
X108.23 Y18.208 F750
X108.196 Y17.536
G2 X108.935 Y9.317 I-28.771 J-6.729
X108.898 Y8.718 I-29.51 J1.49 F675
G1 X109.035 Y8.394 F750
G3 X111.262 Y7.106 I2.225 J1.277
G2 X118.333 Y7.1 I3.368 J-200.108
G3 X120.001 Y6.631 I1.951 J3.733
G1 X120.245 Y6.417
X120.159 Y6.112
X120.017 Y6.09
X111.653 Y4.804 F1200
G2 X110.428 Y4.88 I-0.463 J2.457
G1 X108.868 Y5.501
X108.285 Y5.822
X107.41 Y6.723
G2 X106.732 Y8.25 I1.814 J1.72
G1 X105.903 Y17.72
X105.915 Y18.331
G2 X106.589 Y19.858 I2.493 J-0.188
G1 X107.692 Y21.08
G2 X110.119 Y20.985 I1.174 J-1.061
X110.428 Y20.271 I-1.254 J-0.966 F750
G1 X110.463 Y19.995
X110.477 Y19.808
X110.302 Y19.477
X109.708 Y19.02
X109.394 Y18.898
X109.248 Y18.813 F675
X109.118 Y18.707
X109.009 Y18.578
X108.838 Y18.288
X108.758 Y17.961 F750
X108.723 Y17.288
G2 X109.427 Y9.545 I-25.912 J-6.257
X109.386 Y8.946 I-26.615 J1.486 F675
G1 X109.53 Y8.622
X109.715 Y8.34
X109.96 Y8.11 F750
X110.537 Y7.762
X111.193 Y7.61
X114.364 Y7.613
X117.534 Y7.611
X117.718 Y7.529
X117.877 Y7.41
X118.139 Y7.155
X118.234 Y7.107
X118.332 Y7.061
X118.487 Y6.723
X118.388 Y6.563
X118.167 Y6.518
X112.265 Y5.327 F1200
G2 X111.04 Y5.423 I-0.423 J2.464
G1 X109.203 Y6.007
G2 X107.451 Y8.25 I0.744 J2.387
G1 X107.322 Y19.858
G2 X110.154 Y20.709 I1.578 J-0.115
X110.463 Y19.995 I-1.254 J-0.966 F750
G1 X110.501 Y19.69
X110.516 Y19.503
X110.195 Y18.825
X109.592 Y18.379 F675
X109.394 Y18.107
X109.3 Y17.783 F750
X109.237 Y17.113
G2 X109.927 Y9.782 I-23.907 J-5.945
X109.885 Y9.183 I-24.596 J1.386 F675
G1 X109.983 Y9.021
X110.141 Y8.724 F750
X110.385 Y8.492 F675
X110.672 Y8.316
X110.988 Y8.199 F750
X112.313 Y7.959
G2 X117.346 Y8.045 I2.896 J-22.006
G1 X117.556 Y7.939
X117.722 Y7.77
X117.827 Y7.559
X117.775 Y7.281
X117.286 Y7.164
X111.959 Y5.884 F1200
G2 X110.428 Y6.028 I-0.543 J2.44
G1 X109.203 Y6.597
G2 X107.907 Y7.945 I1.023 J2.281
G1 X107.673 Y8.918
X107.361 Y19.553
G2 X110.192 Y20.403 I1.578 J-0.116
X110.501 Y19.69 I-1.253 J-0.967 F750
G1 X110.54 Y19.385
X110.569 Y19.011
X110.285 Y18.316
X110.042 Y18.083
X109.886 Y17.785 F675
X109.804 Y17.458 F750
X109.808 Y16.785
G2 X110.434 Y10.116 I-23.454 J-5.567
X110.4 Y9.517 I-24.08 J1.102 F675
G1 X110.482 Y9.354
X110.561 Y9.205
X110.665 Y9.072
X110.915 Y8.846 F750
X111.534 Y8.581
X112.869 Y8.406
G2 X117.492 Y8.445 I2.412 J-11.851
G1 X117.604 Y8.25
X117.68 Y8.071
X117.802 Y7.639
X117.827 Y7.559
X117.775 Y7.281
X117.28 Y7.193
X116.245 Y7.009 F1200
X111.653 Y6.375
G2 X109.204 Y7.639 I-0.267 J2.486
G1 X108.897 Y8.603
X107.407 Y18.942
G2 X110.231 Y20.098 I1.571 J0.189
X110.54 Y19.385 I-1.253 J-0.967 F750
G1 X110.596 Y18.942
X110.627 Y18.774
X110.674 Y18.402
X110.371 Y17.438
X110.332 Y17.104
X110.45 Y15.762
G2 X110.939 Y10.571 I-18.216 J-4.334
X110.902 Y9.973 I-18.705 J0.856 F675
G1 X110.949 Y9.806
X111.015 Y9.651
X111.113 Y9.515
X111.358 Y9.283 F750
G3 X113.722 Y9.039 I1.498 J2.932
G2 X117.248 Y8.978 I1.532 J-13.359
G1 X117.381 Y8.821
X117.488 Y8.675
X117.557 Y8.508
X117.68 Y8.071
X117.683 Y7.945
X117.469 Y7.711
X117.139 Y7.618
X113.795 Y6.675 F1200
G2 X112.571 Y6.612 I-0.736 J2.389
G1 X110.789 Y7.028
X109.51 Y7.845
X109.406 Y7.945
G2 X108.677 Y9.472 I1.758 J1.777
G1 X108.179 Y16.192
G2 X109.474 Y18.636 I2.488 J0.247
G1 X109.968 Y18.919
X110.252 Y18.999 F750
G2 X110.627 Y18.774 I0.081 J-0.289
G1 X110.651 Y18.636
X110.734 Y18.261
X110.859 Y17.521
X110.827 Y16.174
G2 X111.466 Y10.787 I-20.899 J-5.213
X111.453 Y10.187 I-21.539 J0.174 F675
G1 X111.533 Y10.033
X111.634 Y9.898
X111.891 Y9.68 F750
G3 X114.601 Y9.548 I1.539 J3.712
G1 X115.349 Y9.592
X116.099 Y9.589
X116.848 Y9.548
X116.981 Y9.493
X117.175 Y9.377
X117.326 Y9.208
X117.419 Y9.001
X117.557 Y8.508
X117.469 Y8.217
X117.021 Y8.043
X115.02 Y7.266 F1200
G2 X113.795 Y7.06 I-1.014 J2.285
G1 X112.265 Y7.216
G2 X111.107 Y7.564 I0.119 J2.497
G1 X110.428 Y7.978
G2 X109.411 Y9.167 I1.296 J2.138
G1 X109.122 Y10.083
X109.128 Y10.999
X109.937 Y17.109
X110.159 Y18.22
X110.181 Y18.331 F750
X110.444 Y18.486
X110.734 Y18.261
X110.828 Y17.834
X111.007 Y17.414
X111.265 Y16.71
G2 X111.874 Y13.078 I-55.954 J-11.257
G1 X111.922 Y11.978
X111.927 Y11.399
X111.932 Y10.799 F675
X111.954 Y10.633
X112.013 Y10.475
X112.106 Y10.334
X112.228 Y10.218
G3 X115.245 Y10.038 I1.739 J3.754 F750
G1 X115.995 Y10.068
X116.744 Y10.038
X116.854 Y9.991
X117.048 Y9.869
X117.196 Y9.694
X117.285 Y9.483
X117.419 Y9.001
X117.42 Y8.861
X117.163 Y8.633
X116.869 Y8.566
X113.489 Y7.793 F1200
G2 X112.265 Y7.837 I-0.53 J2.29
G1 X111.959 Y7.928
G2 X110.734 Y8.562 I0.421 J2.313
G1 X110.122 Y9.267
X109.885 Y9.778
G2 X109.695 Y10.999 I2.146 J0.96
G1 X110.448 Y17.292
X110.463 Y17.414 F750
G2 X110.734 Y17.587 I0.272 J-0.127
G1 X111.007 Y17.414
X111.267 Y16.803
X111.547 Y16.192
X111.653 Y15.998
X111.999 Y15.333
G2 X112.449 Y11.521 I-23.34 J-4.689
X112.464 Y10.921 I-23.79 J-0.877 F675
G1 X112.575 Y10.775
X112.688 Y10.65
X112.827 Y10.554
X113.139 Y10.429 F750
X114.482 Y10.321
X115.212 Y10.492
X115.961 Y10.541
X116.71 Y10.513
X116.793 Y10.47
X116.98 Y10.332
X117.116 Y10.144
X117.188 Y9.923
X117.212 Y9.778
X117.285 Y9.483
X117.151 Y9.167
X116.739 Y9.006
X115.02 Y8.337 F1200
X114.102 Y8.345
X112.571 Y8.565
G2 X111.04 Y9.616 I0.182 J1.905
G1 X108.897 Y14.449
G2 X111.088 Y16.532 I1.419 J0.701
X111.653 Y15.998 I-0.772 J-1.382 F750
G1 X111.712 Y15.901
X112.016 Y15.615
X112.277 Y15.345
X112.598 Y14.667
X112.739 Y13.931
X112.83 Y13.186
X112.931 Y11.843
X112.933 Y11.506 F675
X112.991 Y11.348
X113.083 Y11.207
X113.204 Y11.09
X113.348 Y11.003
X113.668 Y10.897 F750
X114.338 Y10.832
X115.078 Y10.956
X115.826 Y11.014
X116.576 Y11.003
X116.692 Y10.948
X116.846 Y10.851
X116.972 Y10.72
X117.063 Y10.563
X117.113 Y10.388
X117.188 Y9.923
X117.163 Y9.76
X116.588 Y9.528
X116.45 Y9.472 F1200
X114.408 Y8.934
X112.86 Y9.167
X111.959 Y9.66
X111.532 Y10.083
X109.544 Y13.749
G2 X111.323 Y15.967 I1.432 J0.675
X112.016 Y15.615 I-0.348 J-1.544 F750
G1 X112.045 Y15.588 F675
X112.265 Y15.539 F750
X112.448 Y15.497
X112.957 Y14.947
G2 X113.391 Y12.576 I-11.131 J-3.264
X113.422 Y11.977 I-11.565 J-0.894 F675
G1 X113.465 Y11.814
X113.543 Y11.665
X113.653 Y11.537
X113.789 Y11.437
X113.943 Y11.37
X114.274 Y11.307 F750
X115.014 Y11.428
X115.762 Y11.488
X116.512 Y11.48
X116.65 Y11.41
X116.812 Y11.299
X116.94 Y11.15
X117.025 Y10.973
X117.061 Y10.78
X117.066 Y10.694
X117.113 Y10.388
X116.95 Y10.083
X116.52 Y9.993
X114.102 Y9.484 F1200
X113.451 Y9.582
X112.571 Y10.029
X112.092 Y10.694
X110.734 Y13.164
G2 X111.494 Y15.437 I1.345 J0.814
X112.265 Y15.539 I0.585 J-1.459 F750
G1 X112.571 Y15.491
X112.756 Y15.461
X113.08 Y15.273
X113.503 Y14.653
X113.692 Y13.927
X113.889 Y12.595
X113.899 Y12.427
X114.066 Y11.774
G2 X113.552 Y11.508 I-0.293 J-0.064
G1 X113.516 Y11.556 F1200
X113.49 Y11.61
X112.328 Y14.914
X112.265 Y15.092 F750
G2 X112.571 Y15.491 I0.283 J0.1
G1 X113.045 Y15.438
X113.23 Y15.407
X113.531 Y15.183
X113.98 Y14.583
X114.176 Y13.858
X114.412 Y12.532
X114.447 Y12.368
X114.73 Y11.756
G2 X114.272 Y11.401 I-0.276 J-0.117
G1 X114.233 Y11.437 F1200
X114.2 Y11.479
X114.176 Y11.526
X112.811 Y14.864
X112.745 Y15.025 F750
G2 X113.045 Y15.438 I0.278 J0.114
G1 X113.489 Y15.386
X113.674 Y15.354
X113.979 Y15.136
X114.45 Y14.552
X114.659 Y13.832
X114.81 Y13.1
X114.931 Y12.512 F675
X115.002 Y12.36
X115.105 Y12.226
G3 X116.538 Y11.829 I1.575 J2.896 F750
G1 X116.734 Y11.717
X116.892 Y11.562
X116.997 Y11.367
X117.042 Y11.15
G2 X116.742 Y10.845 I-0.3 J-0.005
G1 X116.438 Y10.788
X115.326 Y10.579 F1200
G2 X114.019 Y10.999 I-0.337 J1.195
G1 X112.367 Y13.443
G2 X112.737 Y15.206 I1.021 J0.706
X113.183 Y15.373 I0.651 J-1.057 F750
G1 X113.489 Y15.386
X113.964 Y15.327
X114.148 Y15.294
X114.457 Y15.081
X114.929 Y14.498
X115.129 Y13.855
X115.307 Y13.205 F675
X115.339 Y13.04
X115.406 Y12.886
G3 X116.647 Y12.183 I1.896 J1.901 F750
G1 X116.795 Y12.071
X116.91 Y11.926
X116.987 Y11.757
X117.019 Y11.574
G2 X116.719 Y11.269 I-0.3 J-0.005
G1 X116.412 Y11.297
X114.714 Y11.452 F1200
X114.408 Y11.615
X112.893 Y13.749
G2 X113.223 Y15.122 I0.972 J0.492
X113.964 Y15.327 I0.643 J-0.88 F750
G1 X114.368 Y15.276
X114.408 Y15.271
X114.771 Y15.178
X115.333 Y14.682
X115.588 Y13.98
X115.793 Y13.416 F675
X115.984 Y13.138
X116.502 Y12.725 F750
X116.651 Y12.636
X116.804 Y12.515
X116.921 Y12.359
X116.994 Y12.178
X117.017 Y11.985
G2 X116.482 Y11.813 I-0.3 J0.013
G1 X116.447 Y11.857
X114.199 Y14.718 F1200
X114.145 Y14.787 F750
G2 X114.408 Y15.271 I0.236 J0.185
G1 X115.02 Y15.146
X115.202 Y15.1
X115.521 Y14.903
X115.951 Y14.289
G3 X116.901 Y12.98 I3.856 J1.8
G1 X116.986 Y12.798
X117.02 Y12.599
G2 X116.483 Y12.416 I-0.3 J0
G1 X116.457 Y12.448
X114.774 Y14.614 F1200
X114.733 Y14.666 F750
G2 X115.02 Y15.146 I0.237 J0.184
G1 X115.326 Y15.084
X115.495 Y15.042
X115.854 Y14.935
X116.386 Y14.407
X116.858 Y13.665
X116.915 Y13.558
X116.953 Y13.442
X116.973 Y13.322
G2 X116.446 Y13.113 I-0.3 J-0.013
G1 X116.418 Y13.146
X115.232 Y14.523 F1200
X115.206 Y14.553 F750
G2 X115.495 Y15.042 I0.227 J0.196
G1 X115.771 Y14.971
X116.107 Y14.878
X116.245 Y14.84
X116.398 Y14.798
X116.467 Y14.774
G2 X116.317 Y14.393 I-0.084 J-0.187
G1 X116.284 Y14.404
G2 X116.398 Y14.798 I0.066 J0.194
G1 X116.474 Y14.771
X116.512 Y14.749
X116.551 Y14.717
X116.598 Y14.655
X116.655 Y14.559
G2 X116.205 Y14.193 I-0.274 J-0.122
G1 X116.155 Y14.239 F1200
X116.117 Y14.293
X116.092 Y14.355
X116.09 Y14.363
X116.08 Y14.398 F750
G2 X116.551 Y14.717 I0.289 J0.081
G1 X116.597 Y14.665
G2 X117.012 Y12.528 I-3.468 J-1.781
G1 X117.017 Y11.61
X117.061 Y10.78
G2 X116.86 Y10.491 I-0.3 J-0.005
G1 X116.473 Y10.357
X115.938 Y10.31 F1200
G2 X114.102 Y10.81 I-0.311 J2.481
G1 X105.836 Y17.922
X104.297 Y19.247 Z-1.98
G2 X104.006 Y22.902 I1.549 J1.962
X107.673 Y22.916 I1.84 J-1.693
G1 X107.676 Y22.913
G2 X108.164 Y22.145 I-1.83 J-1.704
G1 X108.205 Y22.038 F750
X108.24 Y21.928
G2 X108.355 Y21.385 I-3.184 J-0.957
G1 X108.37 Y21.217
X108.378 Y21.021
X108.044 Y20.976
X107.719 Y20.886 F675
X107.435 Y20.707
X107.197 Y20.468 F750
X106.818 Y19.911
X106.631 Y19.264
X106.54 Y17.92
G2 X107.331 Y9.009 I-28.783 J-7.043
G3 X108.409 Y6.326 I2.666 J-0.487
G1 X108.97 Y5.952
X110.245 Y5.518
X111.592 Y5.543
X112.939 Y5.539
X127.757 Y5.549
X129.1 Y5.64
X130.442 Y5.764
X142.519 Y6.827
X150.57 Y7.537
X151.913 Y7.633
X153.259 Y7.692
X172.096 Y8.607
G3 X178.164 Y9.466 I-9.532 J89.196
X178.755 Y9.572 I-15.6 J88.337 F675
G1 X179.04 Y9.751
X179.526 Y10.217 F750
X179.827 Y10.82
X180.128 Y12.133
G2 X180.029 Y15.662 I15.705 J2.205
G1 X180.224 Y16.686
X180.304 Y17.052
X180.468 Y17.39
X180.977 Y17.94
X181.655 Y18.26
X182.283 Y18.503
X182.916 Y18.735
X183.245 Y18.636
X183.238 Y18.195
X183.236 Y18.025 F1200
X181.886 Y9.778
X181.361 Y8.861
X180.533 Y8.088
X179.309 Y7.633
X177.778 Y7.228
X125.735 Y3.661
X111.959 Y3.72
X108.591 Y4.059
G2 X106.323 Y6.417 I0.229 J2.49
G1 X105.224 Y20.877
G2 X108.087 Y21.941 I1.576 J0.143
X108.37 Y21.217 I-1.287 J-0.921 F750
G1 X108.398 Y20.912
X108.405 Y20.724
X107.88 Y20.302
X107.641 Y20.065
X107.527 Y19.941
G3 X107.219 Y16.998 I3.957 J-1.902
G2 X107.844 Y11.112 I-20.511 J-5.151
G1 X107.827 Y8.418
G3 X110.114 Y6.202 I2.85 J0.653
G1 X111.448 Y6.009
X112.794 Y6.047
X114.141 Y6.039
X118.982 Y6.043
X119.612 Y6.025
X122.061 Y6.004
X127.572 Y5.987
X128.184 Y6.053
X129.528 Y6.139
X130.636 Y6.283
X150.764 Y8.056
X152.108 Y8.147
X153.454 Y8.199
X154.8 Y8.269
X172.291 Y9.117
G3 X178.272 Y10.039 I-5.091 J52.886
G1 X178.868 Y10.515
X179.079 Y10.778
X179.35 Y11.394
X179.617 Y12.715
G2 X179.88 Y17.206 I9.769 J1.681
X181.807 Y18.816 I2.695 J-1.267
G1 X182.352 Y19.218
X182.793 Y19.825
X183.462 Y19.898
X183.636 Y19.858
X183.781 Y19.553
X183.716 Y19.291
X181.579 Y10.674 F1200
X181.309 Y10.083
G2 X180.705 Y9.167 I-2.338 J0.884
G1 X179.615 Y8.227
X178.084 Y7.562
X173.186 Y6.906
X128.49 Y2.907
G2 X127.466 Y5.753 I-0.072 J1.581
X127.878 Y5.976 I0.951 J-1.265 F750
G1 X128.184 Y6.053
G2 X142.879 Y7.444 I34.531 J-286.647
X156.961 Y8.827 I53.374 J-470.758
X165.03 Y9.266 I27.121 J-424.673
G1 X171.758 Y9.592
G3 X178.065 Y10.528 I-2.213 J36.623
X179.069 Y12.593 I-1.58 J2.045
G2 X179.152 Y16.181 I15.45 J1.437
X181.476 Y19.313 I3.903 J-0.468
G1 X182.076 Y19.616
X182.37 Y19.599
X182.491 Y19.247
X182.472 Y19.13
X181.18 Y11.305 F1200
X180.755 Y10.276
X180.246 Y9.472
G2 X179.309 Y8.679 I-2.034 J1.453
G1 X179.002 Y8.504
G2 X177.778 Y8.102 I-1.366 J2.094
G1 X157.267 Y5.68
G2 X156.241 Y8.534 I-0.088 J1.58
X156.961 Y8.827 I0.938 J-1.274 F750
G3 X161.7 Y9.467 I-5.788 J60.758
G2 X165.829 Y9.803 I4.626 J-31.329
G1 X172.556 Y10.133
G3 X177.54 Y10.91 I-6.991 J61.242
G1 X177.838 Y11.067 F675
X178.082 Y11.299
X178.26 Y11.585 F750
X178.398 Y11.892
X178.575 Y12.542
G2 X178.646 Y16.134 I22.741 J1.347
X181.016 Y19.702 I4.99 J-0.743
G1 X181.646 Y19.93
X181.938 Y19.858
X182.017 Y19.553
X181.985 Y19.387
X180.388 Y10.999 F1200
G2 X178.39 Y8.978 I-2.462 J0.435
G1 X162.165 Y6.351
G2 X161.007 Y9.117 I-0.111 J1.579
X161.699 Y9.472 I1.046 J-1.187 F750
G3 X163.174 Y9.858 I-1.771 J9.779
G1 X163.486 Y10.067
G2 X170.95 Y10.535 I9.016 J-84.028
G3 X176.698 Y11.245 I-1.316 J34.302
X177.285 Y11.373 I-7.064 J33.592 F675
G1 X177.56 Y11.575
X177.769 Y11.839
X177.911 Y12.144 F750
X178.108 Y12.788
G2 X178.577 Y17.635 I10.959 J1.385
X180.338 Y19.843 I6.66 J-3.505
G1 X180.396 Y19.881
X180.461 Y19.904
X180.529 Y19.912
X180.701 Y19.858
X180.824 Y19.553
X180.818 Y19.484
X180.124 Y11.916 F1200
G2 X179.224 Y10.083 I-2.498 J0.09
G1 X177.909 Y9.167
X175.023 Y8.543
X166.145 Y6.807
G2 X163.103 Y9.08 I-0.547 J2.439
X163.174 Y9.859 I2.494 J0.167 F750
G1 X163.239 Y10.083
X163.3 Y10.26
X163.973 Y10.593
G2 X172.238 Y11.111 I10.943 J-108.41
G3 X176.461 Y11.724 I-1.524 J25.324
X177.044 Y11.867 I-5.748 J24.71 F675
G1 X177.274 Y12.144
X177.434 Y12.441
X177.534 Y12.762 F750
X177.655 Y14.104
G2 X179.533 Y19.818 I6.581 J1.003
G1 X179.759 Y19.921
X179.942 Y19.858
X180.051 Y19.553
X180.05 Y19.534
X179.672 Y11.916 F1200
X179.309 Y11.071
G2 X177.472 Y9.652 I-2.272 J1.043
G1 X166.197 Y7.028
G2 X163.168 Y9.304 I-0.534 J2.442
X163.239 Y10.083 I2.494 J0.167 F750
G1 X163.328 Y10.389
X163.389 Y10.566
X163.967 Y11.044
G2 X170.89 Y11.529 I7.38 J-55.653
G3 X175.966 Y12.137 I-0.937 J29.31
X176.552 Y12.266 I-6.013 J28.702 F675
G1 X176.674 Y12.407
X176.782 Y12.536
X176.947 Y12.83 F750
X177.117 Y13.482
X177.19 Y14.827
G2 X178.912 Y19.826 I6.705 J0.487
G1 X179.133 Y19.951
X179.35 Y19.858
X179.367 Y19.57
X179.436 Y18.331 F1200
X179.483 Y13.443
X179.001 Y11.916
G2 X178.084 Y10.581 I-2.408 J0.672
G1 X177.166 Y10.034
X175.804 Y9.778
X164.92 Y8.419
G2 X163.328 Y9.611 I-0.058 J1.582
X163.328 Y10.389 I1.534 J0.39 F750
G1 X163.403 Y10.648
X163.525 Y11.002
X163.79 Y11.268
X164.47 Y11.584
G2 X171.769 Y12.081 I9.013 J-78.44
G3 X175.508 Y12.554 I-0.167 J16.36
X176.088 Y12.708 I-3.906 J15.887 F675
G1 X176.208 Y12.838
X176.413 Y13.105
X176.541 Y13.417 F750
X176.789 Y14.741
G2 X178.301 Y19.84 I6.628 J0.807
G1 X178.332 Y19.883
X178.371 Y19.92
X178.417 Y19.949
X178.469 Y19.969
X178.525 Y19.98
X178.766 Y19.858
X178.778 Y19.626
X178.83 Y18.636 F1200
X178.825 Y13.138
X178.482 Y12.221
X178.333 Y11.916
G2 X177.166 Y10.727 I-2.265 J1.057
G1 X176.247 Y10.303
X165.226 Y8.704
G2 X163.403 Y9.871 I-0.289 J1.556
X163.403 Y10.648 I1.534 J0.39 F750
G1 X163.409 Y10.671
X163.364 Y10.999
X163.348 Y11.186
X163.822 Y11.767
G2 X167.343 Y12.369 I3.256 J-8.449
G3 X174.957 Y12.966 I-0.741 J58.34
X175.55 Y13.055 I-8.355 J57.743 F675
G1 X175.681 Y13.194
X175.912 Y13.439 F750
X176.179 Y14.057
X176.362 Y15.392
G2 X177.305 Y19.25 I6.108 J0.551
G1 X177.652 Y19.827
X177.904 Y19.964
X178.133 Y19.858
X178.146 Y19.612
X178.452 Y14.054 F1200
G2 X178.084 Y12.739 I-2.5 J-0.009
G1 X177.587 Y11.916
G2 X175.635 Y10.805 I-2.081 J1.386
G1 X165.226 Y9.715
G2 X163.68 Y10.289 I-0.303 J1.553
X163.364 Y10.999 I1.243 J0.979 F750
G1 X163.322 Y11.305
X163.306 Y11.492
X163.464 Y11.832
X164.034 Y12.32
G2 X169.135 Y12.92 I4.269 J-14.31
G3 X174.835 Y13.421 I-2.431 J60.293
G1 X174.995 Y13.484 F675
X175.145 Y13.561
X175.403 Y13.776
X175.583 Y14.062 F750
X175.783 Y14.704
X175.918 Y16.045
G2 X177.041 Y19.793 I6.85 J-0.011
G1 X177.3 Y19.942
X177.508 Y19.858
X177.533 Y19.597
X177.711 Y17.72 F1200
X177.939 Y14.36
G2 X177.664 Y13.138 I-2.499 J-0.079
G1 X177.498 Y12.832
G2 X176.75 Y11.916 I-2.256 J1.077
G1 X175.852 Y11.305
X175.023 Y11.076
X164.92 Y9.992
G2 X163.638 Y10.595 I-0.038 J1.582
X163.322 Y11.305 I1.243 J0.979 F750
G1 X163.28 Y11.61
X163.269 Y11.798
X163.412 Y12.144
X163.645 Y12.438
X164.266 Y12.859
G2 X169.031 Y13.424 I4.174 J-14.833
G3 X174.124 Y13.855 I-0.972 J41.74
X174.717 Y13.947 I-6.065 J41.308 F675
G1 X174.841 Y14.099
X175.059 Y14.355 F750
X175.203 Y14.66
X175.514 Y15.97
G2 X176.157 Y19.155 I5.895 J0.467
G1 X176.45 Y19.761
X176.716 Y19.921
X176.9 Y19.858
X176.953 Y19.582
X177.134 Y18.636 F1200
X177.558 Y15.581
G2 X177.371 Y14.054 I-2.454 J-0.475
G1 X176.945 Y13.138
G2 X175.329 Y11.726 I-2.294 J0.995
G1 X164.92 Y10.299
G2 X164.309 Y10.389 I-0.08 J1.581
G1 X164.308
G2 X163.597 Y10.9 I0.532 J1.49
X163.28 Y11.61 I1.243 J0.979 F750
G1 X163.227 Y12.084
X163.216 Y12.271
X163.398 Y12.599
X163.906 Y13.15
G2 X168.282 Y13.905 I3.995 J-10.094
G3 X173.557 Y14.263 I-0.581 J47.65
X174.151 Y14.341 I-5.856 J47.292 F675
G1 X174.295 Y14.448
X174.423 Y14.557
X174.632 Y14.822 F750
X174.896 Y15.442
X175.157 Y16.763
G2 X175.653 Y19.228 I4.877 J0.301
G1 X175.93 Y19.842
G2 X176.199 Y20.009 I0.269 J-0.133
G1 X176.459 Y19.858
X176.513 Y19.717
X177.272 Y17.72 F1200
G2 X177.392 Y16.192 I-2.312 J-0.95
G1 X177.049 Y14.665
X176.797 Y14.054
G2 X176.195 Y13.138 I-2.339 J0.882
G1 X175.941 Y12.887
G2 X174.41 Y12.082 I-1.858 J1.673
G1 X164.92 Y10.736
G2 X163.526 Y11.366 I-0.127 J1.577
X163.227 Y12.084 I1.268 J0.948 F750
G1 X163.193 Y12.389
X163.182 Y12.576
X163.309 Y12.929
X163.517 Y13.241
X164.102 Y13.711
G2 X169.713 Y14.42 I4.613 J-13.951
G1 X171.057 Y14.554
X173.075 Y14.665
X173.571 Y14.757
X173.729 Y14.815 F675
X173.873 Y14.903
X174.121 Y15.131
X174.3 Y15.416 F750
X174.524 Y16.051
X174.744 Y17.38
G2 X175.371 Y19.831 I7.007 J-0.487
G1 X175.645 Y20.01
X175.906 Y19.858
X175.935 Y19.704
X176.607 Y16.192 F1200
G2 X176.247 Y14.254 I-2.439 J-0.551
G1 X175.941 Y13.806
G2 X174.104 Y12.557 I-2.178 J1.228
G1 X164.92 Y11.045
G2 X163.492 Y11.671 I-0.161 J1.574
X163.193 Y12.389 I1.268 J0.948 F750
G1 X163.144 Y12.832
X163.133 Y13.019
X163.263 Y13.371
X163.718 Y13.968
G2 X166.691 Y14.789 I3.292 J-6.125
G3 X172.681 Y15.153 I-7.93 J180.248
X173.279 Y15.2 I-13.919 J179.884 F675
G1 X173.423 Y15.311
X173.684 Y15.524 F750
G3 X174.259 Y17.625 I-3.038 J1.961
G2 X174.884 Y19.971 I10.053 J-1.421
G1 X175.162 Y20.159
X175.329 Y20.109
X175.419 Y19.848
X176.247 Y17.452 F1200
G2 X176.247 Y15.646 I-2.331 J-0.903
G1 X176.12 Y15.276
G2 X175.589 Y14.212 I-2.438 J0.552
G1 X175.023 Y13.638
G2 X173.798 Y12.96 I-1.775 J1.761
G1 X164.92 Y11.493
G2 X163.442 Y12.114 I-0.21 J1.569
X163.144 Y12.832 I1.268 J0.948 F750
G1 X163.083 Y13.378
X163.069 Y13.612
X163.241 Y13.945
X163.765 Y14.482
G2 X167.673 Y15.368 I4.106 J-9.04
G3 X172.273 Y15.623 I-1.164 J62.699
X172.87 Y15.681 I-5.764 J62.445 F675
G1 X173.017 Y15.779
X173.278 Y15.992
X173.46 Y16.275 F750
X173.692 Y16.908
G2 X174.362 Y20.011 I12.629 J-1.104
G1 X174.487 Y20.163
X174.801
X174.882 Y19.901
X175.74 Y17.109 F1200
G2 X175.299 Y14.951 I-2.419 J-0.63
G1 X174.826 Y14.36
G2 X173.186 Y13.41 I-1.98 J1.527
G1 X164.92 Y12.049
G2 X163.382 Y12.66 I-0.271 J1.559
X163.138 Y13.138 I1.267 J0.948 F750
G1 X163.083 Y13.378
X163.052 Y13.749
X163.081 Y14.123
X163.263 Y14.45
X163.796 Y14.978
G2 X168.734 Y15.903 I4.523 J-10.508
G3 X171.832 Y16.084 I-0.281 J31.287
X172.428 Y16.155 I-3.379 J31.105 F675
G1 X172.58 Y16.231
X172.716 Y16.331
X172.946 Y16.577 F750
G3 X173.625 Y19.288 I-8.83 J3.651
G1 X173.806 Y19.936
G2 X174.092 Y20.146 I0.286 J-0.091
G1 X174.379 Y19.859
X174.41 Y19.828 F1200
X175.163 Y17.414
G2 X174.594 Y14.971 I-2.391 J-0.732
G1 X174.104 Y14.543
G2 X172.88 Y13.85 I-1.795 J1.74
G1 X164.92 Y12.372
G2 X163.327 Y13.021 I-0.295 J1.555
X163.052 Y13.749 I1.298 J0.906 F750
G1 X163.069 Y14.36
X163.083 Y14.547
X163.251 Y14.882
X163.754 Y15.439
G2 X168.527 Y16.4 I4.628 J-10.649
G3 X171.456 Y16.554 I0.149 J25.171
X172.052 Y16.627 I-2.78 J25.017 F675
G1 X172.199 Y16.72
X172.331 Y16.825
X172.546 Y17.084 F750
X172.825 Y17.697
X173.121 Y19.011
X173.161 Y19.384
X173.309 Y20.041
X173.492 Y20.245
X173.825 Y20.163
X173.872 Y20.001
X174.546 Y17.72 F1200
G2 X172.574 Y14.494 I-2.382 J-0.759
G1 X164.308 Y13.183
G2 X163.325 Y13.632 I-0.052 J1.186
X163.069 Y14.36 I0.931 J0.736 F750
G1 X163.083 Y14.771
X163.135 Y15.143
X163.319 Y15.469
X163.872 Y15.975
G2 X169.027 Y16.914 I4.788 J-11.671
G1 X170.375 Y16.939
X171.38 Y17.04
X171.545 Y17.072
X171.701 Y17.136 F675
X171.979 Y17.326 F750
G3 X172.613 Y19.207 I-2.484 J1.884
G1 X172.754 Y19.869
X172.88 Y20.052
X173.186 Y20.068
X173.338 Y19.861
X173.341 Y19.858 F1200
X173.814 Y17.72
G2 X171.961 Y14.797 I-2.367 J-0.548
G1 X164.92 Y13.175
G2 X163.258 Y14.014 I-0.255 J1.562
X163.085 Y14.665 I1.408 J0.723 F750
G1 X163.083 Y14.771
X163.142 Y15.444
X163.168 Y15.63
X163.36 Y15.952
X163.906 Y16.466
G2 X168.692 Y17.395 I4.621 J-11
G1 X170.039 Y17.442
X170.712 Y17.467
X171.047 Y17.506 F675
X171.208 Y17.552 F750
X171.359 Y17.627 F675
X171.624 Y17.835
X171.817 Y18.111 F750
X172.064 Y18.738
X172.169 Y19.403
X172.28 Y20.068
G2 X172.574 Y20.308 I0.294 J-0.06
G1 X172.83 Y20.163
X172.855 Y20.088
X173.442 Y18.331 F1200
G2 X171.655 Y15.425 I-2.177 J-0.664
G1 X164.614 Y14.23
G2 X163.354 Y14.703 I-0.287 J1.152
X163.142 Y15.444 I0.973 J0.679 F750
G1 X163.185 Y15.887
X163.248 Y16.257
X163.705 Y16.851
G2 X168.326 Y17.874 I4.68 J-10.2
G1 X169.672 Y17.939
X170.345 Y17.952
X170.681 Y17.976 F675
X170.841 Y18.028
X170.99 Y18.107
X171.248 Y18.324
X171.43 Y18.607 F750
X171.66 Y19.24
X171.74 Y19.909
G2 X172.037 Y20.163 I0.296 J-0.046
G1 X172.316 Y19.971
X172.323 Y19.951
X172.79 Y18.636 F1200
G2 X171.241 Y15.887 I-2.091 J-0.633
G1 X165.226 Y14.269
G2 X163.326 Y15.122 I-0.462 J1.514
X163.185 Y15.887 I1.439 J0.66 F750
G1 X163.257 Y16.498
X163.289 Y16.683
X163.467 Y17.013
X164.037 Y17.5
G2 X169.608 Y18.447 I5.284 J-14.218
X170.208 Y18.424 I-0.288 J-15.165 F675
G1 X170.374 Y18.487
X170.53 Y18.551
X170.669 Y18.646
X170.903 Y18.888
X171.066 Y19.183 F750
X171.246 Y19.832
G2 X171.532 Y20.042 I0.286 J-0.09
G1 X171.809 Y19.858
X171.798 Y19.785
X171.529 Y18.025 F1200
X171.043 Y17.593
X164.822 Y15.276
G2 X163.447 Y15.75 I-0.382 J1.124
X163.257 Y16.498 I0.993 J0.649 F750
G1 X163.295 Y16.803
X163.321 Y16.971
X163.378 Y17.239
X163.511 Y17.438
X163.623 Y17.569
X163.761 Y17.671
X163.919 Y17.738
G2 X164.237 Y17.271 I0.076 J-0.29
G1 X164.209 Y17.232
X163.861 Y16.758 F1200
G2 X163.321 Y16.971 I-0.242 J0.177 F750
G1 X163.393 Y17.414
X163.41 Y17.465
X163.439 Y17.515
X163.491 Y17.577
G3 X165.839 Y18.403 I-8.135 J26.869
G2 X169.37 Y18.959 I3.678 J-11.852
X169.97 Y18.952 I0.147 J-12.408 F675
G1 X170.127 Y19.04 F750
X170.266 Y19.135
X170.725 Y19.628
X171.043 Y19.697
X171.205 Y19.553
X171.189 Y19.31
X171.185 Y19.247 F1200
X169.971 Y18.025
X167.063 Y16.572
G2 X165.282 Y17.872 I-0.776 J0.807
X165.839 Y18.404 I1.004 J-0.494 F750
G1 X167.836 Y19.195
X168.547 Y19.436
X169.22 Y19.411
X169.556 Y19.436
X170.174 Y19.702
G2 X170.517 Y19.235 I0.109 J-0.28
G1 X170.469 Y19.187 F1200
X170.411 Y19.151
X170.347 Y19.129
X168.02 Y18.627
X167.988 Y18.622
X167.955 Y18.62
X167.923 Y18.622
G2 X167.836 Y19.195 I0.033 J0.298 F750
G1 X168.456 Y19.44
G2 X168.857 Y19.158 I0.101 J-0.283
G1 X168.776 Y18.962
X164.604 Y8.861 F1200
G2 X162.674 Y7.334 I-2.315 J0.943
G1 X157.573 Y6.59
X127.265 Y3.689
X110.734 Y3.789
X108.897 Y4.149
X107.869 Y4.716
X106.754 Y5.618
X106.142 Y6.501
G2 X105.709 Y7.945 I2.067 J1.406
G1 X105.246 Y20.774
G2 X108.114 Y21.636 I1.581 J-0.059
X108.398 Y20.912 I-1.287 J-0.921 F750
G1 X108.425 Y20.606
X108.432 Y20.419
X107.916 Y19.551
X107.682 Y18.919
X107.563 Y17.577
G2 X108.347 Y11.564 I-21.291 J-5.833
G1 X108.33 Y8.87
X108.365 Y8.535
X108.445 Y8.208
X108.585 Y7.901
G3 X110.15 Y6.712 I2.181 J1.245
G1 X111.479 Y6.495
X112.415 Y6.533
X112.504 Y6.526
G3 X118.982 Y6.046 I8.446 J70.074
G1 X119.043 Y6.035
X119.099 Y6.013
X119.15 Y5.979
X119.193 Y5.936
X119.227 Y5.886
X119.25 Y5.829
X119.261 Y5.769
X119.259 Y5.709
X119.24 Y5.66 Z-1.975
X119.221 Y5.612 Z-1.961
X119.204 Y5.567 Z-1.938
X119.166 Y5.536 Z-1.9
X119.135 Y5.51 Z-1.854
X119.112 Y5.49 Z-1.8
X119.098 Y5.478 Z-1.742
X119.093 Y5.474 Z-1.68
G0 Z2
X107.961 Y21.58
Z-1.38
G1 Z-1.68 F750
X107.966 Y21.574 Z-1.747
X107.979 Y21.556 Z-1.81
X108 Y21.527 Z-1.867
X108.027 Y21.489 Z-1.914
X108.061 Y21.443 Z-1.95
X108.098 Y21.391 Z-1.972
X108.137 Y21.337 Z-1.98
G2 X108.425 Y20.606 I-1.282 J-0.928
G1 X108.453 Y20.301
X108.482 Y19.551
G3 X108.343 Y16.445 I3.63 J-1.72
G2 X108.823 Y8.814 I-31.56 J-5.816
G1 X108.921 Y8.482
X109.051 Y8.171
X109.24 Y7.893
X109.477 Y7.653
X109.75 Y7.456
X110.353 Y7.156
X110.797 Y7.096
X110.897 Y7.076
X110.993 Y7.042
X111.083 Y6.995
G3 X112.504 Y6.526 I1.543 J2.286
G1 X112.687 Y6.417
X112.728 Y6.112
X112.571 Y5.955
X112.532 Y5.94
X110.734 Y5.24 F1200
G2 X108.13 Y5.807 I-0.852 J2.35
G1 X107.529 Y6.417
G2 X106.779 Y7.945 I1.735 J1.8
G1 X105.319 Y19.858
G2 X108.169 Y21.025 I1.563 J0.246
X108.453 Y20.301 I-1.287 J-0.921 F750
G1 X108.547 Y19.247
X108.598 Y18.222
X108.57 Y17.549
G2 X109.329 Y9.56 I-25.358 J-6.438
X109.286 Y8.962 I-26.116 J1.551 F675
G1 X109.417 Y8.639
G3 X110.61 Y7.563 I2.34 J1.396 F750
G1 X110.719 Y7.431
X110.794 Y7.277
X110.804 Y7.257
X111.04 Y7.022
X111.083 Y6.995
X111.219 Y6.723
X111.04 Y6.469
X110.871 Y6.491
X110.734 Y6.508 F1200
X108.76 Y7.639
X108.412 Y8.25
X105.448 Y18.636
G2 X108.257 Y19.969 I1.531 J0.399
X108.475 Y19.553 I-1.278 J-0.933 F750
G1 X108.547 Y19.247
G3 X109.285 Y16.023 I12.419 J1.145
G2 X109.748 Y13.496 I-10.11 J-3.157
X109.182 Y13.371 I-0.3 J0.014
G1 X109.164 Y13.412 F1200
X109.153 Y13.456
X108.713 Y15.861
X108.709 Y15.894
Y15.927
X108.712 Y15.96
G2 X109.288 Y16.024 I0.297 J-0.045 F750
G3 X109.783 Y14.703 I8.708 J2.512
X109.765 Y12.527 I21.911 J-1.268
G2 X109.845 Y9.716 I-32.403 J-2.328
X109.831 Y9.116 I-32.483 J0.482 F675
G1 X109.957 Y8.798 F750
X110.488 Y8.094
X110.54 Y8.015
X110.581 Y7.931
X110.612 Y7.842
X110.618 Y7.807
X110.62 Y7.772
G2 X110.32 Y7.472 I-0.3 J0
G1 X110.113 Y7.601
X110.051 Y7.639 F1200
X108.897 Y8.708
X107.673 Y11.781
G2 X109.39 Y13.197 I0.984 J0.556
X109.672 Y12.832 I-0.733 J-0.86 F750
G1 X109.77 Y12.527
G3 X110.204 Y8.708 I83.618 J7.555
G1 X110.572 Y7.983
X110.668 Y7.639
X110.794 Y7.277
X110.622 Y6.723
X110.537 Y6.536
X109.923 Y5.196 F1200
G2 X108.591 Y4.018 I-2.214 J1.161
G1 X108.476 Y3.974
G2 X107.06 Y3.791 I-1.015 J2.285
G1 X105.224 Y4.145
X103.387 Y5.27
X103.081 Y5.586
G2 X102.496 Y7.028 I1.91 J1.613
G1 X101.883 Y20.774
G2 X106.841 Y21.385 I2.493 J0.193
G1 Z-2.184
Z-2.969 F750
X106.863 Y21.217
X106.879 Y21.03
X106.144 Y20.879
X105.471 Y20.849
X105.135 Y20.839
X104.974 Y20.789 F675
X104.679 Y20.627
X104.441 Y20.388 F750
X104.072 Y19.825
X103.913 Y19.17
X103.89 Y17.823
G2 X104.557 Y12.422 I-15.163 J-4.614
X104.463 Y8.049 I-34.958 J-1.434
G3 X106.378 Y5.898 I2.631 J0.415
G1 X107.704 Y5.656
X108.377 Y5.674
X109.715 Y5.517
X111.062 Y5.538
X112.409 Y5.53
X127.226 Y5.497
G3 X137.965 Y6.355 I-5.745 J139.641
G1 X143.333 Y6.822
X144.676 Y6.928
X146.021 Y7.003
X160.812 Y7.895
X162.157 Y7.972
X166.194 Y8.159
X179.65 Y8.791
X180.996 Y8.839
X189.074 Y9.093
X211.963 Y9.817
X214.28 Y10.25
X214.578 Y10.407 F675
X214.825 Y10.635
X215.02 Y10.91 F750
X215.308 Y11.519
X215.408 Y12.185
X215.367 Y13.531
G2 X215.346 Y16.49 I8.673 J1.539
G1 X215.705 Y17.149
X216.119 Y17.774
G2 X218.449 Y18.866 I4.91 J-7.449
G1 X218.985 Y19.275
X219.158 Y19.33
X219.412 Y19.19
Y18.877
Y18.804 F1200
X217.576 Y11.027
G2 X216.657 Y9.606 I-2.435 J0.566
G1 X215.739 Y8.879
G2 X214.208 Y8.294 I-1.61 J1.913
G1 X129.408 Y3.552
X106.142 Y3.858
G2 X104.918 Y4.274 I0.166 J2.495
G1 X103.387 Y5.27
X103.081 Y5.586
G2 X102.496 Y7.028 I1.91 J1.613
G1 X101.672 Y18.942
G2 X101.689 Y19.549 I2.489 J0.234
G1 X101.856 Y20.37
G2 X103.881 Y22.302 I2.442 J-0.533
G1 X104.918 Y22.488
G2 X106.549 Y21.928 I0.385 J-1.535
X106.863 Y21.217 I-1.246 J-0.976 F750
G1 X106.904 Y20.912
X106.92 Y20.725
X106.226 Y20.441
X105.891 Y20.399
X105.258 Y20.171
X104.951 Y20.033 F675
X104.83 Y19.915
X104.73 Y19.78
X104.46 Y19.162 F750
X104.372 Y17.818
G2 X105.057 Y11.094 I-19.333 J-5.369
G1 X105.065 Y9.745
X104.981 Y8.4
X105.148 Y7.748
X105.301 Y7.448
X105.731 Y6.93
X106.304 Y6.575
X106.941 Y6.356
G3 X111.875 Y6.044 I3.68 J18.99
G1 X112.265 Y6.013
X113.489 Y6.001
X123.286 Y6
X127.572 Y5.987
X127.74 Y6.004
G3 X134.453 Y6.523 I-5.645 J116.816
G1 X142.503 Y7.249
G2 X147.878 Y7.618 I13.106 J-151.484
G1 X161.324 Y8.426
X162.669 Y8.497
X164.015 Y8.555
X176.125 Y9.126
X178.816 Y9.252
X180.162 Y9.312
X211.129 Y10.29
X212.473 Y10.377
X213.459 Y10.6
X214.073 Y10.875
X214.354 Y11.061 F675
X214.469 Y11.185
X214.571 Y11.318
G3 X214.772 Y14.374 I-5.005 J1.865 F750
G2 X215.222 Y17.297 I5.259 J0.688
X217.499 Y19.007 I3.151 J-1.825
G1 X217.894 Y19.32
X218.4 Y19.873
X218.614 Y19.963
X218.842 Y19.858
X218.892 Y19.56
X218.893 Y19.553 F1200
X216.86 Y10.999
G2 X215.939 Y9.472 I-2.46 J0.443
G1 X215.739 Y9.286
G2 X214.82 Y8.675 I-1.81 J1.725
G1 X213.902 Y8.335
X212.677 Y8.068
X128.184 Y2.871
G2 X127.019 Y5.713 I-0.23 J1.566
X127.74 Y6.004 I0.935 J-1.277 F750
X134.919 Y6.793 I45.356 J-380.011
G1 X152.062 Y8.169
G3 X172.575 Y9.399 I-9.837 J335.725
G2 X181.991 Y9.868 I15.492 J-216.574
G1 X196.801 Y10.338
X211.611 Y10.806
X212.952 Y10.933
X213.572 Y11.196
X213.864 Y11.364 F675
X214.085 Y11.618
X214.212 Y11.93 F750
X214.366 Y12.585
X214.394 Y13.932
G2 X215.281 Y18.203 I4.951 J1.199
G1 X215.838 Y18.706
X216.476 Y19.099
X217.08 Y19.399
X217.654 Y19.751
X217.882 Y19.779
X218.095 Y19.553
X218.048 Y19.312
X216.473 Y11.305 F1200
X215.739 Y10.129
G2 X213.902 Y8.969 I-2.121 J1.324
G1 X172.88 Y6.263
G2 X171.854 Y9.115 I-0.083 J1.58
X172.574 Y9.41 I0.942 J-1.272 F750
G3 X177.472 Y10.065 I-6.658 J68.425
G2 X185.466 Y10.478 I8.347 J-84.011
G1 X212.393 Y11.333
X213.047 Y11.496
X213.346 Y11.652 F675
X213.575 Y11.898
X213.718 Y12.203 F750
X213.902 Y12.851
X213.887 Y14.198
G2 X215.951 Y19.413 I5.056 J1.015
G1 X216.563 Y19.701
X216.688 Y19.728
X216.961 Y19.553
X216.927 Y19.221
X216.24 Y12.527 F1200
X215.739 Y11.142
G2 X214.551 Y9.778 I-2.352 J0.848
G1 X213.29 Y9.155
X212.065 Y8.99
X177.778 Y6.945
G2 X176.777 Y9.71 I0.051 J1.582
G1 X176.858 Y9.778 F750
X177.472 Y10.069
G3 X178.888 Y10.446 I-1.229 J7.472
G1 X179.034 Y10.566
G2 X183.338 Y10.883 I3.355 J-16.131
X190.07 Y11.126 I17.001 J-377.95
G1 X211.612 Y11.806
X212.285 Y11.83
X212.613 Y11.907 F675
X212.766 Y11.978
X212.901 Y12.078
X213.129 Y12.326
X213.278 Y12.628 F750
X213.425 Y13.285
X213.362 Y14.631
G2 X215.651 Y19.807 I5.629 J0.605
G1 X215.83 Y19.845
X216.045 Y19.754
X216.13 Y19.553
X216.118 Y19.396
X215.616 Y12.527 F1200
X215.459 Y11.916
G2 X214.82 Y10.801 I-2.416 J0.643
G1 X214.514 Y10.451
G2 X212.984 Y9.68 I-1.822 J1.712
G1 X180.227 Y7.825
G2 X178.53 Y9.759 I-0.156 J1.575
X178.886 Y10.449 I1.541 J-0.359 F750
G1 X179.119 Y10.694
X179.39 Y10.953
X180.09 Y11.222
G2 X190.083 Y11.628 I15.904 J-268.499
G1 X200.854 Y11.966
X211.362 Y12.3
X211.962 Y12.319 F675
X212.128 Y12.347
X212.285 Y12.407
X212.427 Y12.497
X212.666 Y12.735
X212.809 Y13.04 F750
X212.932 Y13.702
G2 X214.867 Y19.867 I6.878 J1.228
G1 X215.127 Y19.971
X215.323 Y19.858
X215.321 Y19.581
X215.281 Y13.443 F1200
X215.054 Y12.527
G2 X214.423 Y11.305 I-2.451 J0.492
G1 X213.902 Y10.773
G2 X212.371 Y10.067 I-1.751 J1.785
G1 X180.533 Y8.079
G2 X178.762 Y10.003 I-0.23 J1.566
X179.119 Y10.694 I1.541 J-0.359 F750
G1 X179.169 Y10.751 F675
X179.154 Y10.847 F750
X179.136 Y11.033
X179.687 Y11.542
G2 X184.646 Y11.916 I3.936 J-19.144
G1 X185.993 Y11.99
X191.379 Y12.168
X210.975 Y12.787
X211.574 Y12.806 F675
X211.74 Y12.836
X211.896 Y12.901
X212.033 Y12.998
X212.144 Y13.125
X212.306 Y13.42 F750
X212.436 Y14.081
G2 X214.205 Y19.847 I7.125 J0.968
G1 X214.245 Y19.89
X214.292 Y19.923
X214.346 Y19.947
X214.404 Y19.959
X214.463 Y19.96
X214.522 Y19.949
X214.577 Y19.925
X214.627 Y19.891
X214.657 Y19.847 Z-2.964
X214.685 Y19.804 Z-2.95
X214.711 Y19.765 Z-2.927
X214.72 Y19.711 Z-2.885
X214.727 Y19.668 Z-2.832
X214.725 Y19.642 Z-2.781
X214.724 Y19.626 Z-2.726
Y19.62 Z-2.669
G0 Z2
X179.498 Y9.818
Z-2.369
G1 Z-2.669 F750
X179.495 Y9.825 Z-2.736
X179.486 Y9.846 Z-2.8
X179.472 Y9.879 Z-2.856
X179.454 Y9.922 Z-2.904
X179.431 Y9.975 Z-2.94
X179.407 Y10.033 Z-2.962
X179.381 Y10.095 Z-2.969
G2 X179.154 Y10.847 I3.358 J1.42
G1 X179.106 Y11.167
X179.087 Y11.354
X179.31 Y11.656
X179.94 Y12.063
G2 X184.108 Y12.389 I3.258 J-14.851
G1 X188.483 Y12.559
X192.858 Y12.716
X197.234 Y12.859
X201.61 Y12.989
X211.034 Y13.289
X211.203 Y13.297 F675
X211.365 Y13.342
X211.513 Y13.422
X211.64 Y13.532
X211.739 Y13.669
X211.871 Y13.979 F750
X211.95 Y15.323
G2 X213.684 Y20.008 I7.522 J-0.121
G1 X213.914 Y20.116
X214.211 Y19.858
X214.208 Y19.721
X214.079 Y13.749 F1200
G2 X213.514 Y12.221 I-2.499 J0.056
G1 X213.29 Y11.957
G2 X211.453 Y11.036 I-1.94 J1.577
G1 X181.758 Y9.133
G2 X179.368 Y10.43 I-0.194 J2.492
X179.106 Y11.167 I2.196 J1.195 F750
G1 X179.06 Y11.473
X179.041 Y11.659
X179.255 Y11.968
X179.799 Y12.484
G2 X184.874 Y12.872 I3.742 J-15.592
X200.354 Y13.432 I24.876 J-473.036
X205.739 Y13.623 I16.645 J-393.807
G1 X210.189 Y13.763
X210.788 Y13.781 F675
X210.947 Y13.838
X211.089 Y13.929
X211.207 Y14.048
X211.296 Y14.192
X211.404 Y14.511
G2 X212.958 Y19.891 I8.93 J0.335 F750
G1 X213.29 Y20.031
X213.478 Y19.858
X213.484 Y19.698
X213.686 Y14.665 F1200
G2 X213.274 Y13.138 I-2.496 J-0.145
G1 X213.072 Y12.832
G2 X210.841 Y11.531 I-2.194 J1.198
G1 X180.533 Y10.183
G2 X179.386 Y10.767 I0.083 J1.58
X179.06 Y11.473 I1.23 J0.996 F750
G1 X179.002 Y11.835
X178.981 Y12.022
X179.17 Y12.346
X179.416 Y12.629
X180.06 Y13.014
G2 X184.971 Y13.373 I3.654 J-16.201
X195.505 Y13.806 I17.46 J-296.657
G1 X199.097 Y13.912
X202.689 Y14.029
X206.281 Y14.156
X209.873 Y14.292
X210.472 Y14.316 F675
X210.615 Y14.405
X210.735 Y14.523
X210.825 Y14.665
X210.938 Y14.983 F750
G2 X212.336 Y19.815 I9.048 J0
G1 X212.368 Y19.866
X212.411 Y19.91
X212.463 Y19.944
X212.521 Y19.966
X212.584 Y19.976
X212.822 Y19.858
X212.838 Y19.657
X213.209 Y14.971 F1200
G2 X212.677 Y13.293 I-2.497 J-0.132
G1 X212.371 Y12.924
G2 X210.534 Y11.985 I-1.955 J1.558
G1 X180.533 Y10.564
G2 X179.338 Y11.134 I0.021 J1.582
X179.065 Y11.61 I1.216 J1.012 F750
G1 X179.002 Y11.835
X178.962 Y12.084
X178.941 Y12.27
X179.045 Y12.63
X179.523 Y13.209
G2 X183.472 Y13.875 I3.36 J-7.875
G1 X192.043 Y14.17
X200.615 Y14.453
X209.187 Y14.725
X209.786 Y14.743 F675
X209.952 Y14.777
X210.107 Y14.842
X210.244 Y14.94
X210.356 Y15.067
X210.436 Y15.214
X210.8 Y16.511 F750
X210.761 Y17.26
G2 X211.797 Y19.903 I10.498 J-2.591
G1 X212.065 Y20.062
X212.346 Y19.858
X212.363 Y19.732
X212.847 Y16.192 F1200
G2 X212.628 Y14.665 I-2.463 J-0.426
G1 X212.326 Y14.054
G2 X211.147 Y12.781 I-2.309 J0.957
G1 X210.228 Y12.488
X180.533 Y10.812
G2 X179.297 Y11.383 I-0.02 J1.582
X178.962 Y12.084 I1.216 J1.012 F750
G1 X178.889 Y12.527
X178.87 Y12.713
X179.001 Y13.065
X179.404 Y13.604
G2 X183.132 Y14.358 I3.289 J-6.674
G1 X187.215 Y14.511
X191.299 Y14.653
X195.383 Y14.784
X199.467 Y14.904
X200.814 Y14.88
G2 X208.868 Y15.219 I12.405 J-198.745
X209.468 Y15.231 I4.351 J-199.084 F675
G1 X209.628 Y15.298
X209.773 Y15.384
X209.895 Y15.499
X210.082 Y15.78 F750
X210.431 Y17.081
X210.446 Y17.831
X210.657 Y18.55
X210.911 Y19.174
X211.179 Y19.792
X211.453 Y19.963
X211.678 Y19.858
X211.746 Y19.655
X212.5 Y17.414 F1200
G2 X212.488 Y15.887 I-2.386 J-0.745
G1 X212.037 Y14.665
G2 X211.453 Y13.749 I-2.35 J0.854
G1 X210.841 Y13.301
X209.922 Y12.968
X180.533 Y11.258
G2 X179.224 Y11.825 I-0.093 J1.58
X178.889 Y12.527 I1.216 J1.012 F750
G1 X178.819 Y13
X178.801 Y13.187
X178.937 Y13.536
G2 X181.498 Y14.711 I2.458 J-1.98
X185.862 Y14.9 I3.35 J-26.753
X197.073 Y15.311 I15.584 J-271.91
G1 X198.2 Y15.385
X199.547 Y15.407
X200.894 Y15.378
G2 X208.448 Y15.693 I8.82 J-120.729
X209.048 Y15.698 I1.265 J-121.044 F675
G1 X209.205 Y15.775
X209.344 Y15.869
X209.574 Y16.116 F750
X209.839 Y16.735
G2 X210.635 Y19.803 I9.566 J-0.847
X210.909 Y19.981 I0.274 J-0.121
G1 X211.152 Y19.858
X211.199 Y19.698
X211.966 Y17.109 F1200
G2 X211.667 Y15.228 I-2.432 J-0.577
G1 X211.288 Y14.665
G2 X209.616 Y13.495 I-2.145 J1.285
G1 X208.392 Y13.32
X180.533 Y11.705
G2 X179.14 Y12.292 I-0.157 J1.575
X178.819 Y13 I1.236 J0.988 F750
G1 X178.775 Y13.306
X178.757 Y13.492
X178.851 Y13.856
X179.255 Y14.487
G2 X182.142 Y15.293 I3.115 J-5.587
X200.753 Y15.884 I29.38 J-631.312
X208.111 Y16.197 I22.637 J-445.455
X208.711 Y16.218 I15.279 J-445.768 F675
G1 X208.859 Y16.307
X208.986 Y16.417
X209.202 Y16.676 F750
X209.712 Y17.923
X209.748 Y18.672
X209.939 Y19.318
X210.15 Y19.957
X210.228 Y20.074
X210.534 Y20.135
X210.727 Y19.864
X210.731 Y19.858 F1200
X211.421 Y17.414
G2 X209.31 Y14.252 I-2.406 J-0.679
G1 X180.533 Y12.016
G2 X179.096 Y12.598 I-0.201 J1.57
X178.775 Y13.306 I1.236 J0.988 F750
G1 X178.716 Y13.749
X178.701 Y14.123
X178.837 Y14.473
X179.344 Y15.025
G2 X183.293 Y15.866 I3.934 J-8.779
G1 X184.64 Y15.905
X185.987 Y15.897
G2 X201.618 Y16.385 I18.675 J-347.267
G1 X202.362 Y16.47
G3 X207.736 Y16.686 I-4.901 J188.696
X208.335 Y16.72 I-10.275 J188.48 F675
G1 X208.48 Y16.821
X208.728 Y17.049 F750
X209.071 Y17.629
X209.441 Y18.924
X209.588 Y19.924
X209.884 Y20.17
X210.135 Y19.858
X210.228 Y19.742 F1200
X210.897 Y18.025
G2 X210.174 Y15.276 I-2.35 J-0.852
G1 X209.922 Y15.04
G2 X208.392 Y14.407 I-1.667 J1.863
G1 X180.533 Y12.442
G2 X179.026 Y13.036 I-0.255 J1.562
X178.716 Y13.749 I1.252 J0.968 F750
G1 X178.66 Y14.36
X178.651 Y14.586
X178.811 Y14.925
X179.304 Y15.49
G2 X183.164 Y16.354 I3.993 J-8.781
X189.893 Y16.569 I31.368 J-877.161
G1 X191.241 Y16.555
G2 X199.091 Y16.828 I7.188 J-93.774
G3 X207.348 Y17.179 I-26.446 J719.843
X207.948 Y17.208 I-34.703 J719.492 F675
G1 X208.234 Y17.402
G3 X208.975 Y19.245 I-2.39 J2.031 F750
G1 X209.083 Y19.91
G2 X209.377 Y20.152 I0.294 J-0.058
G1 X209.661 Y19.948
X209.67 Y19.926
X210.287 Y18.331 F1200
G2 X208.698 Y15.065 I-2.34 J-0.88
G1 X207.779 Y14.83
X179.921 Y13.325
G2 X179 Y13.668 I-0.083 J1.184
X178.66 Y14.36 I0.837 J0.841 F750
G1 X178.63 Y14.703
X178.642 Y14.818
X178.707 Y15.187
X178.882 Y15.519
X179.428 Y16.034
G2 X183.442 Y16.866 I4.145 J-9.889
G1 X184.788 Y16.913
X186.135 Y16.882
G2 X192.141 Y17.083 I5.181 J-64.926
X196.327 Y17.27 I3.798 J-38.052
G1 X197.674 Y17.312
X199.02 Y17.263
G2 X207.346 Y17.671 I18.596 J-294.674
G1 X207.512 Y17.704 F675
X207.667 Y17.769
X207.939 Y17.967
X208.141 Y18.237 F750
X208.404 Y18.857
X208.594 Y20.02
X208.698 Y20.193
X209.004 Y20.238
X209.11 Y20.163
X209.116 Y20.019
X209.192 Y18.025 F1200
X209.004 Y17.598
X208.392 Y16.998
X207.779 Y16.691
X204.718 Y16.317
X179.615 Y13.703
G2 X178.864 Y14.084 I0.047 J1.023
X178.642 Y14.818 I0.798 J0.642 F750
G1 X178.721 Y15.444
X178.786 Y15.813
X179.226 Y16.42
G2 X184.18 Y17.368 I4.407 J-9.622
G1 X185.529 Y17.405
X186.875 Y17.352
G2 X191.214 Y17.537 I2.969 J-18.648
X196.109 Y17.726 I4.101 J-42.816
G3 X206.631 Y18.155 I-7.258 J307.323
X207.23 Y18.19 I-17.78 J306.894 F675
G1 X207.373 Y18.311
G3 X208.084 Y19.964 I-1.799 J1.754 F750
G1 X208.245 Y20.163
X208.506
X208.635 Y19.928
X208.674 Y19.858 F1200
X208.306 Y17.72
X207.779 Y17.288
X206.555 Y17.054
X179.921 Y14.151
G2 X178.905 Y14.695 I-0.018 J1.187
X178.721 Y15.444 I0.998 J0.643 F750
G1 X178.78 Y15.887
X178.807 Y16.055
X178.884 Y16.422
X179.382 Y16.983
G2 X184.55 Y17.878 I4.547 J-10.891
G1 X185.898 Y17.9
X187.243 Y17.824
G2 X191.12 Y18.041 I2.756 J-14.495
X200.184 Y18.315 I10.215 J-188.314
G1 X201.53 Y18.411
X202.877 Y18.388
G2 X206.122 Y18.617 I3.481 J-26.177
X206.722 Y18.616 I0.237 J-26.407 F675
G1 X206.876 Y18.703
X207.015 Y18.798
X207.249 Y19.04
X207.393 Y19.344 F750
X207.59 Y19.988
G2 X207.874 Y20.19 I0.284 J-0.098
G1 X208.085 Y20.103
X208.147 Y19.929
X208.172 Y19.858 F1200
X207.73 Y18.025
X207.167 Y17.685
X206.555 Y17.523
X180.533 Y14.287
G2 X178.905 Y15.284 I-0.155 J1.575
X178.807 Y16.055 I1.473 J0.579 F750
G1 X178.877 Y16.498
X178.954 Y16.865
X179.168 Y17.173
G2 X181.594 Y18.143 I2.699 J-3.232
X187.011 Y18.339 I3.571 J-23.668
X193.138 Y18.608 I5.629 J-58.341
G1 X193.886 Y18.699
G3 X201.267 Y18.892 I-0.473 J160.123
X205.458 Y19.063 I-3.963 J148.4
X206.057 Y19.097 I-8.154 J148.229 F675
G1 X206.225 Y19.108
X206.387 Y19.153
X206.535 Y19.234
X207.04 Y19.679 F750
X207.23 Y19.748
X207.511 Y19.553
X207.467 Y19.316
X207.454 Y19.247 F1200
X205.33 Y18.014
X180.227 Y15.179
G2 X179.037 Y15.743 I-0.172 J1.174
X178.877 Y16.498 I1.018 J0.61 F750
G1 X178.974 Y17.109
X179.012 Y17.292
X179.214 Y17.608
X179.773 Y18.108
G2 X185.969 Y18.871 I4.861 J-13.945
G1 X187.316 Y18.823
G2 X192.392 Y19.076 I4.073 J-30.702
X199.604 Y19.253 I5.939 J-95.233
X203.535 Y19.425 I3.201 J-28.062
G1 X204.879 Y19.563
X205.553 Y19.579
X206.226 Y19.606
X206.398 Y19.553
X206.521 Y19.247
X206.325 Y19.053
X205.024 Y17.763 F1200
G2 X203.493 Y17.142 I-1.653 J1.876
G1 X180.533 Y15.334
G2 X179.071 Y16.338 I0.011 J1.583
X178.974 Y17.109 I1.473 J0.579 F750
G1 X179.048 Y17.582
X179.126 Y17.949
X179.616 Y18.516
G2 X185.79 Y19.373 I4.896 J-12.604
G3 X189.255 Y19.55 I0.801 J18.325
G1 X191.95 Y19.559
X193.293 Y19.663
X194.639 Y19.709
X195.985 Y19.766
X197.328 Y19.668
G2 X203.104 Y19.899 I5.406 J-62.775
G1 X203.17 Y19.889
X203.232 Y19.865
X203.287 Y19.828
X203.332 Y19.78
X203.367 Y19.723
X203.388 Y19.66
X203.395 Y19.595
X203.387 Y19.529
X203.366 Y19.467
X203.332 Y19.411
X203.286 Y19.364
X203.232 Y19.328
X203.177 Y19.306 F1200
X203.118 Y19.295
X179.623 Y17.268
X179.372 Y17.247 F750
G2 X179.048 Y17.582 I-0.026 J0.299
G1 X179.119 Y18.025
X179.126 Y18.193
X179.133 Y18.331
X179.139 Y18.36
X179.165 Y18.42
X179.2 Y18.475
X179.243 Y18.524
G2 X179.546 Y18.108 I0.151 J-0.208
X179.326 Y18.068 I-0.151 J0.208
X179.139 Y18.36 I0.07 J0.25
G1 X179.161 Y18.42
X179.178 Y18.45
X179.206 Y18.487
X179.243 Y18.524
G2 X184.917 Y20.469 I47.577 J-129.547
G1 X184.921 Y20.442
X184.932 Y20.376 Z-2.962
X184.942 Y20.314 Z-2.94
X184.952 Y20.257 Z-2.904
X184.959 Y20.211 Z-2.856
X184.965 Y20.175 Z-2.8
X184.969 Y20.153 Z-2.736
X184.97 Y20.146 Z-2.669
G0 Z2
X106.399 Y21.865
Z-2.369
G1 Z-2.669 F750
X106.403 Y21.859 Z-2.736
X106.417 Y21.841 Z-2.8
X106.439 Y21.813 Z-2.856
X106.469 Y21.776 Z-2.904
X106.504 Y21.731 Z-2.94
X106.543 Y21.682 Z-2.962
X106.585 Y21.629 Z-2.969
G2 X106.904 Y20.912 I-1.241 J-0.982
G1 X106.945 Y20.606
X106.961 Y20.42
X106.332 Y20.011
X105.692 Y19.8
X105.541 Y19.727 F675
X105.276 Y19.518
X105.085 Y19.241
X104.898 Y18.594 F750
X104.886 Y17.92
G2 X105.545 Y10.314 I-23.672 J-5.884
G1 X105.523 Y8.966
X105.506 Y8.629
X105.55 Y8.295
X105.642 Y7.972
X105.809 Y7.679
X106.023 Y7.419 F675
X106.285 Y7.207 F750
G3 X108.63 Y6.584 I2.403 J4.314
G1 X108.763 Y6.533
X108.886 Y6.463
X108.967 Y6.417
G3 X111.345 Y6.073 I1.943 J5.028
G1 X111.876 Y6.029
X112.154 Y5.73
X111.959 Y5.449
X111.924 Y5.443
X107.367 Y4.61 F1200
G2 X105.283 Y5.196 I-0.432 J2.462
G1 X104.253 Y6.112
G2 X103.341 Y7.945 I1.586 J1.933
G1 X102.584 Y18.331
G2 X103.175 Y20.163 I2.491 J0.209
G1 X104.196 Y21.385
G2 X106.631 Y21.317 I1.189 J-1.044
X106.945 Y20.606 I-1.246 J-0.976 F750
G1 X106.986 Y20.301
X107.002 Y20.114
X106.468 Y19.587
X106.161 Y19.45
X106.012 Y19.371
X105.875 Y19.273 F675
X105.647 Y19.026
X105.497 Y18.724
X105.432 Y18.394 F750
X105.416 Y17.72
G2 X106.006 Y9.308 I-25.409 J-6.009
G1 X106.007 Y8.632
X106.092 Y8.306 F675
X106.246 Y8.007 F750
G3 X108.07 Y7.127 I1.97 J1.756
G1 X108.227 Y7.035
X108.358 Y6.906
X108.449 Y6.792
X108.591 Y6.67
X108.886 Y6.463
X109.004 Y6.224
X108.897 Y5.994
X108.633 Y5.978
X106.448 Y5.852 F1200
G2 X103.803 Y8.25 I-0.148 J2.496
G1 X103.848 Y20.163
G2 X106.672 Y21.012 I1.577 J-0.128
X106.986 Y20.301 I-1.246 J-0.976 F750
G1 X107.027 Y19.995
X107.043 Y19.809
X106.649 Y19.171
X106.366 Y18.988
X106.25 Y18.865 F675
X106.065 Y18.584
X105.979 Y18.259 F750
X105.928 Y17.587
G2 X106.554 Y10.381 I-23.735 J-5.693
G1 X106.524 Y9.033
X106.549 Y8.698 F675
X106.677 Y8.386
X106.901 Y8.134 F750
X107.98 Y7.392
X108.076 Y7.313
X108.158 Y7.219
X108.224 Y7.113
X108.285 Y6.998
X108.358 Y6.906
X108.417 Y6.723
X108.285 Y6.479
X107.979 Y6.462
X107.971 Y6.466
X106.142 Y7.397 F1200
X105.73 Y7.945
X105.514 Y8.556
X103.894 Y19.553
G2 X106.713 Y20.706 I1.573 J0.178
X107.027 Y19.995 I-1.246 J-0.976 F750
G1 X107.06 Y19.747
X107.076 Y19.56
X107.007 Y19.192
X106.683 Y18.602
X106.552 Y18.291 F675
X106.485 Y17.961 F750
X106.51 Y16.614
G2 X107.039 Y13.34 I-9.384 J-3.198
X107.047 Y9.132 I-142.034 J-2.373
G1 X107.087 Y8.967 F675
X107.225 Y8.66 F750
X107.923 Y7.918
X108.03 Y7.772
X108.1 Y7.605
X108.127 Y7.427
X108.129 Y7.391
X108.18 Y7.2
X108.224 Y7.113
X108.252 Y6.987
X108.094 Y6.723
X107.809
X107.763 Y6.767
X106.236 Y8.25 F1200
X105.935 Y9.167
X103.935 Y19.247
G2 X106.746 Y20.458 I1.565 J0.235
X107.038 Y19.858 I-1.246 J-0.976 F750
G1 X107.06 Y19.747
X107.128 Y19.247
X107.19 Y18.5
G3 X107.293 Y15.464 I3.93 J-1.386
G2 X107.567 Y9.979 I-29.539 J-4.226
X107.536 Y9.38 I-29.813 J1.259 F675
G3 X108.109 Y8.385 I6.119 J2.862 F750
G1 X108.161 Y8.203
X108.165 Y8.014
X108.126 Y7.639
X108.127 Y7.427
X107.979 Y7.169
X107.673 Y7.171
X107.581 Y7.328
X106.515 Y9.167 F1200
X104.023 Y18.636
G2 X106.813 Y19.958 I1.544 J0.346
X107.06 Y19.507 I-1.245 J-0.976 F750
G1 X107.128 Y19.247
X107.169 Y18.942
X107.216 Y18.636
X107.323 Y18.025
G3 X107.992 Y13.889 I68.772 J8.997
G1 X108.03 Y13.105
X108.068 Y11.759
X108.049 Y9.738
G2 X108.231 Y8.821 I-2.592 J-0.991
X107.931 Y8.543 I-0.299 J0.021
G1 X107.662 Y8.712
X107.655 Y8.727
X106.754 Y10.728 F1200
X104.304 Y17.109
G2 X106.977 Y18.722 I1.472 J0.581
X107.224 Y18.331 I-1.2 J-1.032 F750
G1 X107.323 Y18.025
G2 X108.213 Y14.741 I-455.136 J-125.133
X108.172 Y8.014 I-58.7 J-3.007
G1 X107.975 Y7.775
X107.673 Y7.827
X107.587 Y7.978
X103.784 Y14.665 F1200
X100.843 Y19.858 Z-3.96
G2 X101.8 Y23.307 I2.16 J1.258
X105.224 Y22.265 I1.204 J-2.191
X105.47 Y21.523 I-2.22 J-1.149 F750
G1 X105.488 Y21.385
X105.506 Y21.156
X105.142 Y21.068
X104.825 Y20.955 F675
X104.552 Y20.757
X104.328 Y20.505 F750
X103.979 Y19.929
X103.823 Y19.274
X103.788 Y17.928
G2 X104.462 Y12.673 I-15.193 J-4.622
X104.383 Y7.965 I-42.051 J-1.65
G3 X106.02 Y5.947 I2.723 J0.536
G1 X107.315 Y5.576
X108.662 Y5.596
X110.009 Y5.579
X128.867 Y5.441
G3 X139.603 Y6.348 I-12.019 J206.263
G1 X144.968 Y6.838
X146.314 Y6.908
X174.557 Y8.507
X175.902 Y8.567
X177.249 Y8.601
X190.714 Y8.993
X196.1 Y9.15
X197.446 Y9.193
X210.908 Y9.688
G3 X213.968 Y10.11 I-0.195 J12.737
X214.544 Y10.277 I-3.255 J12.316 F675
G1 X214.796 Y10.515
X215.215 Y11.042 F750
X215.432 Y11.68
X215.552 Y13.021
G2 X215.636 Y16.882 I6.147 J1.797
G1 X216.056 Y17.51
X216.597 Y18.029
X217.335 Y18.349
X217.964 Y18.59
X218.595 Y18.825
X219.106 Y19.175 Z-3.717
X219.149 Y19.205 Z-3.688
X219.192 Y19.236 Z-3.658
G3 X219.953 Y20.163 Z-2.969 I-1.495 J2.004 F1200
X217.269 Y23.702 I-2.257 J1.076
G1 X189.469 Y20.059
X188.69 Y19.957 F750
X187.94
X186.599 Y20.079
X185.855 Y19.979
X185.183 Y20.012
X184.513 Y19.879
X184.463 Y19.868
X184.413 Y19.855
G3 X182.571 Y17.72 I0.642 J-2.416 F1200
G1 X181.324 Y10.389
G2 X180.528 Y8.861 I-2.479 J0.32
G1 X179.615 Y8.237
X177.778 Y7.769
X171.961 Y7.046
X128.184 Y4.044
X108.897 Y4.215
G2 X106.448 Y6.096 I-0.027 J2.5
G1 X103.23 Y17.72
X102.384 Y20.774 Z-3.96
G2 X105.176 Y22.097 I1.543 J0.352
X105.488 Y21.385 I-1.25 J-0.971 F750
G1 X105.528 Y21.08
X105.543 Y20.893
G3 X104.362 Y18.572 I1.737 J-2.345
G1 X104.431 Y17.227
G2 X104.963 Y10.408 I-22.389 J-5.175
G1 X104.944 Y9.06
X104.949 Y8.386
X105.127 Y7.737
X105.382 Y7.113
G3 X106.988 Y6.254 I1.905 J1.629
G1 X108.321 Y6.06
X108.636 Y6.066
X108.727 Y6.057
X108.897 Y6.03
X109.203 Y6.005
X109.816 Y6.001
X119.918
G3 X126.134 Y5.966 I4.579 J261.242
G1 X128.829 Y5.941
X130.175 Y5.976
X131.515 Y6.114
X135.54 Y6.479
X144.93 Y7.337
X146.275 Y7.407
X170.484 Y8.777
X174.518 Y9.005
X175.864 Y9.066
X178.557 Y9.141
X196.062 Y9.649
X197.408 Y9.692
X210.869 Y10.187
X212.215 Y10.253
X213.532 Y10.534
X214.114 Y10.873
X214.423 Y11.086 F675
X214.546 Y11.201
X214.64 Y11.341
X214.883 Y11.969 F750
X215.015 Y13.309
G2 X215.212 Y16.997 I5.999 J1.529
X217.284 Y18.829 I3.213 J-1.547
G1 X217.826 Y19.229
X218.249 Y19.848
X218.918 Y19.928
X219.137 Y19.858
X219.233 Y19.553
X219.173 Y19.325
X216.963 Y10.955 F1200
G2 X216.045 Y9.584 I-2.42 J0.628
G1 X215.127 Y8.868
G2 X213.596 Y8.223 I-1.681 J1.851
G1 X119.918 Y2.838
G2 X119.172 Y5.782 I0.058 J1.582
X119.918 Y6.001 I0.804 J-1.363 F750
G1 X123.592 Y5.999
X127.572 Y5.987
G2 X134.919 Y6.793 I49.669 J-419.286
G1 X152.062 Y8.169
X153.593 Y8.235
X172.267 Y8.937
G3 X186.656 Y9.813 I-12.293 J320.853
G2 X197.29 Y10.188 I19.72 J-407.308
G1 X210.751 Y10.683
G3 X213.457 Y11.112 I0.486 J5.695
X213.997 Y11.373 I-2.22 J5.267 F675
X214.403 Y14.715 I-3.97 J2.177 F750
G2 X216.02 Y18.704 I4.282 J0.587
G1 X216.591 Y19.189
X216.916 Y19.278
X217.51 Y19.595
X217.838 Y19.553
X217.932 Y19.247
X217.908 Y19.114
X216.537 Y11.305 F1200
X216.351 Y10.866
G2 X215.539 Y9.778 I-2.335 J0.894
G1 X215.2 Y9.472
G2 X214.208 Y8.942 I-1.645 J1.883
G1 X212.677 Y8.515
X186.962 Y6.667
G2 X185.932 Y9.532 I-0.107 J1.579
X186.457 Y9.778 I0.923 J-1.286 F750
G1 X186.656 Y9.816
G3 X191.86 Y10.396 I-8.754 J102.17
G2 X200.007 Y10.79 I10.724 J-137.48
G1 X210.776 Y11.185
X212.121 Y11.248
X212.779 Y11.395
X213.098 Y11.503
X213.251 Y11.573
X213.391 Y11.667 F675
X213.636 Y11.897
X213.792 Y12.196 F750
X214.004 Y12.835
X214.042 Y14.182
G2 X216.709 Y19.783 I4.958 J1.075
G1 X216.76 Y19.81
X216.816 Y19.825
X216.873 Y19.829
X216.931 Y19.821
X216.987 Y19.802
X217.038 Y19.771
X217.082 Y19.731
X217.118 Y19.682
X217.13 Y19.634 Z-3.955
X217.141 Y19.587 Z-3.943
X217.152 Y19.543 Z-3.923
X217.14 Y19.497 Z-3.89
X217.13 Y19.458 Z-3.848
X217.122 Y19.427 Z-3.8
X217.117 Y19.406 Z-3.746
X217.114 Y19.395 Z-3.69
X217.113 Y19.394 Z-3.66
G0 Z2
X190.919 Y9.87
Z-3.36
G1 Z-3.66 F750
X190.925 Y9.875 Z-3.726
X190.942 Y9.889 Z-3.79
X190.97 Y9.912 Z-3.847
X191.006 Y9.942 Z-3.894
X191.05 Y9.978 Z-3.93
X191.099 Y10.019 Z-3.952
X191.15 Y10.061 Z-3.96
G2 X191.86 Y10.397 I1.011 J-1.218
G1 X192.779 Y10.542
X193.697 Y10.712
X194.771 Y10.932
G2 X199.54 Y11.273 I4.506 J-29.508
G1 X210.309 Y11.668
X211.655 Y11.72
X212.325 Y11.792
X212.648 Y11.887 F675
X212.8 Y11.96 F750
X212.94 Y12.053 F675
X213.184 Y12.285
X213.349 Y12.579 F750
X213.546 Y13.223
X213.507 Y14.569
G2 X215.748 Y19.76 I5.563 J0.678
G1 X215.795 Y19.794
X215.849 Y19.818
X215.906 Y19.83
X215.965 Y19.831
X216.023 Y19.82
X216.078 Y19.797
X216.128 Y19.763
X216.17 Y19.72
X216.19 Y19.671 Z-3.955
X216.21 Y19.623 Z-3.94
X216.227 Y19.579 Z-3.917
X216.23 Y19.541 Z-3.89
X216.222 Y19.496 Z-3.843
X216.216 Y19.463 Z-3.787
X216.212 Y19.442 Z-3.725
X216.211 Y19.435 Z-3.66
G0 Z2
X194.028 Y10.149
Z-3.36
G1 Z-3.66 F750
X194.033 Y10.156 Z-3.726
X194.045 Y10.174 Z-3.79
X194.064 Y10.204 Z-3.847
X194.09 Y10.244 Z-3.894
X194.121 Y10.292 Z-3.93
X194.156 Y10.345 Z-3.952
X194.192 Y10.401 Z-3.96
G2 X194.771 Y10.932 I1.326 J-0.864
G1 X194.802 Y10.952
X195.09 Y11.174
X195.398 Y11.387
G2 X199.56 Y11.752 I3.413 J-15.032
X204.945 Y11.969 I14.208 J-285.143
G1 X211.676 Y12.221
X212.011 Y12.259 F675
X212.337 Y12.341
X212.48 Y12.431
X212.729 Y12.657
X212.893 Y12.951 F750
X213.07 Y13.601 F675
G2 X213.75 Y18.183 I7.072 J1.291 F750
G1 X214.125 Y18.743
X214.563 Y19.352
X215.036 Y19.831
X215.242 Y19.912
X215.433 Y19.844
X215.536 Y19.553
X215.535 Y19.5
X215.401 Y13.443 F1200
X214.809 Y11.61
X214.208 Y10.874
X213.29 Y10.265
X212.371 Y10.049
X196.146 Y8.372
G2 X194.631 Y10.546 I-0.047 J1.582
X195.09 Y11.174 I1.468 J-0.592 F750
G1 X195.228 Y11.28 F675
X195.223 Y11.305 F750
X195.188 Y11.512
X195.802 Y11.944
G2 X201.553 Y12.326 I5.225 J-35.112
G3 X211.214 Y12.721 I-21.166 J636.284
X211.813 Y12.75 I-30.827 J635.889 F675
G1 X211.969 Y12.824
X212.106 Y12.922
X212.331 Y13.172
X212.471 Y13.479
X212.642 Y14.815 F750
G2 X213.923 Y19.305 I6.053 J0.702
G1 X214.323 Y19.847
G2 X214.755 Y19.886 I0.235 J-0.187
G1 X214.785 Y19.842 Z-3.955
X214.814 Y19.8 Z-3.94
X214.841 Y19.76 Z-3.917
X214.847 Y19.721 Z-3.889
X214.853 Y19.688 Z-3.855
X214.858 Y19.66 Z-3.817
X214.856 Y19.636 Z-3.767
X214.855 Y19.621 Z-3.714
Y19.616 Z-3.66
G0 Z2
X195.637 Y10.303
Z-3.36
G1 Z-3.66 F750
X195.634 Y10.31 Z-3.726
X195.624 Y10.329 Z-3.79
X195.608 Y10.361 Z-3.847
X195.586 Y10.404 Z-3.894
X195.56 Y10.454 Z-3.93
X195.532 Y10.511 Z-3.952
X195.501 Y10.57 Z-3.96
G2 X195.223 Y11.305 I3.251 J1.65
G1 X195.156 Y11.61
X195.152 Y11.649
X195.163 Y11.836
X195.427 Y12.102
X196.092 Y12.449
G2 X203.064 Y12.863 I6.193 J-45.328
G3 X210.87 Y13.212 I-10.638 J326.056
X211.469 Y13.246 I-18.444 J325.707 F675
G1 X211.613 Y13.345
X211.736 Y13.46
X211.925 Y13.739 F750
X212.1 Y14.39
X212.196 Y16.484
G2 X213.672 Y19.81 I7.984 J-1.552
G1 X213.91 Y19.928
X214.102 Y19.858
X214.156 Y19.547
X214.209 Y19.247 F1200
X214.343 Y14.054
X214.102 Y13.138
X213.902 Y12.651
G2 X212.984 Y11.515 I-2.318 J0.936
G1 X212.642 Y11.305
G2 X211.453 Y10.87 I-1.425 J2.054
G1 X197.371 Y10.325
G2 X195.956 Y10.694 I-0.104 J2.498
G1 X195.458 Y10.988
X195.444 Y11.003
G2 X195.153 Y11.712 I0.733 J0.715 F750
G1 X195.159 Y11.916
X195.174 Y12.103
X195.4 Y12.402
X195.985 Y12.871
G2 X201.233 Y13.288 I4.288 J-20.738
G1 X205.809 Y13.501
X210.385 Y13.699
X210.985 Y13.724 F675
X211.136 Y13.798
X211.267 Y13.904
X211.37 Y14.037
X211.513 Y14.342 F750
X211.779 Y15.662
G2 X212.669 Y19.16 I5.984 J0.339
G1 X212.996 Y19.748
G2 X213.42 Y19.843 I0.257 J-0.155
G1 X213.455 Y19.803 Z-3.955
X213.489 Y19.765 Z-3.94
X213.521 Y19.729 Z-3.917
X213.532 Y19.681 Z-3.88
X213.542 Y19.641 Z-3.832
X213.549 Y19.611 Z-3.778
X213.553 Y19.594 Z-3.718
Y19.588 Z-3.66
G0 Z2
X195.504 Y10.894
Z-3.36
G1 Z-3.66 F750
X195.5 Y10.9 Z-3.726
X195.489 Y10.92 Z-3.79
X195.472 Y10.951 Z-3.847
X195.449 Y10.993 Z-3.894
X195.421 Y11.042 Z-3.93
X195.391 Y11.098 Z-3.952
X195.358 Y11.156 Z-3.96
G2 X195.159 Y11.916 I1.383 J0.769
G1 X195.168 Y12.221
X195.183 Y12.408
X195.36 Y12.739
X195.612 Y13.017
X196.265 Y13.385
G2 X202.139 Y13.815 I4.829 J-25.608
G3 X210.104 Y14.201 I-4.266 J170.828
X210.703 Y14.245 I-12.232 J170.443 F675
G1 X210.833 Y14.392
X210.94 Y14.521
X211.09 Y14.823 F750
X211.379 Y16.139
G2 X212.023 Y18.947 I5.022 J0.326
G1 X212.165 Y19.253
X212.477 Y19.85
G2 X212.898 Y19.956 I0.261 J-0.148
G1 X212.934 Y19.917 Z-3.955
X212.969 Y19.88 Z-3.94
X213.001 Y19.845 Z-3.917
X213.014 Y19.797 Z-3.88
X213.024 Y19.758 Z-3.834
X213.031 Y19.729 Z-3.78
X213.036 Y19.711 Z-3.721
X213.038 Y19.705 Z-3.66
G0 Z2
X195.513 Y11.199
Z-3.36
G1 Z-3.66 F750
X195.509 Y11.206 Z-3.726
X195.498 Y11.225 Z-3.79
X195.481 Y11.257 Z-3.847
X195.458 Y11.298 Z-3.894
X195.43 Y11.348 Z-3.93
X195.4 Y11.403 Z-3.952
X195.367 Y11.462 Z-3.96
G2 X195.168 Y12.221 I1.383 J0.769
G1 X195.177 Y12.527
X195.188 Y12.695
X195.209 Y12.881
X195.403 Y13.202
X195.951 Y13.715
G2 X200.786 Y14.28 I3.989 J-13.154
X205.6 Y14.412 I7.117 J-171.387
G1 X209.506 Y14.639
X210.105 Y14.674 F675
X210.256 Y14.749
X210.388 Y14.854
X210.493 Y14.985
X210.784 Y15.593 F750
X210.985 Y16.925
G2 X211.656 Y19.323 I6.196 J-0.443
G1 X211.95 Y19.929
X212.215 Y20.089
X212.371 Y20.045
X212.507 Y19.858
X212.521 Y19.777
X213.116 Y16.192 F1200
G2 X212.944 Y14.971 I-2.485 J-0.272
G1 X212.371 Y13.764
G2 X210.534 Y12.436 I-2.224 J1.143
G1 X197.064 Y11.093
G2 X195.356 Y11.936 I-0.295 J1.555
X195.188 Y12.695 I1.413 J0.712 F750
G1 X195.197 Y12.832
X195.228 Y13.119
X195.287 Y13.489
X195.51 Y13.79
X196.117 Y14.231
G2 X200.896 Y14.786 I4.047 J-13.996
X206.028 Y14.903 I5.628 J-134.454
X209.027 Y15.112 I3.162 J-23.744
X209.627 Y15.109 I0.163 J-23.953 F675
G1 X209.782 Y15.191
X209.918 Y15.29
X210.141 Y15.543 F750
X210.393 Y16.167
G2 X211.329 Y19.799 I9.518 J-0.516
G1 X211.597 Y19.979
X211.838 Y19.858
X211.886 Y19.674
X212.633 Y16.803 F1200
G2 X212.677 Y15.887 I-2.432 J-0.578
G1 X212.389 Y14.971
G2 X211.759 Y13.891 I-2.405 J0.681
G1 X211.453 Y13.57
G2 X209.922 Y12.857 I-1.759 J1.777
G1 X197.064 Y11.442
G2 X195.363 Y12.353 I-0.258 J1.561
X195.228 Y13.119 I1.443 J0.65 F750
G1 X195.281 Y13.611
X195.31 Y13.796
X195.493 Y14.124
X196.016 Y14.661
G2 X201.801 Y15.278 I4.553 J-15.274
X206.591 Y15.377 I3.53 J-55.078
G1 X207.328 Y15.5
X207.999 Y15.555
X208.672 Y15.596
X209.008 Y15.594
X209.176 Y15.612 F675
X209.335 Y15.666
X209.478 Y15.755
X209.598 Y15.873
X209.785 Y16.153 F750
X210.18 Y17.441
G2 X210.789 Y19.824 I7.973 J-0.77
X211.066 Y20.008 I0.277 J-0.115
G1 X211.399 Y19.747
X211.404 Y19.739
X212.065 Y18.737 F1200
G2 X212.347 Y16.498 I-2.072 J-1.398
G1 X211.741 Y14.971
X211.147 Y14.174
X210.841 Y13.893
G2 X209.31 Y13.288 I-1.634 J1.892
G1 X196.452 Y12.338
G2 X195.478 Y12.866 I0.012 J1.187
X195.281 Y13.611 I0.987 J0.659 F750
G1 X195.329 Y14.054
X195.388 Y14.424
X195.598 Y14.735
X196.199 Y15.183
G2 X202.14 Y15.771 I4.571 J-15.882
X207.174 Y15.834 I2.968 J-35.621
G1 X207.902 Y16.001
X208.811 Y16.137 F675
X208.968 Y16.196
X209.109 Y16.289
X209.225 Y16.411
X209.568 Y16.99 F750
G2 X210.318 Y20.002 I15.757 J-2.321
G1 X210.534 Y20.189
X210.841 Y20.073
X210.919 Y19.92
X211.735 Y18.331 F1200
G2 X211.568 Y15.887 I-2.258 J-1.073
G1 X210.981 Y14.971
G2 X209.31 Y13.954 I-2.031 J1.457
G1 X197.064 Y12.364
G2 X195.464 Y13.289 I-0.157 J1.575
X195.329 Y14.054 I1.443 J0.65 F750
G1 X195.395 Y14.665
X195.415 Y14.851
X195.632 Y15.158
X196.204 Y15.642
G2 X201.778 Y16.279 I4.496 J-14.638
X207.141 Y16.346 I3.49 J-64.093
G1 X207.869 Y16.49
X208.458 Y16.607 F675
X208.744 Y16.784
G3 X209.582 Y19.397 I-3.044 J2.417 F750
G1 X209.798 Y20.045
X209.922 Y20.205
X210.228 Y20.214
X210.311 Y19.95
X210.436 Y19.553 F1200
X210.907 Y17.414
G2 X209.004 Y14.392 I-2.432 J-0.579
G1 X207.473 Y14.08
X197.064 Y13.126
G2 X195.607 Y13.913 I-0.088 J1.58
G1 X195.535 Y14.054 F750
X195.395 Y14.665
X195.398 Y14.971
X195.405 Y15.158
X195.576 Y15.492
X196.066 Y16.059
G2 X201.322 Y16.781 I4.472 J-13.068
X207.05 Y16.84 I3.698 J-80.726
G1 X207.716 Y16.952 F675
X208.044 Y17.027
G3 X209.13 Y19.372 I-1.614 J2.171 F750
G1 X209.263 Y20.032
G2 X209.554 Y20.263 I0.292 J-0.069
G1 X209.778 Y20.163
X209.836 Y20.036
X210.48 Y18.636 F1200
G2 X209.911 Y15.581 I-2.21 J-1.169
G1 X209.531 Y15.276
G2 X208.085 Y14.684 I-1.622 J1.902
G1 X197.064 Y13.463
G2 X195.623 Y14.227 I-0.086 J1.58
X195.398 Y14.971 I1.355 J0.817 F750
G1 X195.392 Y15.444
X195.399 Y15.631
X195.554 Y15.973
X196.058 Y16.529
G2 X201.459 Y17.284 I4.618 J-13.341
G3 X206.885 Y17.387 I-2.616 J280.192
X207.485 Y17.405 I-8.041 J280.089 F675
G1 X207.642 Y17.487
X207.933 Y17.657 F750
G3 X208.713 Y19.982 I-2.337 J2.077
G1 X208.838 Y20.163
X209.03 Y20.233
X209.222 Y20.163
X209.274 Y20.002
X209.321 Y19.858 F1200
X209.405 Y18.025
X209.004 Y17.244
X208.392 Y16.709
X207.473 Y16.326
X197.371 Y13.985
G2 X195.618 Y14.7 I-0.398 J1.532
X195.392 Y15.444 I1.355 J0.817 F750
G1 X195.381 Y15.887
X195.382 Y16.074
X195.532 Y16.418
X196.016 Y16.991
G2 X201.267 Y17.782 I4.643 J-12.995
G3 X206.615 Y17.884 I-0.505 J166.647
X207.214 Y17.906 I-5.853 J166.545 F675
G1 X207.366 Y17.999
X207.644 Y18.189 F750
G3 X208.239 Y20.079 I-2.003 J1.669
G1 X208.392 Y20.3
X208.698 Y20.29
X208.808 Y20.163
Y20.121
X208.806 Y18.025 F1200
X208.348 Y17.414
X207.779 Y16.987
X197.371 Y14.484
G2 X195.631 Y15.151 I-0.412 J1.528
X195.381 Y15.887 I1.328 J0.862 F750
G1 X195.36 Y16.36
X195.361 Y16.6
X195.524 Y16.938
X196.051 Y17.472
G2 X201.142 Y18.278 I4.6 J-12.578
G3 X206.262 Y18.385 I-0.195 J131.382
X206.862 Y18.411 I-5.315 J131.275 F675
G1 X207.015 Y18.499
X207.152 Y18.596
X207.39 Y18.835
X207.538 Y19.137 F750
X207.585 Y19.299
X207.738 Y19.955
G2 X208.12 Y20.162 I0.29 J-0.078
G1 X208.165 Y20.133 Z-3.955
X208.208 Y20.106 Z-3.94
X208.248 Y20.08 Z-3.917
X208.272 Y20.037 Z-3.88
X208.291 Y20.001 Z-3.834
X208.306 Y19.975 Z-3.78
X208.315 Y19.959 Z-3.721
X208.318 Y19.953 Z-3.66
G0 Z2
X195.779 Y15.367
Z-3.36
G1 Z-3.66 F750
X195.775 Y15.373 Z-3.726
X195.763 Y15.391 Z-3.79
X195.743 Y15.421 Z-3.847
X195.717 Y15.461 Z-3.894
X195.686 Y15.509 Z-3.93
X195.651 Y15.562 Z-3.952
X195.615 Y15.617 Z-3.96
G2 X195.36 Y16.36 I1.323 J0.868
G1 X195.344 Y16.727
X195.353 Y16.803
X195.396 Y16.971
X195.508 Y17.329
X195.738 Y17.625
X196.349 Y18.06
G2 X201.812 Y18.783 I4.69 J-14.431
G3 X205.921 Y18.88 I0.688 J58.026
X206.52 Y18.919 I-3.421 J57.929 F675
G1 X206.667 Y19.02
X206.794 Y19.13
X207.206 Y19.663 F750
G2 X207.639 Y19.692 I0.231 J-0.192
G1 X207.668 Y19.648 Z-3.955
X207.695 Y19.605 Z-3.94
X207.721 Y19.565 Z-3.917
X207.73 Y19.513 Z-3.877
X207.736 Y19.471 Z-3.827
X207.734 Y19.443 Z-3.775
X207.733 Y19.426 Z-3.718
X207.732 Y19.42 Z-3.66
G0 Z2
X195.508 Y15.898
Z-3.36
G1 Z-3.66 F750
X195.506 Y15.906 Z-3.726
X195.499 Y15.927 Z-3.79
X195.489 Y15.961 Z-3.847
X195.476 Y16.007 Z-3.894
X195.46 Y16.061 Z-3.93
X195.442 Y16.122 Z-3.952
X195.423 Y16.186 Z-3.96
G2 X195.396 Y16.971 I1.519 J0.445
G1 X195.534 Y17.506
X195.617 Y17.772
X195.835 Y18.077
X196.42 Y18.546
G2 X201.183 Y19.298 I4.404 J-12.43
G3 X206.557 Y19.495 I1.527 J31.669
G1 X206.861 Y19.386
Y19.07
X206.74 Y19.015
X205.636 Y18.516 F1200
X202.269 Y17.54
X197.064 Y16.124
G2 X195.622 Y16.74 I-0.371 J1.127
X195.534 Y17.506 I1.071 J0.511 F750
G1 X195.649 Y17.949
X195.665 Y17.987
X195.688 Y18.025
X195.761 Y18.102
X196.622 Y18.942
X196.69 Y19.003
G2 X201.35 Y20.524 I20.803 J-55.817
G1 X201.348 Y20.511 Z-3.956
X201.346 Y20.501 Z-3.946
X201.345 Y20.498 Z-3.932
G0 Z2
X207.094 Y19.553
Z-3.36
G1 Z-3.66 F750
X207.101 Y19.551 Z-3.726
X207.123 Y19.546 Z-3.79
X207.158 Y19.539 Z-3.847
X207.204 Y19.529 Z-3.894
X207.26 Y19.517 Z-3.93
X207.322 Y19.504 Z-3.952
X207.387 Y19.49 Z-3.96
G3 X208.168 Y19.409 I0.76 J3.541
G1 X206.208 Y19.902
X205.549 Y20.039
X204.457 Y19.99
X203.112 Y20.05
X201.768 Y19.96
X201.094 Y19.956
X200.432 Y19.786
X200.383 Y19.772
X200.334 Y19.757
G3 X198.633 Y17.72 I0.776 J-2.377 F1200
G1 X197.269 Y10.694
G2 X195.228 Y8.756 I-2.443 J0.53
G1 X191.248 Y8.006
X184.819 Y7.366
X126.959 Y3.688
X107.673 Y3.812
X106.142 Y4.113
X104.918 Y4.628
G2 X103.693 Y5.678 I0.928 J2.321
G1 X102.946 Y7.028
X102.806 Y7.945
X102.385 Y20.774
G2 X105.216 Y21.792 I1.582 J0.046
X105.445 Y21.385 I-1.249 J-0.972 F750
G1 X105.528 Y21.08
X105.568 Y20.774
X105.582 Y20.587
X105.008 Y19.369
G3 X105.247 Y15.908 I6.153 J-1.314
G2 X105.432 Y8.463 I-47.692 J-4.913
G1 X105.625 Y7.812
X105.774 Y7.51 F675
X106.011 Y7.271 F750
G3 X107.018 Y6.746 I3.136 J4.785
G1 X107.091 Y6.699
G3 X108.727 Y6.057 I1.984 J2.652
G1 X108.897 Y5.958
X108.969 Y5.763
X108.816 Y5.501
X108.74 Y5.486
X106.448 Y5.04 F1200
G2 X103.693 Y6.615 I-0.419 J2.465
G1 X103.195 Y7.945
X102.424 Y20.469
G2 X105.256 Y21.487 I1.582 J0.046
X105.53 Y20.944 I-1.249 J-0.971 F750
G1 X105.568 Y20.774
X105.629 Y20.301
X105.689 Y19.553
X105.546 Y19.248
X105.351 Y18.604
X105.402 Y17.258
G2 X105.925 Y9.223 I-25.817 J-5.717
G1 X105.947 Y8.547
G3 X106.605 Y7.436 I2.722 J0.862
G1 X106.663 Y7.292
X106.688 Y7.208
X106.794 Y7.009
X106.905 Y6.876
X107.06 Y6.721
X107.091 Y6.699
X107.203 Y6.417
X107.06 Y6.205
X106.833 Y6.204
X106.754 F1200
X105.224 Y7.452
X104.937 Y8.25
X102.496 Y19.858
G2 X105.317 Y21.013 I1.572 J0.184
X105.629 Y20.301 I-1.249 J-0.971 F750
G1 X105.767 Y19.247
X105.874 Y17.904
X105.935 Y16.559
G2 X106.467 Y11.789 I-13.302 J-3.897
G1 X106.484 Y10.441
X106.45 Y9.094
G3 X106.665 Y8.095 I9.676 J1.555
G1 X106.662 Y7.961
X106.627 Y7.639
X106.632 Y7.41
X106.663 Y7.292
G2 X106.155 Y7.014 I-0.291 J-0.071
G1 X106.142 Y7.028 F1200
X105.221 Y9.778
X102.662 Y18.636
G2 X105.454 Y19.96 I1.543 J0.352
X105.684 Y19.553 I-1.249 J-0.972 F750
G1 X105.767 Y19.247
G3 X106.434 Y16.498 I10.692 J1.139
G2 X106.853 Y14.39 I-8.16 J-2.72
X106.293 Y14.241 I-0.3 J0.001
G1 X106.273 Y14.285 F1200
X106.259 Y14.331
X105.86 Y16.331
X105.854 Y16.384
X105.857 Y16.436
G2 X106.434 Y16.498 I0.296 J-0.046 F750
X106.844 Y14.665 I-4.485 J-1.967
X106.664 Y7.96 I-30.876 J-2.526
G1 X106.349 Y7.24
X105.727 Y5.807 F1200
X105.503 Y5.501
X104.618 Y4.89
X103.999 Y4.469 Z-4.946
G2 X100.801 Y4.89 I-1.35 J2.104
G1 X100.035 Y5.807
G2 X99.451 Y7.334 I1.914 J1.608
G1 X99.112 Y21.08
G2 X103.873 Y22.274 I2.496 J0.136
X104.089 Y21.523 I-2.265 J-1.058 F750
G1 X104.116 Y21.217
X104.123 Y21.03
X103.379 Y20.938
X102.706 Y20.917
X102.372 Y20.876 F675
X102.061 Y20.745
X101.799 Y20.534 F750
X101.37 Y20.015
X101.137 Y19.383
X100.956 Y18.048
G2 X101.428 Y7.971 I-53.849 J-7.57
G1 X101.595 Y7.319
X101.768 Y7.03
X102.215 Y6.526
X102.796 Y6.185
X104.07 Y5.747
G3 X109.415 Y5.08 I52.509 J399.085
G1 X110.763 Y5.083
X112.11 Y5.05
X128.271 Y4.734
G3 X134.992 Y5.158 I-5.592 J141.917
G1 X145.743 Y5.895
X147.088 Y5.973
X148.434 Y6.019
X159.203 Y6.441
X180.701 Y7.974
X184.739 Y8.136
X186.085 Y8.189
X213.005 Y9.254
X214.352 Y9.285
X215.699 Y9.289
X237.251 Y9.441
X256.11 Y9.573
X256.849 Y9.676
X257.444 Y9.759 F675
X257.748 Y9.903
X258.003 Y10.124
X258.204 Y10.394 F750
X258.501 Y10.998
G3 X258.245 Y14.396 I-7.632 J1.134
G2 X258.756 Y16.961 I5.935 J0.151
G1 X259.234 Y17.539
X259.964 Y17.948
X261.055 Y18.496
X261.67 Y18.771
X262.235 Y19.264
X262.424 Y19.332
X262.633 Y19.247
X262.71 Y18.942
X262.7 Y18.898
X260.726 Y10.389 F1200
X260.46 Y9.778
G2 X259.278 Y8.556 I-2.281 J1.023
G1 X258.598 Y8.199
G2 X257.373 Y7.84 I-1.292 J2.14
G1 X126.653 Y2.828
X110.122 Y3.183
X102.468 Y4.08
G2 X100.801 Y4.89 I0.181 J2.493
G1 X100.035 Y5.807
G2 X99.451 Y7.334 I1.914 J1.608
G1 X98.955 Y19.553
G2 X99.407 Y21.08 I2.498 J0.092
X100.018 Y21.691 I2.047 J-1.436
G1 X101.244 Y22.227
X102.162 Y22.559
G2 X103.834 Y21.942 I0.383 J-1.535
X104.116 Y21.217 I-1.289 J-0.919 F750
G1 X104.144 Y20.912
X104.153 Y20.725
X103.439 Y20.495
X103.107 Y20.44
X102.475 Y20.206
X102.173 Y20.058 F675
X102.053 Y19.94
X101.863 Y19.662 F750
X101.654 Y19.021
X101.535 Y18.358
X101.545 Y17.011
G2 X101.934 Y8.352 I-46.605 J-6.432
G1 X102.018 Y8.026
X102.284 Y7.407 F675
X102.508 Y7.156 F750
X103.035 Y6.737
X103.647 Y6.455
X104.947 Y6.102
G3 X110.378 Y5.544 I11.914 J89.166
G1 X111.727 Y5.564
X113.073 Y5.53
X114.42 Y5.507
X127.888 Y5.241
G3 X137.299 Y5.806 I-10.091 J246.912
G1 X145.361 Y6.37
X146.706 Y6.453
X148.052 Y6.508
X149.398 Y6.557
X158.82 Y6.926
X160.165 Y7.006
X161.508 Y7.108
X180.319 Y8.448
X181.664 Y8.517
X187.048 Y8.728
X188.395 Y8.781
X212.623 Y9.739
X213.969 Y9.778
X215.316 Y9.79
X216.663 Y9.795
X239.563 Y9.957
X255.727 Y10.07
X256.398 Y10.132
X256.727 Y10.203
X257.337 Y10.489
X257.605 Y10.692 F675
X257.722 Y10.813
X257.81 Y10.957
X258.025 Y11.595 F750
X258.081 Y12.941
G2 X258.904 Y17.9 I4.855 J1.742
G1 X260.912 Y18.977
X261.456 Y19.496
X262.063 Y19.937
X262.271 Y19.985
X262.478 Y19.858
X262.498 Y19.553
X262.492 Y19.531
X260.017 Y10.389 F1200
G2 X258.915 Y8.861 I-2.429 J0.591
G1 X257.679 Y8.112
X256.149 Y7.775
X127.265 Y2.919
X108.591 Y3.364
X104.118 Y3.946
X102.775 Y4.302
X101.55 Y4.979
X100.632 Y5.76
G2 X100.044 Y6.723 I1.785 J1.75
G1 X99.706 Y7.945
X99.262 Y17.72
X99.277 Y18.636
G2 X100.019 Y20.347 I2.499 J-0.068
G1 X101.55 Y21.912
G2 X103.857 Y21.634 I1.025 J-1.206
X104.144 Y20.912 I-1.282 J-0.928 F750
G1 X104.158 Y20.774
X104.181 Y20.606
X104.198 Y20.42
X103.538 Y20.062
X102.905 Y19.833
X102.756 Y19.755
X102.622 Y19.653 F675
X102.397 Y19.402 F750
X102.243 Y19.103
X102.046 Y18.458
X102.027 Y17.112
G2 X102.478 Y8.932 I-49.929 J-6.852
X102.458 Y8.333 I-50.379 J1.327 F675
G1 X102.592 Y8.01
X102.751 Y7.714
X102.978 Y7.465 F750
G3 X105.85 Y6.506 I2.93 J3.994
G1 X105.951 Y6.475
X106.046 Y6.43
G3 X108.285 Y6 I2.065 J4.697
G1 X113.795
X116.926 Y5.952
X120.057 Y5.896
X128.138 Y5.737
G3 X136.203 Y6.235 I-9.485 J218.842
G1 X145.61 Y6.888
G3 X164.445 Y7.793 I-21.785 J650.044
G1 X165.788 Y7.912
X180.568 Y8.966
X183.259 Y9.078
X212.872 Y10.249
X214.218 Y10.282
X215.565 Y10.289
X255.976 Y10.572
X256.639 Y10.691
X256.935 Y10.852 F675
X257.194 Y11.067
X257.368 Y11.355 F750
X257.573 Y11.997
X257.551 Y13.344
G2 X258.64 Y18.24 I4.788 J1.505
G1 X259.274 Y18.651
X260.447 Y19.313
X260.984 Y19.72
X261.157 Y19.774
X261.353 Y19.701
X261.446 Y19.553
X261.4 Y19.338
X259.563 Y10.694 F1200
G2 X258.808 Y9.472 I-2.415 J0.647
G1 X257.986 Y8.817
X257.067 Y8.41
X255.536 Y8.26
X113.795 Y2.837
G2 X113.049 Y5.783 I0.055 J1.582
X113.795 Y6 I0.802 J-1.365 F750
G1 X123.286
G3 X134 Y6.56 I1.619 J71.708
G2 X139.1 Y6.937 I45.463 J-580.767
G1 X145.819 Y7.404
G3 X170.027 Y8.714 I-16.2 J523.394
G1 X174.046 Y9.002
X179.002 Y9.183
X188.187 Y9.511
X206.249 Y10.18
G3 X211.76 Y10.626 I-7.544 J127.335
G2 X223.204 Y10.841 I9.225 J-187.08
G1 X235.328 Y10.928
X255.533 Y11.069
X256.205 Y11.106 F675
X256.361 Y11.171
X256.506 Y11.256
X256.76 Y11.478
X256.928 Y11.77 F750
X257.098 Y12.421
X256.998 Y13.765
G2 X257.176 Y16.725 I5.514 J1.154
X258.72 Y18.855 I3.963 J-1.249
G1 X259.855 Y19.582
X260.44 Y19.915
X260.741 Y19.902
X260.863 Y19.553
X260.84 Y19.441
X259.182 Y11.305 F1200
G2 X258.598 Y10.152 I-2.446 J0.515
G1 X258.292 Y9.777
G2 X257.987 Y9.472 I-1.915 J1.607
G1 X257.373 Y9.091
X256.455 Y8.826
X253.394 Y8.669
X212.065 Y7.486
G2 X211.042 Y10.329 I-0.069 J1.581
X211.453 Y10.553 I0.954 J-1.263 F750
G1 X211.759 Y10.631
G3 X213.904 Y11 I-1.206 J13.43
G1 X214.625 Y11.204
G2 X230.19 Y11.393 I16.02 J-680.571
G1 X255.183 Y11.567
X255.783 Y11.571 F675
X255.943 Y11.625
X256.089 Y11.709
X256.212 Y11.824
X256.412 Y12.095
X256.514 Y12.416 F750
X256.616 Y13.759
G2 X258.331 Y19.164 I4.988 J1.392
G1 X258.88 Y19.554
X259.45 Y19.914
G2 X259.821 Y19.858 I0.151 J-0.259
G1 X259.883 Y19.553
X259.873 Y19.486
X258.771 Y11.916 F1200
X258.543 Y11.305
G2 X257.679 Y10.054 I-2.392 J0.727
G1 X257.373 Y9.837
G2 X255.843 Y9.25 I-1.611 J1.912
G1 X214.514 Y7.94
G2 X213.26 Y10.568 I-0.067 J1.581
X213.902 Y11.007 I1.187 J-1.047 F750
G1 X214.032 Y11.049 F675
X214.042 Y11.059
X214.052 Y11.095 F750
X214.113 Y11.272
X214.691 Y11.617
G2 X220.746 Y11.803 I4.332 J-42.566
X230.175 Y11.892 I13.977 J-972.422
G1 X254.664 Y12.063
X255.264 Y12.067 F675
X255.431 Y12.09
X255.588 Y12.15
X255.728 Y12.243
X255.844 Y12.365
X255.93 Y12.51
X256.033 Y12.831 F750
X256.163 Y14.171
G2 X256.323 Y17.107 I4.191 J1.244
X258.5 Y19.894 I5.531 J-2.076
G1 X258.662 Y19.941
X258.904 Y19.818
Y19.474
Y19.162 F1200
X258.116 Y12.221
G2 X256.761 Y10.16 I-2.495 J0.163
G1 X256.604 Y10.083
G2 X255.536 Y9.804 I-1.15 J2.22
G1 X216.657 Y7.995
G2 X213.983 Y10.316 I-0.18 J2.494
X214.052 Y11.095 I2.494 J0.173 F750
G1 X214.16 Y11.473
X214.221 Y11.65
X214.825 Y12.096
G2 X221.7 Y12.295 I4.775 J-46.117
G1 X226.639 Y12.358
X231.578 Y12.405
X236.517 Y12.437
X248.641 Y12.521
X254.271 Y12.561
X254.871 Y12.565 F675
X255.037 Y12.592
X255.193 Y12.655
X255.331 Y12.751
X255.445 Y12.875
X255.528 Y13.022
X255.624 Y13.344 F750
X255.648 Y14.691
G2 X256.361 Y18.281 I5.098 J0.852
G1 X256.739 Y18.838
X257.179 Y19.446
X257.654 Y19.923
X257.986 Y19.976
X258.117 Y19.858
X258.109 Y19.585
X257.935 Y13.443 F1200
G2 X257.679 Y12.286 I-2.499 J-0.055
G1 X257.52 Y11.916
G2 X256.149 Y10.576 I-2.299 J0.982
G1 X254.924 Y10.229
X216.657 Y8.368
G2 X214.092 Y10.691 I-0.071 J2.499
G1 Y10.694 F750
X214.16 Y11.473
X214.214 Y11.661 F675
X214.208 Y11.683 F750
X214.166 Y11.866
X214.386 Y12.169
X215.016 Y12.577
G2 X219.154 Y12.781 I2.954 J-17.771
G1 X226.785 Y12.859
X234.415 Y12.923
X242.046 Y12.976
X253.906 Y13.058
X254.506 Y13.062 F675
X254.669 Y13.105
X254.818 Y13.184
X254.945 Y13.294
X255.045 Y13.43
X255.112 Y13.584
X255.174 Y13.915 F750
G2 X255.241 Y16.819 I7.281 J1.284
X256.896 Y19.901 I9.183 J-2.945
G1 X257.134 Y20.018
X257.399 Y19.858
X257.404 Y19.649
X257.529 Y13.749 F1200
X257.174 Y12.527
G2 X256.149 Y11.291 I-2.335 J0.894
G1 X255.23 Y10.939
X215.739 Y10.588
G2 X214.622 Y11.025 I-0.025 J1.582
X214.216 Y11.661 I1.092 J1.146 F750
G1 X214.208 Y11.683
X214.142 Y11.916
X214.099 Y12.098
X214.284 Y12.425
X214.544 Y12.695
X215.201 Y13.057
G2 X220.248 Y13.287 I3.638 J-24.352
G1 X254.089 Y13.562
X254.742 Y13.728
G2 X255.105 Y13.435 I0.064 J-0.293
G1 X254.968 Y13.226
X254.924 Y13.159 F1200
X253.547 Y12.527
X215.739 Y10.823
G2 X214.555 Y11.258 I-0.091 J1.58
X214.142 Y11.916 I1.092 J1.146 F750
G1 X214.054 Y12.221
X214.012 Y12.404
X214.169 Y12.744
X214.643 Y13.223
G2 X217.812 Y13.794 I2.755 J-6.213
G1 X224.132 Y13.826
X230.452 Y13.868
X236.772 Y13.919
X243.091 Y13.98
X253.868 Y14.057
X254.033 Y14.088
X254.692 Y14.225
X254.924 Y14.169
X255.016 Y14.054
X254.924 Y13.69
X254.901 Y13.683
X252.781 Y12.999 F1200
X215.739 Y11.136
G2 X214.468 Y11.563 I-0.179 J1.572
X214.054 Y12.221 I1.092 J1.146 F750
G1 X213.967 Y12.527
X213.926 Y12.71
X214.068 Y13.057
X214.521 Y13.654
G2 X217.45 Y14.272 I2.77 J-5.882
X229.93 Y14.317 I8.6 J-652.097
X241.723 Y14.467 I12.356 J-509.371
G1 X251.152 Y14.538
X253.846 Y14.557
X254.669 Y14.732
X254.721 Y14.736
X254.924 Y14.661
X255.011 Y14.36
X254.924 Y14.215
X254.891 Y14.204
X252.781 Y13.499 F1200
X215.433 Y11.432
G2 X214.381 Y11.869 I0.04 J1.582
X213.967 Y12.527 I1.092 J1.146 F750
G1 X213.902 Y12.76
X213.861 Y12.943
X213.923 Y13.313
X214.084 Y13.652
X214.619 Y14.177
G2 X217.824 Y14.77 I2.939 J-6.935
G1 X221.64 Y14.782
X225.456 Y14.804
X229.272 Y14.834
X230.616 Y14.742
G2 X237.717 Y14.917 I5.205 J-66.783
X243.106 Y14.98 I7.006 J-370.246
G1 X253.282 Y15.053
X253.882 Y15.057 F675
X254.046 Y15.098
X254.197 Y15.172
X254.327 Y15.279
X254.431 Y15.411
X254.573 Y15.716 F750
G2 X256.155 Y19.707 I7.862 J-0.807
G1 X256.455 Y19.843
X256.691 Y19.553
X256.697 Y19.479
X256.944 Y16.192 F1200
G2 X256.698 Y14.971 I-2.496 J-0.133
G1 X256.558 Y14.665
G2 X255.843 Y13.563 I-2.381 J0.762
G1 X255.713 Y13.443
G2 X254.006 Y12.778 I-1.698 J1.835
G1 X215.433 Y11.657
G2 X214.312 Y12.1 I-0.022 J1.582
X213.997 Y12.527 I1.098 J1.14 F750
G1 X213.902 Y12.76
X213.797 Y13.138
X213.756 Y13.321
X213.792 Y13.694
X214.164 Y14.345
G2 X217.005 Y15.214 I2.864 J-4.286
X229.355 Y15.328 I10.557 J-474.023
G1 X230.699 Y15.238
X231.444 Y15.327
X232.264 Y15.378
X233.611 Y15.4
X245.734 Y15.498
X252.88 Y15.55
X253.48 Y15.554 F675
X253.641 Y15.604
X253.786 Y15.688
X253.91 Y15.803
X254.004 Y15.942
X254.494 Y17.197 F750
G2 X255.598 Y19.794 I6.404 J-1.189
G1 X255.851 Y19.933
X256.05 Y19.858
X256.144 Y19.59
X256.691 Y18.025 F1200
G2 X256.694 Y16.498 I-2.379 J-0.768
G1 X256.117 Y14.971
X255.669 Y14.36
G2 X253.7 Y13.342 I-2.013 J1.482
G1 X215.433 Y12.036
G2 X214.206 Y12.477 I-0.126 J1.578
X213.797 Y13.138 I1.1 J1.137 F750
G1 X213.669 Y13.611
X213.632 Y13.795
X213.701 Y14.163
X214.075 Y14.813
G2 X216.935 Y15.694 I3.033 J-4.769
X223.754 Y15.797 I5.455 J-135.389
X229.843 Y15.82 I5.175 J-557.727
G1 X231.185 Y15.689
G2 X235.606 Y15.901 I3.215 J-20.904
G1 X236.953 Y15.929
X250.423 Y16.033
X252.349 Y16.046
X252.949 Y16.051 F675
X253.116 Y16.07
X253.275 Y16.125
X253.418 Y16.215
X253.537 Y16.334
X253.894 Y16.905 F750
G2 X255.159 Y20.035 I9.365 J-1.967
G1 X255.23 Y20.112
X255.536 Y20.147
X255.712 Y19.858
X255.715 Y19.825
X255.992 Y16.803 F1200
G2 X255.536 Y15.202 I-2.495 J-0.156
G1 X255.23 Y14.795
G2 X253.394 Y13.805 I-1.997 J1.505
G1 X215.127 Y12.477
G2 X214.067 Y12.94 I0.061 J1.581
X213.902 Y13.135 I1.12 J1.118 F750
G1 X213.669 Y13.611
X213.564 Y14.054
X213.531 Y14.239
X213.599 Y14.607
X213.777 Y14.937
X214.311 Y15.465
G2 X218.148 Y16.271 I3.811 J-8.607
X225.896 Y16.229 I2.059 J-337.811
X231.221 Y16.188 I2.459 J-26.631
X236.749 Y16.427 I4.321 J-35.935
G1 X251.977 Y16.543
X252.577 Y16.548 F675
X252.743 Y16.576
X252.898 Y16.64
X253.036 Y16.737
X253.276 Y16.973 F750
X253.878 Y18.178
X254.052 Y18.908
X254.185 Y19.258
X254.468 Y19.869
X254.736 Y20.034
X255.009 Y19.858
X255.034 Y19.713
X255.432 Y17.414 F1200
G2 X255.232 Y15.887 I-2.458 J-0.454
G1 X255.23 Y15.884
G2 X254.312 Y14.849 I-2.257 J1.076
G1 X253.7 Y14.502
G2 X252.475 Y14.2 I-1.191 J2.198
G1 X215.127 Y12.881
G2 X213.943 Y13.375 I-0.034 J1.582
X213.564 Y14.054 I1.15 J1.087 F750
G1 X213.455 Y14.528
X213.424 Y14.665
X213.422 Y14.703
X213.465 Y15.076
X213.897 Y15.689
G2 X216.706 Y16.641 I3.17 J-4.732
X221.377 Y16.74 I2.879 J-25.656
X226.763 Y16.713 I2.403 J-58.034
X230.971 Y16.724 I2.158 J-19.199
X240.603 Y16.958 I8.575 J-154.544
G1 X252.052 Y17.044
X252.22 Y17.049 F675
X252.385 Y17.087
X252.537 Y17.159
X252.804 Y17.365 F750
G3 X253.945 Y19.979 I-5.181 J3.819
G1 X254.113 Y20.163
X254.349
X254.472 Y19.89
X254.625 Y19.553 F1200
X255.017 Y18.331
G2 X252.781 Y15.025 I-2.366 J-0.809
G1 X214.514 Y13.73
G2 X213.671 Y14.093 I-0.06 J1.022
X213.433 Y14.821 I0.783 J0.659 F750
G1 X213.479 Y15.276
X213.536 Y15.647
X213.979 Y16.252
G2 X217.755 Y17.231 I3.942 J-7.432
X222.208 Y17.199 I2.002 J-31.742
X227.174 Y17.229 I2.774 J-48.015
X231.735 Y17.167 I1.984 J-21.861
X239.952 Y17.413 I5.83 J-57.467
X246.688 Y17.505 I6.912 J-259.393
G1 X251.739 Y17.542
X251.906 Y17.561
X252.068 Y17.609 F675
X252.364 Y17.769 F750
G3 X253.379 Y19.851 I-2.657 J2.584
G1 X253.405 Y19.908
X253.443 Y19.958
X253.489 Y20
X253.542 Y20.031
X253.601 Y20.051
X253.662 Y20.059
X253.723 Y20.054
X253.782 Y20.037
X253.825 Y20.006 Z-4.941
X253.866 Y19.977 Z-4.926
X253.905 Y19.949 Z-4.903
X253.927 Y19.905 Z-4.866
X253.945 Y19.868 Z-4.82
X253.958 Y19.841 Z-4.766
X253.966 Y19.824 Z-4.707
X253.969 Y19.819 Z-4.646
G0 Z2
X213.749 Y14.232
Z-4.346
G1 Z-4.646 F750
X213.746 Y14.238 Z-4.712
X213.737 Y14.259 Z-4.776
X213.721 Y14.291 Z-4.833
X213.701 Y14.334 Z-4.88
X213.678 Y14.386 Z-4.916
X213.651 Y14.443 Z-4.938
X213.623 Y14.504 Z-4.946
G2 X213.479 Y15.276 I1.436 J0.666
G1 X213.511 Y15.581
X213.556 Y15.887
X213.651 Y16.25
X214.127 Y16.829
G2 X218.856 Y17.757 I4.221 J-9.002
G1 X220.204 Y17.786
X221.551 Y17.74
X222.895 Y17.661
G2 X227.426 Y17.702 I2.52 J-28.331
X231.479 Y17.691 I1.977 J-18.011
X242.399 Y17.942 I8.404 J-127.84
G1 X246.728 Y17.999
X251.056 Y18.066
X251.656 Y18.076 F675
X251.813 Y18.137
X252.099 Y18.315
X252.326 Y18.564 F750
X252.67 Y19.143
X252.899 Y19.953
G2 X253.29 Y20.142 I0.286 J-0.092
G1 X253.333 Y20.112 Z-4.941
X253.375 Y20.082 Z-4.926
X253.414 Y20.055 Z-4.903
X253.436 Y20.01 Z-4.866
X253.454 Y19.974 Z-4.82
X253.467 Y19.947 Z-4.766
X253.475 Y19.93 Z-4.707
X253.478 Y19.925 Z-4.646
G0 Z2
X213.78 Y14.832
Z-4.346
G1 Z-4.646 F750
X213.777 Y14.839 Z-4.712
X213.768 Y14.859 Z-4.776
X213.755 Y14.892 Z-4.833
X213.737 Y14.936 Z-4.88
X213.715 Y14.989 Z-4.916
X213.691 Y15.047 Z-4.938
X213.665 Y15.109 Z-4.946
G2 X213.556 Y15.887 I1.463 J0.603
G1 X213.684 Y16.498
X213.773 Y16.837
X214.281 Y17.39
G2 X219.235 Y18.263 I4.364 J-10.263
G1 X220.583 Y18.283
X223.274 Y18.147
X224.019 Y18.233
X224.843 Y18.256
X227.537 Y18.213
G2 X231.664 Y18.181 I1.897 J-21.567
X240.948 Y18.424 I7.14 J-95.312
G1 X245.865 Y18.489
X250.782 Y18.56
X251.382 Y18.569 F675
X251.534 Y18.666
X251.811 Y18.858 F750
X252.029 Y19.115 F675
X252.183 Y19.414 F750
X252.416 Y20.046
X252.693 Y20.233
X252.885 Y20.163
X252.961 Y19.928
X252.984 Y19.858 F1200
X252.447 Y18.025
X251.863 Y17.612
X249.72 Y17.402
X214.82 Y15.108
G2 X213.806 Y15.736 I0.033 J1.186
X213.684 Y16.498 I1.048 J0.558 F750
G1 X213.748 Y16.803
X213.842 Y17.109
X213.97 Y17.461
X214.517 Y17.974
G2 X220.037 Y18.762 I4.565 J-12.258
G3 X224.822 Y18.689 I3.351 J63.317
G2 X230.185 Y18.775 I6.15 J-216.551
G3 X234.511 Y18.895 I1.631 J19.287
G1 X239.81 Y18.933
X245.11 Y18.981
X250.409 Y19.039
X251.009 Y19.047 F675
X251.163 Y19.128
X251.444 Y19.312 F750
X251.847 Y19.852
X252.169 Y19.951
X252.31 Y19.858
X252.355 Y19.582
X252.359 Y19.553 F1200
X251.055 Y18.025
X215.433 Y15.116
G2 X213.831 Y16.331 I-0.062 J1.581
X213.842 Y17.109 I1.54 J0.366 F750
G1 X214.03 Y17.72
X214.079 Y17.869
X214.1 Y17.907
X214.174 Y17.987
G2 X214.739 Y17.725 I0.224 J-0.256
X214.468 Y17.398 I-0.34 J0.006 F1200
X214.059 Y17.711 I-0.069 J0.333 F750
G1 X214.061 Y17.778
X214.075 Y17.844
X214.1 Y17.907
X214.129 Y17.944
X214.38 Y18.176
X214.957 Y18.655
G2 X223.166 Y19.098 I5.184 J-19.783
X227.396 Y19.215 I3.371 J-45.452
X232.441 Y19.149 I2.077 J-34.118
X238.677 Y19.381 I4.25 J-30.338
X244.271 Y19.431 I3.411 J-68.694
G1 X244.939 Y19.5
X246.286 Y19.497
X247.633 Y19.478
X248.977 Y19.573
X250.317 Y19.438
X250.977 Y19.574
X251.026 Y19.579
X251.027
X251.251 Y19.479
X251.325 Y19.247
X251.251 Y19.079
X251.189 Y19.069
X235.332 Y16.601 F1200
G2 X232.539 Y18.376 I-0.391 J2.469
X232.44 Y19.07 I2.402 J0.694 F750
G1 X232.441 Y19.152
X232.463 Y19.527
X233.155 Y19.816
G2 X239.965 Y19.939 I6.942 J-195.825
G1 X240.638 Y19.938
X241.311 Y19.929
X242.026 Y19.604
X244.825 Y18.331 F1200
G3 X246.046 Y18.635 I0.461 J0.753
G1 X246.047 Y18.636
G3 X245.969 Y19.644 I-0.761 J0.448
X245.434 Y19.955 I-0.683 J-0.56 F750
G1 X245.286 Y19.995
X244.536
X243.865 Y20.056
G2 X243.607 Y20.406 I0.038 J0.298
G1 X243.629 Y20.454 Z-4.941
X243.65 Y20.5 Z-4.926
X243.67 Y20.544 Z-4.903
X243.71 Y20.573 Z-4.866
X243.742 Y20.597 Z-4.82
X243.766 Y20.615 Z-4.766
X243.781 Y20.627 Z-4.707
X243.786 Y20.63 Z-4.646
G0 Z2
X213.888 Y17.216
Z-4.346
G1 Z-4.646 F750
X213.89 Y17.224 Z-4.712
X213.896 Y17.245 Z-4.776
X213.906 Y17.279 Z-4.833
X213.92 Y17.325 Z-4.88
X213.936 Y17.379 Z-4.916
X213.955 Y17.44 Z-4.938
X213.974 Y17.504 Z-4.946
G2 X214.38 Y18.176 I1.516 J-0.456
G1 X215.127 Y18.859
G3 X218.802 Y20.055 I-17.42 J59.789
G1 X219.106 Y20.275
X219.407 Y20.469
X219.408 Y20.442
X219.405 Y20.387
X219.392 Y20.333
X219.37 Y20.283
X219.339 Y20.237
X218.996 Y19.823
X214.212 Y14.05 F1200
G2 X213.791 Y14.01 I-0.231 J0.191
G1 X213.775 Y14.023
G2 X213.422 Y14.703 I0.667 J0.777 F750
G1 X213.428 Y14.775
X213.596 Y15.005
X213.91 Y14.971
X214.062 Y14.865
X215.433 Y13.914 F1200
G2 X216.416 Y11.61 I-1.498 J-2.001
G1 X216.403 Y11.305
G2 X216.084 Y10.083 I-2.5 J0
G1 X216.045 Y10.012
G2 X214.208 Y8.758 I-2.181 J1.223
G1 X211.453 Y8.297
X134.307 Y3.408
G2 X133.28 Y6.262 I-0.088 J1.58
X133.694 Y6.481 I0.939 J-1.274 F750
G1 X134 Y6.555
X141.042 Y7.285
G2 X147.164 Y7.738 I34.457 J-423.436
G1 X160.328 Y8.361
G3 X164.614 Y8.648 I-28.879 J462.5
G1 X174.046 Y9.002
X174.311 Y8.861
X174.319 Y8.556
X174.155 Y8.482
X173.639 Y8.25 F1200
X172.574 Y7.925
X127.265 Y3.687
X107.329 Y3.757
X105.836 Y3.99
X102.738 Y4.865
X101.55 Y5.697
X100.862 Y6.417
X100.439 Y7.334
X100.122 Y8.556
X99.738 Y17.72
X99.748 Y18.331
G2 X100.166 Y19.553 I2.494 J-0.17
G1 X101.227 Y21.08
G2 X103.863 Y21.316 I1.395 J-0.747
X104.181 Y20.606 I-1.241 J-0.983 F750
G1 X104.224 Y20.301
X104.24 Y20.114
X103.663 Y19.636
X103.36 Y19.489
X103.073 Y19.313 F675
X102.849 Y19.061
X102.699 Y18.76 F750
X102.51 Y18.113
X102.538 Y16.766
G2 X102.952 Y8.681 I-40.955 J-6.151
G1 X103.041 Y8.352 F675
X103.195 Y8.053 F750
G3 X105.309 Y7.033 I2.421 J2.319
G1 X105.421 Y6.885
X105.461 Y6.839
X105.594 Y6.723
X105.836 Y6.547
X106.046 Y6.43
X106.191 Y6.173
X106.142 Y6.009
X105.849 Y5.884
X105.836 Y5.879 F1200
X103.693 Y5.705
G2 X100.844 Y8.25 I-0.35 J2.475
G1 X101.088 Y20.163
G2 X103.905 Y21.01 I1.577 J-0.136
