(prop3part2)
(T2  D=3 CR=1.5 - ZMIN=-17.5 - ball end mill)
G90 G94
G17
G21
G28 G91 Z0
G90

(Adaptive1 4)
T2
S18000 M3
G54
G0 X-0.268 Y23.342
Z2
Z-6.33
G1 Z-6.63 F700
X-0.266 Y23.335 Z-6.697
X-0.26 Y23.314 Z-6.76
X-0.252 Y23.279 Z-6.817
X-0.24 Y23.233 Z-6.865
X-0.226 Y23.178 Z-6.9
X-0.21 Y23.116 Z-6.922
X-0.193 Y23.052 Z-6.93
G2 X0.042 Y21.419 I-7.419 J-1.9
G1 Y21.182
X-0.393 Y20.668
X-0.649 Y20.045
X-0.905 Y18.722
X-0.861 Y17.376
X-0.872 Y16.029
X-0.87 Y10.304
X-0.829 Y9.97 F630
X-0.697 Y9.66
X-0.498 Y9.388 F700
X-0.004 Y8.931
X0.609 Y8.651
X1.922 Y8.35
X3.269 Y8.36
X4.615 Y8.312
X11.348 Y8.137
X24.814 Y7.782
G3 X31.535 Y8.166 I-2.1 J95.879
G1 X31.864 Y8.235 F630
X32.162 Y8.391
X32.421 Y8.607 F700
X32.856 Y9.121
X33.124 Y9.739
X33.427 Y11.051
X33.463 Y12.398
X33.552 Y13.742
X33.589 Y14.415
X33.743 Y15.149
X34.173 Y15.763
G2 X38.601 Y17.489 I12.84 J-26.41
G1 X39.85 Y17.994
X40.444 Y18.311
X41.641 Y18.928
G2 X42.015 Y18.485 I0.128 J-0.272
G1 X41.977 Y18.43 Z-6.922
X41.94 Y18.378 Z-6.9
X41.908 Y18.332 Z-6.865
X41.881 Y18.293 Z-6.817
X41.86 Y18.263 Z-6.76
X41.848 Y18.245 Z-6.697
X41.843 Y18.239 Z-6.63
G0 Z2
X-1.026 Y20.996
Z-6.33
G1 Z-6.63 F700
X-1.019 Y20.998 Z-6.697
X-0.998 Y21.003 Z-6.76
X-0.963 Y21.012 Z-6.817
X-0.917 Y21.024 Z-6.865
X-0.862 Y21.038 Z-6.9
X-0.801 Y21.054 Z-6.922
X-0.736 Y21.07 Z-6.93
G2 X0.042 Y21.182 I0.905 J-3.532
G1 X0.21
X-0.129 Y19.878
X-0.435 Y18.567
G2 X-0.323 Y10.826 I-593.43 J-12.471
G1 X-0.116 Y10.185
X-0.083 Y10.02
X-0.022 Y9.863 F630
X0.06 Y9.716
X0.171 Y9.589
X0.443 Y9.391 F700
X1.067 Y9.138
X2.375 Y8.815
X3.124 Y8.844
X4.471 Y8.823
X5.818 Y8.782
X24.67 Y8.286
X26.017 Y8.276
X27.36 Y8.376
X30.72 Y8.604
X31.373 Y8.77
X32.018 Y9.152
X32.144 Y9.264
X32.535 Y9.812
X32.943 Y11.096
G2 X33.21 Y15.032 I23.119 J0.409
G1 X33.526 Y15.63
X34.027 Y16.188
G2 X37.903 Y17.767 I8.798 J-16.045
G1 X39.161 Y18.249
G3 X41.053 Y19.693 I-1.077 J3.374
G1 X41.693 Y19.902
G2 X41.993 Y19.406 I0.083 J-0.288
G1 X41.947 Y19.358 Z-6.922
X41.903 Y19.312 Z-6.9
X41.863 Y19.271 Z-6.865
X41.83 Y19.237 Z-6.817
X41.805 Y19.211 Z-6.76
X41.79 Y19.195 Z-6.697
X41.785 Y19.19 Z-6.63
G0 Z2
X-1.249 Y8.606
Z-6.33
G1 Z-6.63 F700
X-1.244 Y8.612 Z-6.697
X-1.23 Y8.629 Z-6.76
X-1.207 Y8.657 Z-6.817
X-1.177 Y8.694 Z-6.865
X-1.141 Y8.738 Z-6.9
X-1.101 Y8.787 Z-6.922
X-1.058 Y8.838 Z-6.93
G2 X-0.498 Y9.388 I2.819 J-2.312
G1 X0.107 Y9.832
X0.847 Y9.713
X2.152 Y9.377
X3.493 Y9.257
G2 X12.322 Y9.11 I1.319 J-185.701
G1 X24.441 Y8.792
G3 X29.818 Y9.052 I0.424 J46.975
G1 X30.491 Y9.091
X31.152 Y9.223
X31.442 Y9.393 F630
X31.703 Y9.606 F700
X31.927 Y9.858
X32.237 Y10.456
X32.416 Y11.105
G2 X32.686 Y14.907 I43.907 J-1.209
X34.65 Y17.052 I3.181 J-0.942
G3 X39.644 Y19.02 I-95.52 J249.736
G1 X40.186 Y19.426
X40.614 Y19.945
G2 X40.919 Y20.036 Z-6.219 I0.225 J-0.199
G1 X40.982 Y20.01 Z-6.075 F1200
X41.038 Y19.971 Z-5.93
G2 X41.079 Y19.567 I-0.199 J-0.225
G1 X32.885 Y8.627
X32.866 Y8.604
X32.844 Y8.582
X32.789 Y8.543 Z-6.075
X32.726 Y8.518 Z-6.219
G2 X32.421 Y8.607 Z-6.93 I-0.081 J0.289 F700
G1 X31.628 Y9.561
X31.657 Y10.31
G3 X32.046 Y13.783 I-8.776 J2.741
G2 X34.994 Y17.726 I4.191 J-0.059
G3 X39.615 Y19.576 I-35.659 J95.812
G1 X39.669 Y19.604 Z-6.788
X39.73 Y19.619 Z-6.646
X39.794 Y19.621 Z-6.504
X39.858 Y19.608 Z-6.362
X39.919 Y19.58 Z-6.219
X39.969 Y19.534 Z-6.075 F1200
X40.007 Y19.477 Z-5.93
X40.015 Y19.461
X40.309 Y18.8
G2 X40.173 Y18.411 I-0.274 J-0.122
G1 X40.11 Y18.387 Z-6.075
X40.043 Y18.378 Z-6.219
G2 X39.769 Y18.539 Z-6.93 I-0.007 J0.3 F700
G1 X39.309 Y19.505 F630
X39.231 Y19.654
X39.122 Y19.782 F700
G3 X34.454 Y20.874 I-3.897 J-6.139
G1 X33.108 Y20.875
X20.985 Y20.859
X2.126 Y20.837
G3 X0.46 Y19.771 I1.346 J-3.938
G1 X0.193 Y19.152
X0.065 Y18.491
G2 X0.132 Y11.186 I-681.829 J-9.879
G1 X0.21 Y10.858 F630
X0.257 Y10.696 F700
X0.338 Y10.549
X0.451 Y10.424
G3 X3.88 Y9.766 I2.894 J5.812
G2 X16.186 Y9.508 I-3.924 J-481.127
G1 X24.265 Y9.297
G3 X30.209 Y9.596 I0.827 J42.696
X30.804 Y9.672 I-5.117 J42.396 F630
G1 X30.93 Y9.82
X31.036 Y9.951
X31.331 Y10.557 F700
X31.483 Y11.895
X31.647 Y13.232
G2 X35.112 Y18.279 I4.631 J0.533
G1 X35.83 Y18.639
X37.107 Y19.07
X37.74 Y19.3
X38.364 Y19.554
G2 X38.697 Y19.079 I0.103 J-0.282
G1 X38.654 Y19.028 Z-6.922
X38.613 Y18.98 Z-6.9
X38.577 Y18.936 Z-6.865
X38.546 Y18.899 Z-6.817
X38.523 Y18.872 Z-6.76
X38.509 Y18.855 Z-6.697
X38.504 Y18.849 Z-6.63
G0 Z2
X37.337 Y21.735
Z-6.33
G1 Z-6.63 F700
X37.336 Y21.727 Z-6.697
X37.333 Y21.705 Z-6.76
X37.329 Y21.67 Z-6.817
X37.324 Y21.622 Z-6.865
X37.317 Y21.566 Z-6.9
X37.31 Y21.503 Z-6.922
X37.302 Y21.437 Z-6.93
G2 X37.127 Y20.671 I-3.621 J0.422
G1 X36.859 Y19.971
X35.516 Y20.078
X34.771 Y19.989
X34.132 Y20.2
X32.8 Y20.405
X31.454 Y20.361
X30.107 Y20.372
X24.719 Y20.363
X3.166 Y20.338
X2.494 Y20.288
X1.542 Y19.949
X1.243 Y19.794 F630
X1.003 Y19.558 F700
G3 X0.604 Y17.557 I2.218 J-1.482
X0.643 Y11.807 I235.367 J-1.308
X0.655 Y11.208 I235.329 J4.442 F630
G1 X0.751 Y11.056
X0.855 Y10.923
X1.116 Y10.711 F700
X1.74 Y10.456
X3.073 Y10.267
X4.421 Y10.269
X5.476 Y10.289
G3 X11.608 Y10.115 I10.639 J267.781
G1 X16.545 Y9.985
X21.483 Y9.868
X26.42 Y9.764
G2 X29.513 Y10.029 I9.097 J-87.945
X30.112 Y10.068 I6.003 J-88.21 F630
G1 X30.269 Y10.13
X30.407 Y10.226
X30.527 Y10.344
X30.724 Y10.617 F700
X31.139 Y11.899
G2 X31.444 Y15.542 I11.329 J0.888
X35.025 Y18.827 I5.237 J-2.114
G1 X35.412 Y19.003
X36.041 Y19.243
G2 X36.35 Y19.171 Z-6.219 I0.097 J-0.284
G1 X36.393 Y19.118 Z-6.075 F1200
X36.422 Y19.057 Z-5.93
G2 X35.864 Y18.836 I-0.284 J-0.097
G1 X34.936 Y20.901
G3 X34.567 Y20.747 I-0.182 J-0.082
G1 X34.669 Y20.448
X34.704 Y20.316 Z-6.219
G2 X34.771 Y19.989 Z-6.93 I-3.535 J-0.89 F700
G1 X34.794 Y19.802
X34.442 Y19.673
X33.419 Y19.78
X32.758 Y19.911
X31.527 Y19.862
X30.18 Y19.871
X3.239 Y19.839
X2.567 Y19.793
X1.936 Y19.558
X1.64 Y19.398 F630
X1.407 Y19.155
X1.248 Y18.858
X1.136 Y18.54 F700
X0.974 Y17.203
X1.099 Y16.463
G3 X1.145 Y12.142 I78.881 J-1.33
X1.17 Y11.542 I78.835 J2.992 F630
G1 X1.288 Y11.4
X1.406 Y11.28
X1.677 Y11.079 F700
X2.312 Y10.856
X3.653 Y10.725
G2 X8.742 Y10.594 I1.829 J-27.756
G1 X9.49 Y10.651
X10.164 Y10.654
X11.51 Y10.618
X12.857 Y10.587
X18.243 Y10.448
X22.283 Y10.348
X26.323 Y10.264
G3 X29.241 Y10.515 I-3.313 J55.642
X29.837 Y10.585 I-6.231 J55.391 F630
G1 X29.974 Y10.693
X30.204 Y10.939 F700
X30.518 Y11.535
X30.657 Y12.194
G2 X31.503 Y16.762 I7.819 J0.915
G1 X31.926 Y17.291
X32.395 Y17.876
X33.436 Y18.603
X34.02 Y18.938
G2 X34.414 Y18.513 I0.14 J-0.265
G1 X34.379 Y18.456 Z-6.922
X34.345 Y18.402 Z-6.9
X34.314 Y18.354 Z-6.865
X34.289 Y18.314 Z-6.817
X34.27 Y18.284 Z-6.76
X34.258 Y18.265 Z-6.697
X34.254 Y18.259 Z-6.63
G0 Z2
X32.782 Y20.994
Z-6.33
G1 Z-6.63 F700
X32.783 Y20.987 Z-6.697
X32.784 Y20.965 Z-6.76
X32.786 Y20.929 Z-6.817
X32.789 Y20.882 Z-6.865
X32.792 Y20.825 Z-6.9
X32.795 Y20.762 Z-6.922
X32.799 Y20.695 Z-6.93
G2 X32.758 Y19.911 I-3.64 J-0.203
G1 X32.722 Y19.727
X32.43 Y19.491
X31.697 Y19.333
X30.352 Y19.411
G2 X22.311 Y19.363 I-5.96 J325.254
G1 X15.576 Y19.353
X3.452 Y19.339
X2.779 Y19.309
X2.458 Y19.208
X2.148 Y19.078 F630
X1.897 Y18.853
X1.729 Y18.561 F700
X1.544 Y17.913
X1.429 Y16.571
X1.574 Y15.835
G3 X1.626 Y12.657 I58.173 J-0.64
X1.656 Y12.057 I58.121 J2.538 F630
G1 X1.726 Y11.902
X1.823 Y11.765
X2.074 Y11.54 F700
X2.698 Y11.287
X4.044 Y11.223
G2 X8.524 Y11.118 I1.662 J-24.758
X13.911 Y11.064 I1.893 J-79.619
G1 X15.258 Y11.017
X16.605 Y10.994
X17.951 Y10.955
X19.298 Y10.924
X24.684 Y10.782
G3 X28.786 Y10.976 I0.488 J33.16
X29.381 Y11.047 I-3.613 J32.966 F630
G1 X29.669 Y11.239
X29.883 Y11.498
X30.019 Y11.806 F700
X30.184 Y12.459
G2 X32.412 Y18.568 I7.031 J0.896
G1 X33.003 Y18.902
G2 X33.32 Y18.89 Z-6.219 I0.149 J-0.26
G1 X33.372 Y18.846 Z-6.075 F1200
X33.412 Y18.791 Z-5.93
G2 X33.294 Y18.378 I-0.26 J-0.149
X32.884 Y18.507 I-0.142 J0.264
G1 X31.961 Y20.339
G3 X31.424 Y20.07 I-0.268 J-0.135
G1 X31.553 Y19.781
X31.601 Y19.654 Z-6.219
G2 X31.697 Y19.333 Z-6.93 I-3.439 J-1.21 F700
G1 X31.736 Y19.15
X31.424 Y18.942
X30.679 Y18.855
X29.337 Y18.969
G2 X19.162 Y18.876 I-6.822 J190.569
G1 X17.815 Y18.853
X16.468 Y18.857
X15.121 Y18.851
X3.597 Y18.839
X2.997 Y18.838 F630
X2.676 Y18.736
X2.539 Y18.639
X2.308 Y18.394
X2.157 Y18.093 F700
X1.985 Y17.441
X1.921 Y16.096
G2 X2.124 Y13.1 I-19.578 J-2.833
X2.11 Y12.5 I-19.781 J0.163 F630
G1 X2.185 Y12.344
X2.282 Y12.206
X2.405 Y12.092
X2.685 Y11.905 F700
X3.336 Y11.732
G2 X9.16 Y11.566 I1.706 J-42.451
X16.236 Y11.467 I2.41 J-80.495
G1 X21.623 Y11.359
X27.009 Y11.266
X28.684 Y11.472
X28.85 Y11.499 F630
X29.01 Y11.553
X29.153 Y11.641
X29.397 Y11.873
X29.548 Y12.174 F700
X29.704 Y12.83
G2 X31.408 Y18.275 I7.605 J0.609
G1 X31.463 Y18.32 Z-6.788
X31.525 Y18.351 Z-6.646
X31.593 Y18.367 Z-6.504
X31.661 Y18.368 Z-6.362
X31.727 Y18.354 Z-6.219
X31.79 Y18.329 Z-6.075 F1200
X31.846 Y18.291 Z-5.93
G2 X31.452 Y17.839 I-0.197 J-0.226
X31.353 Y18.014 I0.197 J0.226
G1 X31.054 Y19.772
G3 X30.679 Y20.011 I-0.296 J-0.05
X30.478 Y19.615 I0.079 J-0.289
G1 X30.579 Y19.315
X30.614 Y19.183 Z-6.219
G2 X30.679 Y18.855 Z-6.93 I-3.539 J-0.876 F700
G1 X30.723 Y18.483
X29.983 Y18.361
X29.32 Y18.48
G2 X17.797 Y18.376 I-7.757 J220.395
G1 X16.45 Y18.357
X15.103 Y18.351
X13.756 Y18.352
X3.916 Y18.339
X3.316 F630
X3.156 Y18.287
X3.011 Y18.202
X2.765 Y17.971
X2.611 Y17.672 F700
X2.44 Y17.02
X2.438 Y15.673
G2 X2.617 Y13.441 I-19.986 J-2.725
X2.622 Y12.841 I-20.165 J-0.493 F630
G1 X2.723 Y12.691
X2.831 Y12.562
X2.965 Y12.46
X3.272 Y12.321 F700
X4.601 Y12.102
G2 X9.839 Y11.962 I2.178 J-16.64
X14.182 Y11.99 I2.276 J-16.316
X18.896 Y11.92 I1.033 J-88.984
G1 X20.243 Y11.895
X25.63 Y11.76
X26.976 Y11.793
X27.719 Y11.871
X28.316 Y11.934 F630
X28.481 Y11.97
X28.635 Y12.037
X28.77 Y12.137
X28.99 Y12.393
X29.118 Y12.704 F700
X29.309 Y14.038
G2 X30.429 Y17.796 I7.864 J-0.297
X30.681 Y17.934 I0.252 J-0.162
G1 X30.743 Y17.927
X30.801 Y17.909
X30.855 Y17.878
X30.889 Y17.838 Z-6.925
X30.922 Y17.798 Z-6.911
X30.953 Y17.762 Z-6.888
X30.962 Y17.719 Z-6.856
X30.97 Y17.683 Z-6.816
X30.977 Y17.654 Z-6.771
X30.981 Y17.634 Z-6.721
Y17.623 Z-6.676
Y17.62 Z-6.63
G0 Z2
X2.466 Y11.497
Z-6.33
G1 Z-6.63 F700
X2.469 Y11.504 Z-6.697
X2.478 Y11.525 Z-6.76
X2.492 Y11.557 Z-6.817
X2.51 Y11.601 Z-6.865
X2.532 Y11.654 Z-6.9
X2.557 Y11.712 Z-6.922
X2.583 Y11.773 Z-6.93
G2 X2.965 Y12.46 I3.358 J-1.419
G1 X3.079 Y12.609
X3.825 Y12.682
X5.169 Y12.595
G2 X10.405 Y12.386 I1.97 J-16.298
X14.301 Y12.484 I2.23 J-11.12
X26.422 Y12.233 I-5.086 J-538.275
G1 X27.763 Y12.372
X27.93 Y12.394 F630
X28.091 Y12.442
X28.238 Y12.525
X28.363 Y12.638
X28.555 Y12.914 F700
X28.755 Y13.558
G2 X29.835 Y17.825 I9.865 J-0.226
G1 X29.887 Y17.892 Z-6.757
X29.949 Y17.948 Z-6.583
X30.02 Y17.993 Z-6.41
X30.096 Y18.025 Z-6.236
X30.103 Y18.027 Z-6.219
X30.169 Y18.046 Z-6.075 F1200
X30.236 Y18.054 Z-5.93
G2 X30.529 Y17.281 I0.017 J-0.435
G1 X30.473 Y17.242 Z-6.075
X30.411 Y17.212 Z-6.219
G2 X30.085 Y17.217 Z-6.93 I-0.158 J0.406 F700
G1 X29.404 Y17.531
X29.29 Y17.655
X29.151 Y17.75 F630
X28.839 Y17.875 F700
X27.494 Y17.951
G2 X11.932 Y17.845 I-11.639 J569.789
G3 X4.123 Y17.813 I-2.356 J-378.085
X3.523 Y17.804 I5.454 J-378.053 F630
G1 X3.381 Y17.676
X3.262 Y17.557
X3.082 Y17.272 F700
X2.909 Y16.621
G2 X3.11 Y13.185 I-53.919 J-4.888
G1 X3.099 Y13.12 Z-6.791
X3.073 Y13.059 Z-6.652
X3.035 Y13.005 Z-6.513
X2.986 Y12.961 Z-6.374
X2.959 Y12.937 Z-6.297
X2.934 Y12.91 Z-6.219
X2.898 Y12.853 Z-6.075 F1200
X2.875 Y12.789 Z-5.93
X2.868 Y12.731
X2.872 Y12.672
X2.887 Y12.616
X2.913 Y12.564
X3.475 Y11.658
G3 X4.012 Y11.919 I0.255 J0.158
G1 X3.917 Y12.22
X3.884 Y12.353 Z-6.219
G2 X3.825 Y12.682 Z-6.93 I3.554 J0.81 F700
G1 X3.807 Y12.869
X4.526 Y13.08
G2 X10.45 Y12.901 I2.242 J-23.866
X15.379 Y12.952 I2.675 J-20.267
G1 X18.971 Y12.888
X22.562 Y12.816
X26.153 Y12.737
X26.898 Y12.784
X27.497 Y12.821 F630
X27.654 Y12.882
X27.794 Y12.976
X28.025 Y13.221
X28.172 Y13.524 F700
X28.494 Y14.832
G2 X29.002 Y17.277 I6.579 J-0.091
X29.181 Y17.457 Z-6.374 I0.282 J-0.102
G1 X29.214 Y17.471 Z-6.297
X29.245 Y17.49 Z-6.219
X29.297 Y17.534 Z-6.075 F1200
X29.337 Y17.589 Z-5.93
X29.354 Y17.622
X29.366 Y17.657
X29.609 Y18.519
G3 X29.38 Y18.894 I-0.289 J0.081
X29.022 Y18.639 I-0.06 J-0.294
G1 X28.968 Y18.327
X28.937 Y18.195 Z-6.219
G2 X28.839 Y17.875 Z-6.93 I-3.53 J0.91 F700
G1 X28.589 Y17.249
X27.948 Y17.454
X23.282 Y17.408
X18.616 Y17.374
X13.95 Y17.352
X9.284 Y17.343
X4.618 Y17.345
X4.018 Y17.346 F630
X3.868 Y17.227
X3.739 Y17.118
X3.638 Y16.983
X3.501 Y16.676 F700
X3.421 Y16.007
X3.578 Y14.292
X3.599 Y13.956
X3.61 Y13.283
G2 X3.487 Y12.979 Z-6.219 I-0.457 J0.009
G1 X3.436 Y12.933 Z-6.075 F1200
X3.38 Y12.895 Z-5.93
G2 X2.978 Y12.869 I-0.228 J0.397
X2.732 Y13.612 I0.197 J0.477
G1 X2.771 Y13.668 Z-6.075
X2.817 Y13.718 Z-6.219
G2 X3.114 Y13.859 Z-6.93 I0.358 J-0.372 F700
G1 X3.675 Y13.906
X3.829 Y13.799
X3.98 Y13.724
X4.63 Y13.55
G2 X11.392 Y13.343 I2.518 J-28.258
G1 X12.13 Y13.518
X19.327 Y13.382
X26.523 Y13.251
X27.026 Y13.293 F630
X27.187 Y13.343
X27.333 Y13.427
X27.456 Y13.542
X27.648 Y13.818 F700
G3 X28.28 Y16.802 I-10.696 J3.823
G1 X28.305 Y16.868
X28.345 Y16.927
X28.395 Y16.976
X28.455 Y17.012
X28.52 Y17.034
X28.588 Y17.041
X28.656 Y17.033
X28.72 Y17.011
X28.778 Y16.976
X28.826 Y16.929
X28.862 Y16.874
X28.885 Y16.812
X28.904 Y16.748 Z-6.922
X28.921 Y16.687 Z-6.9
X28.937 Y16.632 Z-6.865
X28.95 Y16.587 Z-6.817
X28.96 Y16.553 Z-6.76
X28.967 Y16.531 Z-6.697
X28.969 Y16.524 Z-6.63
G0 Z2
X5.007 Y12.109
Z-6.33
G1 Z-6.63 F700
X5.003 Y12.115 Z-6.697
X4.991 Y12.134 Z-6.76
X4.973 Y12.165 Z-6.817
X4.949 Y12.206 Z-6.865
X4.92 Y12.254 Z-6.9
X4.887 Y12.309 Z-6.922
X4.853 Y12.366 Z-6.93
G2 X4.526 Y13.08 I3.132 J1.866
G1 X4.325 Y13.763
G2 X7.304 Y14.154 I2.323 J-6.163
G1 X8.31 Y14.131
G3 X13.085 Y14.006 I2.892 J19.267
G2 X25.585 Y13.719 I-14.326 J-895.922
G1 X26.257 Y13.767
X26.593 Y13.772 F630
X26.753 Y13.825
X26.897 Y13.912
G3 X27.646 Y16.108 I-2.032 J1.918 F700
G1 X27.821 Y16.938
X27.947 Y17.455
X27.948 Y17.454
X27.743 Y16.813
X27.086 Y16.964
G2 X13.383 Y16.903 I-8.504 J372.333
G1 X9.213 Y16.86
X5.044 Y16.805
X4.444 Y16.796 F630
X4.295 Y16.716
X4.168 Y16.606
X4.069 Y16.47
X4.003 Y16.315
X3.943 Y15.984 F700
X3.983 Y15.311
X4.079 Y14.305
G2 X3.928 Y14.027 Z-6.219 I-0.299 J-0.018
G1 X3.865 Y14 Z-6.075 F1200
X3.798 Y13.988 Z-5.93
G2 X3.482 Y14.25 I-0.018 J0.299
G1 X3.169 Y16.699
X3.167 Y16.754
X3.175 Y16.809
X3.193 Y16.861
X3.221 Y16.909
X3.266 Y16.96 Z-6.075
X3.321 Y17 Z-6.219
G2 X3.638 Y16.983 Z-6.93 I0.146 J-0.262 F700
G1 X4.238 Y16.533
X4.397 Y16.194
X4.479 Y15.525
X4.503 Y15.189
X4.561 Y14.518
G2 X4.096 Y13.623 I-0.999 J-0.05
G1 X4.064 Y13.611
X4.03 Y13.614
X4 Y13.63
X3.98 Y13.657
X3.972 Y13.691
X3.98 Y13.724
X4.603 Y14.972
X4.922 Y14.775
X5.238 Y14.658
X6.581 Y14.562
X7.317 Y14.705
G2 X11.22 Y14.352 I-6.698 J-95.879
X18.017 Y14.401 I3.712 J-43.745
G1 X21.837 Y14.312
X25.657 Y14.233
X26.257 Y14.222 F630
X26.408 Y14.31
X26.543 Y14.411
G3 X27.211 Y16.44 I-2.459 J1.934 F700
G2 X27.416 Y16.682 Z-6.219 I0.297 J-0.043
G1 X27.452 Y16.692 Z-6.141 F1200
X27.488 Y16.696 Z-6.064
X27.551 Y16.7 Z-5.93
X28.15 Y16.74
G2 X28.47 Y16.438 I0.02 J-0.299
G1 X28.462 Y16.371 Z-6.075
X28.439 Y16.307 Z-6.219
G2 X28.168 Y16.141 Z-6.93 I-0.268 J0.134 F700
G1 X26.926 Y16.195
X26.616 Y16.328
X25.948 Y16.415
X22.389 Y16.394
X18.831 Y16.385
X15.272 Y16.389
X11.713 Y16.405
G2 X5.496 Y16.344 I-4.076 J99.865
G1 X4.822 Y16.33
G2 X4.555 Y16.501 Z-6.219 I0.004 J0.3
G1 X4.533 Y16.566 Z-6.075 F1200
X4.526 Y16.633 Z-5.93
G2 X4.821 Y16.93 I0.3 J-0.004
G1 X26.787 Y17.32
X26.818 Y17.319
X26.849 Y17.315
X26.914 Y17.294 Z-6.075
X26.973 Y17.26 Z-6.219
G2 X27.086 Y16.964 Z-6.93 I-0.181 J-0.24 F700
G1 X26.86 Y15.979
X26.129 Y15.814
X25.462 Y15.911
X24.715 Y15.843
X23.372 Y15.951
X22.702 Y15.88
X21.355 Y15.898
X20.008 Y15.9
X19.261 Y15.839
X17.917 Y15.937
G2 X13.806 Y15.942 I-1.995 J45.66
G1 X13.061 Y15.852
X11.716 Y15.913
X10.971 Y15.822
G3 X4.977 Y15.84 I-3.293 J-101.396
G1 X4.913 Y15.845 Z-6.788
X4.85 Y15.864 Z-6.646
X4.793 Y15.898 Z-6.504
X4.745 Y15.943 Z-6.362
X4.707 Y15.998 Z-6.219
X4.684 Y16.062 Z-6.075 F1200
X4.676 Y16.129 Z-5.93
G2 X4.92 Y16.426 I0.3 J0.001
G1 X8.627 Y17.136
X8.648 Y17.14
X8.67 Y17.141
X8.738 Y17.137 Z-6.075
X8.803 Y17.117 Z-6.219
G2 X8.983 Y16.855 Z-6.93 I-0.119 J-0.275 F700
G1 X8.997 Y15.602
X8.352 Y15.22
X7.695 Y15.372
X6.59 Y15.343
X5.918 Y15.386
X5.246 Y15.337
G2 X4.934 Y15.639 I-0.012 J0.3
G1 X4.948 Y15.69 Z-6.925
X4.961 Y15.739 Z-6.911
X4.974 Y15.785 Z-6.888
X5.008 Y15.821 Z-6.851
X5.036 Y15.85 Z-6.804
X5.057 Y15.872 Z-6.75
X5.07 Y15.885 Z-6.692
X5.074 Y15.89 Z-6.63
G0 Z-6.226
X7.931 Y15.404
Z-6.33
G1 Z-6.63 F700
X7.938 Y15.406 Z-6.697
X7.96 Y15.412 Z-6.76
X7.994 Y15.421 Z-6.817
X8.04 Y15.433 Z-6.865
X8.095 Y15.448 Z-6.9
X8.156 Y15.465 Z-6.922
X8.221 Y15.482 Z-6.93
G2 X8.997 Y15.602 I0.944 J-3.521
G1 X9.67 Y15.61
X9.71 Y14.937
X9.709 Y14.903
X9.691 Y14.853 Z-6.925
X9.673 Y14.805 Z-6.911
X9.657 Y14.76 Z-6.888
X9.631 Y14.731 Z-6.86
X9.608 Y14.705 Z-6.826
X9.588 Y14.682 Z-6.783
X9.572 Y14.665 Z-6.735
X9.563 Y14.654 Z-6.683
X9.56 Y14.651 Z-6.63
G0 Z2
X-3.372 Y9.042
Z-7.32
G1 Z-7.62 F700
X-3.366 Y9.046 Z-7.687
X-3.347 Y9.058 Z-7.75
X-3.317 Y9.077 Z-7.807
X-3.277 Y9.103 Z-7.855
X-3.23 Y9.134 Z-7.89
X-3.176 Y9.168 Z-7.912
X-3.12 Y9.205 Z-7.92
G2 X-1.556 Y9.729 I1.806 J-2.791
G1 X-1.388 Y9.736
X-1.168 Y9.733
X-0.984 Y9.451
X-0.518 Y8.964
X0.077 Y8.649
X1.374 Y8.286
X2.721 Y8.282
X4.068 Y8.24
X25.613 Y7.673
X26.957 Y7.758
X31.661 Y8.079
X31.979 Y8.189 F630
X32.265 Y8.368 F700
X32.761 Y8.823
X33.091 Y9.41
X33.488 Y10.697
G2 X33.713 Y14.808 I101.372 J-3.475
G1 X34.085 Y15.461
X34.667 Y15.935
G2 X39.188 Y17.602 I26.671 J-65.364
G1 X40.399 Y18.192
X41.597 Y18.807
G2 X42.002 Y18.65 I0.127 J-0.272
G1 X42.013 Y18.591 Z-7.914
X42.024 Y18.535 Z-7.896
X42.012 Y18.49 Z-7.87
X42.002 Y18.449 Z-7.836
X41.993 Y18.415 Z-7.796
X41.986 Y18.388 Z-7.749
X41.974 Y18.37 Z-7.686
X41.97 Y18.364 Z-7.62
G0 Z2
X24.918 Y13.191
Z-6.33
G1 Z-6.63 F700
X24.917 Y13.198 Z-6.697
X24.912 Y13.22 Z-6.76
X24.903 Y13.254 Z-6.817
X24.892 Y13.301 Z-6.865
X24.879 Y13.356 Z-6.9
X24.865 Y13.418 Z-6.922
X24.849 Y13.483 Z-6.93
G2 X24.751 Y14.262 I3.547 J0.842
G1 X24.754 Y14.449
X25.069 Y14.653
X25.815 Y14.739
X26.447 Y14.971
G2 X26.829 Y14.766 I0.094 J-0.285
G1 X26.835 Y14.725 Z-6.927
X26.84 Y14.686 Z-6.919
X26.826 Y14.63 Z-6.896
X26.813 Y14.581 Z-6.861
X26.802 Y14.539 Z-6.817
X26.781 Y14.51 Z-6.76
X26.768 Y14.492 Z-6.697
X26.764 Y14.486 Z-6.63
G0 Z-5.815
X25.088 Y14.471
Z-5.919
G1 Z-6.219 F700
G2 X24.754 Y14.449 Z-6.93 I-0.397 J3.624
G1 X24.586 Y14.452
X24.667 Y15.198
X25.34 Y15.168
Y15.158
X24.667 Y15.198
X23.922 Y15.279
X23.601 Y15.382
X22.256 Y15.461
X21.512 Y15.368
X20.167 Y15.444
X19.424 Y15.339
G3 X14.635 Y15.37 I-2.785 J-59.46
G1 X13.293 Y15.496
X12.566 Y15.314
X11.9 Y15.418
X11.14 Y15.345
X10.467 Y15.341
G2 X10.176 Y15.664 I0.009 J0.3
G1 X10.194 Y15.714 Z-6.925
X10.21 Y15.762 Z-6.911
X10.226 Y15.807 Z-6.888
X10.262 Y15.84 Z-6.851
X10.292 Y15.868 Z-6.804
X10.315 Y15.888 Z-6.75
X10.328 Y15.901 Z-6.692
X10.333 Y15.905 Z-6.63
G0 Z2
X-2.384 Y9.323
Z-7.32
G1 Z-7.62 F700
X-2.378 Y9.327 Z-7.687
X-2.359 Y9.339 Z-7.75
X-2.329 Y9.358 Z-7.807
X-2.289 Y9.384 Z-7.855
X-2.242 Y9.415 Z-7.89
X-2.188 Y9.45 Z-7.912
X-2.132 Y9.486 Z-7.92
G2 X-1.388 Y9.736 I0.86 J-1.329
G1 X-1.082 Y9.749
X-0.894 Y9.748
X0.286 Y9.099
X1.587 Y8.748
X2.378 Y8.773
X3.725 Y8.755
X5.071 Y8.713
X25.27 Y8.182
X26.617 Y8.23
X27.96 Y8.329
X30.648 Y8.511
X31.309 Y8.639
X31.892 Y8.976
X32.045 Y9.046
X32.179 Y9.149
G3 X33.052 Y11.986 I-3.552 J2.646
G1 X33.109 Y13.332
X33.161 Y14.081
X33.251 Y14.825
G2 X35.406 Y16.74 I2.858 J-1.046
G1 X36.555 Y17.21
G3 X39.909 Y18.517 I-4.916 J17.571
X40.439 Y18.798 I-8.27 J16.264 F630
G1 X40.884 Y19.412 F700
X41.488 Y19.856
G2 X41.913 Y19.765 I0.169 J-0.248
G1 X41.928 Y19.714 Z-7.915
X41.943 Y19.665 Z-7.901
X41.957 Y19.619 Z-7.878
Y19.608 Z-7.871
X41.947 Y19.564 Z-7.833
X41.939 Y19.527 Z-7.788
X41.933 Y19.5 Z-7.736
X41.929 Y19.483 Z-7.679
X41.927 Y19.477 Z-7.62
G0 Z2
X-2.074 Y9.327
Z-7.32
G1 Z-7.62 F700
X-2.068 Y9.331 Z-7.687
X-2.049 Y9.343 Z-7.75
X-2.02 Y9.363 Z-7.807
X-1.98 Y9.389 Z-7.855
X-1.933 Y9.421 Z-7.89
X-1.88 Y9.456 Z-7.912
X-1.824 Y9.492 Z-7.92
G2 X-1.082 Y9.749 I0.872 J-1.321
G1 X-0.511 Y9.778
X-0.136
X1.149 Y9.373
X1.806 Y9.228
G2 X9.484 Y9.099 I0.894 J-176.034
G1 X25.643 Y8.672
G3 X31.016 Y9.07 I-7.818 J142.075
G1 X31.617 Y9.386
X31.858 Y9.621
X32.228 Y10.183
X32.572 Y11.486
G2 X33.131 Y15.721 I9.604 J0.888
X35.777 Y17.423 I4.187 J-3.601
G1 X37.033 Y17.912
X38.313 Y18.334
X39.567 Y18.825
X39.847 Y19.011
X40.33 Y19.481
X40.774 Y19.987
G2 X41.285 Y19.713 I0.219 J-0.205
G1 X41.27 Y19.648 Z-7.912
X41.255 Y19.587 Z-7.89
X41.242 Y19.531 Z-7.855
X41.231 Y19.485 Z-7.807
X41.223 Y19.45 Z-7.75
X41.218 Y19.429 Z-7.687
X41.216 Y19.421 Z-7.62
G0 Z2
X-1.502 Y9.351
Z-7.32
G1 Z-7.62 F700
X-1.496 Y9.355 Z-7.687
X-1.477 Y9.368 Z-7.75
X-1.447 Y9.387 Z-7.807
X-1.408 Y9.414 Z-7.855
X-1.361 Y9.445 Z-7.89
X-1.308 Y9.48 Z-7.912
X-1.252 Y9.518 Z-7.92
G2 X-0.511 Y9.778 I0.878 J-1.317
G1 X-0.025 Y9.805
X0.281 Y9.828
X1.03 Y9.848
X2.37 Y9.709
G2 X12.621 Y9.518 I0.134 J-267.38
G1 X13.968 Y9.477
X15.314 Y9.445
X26.087 Y9.161
G3 X30.187 Y9.503 I-65.028 J802.498
X30.784 Y9.555 I-69.128 J802.156 F630
G1 X31.092 Y9.693
X31.358 Y9.899
X31.578 Y10.154 F700
X31.889 Y10.752
X32.169 Y12.069
G2 X33.059 Y16.375 I6.038 J0.997
X38.081 Y18.757 I7.894 J-10.159
G1 X39.333 Y19.263
X39.848 Y19.697
G2 X40.278 Y19.635 I0.185 J-0.236
G1 X40.297 Y19.586 Z-7.915
X40.315 Y19.538 Z-7.901
X40.332 Y19.493 Z-7.878
X40.333 Y19.462 Z-7.856
X40.324 Y19.415 Z-7.809
X40.318 Y19.379 Z-7.752
X40.313 Y19.357 Z-7.688
X40.312 Y19.349 Z-7.62
G0 Z2
X-0.7 Y9.378
Z-7.32
G1 Z-7.62 F700
X-0.693 Y9.383 Z-7.687
X-0.675 Y9.395 Z-7.75
X-0.646 Y9.416 Z-7.807
X-0.607 Y9.443 Z-7.855
X-0.561 Y9.476 Z-7.89
X-0.509 Y9.512 Z-7.912
X-0.454 Y9.551 Z-7.92
G2 X0.281 Y9.828 I0.909 J-1.295
G3 X1.754 Y9.993 I-0.543 J11.542
G1 X1.871 Y10.144
G2 X8.344 Y10.097 I2.852 J-52.647
G1 X11.936 Y10.024
X15.527 Y9.94
X19.118 Y9.845
X25.851 Y9.667
G3 X29.952 Y9.979 I-4.572 J87.134
X30.549 Y10.041 I-8.673 J86.822 F630
G1 X30.848 Y10.205
X31.088 Y10.441 F700
G3 X31.682 Y13.419 I-3.501 J2.247
G2 X34.83 Y18.043 I4.621 J0.237
X38.734 Y19.546 I11.993 J-25.319
G1 X39.327 Y19.875
G2 X39.731 Y19.715 I0.125 J-0.273
G1 X39.742 Y19.658 Z-7.914
X39.752 Y19.603 Z-7.897
X39.741 Y19.558 Z-7.872
X39.73 Y19.517 Z-7.839
X39.721 Y19.483 Z-7.799
X39.714 Y19.456 Z-7.753
X39.702 Y19.436 Z-7.688
X39.697 Y19.429 Z-7.62
G0 Z2
X1.368 Y8.985
Z-7.32
G1 Z-7.62 F700
X1.37 Y8.992 Z-7.687
X1.376 Y9.014 Z-7.75
X1.386 Y9.048 Z-7.807
X1.4 Y9.093 Z-7.855
X1.416 Y9.148 Z-7.89
X1.433 Y9.209 Z-7.912
X1.452 Y9.273 Z-7.92
G2 X1.753 Y9.998 I3.498 J-1.027
G1 X1.907 Y10.257
X2.011 Y10.413
X2.723 Y10.647
G2 X9.373 Y10.568 I2.434 J-75.656
G1 X18.126 Y10.362
X26.879 Y10.163
X28.043 Y10.327
X29.46 Y10.432
X30.058 Y10.477 F630
X30.218 Y10.529
X30.368 Y10.606
X30.641 Y10.803
X30.831 Y11.081 F700
X31.108 Y11.695
X31.268 Y13.033
G2 X34.487 Y18.411 I5.032 J0.641
X37.96 Y19.772 I7.14 J-13.109
G1 X38.019 Y19.782
X38.078 Y19.781
X38.136 Y19.768
X38.19 Y19.743
X38.239 Y19.707
X38.279 Y19.663
X38.31 Y19.611
X38.33 Y19.554
X38.337 Y19.49 Z-7.913
X38.322 Y19.435 Z-7.894
X38.309 Y19.386 Z-7.865
X38.298 Y19.342 Z-7.826
X38.277 Y19.315 Z-7.781
X38.262 Y19.294 Z-7.731
X38.252 Y19.282 Z-7.676
X38.249 Y19.278 Z-7.62
G0 Z2
X1.521 Y9.244
Z-7.32
G1 Z-7.62 F700
X1.523 Y9.251 Z-7.687
X1.53 Y9.272 Z-7.75
X1.54 Y9.306 Z-7.807
X1.553 Y9.352 Z-7.855
X1.569 Y9.406 Z-7.89
X1.587 Y9.467 Z-7.912
X1.606 Y9.531 Z-7.92
G2 X1.907 Y10.257 I3.498 J-1.027
G1 X2.058 Y10.511
X2.162 Y10.667
X2.774 Y11.1
G2 X7.884 Y11.091 I2.497 J-31.503
X18.659 Y10.851 I-10.918 J-732.177
G1 X25.392 Y10.677
G3 X29.322 Y10.925 I-0.033 J31.818
X29.916 Y11.005 I-3.962 J31.57 F630
G1 X30.057 Y11.11
X30.304 Y11.339
X30.489 Y11.62 F700
X30.696 Y12.261
X30.799 Y13.604
G2 X34.265 Y18.819 I5.421 J0.156
G1 X34.999 Y19.249
X35.587 Y19.496
X36.21 Y19.752
G2 X36.545 Y19.279 I0.104 J-0.281
G1 X36.503 Y19.228 Z-7.912
X36.462 Y19.179 Z-7.89
X36.426 Y19.135 Z-7.855
X36.395 Y19.099 Z-7.807
X36.373 Y19.071 Z-7.75
X36.358 Y19.054 Z-7.687
X36.354 Y19.048 Z-7.62
G0 Z-6.116
X1.863 Y9.45
Z-7.32
G1 Z-7.62 F700
Y9.457 Z-7.687
Y9.48 Z-7.75
Y9.515 Z-7.807
Y9.563 Z-7.855
Y9.62 Z-7.89
Y9.683 Z-7.912
Y9.75 Z-7.92
G2 X2.058 Y10.511 I1.583 J0
G1 X2.167 Y10.694 F630
X2.166 Y10.708 F700
X2.15 Y10.895
X2.372 Y11.197
X3.024 Y11.567
G2 X8.246 Y11.585 I2.721 J-30.724
G1 X17 Y11.38
X25.753 Y11.165
G3 X29.006 Y11.408 I0.106 J20.481
X29.597 Y11.509 I-3.147 J20.238 F630
G1 X29.727 Y11.639
X29.954 Y11.888
X30.105 Y12.189 F700
X30.411 Y13.501
G2 X33.512 Y18.942 I5.439 J0.505
G1 X34.189 Y19.402
X34.792 Y19.701
X35.412 Y19.966
X35.464 Y19.981
X35.519 Y19.986
X35.52
G2 X35.804 Y19.78 I0 J-0.3
G1 X35.812 Y19.732 Z-7.916
X35.82 Y19.686 Z-7.904
X35.805 Y19.629 Z-7.876
X35.792 Y19.579 Z-7.836
X35.781 Y19.539 Z-7.786
X35.766 Y19.516 Z-7.734
X35.756 Y19.502 Z-7.678
X35.753 Y19.497 Z-7.62
G0 Z-6.116
X2.589 Y9.71
Z-7.32
G1 Z-7.62 F700
X2.586 Y9.717 Z-7.687
X2.576 Y9.736 Z-7.75
X2.559 Y9.768 Z-7.807
X2.537 Y9.81 Z-7.855
X2.511 Y9.861 Z-7.89
X2.482 Y9.917 Z-7.912
X2.451 Y9.976 Z-7.92
G2 X2.166 Y10.708 I3.234 J1.682
G1 X2.117 Y10.915
X2.084 Y11.1
X2.261 Y11.43
X2.533 Y11.688
X3.202 Y12.027
G2 X8.272 Y12.084 I2.825 J-25.868
G1 X17.026 Y11.878
X25.779 Y11.665
G3 X28.689 Y11.894 I0.525 J11.93
X29.274 Y12.028 I-2.385 J11.701 F630
G1 X29.499 Y12.31
X29.788 Y12.919 F700
X30.032 Y14.243
G2 X30.787 Y17.082 I4.24 J0.392
X33.979 Y19.845 I6.902 J-4.748
G1 X34.036 Y19.871
X34.097 Y19.885
X34.16 Y19.884
X34.222 Y19.87
X34.279 Y19.843
X34.33 Y19.804
X34.371 Y19.755
X34.4 Y19.698
X34.416 Y19.636
X34.419 Y19.571
X34.407 Y19.507
X34.382 Y19.447
X34.348 Y19.389 Z-7.912
X34.317 Y19.334 Z-7.89
X34.288 Y19.285 Z-7.855
X34.264 Y19.244 Z-7.807
X34.246 Y19.213 Z-7.75
X34.235 Y19.194 Z-7.687
X34.231 Y19.187 Z-7.62
G0 Z-6.116
X2.541 Y9.917
Z-7.32
G1 Z-7.62 F700
X2.538 Y9.924 Z-7.687
X2.527 Y9.944 Z-7.75
X2.511 Y9.975 Z-7.807
X2.489 Y10.017 Z-7.855
X2.463 Y10.068 Z-7.89
X2.433 Y10.124 Z-7.912
X2.403 Y10.183 Z-7.92
G2 X2.117 Y10.915 I3.234 J1.682
G1 X2.059 Y11.167
X2.031 Y11.319
X2.14 Y11.678
X2.646 Y12.232
G2 X5.906 Y12.648 I2.497 J-6.585
G1 X16.342 Y12.408
X26.778 Y12.162
X28.115 Y12.328
X28.45 Y12.361
X28.613 Y12.405 F630
X28.762 Y12.483
X29.023 Y12.696
X29.205 Y12.979 F700
X29.427 Y13.615
X29.626 Y14.947
G2 X31.609 Y18.76 I5.423 J-0.397
G1 X32.154 Y19.275
X32.747 Y19.735
G2 X33.196 Y19.368 I0.175 J-0.244
G1 X33.168 Y19.307 Z-7.912
X33.142 Y19.249 Z-7.89
X33.119 Y19.197 Z-7.855
X33.099 Y19.154 Z-7.807
X33.084 Y19.121 Z-7.75
X33.075 Y19.101 Z-7.687
X33.072 Y19.094 Z-7.62
G0 Z-6.116
X2.653 Y10.267
Z-7.32
G1 Z-7.62 F700
X2.648 Y10.273 Z-7.687
X2.632 Y10.289 Z-7.75
X2.608 Y10.315 Z-7.807
X2.575 Y10.349 Z-7.855
X2.535 Y10.39 Z-7.89
X2.491 Y10.436 Z-7.912
X2.445 Y10.484 Z-7.92
G2 X2.059 Y11.167 I1.141 J1.096
G1 X1.988 Y11.473
X1.956 Y11.61
X1.957 Y11.798
X2.118 Y12.137
X2.619 Y12.695
G2 X6.907 Y13.109 I3.064 J-9.32
G1 X13.515 Y12.964
X20.124 Y12.811
X26.732 Y12.648
X28.069 Y12.826
X28.229 Y12.877 F630
X28.377 Y12.959
X28.63 Y13.181
X28.801 Y13.471 F700
X29.017 Y14.109
G2 X32.202 Y19.909 I7.18 J-0.169
G1 X32.251 Y19.942
X32.306 Y19.964
X32.366 Y19.973
X32.426 Y19.969
X32.485 Y19.952
X32.539 Y19.922
X32.586 Y19.881
X32.623 Y19.83
X32.648 Y19.772
X32.661 Y19.709
X32.659 Y19.644
X32.643 Y19.581
X32.617 Y19.519 Z-7.912
X32.592 Y19.461 Z-7.89
X32.57 Y19.409 Z-7.855
X32.552 Y19.365 Z-7.807
X32.538 Y19.332 Z-7.75
X32.53 Y19.311 Z-7.687
X32.527 Y19.304 Z-7.62
G0 Z-6.116
X2.369 Y10.719
Z-7.32
G1 Z-7.62 F700
X2.365 Y10.725 Z-7.687
X2.353 Y10.744 Z-7.75
X2.334 Y10.774 Z-7.807
X2.308 Y10.814 Z-7.855
X2.276 Y10.861 Z-7.89
X2.242 Y10.914 Z-7.912
X2.205 Y10.97 Z-7.92
G2 X1.951 Y11.713 I1.324 J0.867
G1 X1.937 Y12.084
X1.94 Y12.271
X2.1 Y12.61
X2.608 Y13.162
G2 X7.084 Y13.608 I3.272 J-10.166
G1 X27.002 Y13.164
X27.665 Y13.288
X27.824 Y13.341 F630
X27.97 Y13.425
X28.219 Y13.651
X28.388 Y13.943 F700
X28.796 Y15.227
G2 X30.169 Y18.632 I5.545 J-0.257
G1 X30.648 Y19.209
X31.131 Y19.678
X31.175 Y19.711
X31.224 Y19.736
X31.277 Y19.751
X31.331 Y19.756
X31.332
G2 X31.564 Y19.647 I0 J-0.3
G1 X31.586 Y19.599 Z-7.915
X31.607 Y19.552 Z-7.901
X31.628 Y19.509 Z-7.878
X31.632 Y19.456 Z-7.837
X31.626 Y19.417 Z-7.791
X31.622 Y19.388 Z-7.738
X31.619 Y19.37 Z-7.681
X31.618 Y19.364 Z-7.62
G0 Z-6.116
X2.346 Y11.086
Z-7.32
G1 Z-7.62 F700
X2.342 Y11.092 Z-7.687
X2.33 Y11.111 Z-7.75
X2.311 Y11.141 Z-7.807
X2.285 Y11.181 Z-7.855
X2.254 Y11.229 Z-7.89
X2.22 Y11.282 Z-7.912
X2.184 Y11.338 Z-7.92
G2 X1.937 Y12.084 I1.332 J0.855
G1 X1.922 Y12.527
X1.927 Y12.714
X2.081 Y13.056
G2 X4.419 Y14.043 I2.197 J-1.942
X9.774 Y14.027 I2.552 J-41.428
G1 X13.986 Y13.92
X18.198 Y13.826
X22.411 Y13.747
X26.624 Y13.682
X27.224 Y13.674 F630
X27.384 Y13.778
X27.531 Y13.86
X27.785 Y14.082 F700
X28.12 Y14.666
X28.467 Y15.967
G2 X30.022 Y19.223 I5.718 J-0.732
G1 X30.461 Y19.734
G2 X30.965 Y19.447 I0.213 J-0.211
G1 X30.948 Y19.383 Z-7.912
X30.932 Y19.322 Z-7.89
X30.917 Y19.267 Z-7.855
X30.905 Y19.221 Z-7.807
X30.896 Y19.186 Z-7.75
X30.891 Y19.165 Z-7.687
X30.889 Y19.157 Z-7.62
G0 Z-6.116
X2.269 Y11.715
Z-7.32
G1 Z-7.62 F700
X2.265 Y11.722 Z-7.687
X2.253 Y11.74 Z-7.75
X2.234 Y11.77 Z-7.807
X2.208 Y11.81 Z-7.855
X2.177 Y11.858 Z-7.89
X2.143 Y11.911 Z-7.912
X2.107 Y11.968 Z-7.92
G2 X1.922 Y12.527 I0.999 J0.641
G1 X1.914 Y13
X1.921 Y13.188
X2.103 Y13.515
X2.622 Y14.058
G2 X6.975 Y14.605 I3.349 J-9.049
X13.107 Y14.406 I-4.266 J-225.687
G1 X19.696 Y14.299
X26.285 Y14.2
X26.885 Y14.191 F630
X27.039 Y14.259
X27.314 Y14.453
X27.524 Y14.716 F700
X27.8 Y15.331
G2 X29.859 Y19.825 I8.201 J-1.038
G1 X29.907 Y19.868
X29.963 Y19.901
X30.025 Y19.92
X30.09 Y19.925
X30.154 Y19.916
X30.215 Y19.894
X30.27 Y19.859
X30.316 Y19.812
X30.35 Y19.757
X30.372 Y19.696
X30.381 Y19.631
X30.375 Y19.566
X30.361 Y19.501 Z-7.912
X30.348 Y19.439 Z-7.89
X30.337 Y19.383 Z-7.855
X30.327 Y19.336 Z-7.807
X30.32 Y19.301 Z-7.75
X30.315 Y19.28 Z-7.687
X30.314 Y19.272 Z-7.62
G0 Z-6.116
X2.298 Y11.992
Z-7.32
G1 Z-7.62 F700
X2.294 Y11.999 Z-7.687
X2.282 Y12.018 Z-7.75
X2.264 Y12.048 Z-7.807
X2.239 Y12.089 Z-7.855
X2.21 Y12.138 Z-7.89
X2.177 Y12.192 Z-7.912
X2.142 Y12.249 Z-7.92
G2 X1.914 Y13 I1.353 J0.822
G1 X1.911 Y13.306
X1.926 Y13.68
X2.106 Y14.01
X2.642 Y14.534
G2 X6.684 Y15.105 I3.309 J-8.838
G1 X10.531 Y14.991
X14.379 Y14.891
X18.227 Y14.806
X22.075 Y14.734
X25.924 Y14.677
X26.524 Y14.67 F630
X26.679 Y14.762
X26.956 Y14.955
X27.155 Y15.226 F700
X27.7 Y16.458
G2 X29.164 Y19.761 I6.05 J-0.705
G1 X29.205 Y19.807
X29.256 Y19.843
X29.313 Y19.867
X29.375 Y19.879
X29.437 Y19.877
X29.499 Y19.861
X29.555 Y19.832
X29.605 Y19.791
X29.644 Y19.741
X29.672 Y19.682
X29.686 Y19.619
X29.687 Y19.554
X29.678 Y19.488 Z-7.912
X29.67 Y19.425 Z-7.89
X29.663 Y19.368 Z-7.855
X29.657 Y19.321 Z-7.807
X29.652 Y19.286 Z-7.75
X29.65 Y19.264 Z-7.687
X29.649 Y19.256 Z-7.62
G0 Z-6.116
X2.295 Y12.298
Z-7.32
G1 Z-7.62 F700
X2.291 Y12.304 Z-7.687
X2.28 Y12.323 Z-7.75
X2.261 Y12.354 Z-7.807
X2.236 Y12.394 Z-7.855
X2.207 Y12.443 Z-7.89
X2.174 Y12.497 Z-7.912
X2.139 Y12.554 Z-7.92
G2 X1.911 Y13.306 I1.353 J0.822
G1 X1.905 Y13.917
X1.913 Y14.104
X2.086 Y14.436
X2.595 Y14.988
G2 X7.795 Y15.573 I3.882 J-11.099
G1 X11.341 Y15.469
X14.886 Y15.376
X18.432 Y15.295
X21.979 Y15.226
X25.525 Y15.168
X26.125 Y15.159 F630
X26.281 Y15.231
X26.561 Y15.418 F700
X26.962 Y15.959
X27.447 Y17.216
G2 X28.605 Y19.863 I5.587 J-0.868
G1 X28.648 Y19.91
X28.701 Y19.948
X28.76 Y19.973
X28.823 Y19.985
X28.888 Y19.982
X28.95 Y19.966
X29.008 Y19.937
X29.058 Y19.895
X29.098 Y19.844
X29.126 Y19.785
X29.141 Y19.722
Y19.657
X29.134 Y19.59 Z-7.912
X29.127 Y19.527 Z-7.89
X29.121 Y19.471 Z-7.855
X29.116 Y19.423 Z-7.807
X29.112 Y19.388 Z-7.75
X29.109 Y19.366 Z-7.687
Y19.358 Z-7.62
G0 Z-6.116
X2.289 Y12.909
Z-7.32
G1 Z-7.62 F700
X2.285 Y12.915 Z-7.687
X2.274 Y12.934 Z-7.75
X2.255 Y12.965 Z-7.807
X2.231 Y13.005 Z-7.855
X2.201 Y13.054 Z-7.89
X2.168 Y13.108 Z-7.912
X2.134 Y13.165 Z-7.92
G2 X1.905 Y13.917 I1.353 J0.822
G1 X1.901 Y14.36
X1.909 Y14.547
X2.066 Y14.887
X2.562 Y15.45
G2 X7.571 Y16.079 I3.91 J-10.878
G1 X10.957 Y15.978
X14.343 Y15.888
X17.729 Y15.81
X21.115 Y15.742
X24.502 Y15.686
X25.174 Y15.649
X25.511 Y15.65
X25.679 Y15.662
X25.842 Y15.705 F630
X26.142 Y15.858
X26.381 Y16.095 F700
X26.724 Y16.675
X27.163 Y17.948
X27.391 Y18.663
X27.67 Y19.359
X28.033 Y19.927
G2 X28.28 Y20.056 I0.247 J-0.17
G1 X28.344 Y20.049
X28.406 Y20.028
X28.462 Y19.995
X28.494 Y19.953 Z-7.915
X28.526 Y19.913 Z-7.901
X28.555 Y19.875 Z-7.878
X28.565 Y19.826 Z-7.84
X28.574 Y19.786 Z-7.793
X28.58 Y19.756 Z-7.738
X28.579 Y19.738 Z-7.68
Y19.732 Z-7.62
G0 Z-6.116
X2.285 Y13.352
Z-7.32
G1 Z-7.62 F700
X2.281 Y13.358 Z-7.687
X2.27 Y13.377 Z-7.75
X2.251 Y13.408 Z-7.807
X2.226 Y13.448 Z-7.855
X2.197 Y13.497 Z-7.89
X2.164 Y13.551 Z-7.912
X2.129 Y13.608 Z-7.92
G2 X1.901 Y14.36 I1.353 J0.822
G1 X1.897 Y14.833
X1.904 Y15.02
X2.056 Y15.363
X2.556 Y15.922
G2 X7.454 Y16.58 I3.946 J-10.817
G3 X24.884 Y16.184 I28.298 J861.977
X25.484 Y16.176 I10.868 J862.373 F630
G1 X25.638 Y16.271
X25.913 Y16.465
X26.129 Y16.724 F700
X26.744 Y17.922
X26.901 Y18.656
X27.1 Y19.299
X27.407 Y19.899
G2 X27.969 Y19.757 I0.262 J-0.146
G1 X27.97 Y19.69 Z-7.912
X27.971 Y19.627 Z-7.89
X27.972 Y19.57 Z-7.855
Y19.523 Z-7.807
X27.973 Y19.487 Z-7.75
Y19.465 Z-7.687
Y19.457 Z-7.62
G0 Z-6.116
X2.281 Y13.825
Z-7.32
G1 Z-7.62 F700
X2.277 Y13.832 Z-7.687
X2.265 Y13.851 Z-7.75
X2.247 Y13.881 Z-7.807
X2.222 Y13.922 Z-7.855
X2.193 Y13.97 Z-7.89
X2.16 Y14.025 Z-7.912
X2.125 Y14.082 Z-7.92
G2 X1.897 Y14.833 I1.353 J0.822
G1 X1.892 Y15.276
X1.9 Y15.463
X2.042 Y15.81
X2.521 Y16.388
G2 X8.67 Y17.026 I4.454 J-12.964
G3 X19.254 Y16.771 I22.163 J700.304
X24.54 Y16.709 I10.099 J629.668
X25.14 Y16.704 I4.813 J629.731 F630
G1 X25.294 Y16.773
X25.571 Y16.964 F700
X25.988 Y17.493
X26.552 Y18.717
X26.668 Y19.38
X26.885 Y20.018
G2 X27.462 Y19.959 I0.28 J-0.107
G1 X27.472 Y19.893 Z-7.912
X27.482 Y19.83 Z-7.89
X27.491 Y19.774 Z-7.855
X27.499 Y19.727 Z-7.807
X27.505 Y19.692 Z-7.75
X27.508 Y19.67 Z-7.687
X27.509 Y19.663 Z-7.62
G0 Z-6.116
X2.277 Y14.268
Z-7.32
G1 Z-7.62 F700
X2.273 Y14.275 Z-7.687
X2.261 Y14.293 Z-7.75
X2.243 Y14.324 Z-7.807
X2.218 Y14.365 Z-7.855
X2.188 Y14.413 Z-7.89
X2.155 Y14.467 Z-7.912
X2.121 Y14.525 Z-7.92
G2 X1.892 Y15.276 I1.353 J0.822
G1 X1.89 Y15.581
X1.895 Y15.749
X1.926 Y16.123
X2.116 Y16.447
X2.697 Y16.921
G2 X7.735 Y17.569 I4.074 J-11.771
X14.465 Y17.329 I-3.584 J-194.831
G3 X19.908 Y17.26 I9.589 J542.555
X24.184 Y17.193 I3.743 J102.232
X24.784 Y17.198 I-0.533 J102.299 F630
G1 X25.095 Y17.345
X25.352 Y17.563 F700
X25.747 Y18.108
X26.258 Y19.354
X26.328 Y20.024
G2 X26.903 Y20.095 I0.297 J-0.042
G1 X26.928 Y20.033 Z-7.912
X26.952 Y19.974 Z-7.89
X26.974 Y19.922 Z-7.855
X26.991 Y19.878 Z-7.807
X27.005 Y19.844 Z-7.75
X27.013 Y19.824 Z-7.687
X27.016 Y19.817 Z-7.62
G0 Z-6.116
X2.236 Y14.726
Z-7.32
G1 Z-7.62 F700
X2.233 Y14.733 Z-7.687
X2.222 Y14.752 Z-7.75
X2.205 Y14.784 Z-7.807
X2.182 Y14.825 Z-7.855
X2.154 Y14.875 Z-7.89
X2.124 Y14.931 Z-7.912
X2.092 Y14.989 Z-7.92
G2 X1.895 Y15.749 I1.386 J0.764
G1 X1.9 Y15.887
X1.933 Y16.36
X1.964 Y16.615
X2.176 Y16.924
X2.752 Y17.404
G2 X7.73 Y18.066 I4.082 J-11.656
X15.13 Y17.767 I-1.336 J-124.839
X22.756 Y17.657 I0.863 J-205.053
G1 X23.84 Y17.686
X24.44 Y17.701 F630
X24.598 Y17.758
G3 X25.835 Y20.031 I-1.594 J2.34 F700
G2 X26.414 Y20.062 I0.293 J-0.062
G1 X26.434 Y19.998 Z-7.912
X26.454 Y19.938 Z-7.89
X26.471 Y19.884 Z-7.855
X26.486 Y19.839 Z-7.807
X26.497 Y19.805 Z-7.75
X26.504 Y19.784 Z-7.687
X26.506 Y19.776 Z-7.62
G0 Z-6.116
X2.236 Y15.325
Z-7.32
G1 Z-7.62 F700
X2.232 Y15.332 Z-7.687
X2.222 Y15.352 Z-7.75
X2.206 Y15.384 Z-7.807
X2.185 Y15.426 Z-7.855
X2.159 Y15.477 Z-7.89
X2.131 Y15.534 Z-7.912
X2.101 Y15.593 Z-7.92
G2 X1.933 Y16.36 I1.414 J0.712
G1 X1.959 Y16.727
X1.962 Y16.765
X1.977 Y16.831
X2.004 Y16.886
X2.023 Y16.914
X2.423 Y17.381
X2.676 Y17.646
X2.794 Y17.748
X2.931 Y17.822
X3.081 Y17.867
X3.096 Y17.845 Z-7.862
G2 X3.128 Y17.551 Z-7.206 I-0.244 J-0.175
G1 X3.075 Y17.427 Z-6.92 F1200
X2.671 Y16.494
G2 X2.1 Y16.665 I-0.275 J0.119
X2.188 Y16.975 I1.559 J-0.273
G1 X2.243 Y17.099 Z-7.209
G2 X2.423 Y17.381 Z-7.92 I1.416 J-0.707 F700
G1 X2.749 Y17.757
X2.806 Y17.799
X5.035 Y18.285
G2 X9.972 Y18.475 I3 J-13.759
X15.941 Y18.18 I0.103 J-58.51
X20.157 Y18.219 I2.396 J-30.987
G3 X23.481 Y18.165 I8.964 J442.982
X24.081 Y18.157 I5.64 J443.036 F630
G1 X24.399 Y18.282
X24.661 Y18.495
X24.875 Y18.754 F700
X25.196 Y19.346
X25.325 Y20.007
G2 X25.904 Y20.027 I0.292 J-0.068
G1 X25.924 Y19.963 Z-7.912
X25.942 Y19.903 Z-7.89
X25.959 Y19.848 Z-7.855
X25.973 Y19.803 Z-7.807
X25.983 Y19.769 Z-7.75
X25.99 Y19.747 Z-7.687
X25.992 Y19.74 Z-7.62
G0 Z-6.116
X4.177 Y17.635
Z-7.32
G1 Z-7.62 F700
X4.182 Y17.64 Z-7.687
X4.197 Y17.657 Z-7.75
X4.221 Y17.683 Z-7.807
X4.253 Y17.718 Z-7.855
X4.291 Y17.761 Z-7.89
X4.334 Y17.808 Z-7.912
X4.379 Y17.857 Z-7.92
G2 X5.034 Y18.29 I1.173 J-1.063
G1 X7.015 Y18.923
X7.74 Y19.116
G2 X16.478 Y18.649 I-7.217 J-217.042
X23.225 Y18.665 I3.518 J-61.92
X23.824 Y18.631 I-3.228 J-61.936 F630
G1 X24.135 Y18.802
X24.38 Y19.033
X24.576 Y19.307 F700
X24.824 Y19.933
G2 X25.232 Y20.082 I0.275 J-0.12
G1 X25.272 Y20.047 Z-7.915
X25.311 Y20.014 Z-7.901
X25.347 Y19.982 Z-7.878
X25.364 Y19.936 Z-7.841
X25.378 Y19.898 Z-7.794
X25.388 Y19.87 Z-7.74
X25.395 Y19.852 Z-7.682
X25.397 Y19.846 Z-7.62
G0 Z-7.216
X25.586 Y19.444
Z-7.32
G1 Z-7.62 F700
X25.593 Y19.443 Z-7.687
X25.615 Y19.44 Z-7.75
X25.65 Y19.435 Z-7.807
X25.697 Y19.428 Z-7.855
X25.754 Y19.421 Z-7.89
X25.817 Y19.412 Z-7.912
X25.883 Y19.403 Z-7.92
G3 X26.668 Y19.38 I0.497 J3.588
G1 X24.677 Y19.727
X24.383 Y19.891
X23.723 Y20.024
G2 X11.826 Y19.986 I-7.827 J584.237
G1 X11.19 Y19.765
X10.559 Y19.528
X10.527 Y19.523 Z-7.917
X10.495 Y19.518 Z-7.907
X10.453 Y19.529 Z-7.881
X10.421 Y19.538 Z-7.844
X10.4 Y19.544 Z-7.798
X10.393 Y19.546 Z-7.748
G0 Z-6.116
X6.166 Y18.258
Z-7.32
G1 Z-7.62 F700
X6.171 Y18.263 Z-7.687
X6.186 Y18.28 Z-7.75
X6.21 Y18.307 Z-7.807
X6.241 Y18.342 Z-7.855
X6.279 Y18.385 Z-7.89
X6.321 Y18.432 Z-7.912
X6.365 Y18.482 Z-7.92
G2 X7.015 Y18.923 I1.185 J-1.048
G1 X10.994 Y20.202
X11.434 Y20.469
X11.478 Y20.496 Z-7.913
X11.52 Y20.522 Z-7.893
X11.556 Y20.543 Z-7.861
X11.583 Y20.56 Z-7.819
X11.601 Y20.571 Z-7.77
X11.607 Y20.574 Z-7.717
G0 Z2
X-3.245 Y8.319
Z-8.301
G1 Z-8.601 F700
X-3.239 Y8.323 Z-8.668
X-3.219 Y8.334 Z-8.731
X-3.188 Y8.351 Z-8.788
X-3.147 Y8.374 Z-8.835
X-3.097 Y8.402 Z-8.871
X-3.042 Y8.433 Z-8.893
X-2.983 Y8.465 Z-8.901
G2 X-1.388 Y8.885 I1.618 J-2.905
G1 X-1.25 Y8.881
X-1.063 Y8.867
X-0.913 Y8.132
X-0.894 Y7.796
X-0.784 Y7.477 F630
X-0.592 Y7.201 F700
X-0.105 Y6.735
X0.507 Y6.454
X1.824 Y6.169
X3.17 Y6.22
X4.517 Y6.211
X9.905 Y6.227
X35.499 Y6.29
X36.846 Y6.272
X38.192 Y6.227
X47.618 Y5.95
X70.508 Y5.274
X98.774 Y4.167
G3 X101.867 Y4.398 I-0.616 J29.051
X102.461 Y4.481 I-3.708 J28.82 F630
G1 X102.757 Y4.65 F700
X103.014 Y4.868
X103.444 Y5.386
X103.704 Y6.007
X103.99 Y7.324
X104.007 Y8.671
X104.077 Y10.016
X104.105 Y10.689
G2 X106.328 Y12.81 I3.702 J-1.654
G1 X107.555 Y13.366
X108.787 Y13.911
X109.788 Y14.813
X110.66 Y15.84
X111.152 Y17.094
X111.386 Y17.725
X111.498 Y18.464
X111.588 Y19.057 F630
X111.525 Y19.388
X111.373 Y19.689
X111.159 Y19.949 F700
X110.642 Y20.38
X110.018 Y20.633
X108.694 Y20.884
X107.348 Y20.84
X106.001 Y20.852
X99.266 Y20.85
X84.448 Y20.851
X43.596 Y20.855
X43.374 Y20.887
X43.171 Y20.982
X43.004 Y21.13
X42.886 Y21.32
X42.827 Y21.536
X42.833 Y21.76
X42.903 Y21.973
G2 X43.322 Y22.087 I0.264 J-0.143
G1 X43.359 Y22.049 Z-8.896
X43.394 Y22.012 Z-8.882
X43.428 Y21.978 Z-8.858
X43.441 Y21.931 Z-8.821
X43.452 Y21.891 Z-8.775
X43.46 Y21.862 Z-8.721
X43.465 Y21.844 Z-8.663
X43.467 Y21.838 Z-8.601
G0 Z2
X23.282 Y17.568
Z-7.32
G1 Z-7.62 F700
X23.28 Y17.575 Z-7.687
X23.276 Y17.597 Z-7.75
X23.269 Y17.632 Z-7.807
X23.26 Y17.678 Z-7.855
X23.249 Y17.734 Z-7.89
X23.236 Y17.796 Z-7.912
X23.223 Y17.862 Z-7.92
G2 X23.154 Y18.644 I3.576 J0.711
G1 X23.174 Y19.019
X23.825 Y19.193
X23.849 Y19.192
X23.87 Y19.18
X23.882 Y19.158
X23.881 Y19.134
X23.869 Y19.113
X23.848 Y19.101
G2 X23.174 Y19.019 I-0.627 J2.327
G1 X22.502 Y19.055
X22.394 Y19.185
X22.26 Y19.287 F630
X21.954 Y19.427 F700
X21.292 Y19.549
G2 X14.709 Y19.515 I-3.756 J89.508
G1 X14.035 Y19.49
G2 X13.742 Y19.81 I0.006 J0.3
G1 X13.758 Y19.861 Z-7.915
X13.775 Y19.909 Z-7.901
X13.79 Y19.955 Z-7.878
X13.826 Y19.988 Z-7.841
X13.856 Y20.016 Z-7.794
X13.878 Y20.036 Z-7.74
X13.891 Y20.049 Z-7.682
X13.896 Y20.053 Z-7.62
G0 Z2
X-2.271 Y8.535
Z-8.301
G1 Z-8.601 F700
X-2.265 Y8.539 Z-8.668
X-2.245 Y8.549 Z-8.731
X-2.214 Y8.567 Z-8.788
X-2.173 Y8.59 Z-8.835
X-2.123 Y8.618 Z-8.871
X-2.068 Y8.649 Z-8.893
X-2.009 Y8.681 Z-8.901
G2 X-1.25 Y8.881 I0.771 J-1.382
G1 X-0.944 Y8.873
X-0.757 Y8.858
X-0.472 Y8.168
X-0.242 Y7.613 F630
X-0.017 Y7.363
X0.551 Y7 F700
X1.853 Y6.657
G2 X8.28 Y6.722 I4.732 J-151.004
G1 X35.221 Y6.79
X36.568 Y6.777
X48.686 Y6.418
X70.23 Y5.782
X98.496 Y4.678
X99.843 Y4.704
G3 X101.906 Y4.992 I0.208 J6.052
X102.467 Y5.203 I-1.854 J5.764 F630
G1 X102.598 Y5.316 F700
G3 X103.524 Y8.359 I-3.419 J2.702
G1 X103.551 Y9.706
G2 X105.334 Y12.814 I3.685 J-0.048
G1 X105.989 Y13.179
X107.203 Y13.763
G3 X110.58 Y16.853 I-1.757 J5.311
G1 X110.983 Y18.139
X110.992 Y18.475 F630
X110.856 Y19.135 F700
X110.729 Y19.447 F630
X110.637 Y19.588
X110.518 Y19.707
X109.95 Y20.068 F700
X108.647 Y20.41
G2 X103.753 Y20.348 I-3.479 J81.746
G1 X80.853 Y20.352
X44.483 Y20.355
X43.733 Y20.365
X43.058 Y20.546
X42.852 Y20.637
X42.681 Y20.786
X42.563 Y20.978
X42.507 Y21.197
X42.519 Y21.422
X42.597 Y21.634
X42.735 Y21.813
G2 X43.22 Y21.495 I0.2 J-0.224
G1 X43.199 Y21.431 Z-8.893
X43.179 Y21.371 Z-8.871
X43.161 Y21.317 Z-8.835
X43.146 Y21.272 Z-8.788
X43.135 Y21.238 Z-8.731
X43.128 Y21.217 Z-8.668
X43.125 Y21.21 Z-8.601
G0 Z2
X-1.965 Y8.526
Z-8.301
G1 Z-8.601 F700
X-1.959 Y8.53 Z-8.668
X-1.939 Y8.54 Z-8.731
X-1.908 Y8.558 Z-8.788
X-1.866 Y8.581 Z-8.835
X-1.817 Y8.609 Z-8.871
X-1.761 Y8.64 Z-8.893
X-1.703 Y8.672 Z-8.901
G2 X-0.944 Y8.873 I0.771 J-1.382
G1 X-0.638 Y8.864
X-0.451 Y8.85
G3 X0.62 Y7.569 I3.706 J2.011
G1 X1.248 Y7.316
X1.905 Y7.165
G2 X7.966 Y7.222 I4.58 J-165.594
G1 X34.907 Y7.289
X36.254 Y7.281
X37.6 Y7.248
X38.947 Y7.204
X49.719 Y6.888
X69.916 Y6.292
X71.262 Y6.245
X98.183 Y5.191
X99.529 Y5.171
X100.87 Y5.305
X101.54 Y5.372
X101.855 Y5.491
X102.151 Y5.652 F630
X102.383 Y5.896 F700
X102.732 Y6.472
X103.088 Y7.771
G2 X103.245 Y10.948 I9.529 J1.122
X106.69 Y14.038 I5.185 J-2.314
G1 X107.909 Y14.62
G3 X110.445 Y18.368 I-2.32 J4.302
G1 X110.412 Y18.703 F630
X110.368 Y18.866
X110.218 Y19.168
X109.978 Y19.404
X109.388 Y19.729 F700
X108.728 Y19.864
X103.64 Y19.86
X98.551 Y19.852
X89.122 Y19.851
X78.345 Y19.852
X44.669 Y19.855
X43.919 Y19.868
X43.184 Y20.015
X42.609 Y20.295
X42.413 Y20.433
X42.271 Y20.625
X42.197 Y20.853
X42.198 Y21.093
X42.275 Y21.32
X42.42 Y21.511
G2 X42.904 Y21.193 I0.2 J-0.224
G1 X42.883 Y21.13 Z-8.893
X42.863 Y21.069 Z-8.871
X42.845 Y21.015 Z-8.835
X42.83 Y20.97 Z-8.788
X42.819 Y20.936 Z-8.731
X42.812 Y20.915 Z-8.668
X42.81 Y20.908 Z-8.601
G0 Z2
X-1.659 Y8.518
Z-8.301
G1 Z-8.601 F700
X-1.652 Y8.521 Z-8.668
X-1.633 Y8.532 Z-8.731
X-1.602 Y8.55 Z-8.788
X-1.56 Y8.573 Z-8.835
X-1.511 Y8.6 Z-8.871
X-1.455 Y8.631 Z-8.893
X-1.397 Y8.664 Z-8.901
G2 X-0.638 Y8.864 I0.771 J-1.382
G1 X-0.332 Y8.856
X-0.145 Y8.841
X0.897 Y7.987
X1.526 Y7.748
X2.861 Y7.565
X3.602 Y7.677
G2 X11.683 Y7.729 I7.05 J-473.834
G1 X19.765 Y7.751
X34.583 Y7.788
G2 X41.316 Y7.637 I-1.149 J-201.621
G1 X49.395 Y7.397
X69.592 Y6.801
X70.938 Y6.757
X97.859 Y5.704
X99.206 Y5.664
X100.55 Y5.743
X101.215 Y5.85
X101.539 Y5.942
X101.822 Y6.125 F630
X102.045 Y6.377 F700
X102.379 Y6.962
X102.664 Y8.279
G2 X106.103 Y14.275 I5.102 J1.058
G1 X107.91 Y15.192
X108.444 Y15.602
X108.931 Y16.068
X109.318 Y16.619
X109.621 Y17.221
X109.852 Y17.854
X109.905 Y18.186 F630
X109.895 Y18.354
X109.858 Y18.519
X109.787 Y18.671
X109.587 Y18.942
X109.315 Y19.14
X109.001 Y19.262 F700
X108.341 Y19.397
X104.05 Y19.37
X99.759 Y19.353
X95.468 Y19.346
X91.177 Y19.35
X76.36 Y19.352
X45.377 Y19.355
X44.627 Y19.359
X43.879 Y19.403
X43.142 Y19.542
X42.456 Y19.847
X42.134 Y20.157
X42.009 Y20.315
X41.93 Y20.5
X41.904 Y20.699
X41.931 Y20.898
X42.01 Y21.083
X42.136 Y21.24
G2 X42.62 Y20.922 I0.2 J-0.224
G1 X42.599 Y20.858 Z-8.893
X42.579 Y20.798 Z-8.871
X42.561 Y20.744 Z-8.835
X42.546 Y20.699 Z-8.788
X42.535 Y20.665 Z-8.731
X42.528 Y20.644 Z-8.668
X42.526 Y20.637 Z-8.601
G0 Z2
X-1.353 Y8.509
Z-8.301
G1 Z-8.601 F700
X-1.346 Y8.513 Z-8.668
X-1.327 Y8.523 Z-8.731
X-1.296 Y8.541 Z-8.788
X-1.254 Y8.564 Z-8.835
X-1.205 Y8.592 Z-8.871
X-1.149 Y8.623 Z-8.893
X-1.091 Y8.655 Z-8.901
G2 X-0.332 Y8.856 I0.771 J-1.382
G1 X-0.025 Y8.848
X0.348 Y8.819
G3 X4.03 Y8.19 I2.613 J4.207
G1 X9.798 Y8.217
X15.566 Y8.239
X34.425 Y8.288
X35.772 Y8.284
X37.119 Y8.262
X39.812 Y8.178
X50.584 Y7.863
X69.434 Y7.306
X70.78 Y7.262
X97.701 Y6.211
X99.047 Y6.167
X100.394 Y6.218
X101.057 Y6.332
X101.359 Y6.482
G3 X102.099 Y9.036 I-2.075 J1.985
G2 X105.387 Y14.46 I5.525 J0.359
G1 X106.474 Y15.066
X107.696 Y15.635
X108.216 Y16.063
X108.681 Y16.55
X109.025 Y17.129
X109.289 Y17.749 F630
X109.321 Y17.914
X109.317 Y18.083
X109.276 Y18.246
X109.2 Y18.396
X109.092 Y18.525
X108.824 Y18.729 F700
X108.182 Y18.932
G2 X92.788 Y18.869 I-10.316 J637.38
G1 X88.747 Y18.853
X84.706 Y18.851
X73.929 Y18.852
X45.641 Y18.855
G2 X42.612 Y19.244 I-0.585 J7.435
G1 X41.988 Y19.666
X41.758 Y19.976
X41.654 Y20.173
X41.612 Y20.391
X41.635 Y20.612
X41.723 Y20.817
X41.867 Y20.987
G2 X42.298 Y20.933 I0.19 J-0.232
G1 X42.317 Y20.884 Z-8.896
X42.336 Y20.836 Z-8.882
X42.354 Y20.792 Z-8.858
X42.356 Y20.754 Z-8.832
X42.348 Y20.709 Z-8.785
X42.342 Y20.676 Z-8.729
X42.338 Y20.655 Z-8.666
X42.337 Y20.648 Z-8.601
G0 Z2
X84.096 Y22.588
Z-9.291
G1 Z-9.591 F700
X84.1 Y22.582 Z-9.657
X84.114 Y22.564 Z-9.721
X84.136 Y22.536 Z-9.778
X84.164 Y22.498 Z-9.825
X84.199 Y22.453 Z-9.861
X84.238 Y22.403 Z-9.883
X84.278 Y22.35 Z-9.891
G2 X84.49 Y21.552 I-0.854 J-0.654
G1 X84.45 Y21.318
X84.417 Y21.125
X84.318 Y20.97
X82.971 Y20.939
X81.11 Y20.945
X80.918 Y20.97
X80.739 Y21.043
X80.585 Y21.159
G2 X80.521 Y21.47 Z-9.18 I0.217 J0.207
G1 X80.551 Y21.531 Z-9.035 F1200
X80.595 Y21.583 Z-8.891
X80.644 Y21.621
X80.699 Y21.648
X80.759 Y21.663
X80.82 Y21.666
X84.138 Y21.465
X84.16 Y21.463
X84.226 Y21.446 Z-9.035
X84.286 Y21.415 Z-9.18
G2 X84.417 Y21.125 Z-9.891 I-0.167 J-0.249 F700
G1 X84.267 Y20.861
X84.189 Y20.757
G2 X81.202 Y20.544 I-1.853 J4.942
G1 X81.056 Y20.682
G2 X80.997 Y20.994 Z-9.18 I0.221 J0.203
G1 X81.029 Y21.054 Z-9.035 F1200
X81.074 Y21.106 Z-8.891
X81.115 Y21.138
X81.162 Y21.162
X81.212 Y21.178
X81.264 Y21.185
X83.988 Y21.299
X84.041 Y21.297
X84.092 Y21.285
X84.14 Y21.265
X84.196 Y21.227 Z-9.035
X84.243 Y21.177 Z-9.18
G2 X84.267 Y20.861 Z-9.891 I-0.242 J-0.178 F700
G1 X84.139 Y20.67
X84.033 Y20.513
X83.919 Y20.412
X83.617 Y20.173
X83.561 Y20.139
X83.502 Y20.111
X83.496 Y20.137 Z-9.833
X83.489 Y20.185 Z-9.73
X83.49 Y20.234 Z-9.627
X83.499 Y20.281 Z-9.524
X83.541 Y20.437 Z-9.18
X83.577 Y20.569 Z-8.891 F1200
X83.761 Y21.247
G2 X84.135 Y21.456 I0.29 J-0.078
X84.336 Y21.077 I-0.085 J-0.288
X84.207 Y20.782 I-1.508 J0.481
G1 X84.135 Y20.666 Z-9.18
G2 X83.919 Y20.412 Z-9.891 I-1.307 J0.892 F700
G1 X83.655 Y20.178
X83.47 Y20.096
X83.341 Y20.04
X83.177 Y19.968
X83.054 Y19.926
X82.979 Y19.91
X82.902 Y19.902
X82.906 Y19.929 Z-9.833
G2 X82.994 Y20.222 Z-9.18 I0.991 J-0.137
G1 X83.025 Y20.283 Z-9.035 F1200
X83.061 Y20.341 Z-8.891
G2 X83.581 Y20.741 I0.836 J-0.549
X83.778 Y20.473 I0.055 J-0.166
X83.565 Y20.232 I-1.286 J0.922
G1 X83.461 Y20.144 Z-9.18
G2 X83.177 Y19.968 Z-9.891 I-0.969 J1.251 F700
G1 X83.043 Y19.91
X82.883 Y19.901
X82.634 Y19.887
X82.431 Y19.876
X82.185 Y19.948
G2 X82.009 Y20.208 Z-9.18 I0.094 J0.253
G1 X82.014 Y20.253 Z-9.084 F1200
X82.026 Y20.296 Z-8.987
X82.046 Y20.337 Z-8.891
G2 X82.387 Y20.449 I0.233 J-0.136
G1 X82.515 Y20.393
X82.567 Y20.363
X82.611 Y20.322
X82.645 Y20.272
X82.667 Y20.215
X82.676 Y20.171 Z-8.987
Y20.125 Z-9.084
X82.669 Y20.081 Z-9.18
G2 X82.431 Y19.876 Z-9.891 I-0.262 J0.065 F700
G1 X82.327 Y19.901
X81.819 Y20.07
X81.222 Y20.513
X80.739 Y21.005
X80.567 Y20.836
X79.226 Y20.961
X77.879 Y20.941
X76.035 Y20.945
X75.819 Y20.979
X75.624 Y21.079
X75.469 Y21.234
X75.371 Y21.43
X75.337 Y21.646
X75.373 Y21.863
G2 X75.74 Y22.095 I0.294 J-0.059
G1 X75.786 Y22.069 Z-9.886
X75.831 Y22.045 Z-9.871
X75.873 Y22.022 Z-9.848
X75.9 Y21.98 Z-9.811
X75.922 Y21.946 Z-9.765
X75.938 Y21.92 Z-9.711
X75.948 Y21.905 Z-9.652
X75.951 Y21.899 Z-9.591
G0 Z2
X-1.046 Y8.5
Z-8.301
G1 Z-8.601 F700
X-1.04 Y8.504 Z-8.668
X-1.021 Y8.514 Z-8.731
X-0.989 Y8.532 Z-8.788
X-0.948 Y8.555 Z-8.835
X-0.898 Y8.583 Z-8.871
X-0.843 Y8.614 Z-8.893
X-0.785 Y8.646 Z-8.901
G2 X-0.025 Y8.848 I0.772 J-1.381
G1 X0.755 Y8.827
X1.134 Y8.798
X2.47 Y8.624
X3.814 Y8.53
X4.553 Y8.659
X5.685 Y8.706
X5.864 Y8.705
X5.866 Y8.678 Z-8.843
G2 X5.749 Y8.408 Z-8.19 I-0.298 J-0.03
G1 X5.69 Y8.374 Z-8.046 F1200
X5.625 Y8.353 Z-7.901
X5.584 Y8.348
X0.158 Y8.064
G2 X-0.004 Y8.626 I-0.016 J0.3
X0.292 Y8.753 I0.772 J-1.381
G1 X0.423 Y8.789 Z-8.19
G2 X0.755 Y8.827 Z-8.901 I0.345 J-1.544 F700
G3 X28.75 Y8.687 I16.379 J477.876
G2 X42.216 Y8.61 I5.776 J-167.328
G1 X69.145 Y7.815
X70.492 Y7.772
X73.184 Y7.669
X79.914 Y7.406
X97.412 Y6.722
G3 X100.174 Y6.716 I1.413 J14.158
X100.77 Y6.786 I-1.349 J14.164 F630
G1 X101.057 Y6.978
X101.271 Y7.238
X101.431 Y7.535 F700
X101.638 Y8.176 F630
G2 X102.421 Y12.405 I6.746 J0.938 F700
X105.904 Y15.304 I6.511 J-4.28
G1 X107.104 Y15.918
X107.69 Y16.251
X108.164 Y16.729
X108.545 Y17.285
X108.678 Y17.594 F630
X108.695 Y17.761
X108.675 Y17.929
X108.617 Y18.087
X108.526 Y18.228
X108.406 Y18.346
X108.262 Y18.434
X108.102 Y18.487
X107.432 Y18.553 F700
G2 X103.252 Y18.387 I-2.766 J16.888
G1 X100.333 Y18.371
X97.415 Y18.364
X94.496
X86.415 Y18.354
X78.334 Y18.351
X46.004 Y18.355
X44.981 Y18.358
X44.232 Y18.395
X43.488 Y18.489
X42.766 Y18.693
X42.098 Y19.032
X41.532 Y19.524
X41.381 Y19.775
X41.3 Y19.97
X41.279 Y20.18
X41.32 Y20.387
X41.418 Y20.574
X41.567 Y20.724
G2 X42.036 Y20.384 I0.189 J-0.233
G1 X42.012 Y20.321 Z-8.893
X41.989 Y20.262 Z-8.871
X41.969 Y20.209 Z-8.835
X41.952 Y20.165 Z-8.788
X41.939 Y20.131 Z-8.731
X41.931 Y20.111 Z-8.668
X41.928 Y20.104 Z-8.601
G0 Z2
X27.765 Y8.282
Z-8.301
G1 Z-8.601 F700
X27.771 Y8.286 Z-8.668
X27.79 Y8.299 Z-8.731
X27.819 Y8.319 Z-8.788
X27.858 Y8.346 Z-8.835
X27.905 Y8.378 Z-8.871
X27.957 Y8.414 Z-8.893
X28.012 Y8.452 Z-8.901
G2 X28.749 Y8.725 I0.9 J-1.302
G3 X30.539 Y8.941 I-0.206 J9.21
G1 X30.636 Y9.13
G2 X35.417 Y9.273 I3.348 J-31.848
G1 X38.111 Y9.235
X39.457 Y9.187
X52.922 Y8.794
X69.08 Y8.317
X70.426 Y8.275
X73.118 Y8.172
X81.195 Y7.856
X97.347 Y7.225
X98.693 Y7.176
X99.44 Y7.177
X100.04 Y7.178 F630
X100.371 Y7.24
X100.517 Y7.325
X100.774 Y7.542
X100.948 Y7.83
X101.059 Y8.148 F700
X101.207 Y9.487
G2 X104.439 Y15.042 I6.307 J0.049
G3 X107.208 Y16.606 I-16.743 J32.889
X107.715 Y16.927 I-19.513 J31.325 F630
G1 X107.894 Y17.225
X108.241 Y17.802 F700
G2 X108.793 Y17.623 I0.252 J-0.164
G1 X108.789 Y17.556 Z-8.893
X108.786 Y17.493 Z-8.871
X108.783 Y17.436 Z-8.835
X108.78 Y17.389 Z-8.788
X108.778 Y17.353 Z-8.731
X108.777 Y17.331 Z-8.668
Y17.323 Z-8.601
G0 Z2
X30.141 Y7.963
Z-8.301
G1 Z-8.601 F700
X30.143 Y7.97 Z-8.668
X30.149 Y7.991 Z-8.731
X30.16 Y8.025 Z-8.788
X30.173 Y8.071 Z-8.835
X30.19 Y8.125 Z-8.871
X30.208 Y8.186 Z-8.893
X30.227 Y8.25 Z-8.901
G2 X30.531 Y8.974 I3.493 J-1.043
G1 X30.647 Y9.167
X30.751 Y9.322
X31.409 Y9.682
G2 X42.289 Y9.605 I4.577 J-121.61
G1 X49.022 Y9.41
X69.219 Y8.813
X70.565 Y8.77
X73.257 Y8.667
X81.334 Y8.351
X97.486 Y7.72
X98.832 Y7.671
X99.506 Y7.676
X99.842 Y7.684 F630
X100.002 Y7.736
X100.147 Y7.823
X100.269 Y7.939
X100.458 Y8.217 F700
X100.658 Y8.861
G2 X101.064 Y11.743 I8.886 J0.219
X104.449 Y15.619 I7.102 J-2.788
G1 X105.612 Y16.298
X106.825 Y16.884
X107.346 Y17.311
X107.708 Y17.879
G2 X107.955 Y18.01 I0.247 J-0.17
G1 X108.02 Y18.003
X108.081 Y17.982
X108.137 Y17.949
X108.169 Y17.907 Z-8.896
X108.201 Y17.867 Z-8.882
X108.231 Y17.829 Z-8.858
X108.241 Y17.78 Z-8.82
X108.249 Y17.739 Z-8.772
X108.255 Y17.71 Z-8.717
Y17.692 Z-8.66
X108.254 Y17.686 Z-8.601
G0 Z2
X30.257 Y8.155
Z-8.301
G1 Z-8.601 F700
X30.259 Y8.162 Z-8.668
X30.265 Y8.184 Z-8.731
X30.275 Y8.218 Z-8.788
X30.289 Y8.263 Z-8.835
X30.305 Y8.318 Z-8.871
X30.323 Y8.379 Z-8.893
X30.343 Y8.443 Z-8.901
G2 X30.647 Y9.167 I3.493 J-1.043
G1 X30.83 Y9.472
X31.039 Y9.784
X31.696 Y10.146
G2 X41.269 Y10.112 I4.497 J-80.182
G1 X45.758 Y10
X50.247 Y9.877
X54.735 Y9.742
X69.547 Y9.304
X70.893 Y9.259
X81.661 Y8.837
X97.814 Y8.208
X99.16 Y8.16
X99.328 Y8.166 F630
X99.494 Y8.196
X99.649 Y8.263
X99.785 Y8.362
X99.895 Y8.489
X100.058 Y8.784 F700
X100.376 Y10.093
G2 X101.962 Y14.181 I5.84 J0.086
X106.511 Y17.291 I10.099 J-9.888
G1 X107.043 Y17.705
G2 X107.492 Y17.339 I0.176 J-0.243
G1 X107.465 Y17.278 Z-8.893
X107.439 Y17.22 Z-8.871
X107.416 Y17.168 Z-8.835
X107.396 Y17.125 Z-8.788
X107.382 Y17.092 Z-8.731
X107.373 Y17.072 Z-8.668
X107.37 Y17.065 Z-8.601
G0 Z2
X30.631 Y8.412
Z-8.301
G1 Z-8.601 F700
Y8.42 Z-8.668
Y8.442 Z-8.731
Y8.478 Z-8.788
Y8.525 Z-8.835
X30.632 Y8.582 Z-8.871
Y8.645 Z-8.893
Y8.712 Z-8.901
G2 X30.83 Y9.472 I1.583 J-0.007
G1 X30.968 Y9.701 F630
X30.969 Y9.727 F700
X30.964 Y9.914
X31.199 Y10.206
X31.835 Y10.604
G2 X38.712 Y10.7 I4.06 J-44.807
G1 X49.819 Y10.383
X60.926 Y10.06
X70.351 Y9.778
X81.119 Y9.36
X87.849 Y9.095
X93.234 Y8.887
X97.272 Y8.728
X98.355 Y8.689
X98.954 Y8.668 F630
X99.117 Y8.711
X99.266 Y8.79
X99.393 Y8.9
X99.593 Y9.172 F700
X99.803 Y9.811
G2 X103.83 Y16.329 I7.683 J-0.244
G1 X104.696 Y16.94
X105.29 Y17.257
X105.898 Y17.547
G2 X106.259 Y17.094 I0.12 J-0.275
G1 X106.219 Y17.04 Z-8.893
X106.181 Y16.989 Z-8.871
X106.148 Y16.943 Z-8.835
X106.119 Y16.905 Z-8.788
X106.098 Y16.876 Z-8.731
X106.085 Y16.859 Z-8.668
X106.08 Y16.853 Z-8.601
G0 Z2
X31.236 Y8.676
Z-8.301
G1 Z-8.601 F700
X31.234 Y8.683 Z-8.668
X31.226 Y8.704 Z-8.731
X31.215 Y8.738 Z-8.788
X31.2 Y8.783 Z-8.835
X31.181 Y8.837 Z-8.871
X31.161 Y8.897 Z-8.893
X31.14 Y8.96 Z-8.901
G2 X30.969 Y9.727 I3.453 J1.17
G1 X30.952 Y9.946
X30.948 Y10.133
X31.121 Y10.466
X31.385 Y10.731
X32.052 Y11.074
G2 X36.314 Y11.231 I2.807 J-18.28
X46.361 Y10.959 I-2.902 J-292.96
G1 X52.123 Y10.809
X57.886 Y10.647
X63.647 Y10.474
X69.409 Y10.289
X75.17 Y10.092
X80.931 Y9.883
X82.276 Y9.813
X83.622 Y9.763
X89.006 Y9.55
X90.353 Y9.501
X98.429 Y9.185
X98.597 Y9.194 F630
X98.759 Y9.24
X98.906 Y9.321
X99.032 Y9.433
X99.129 Y9.571
X99.387 Y10.193 F700
G2 X102.941 Y16.309 I7.739 J-0.407
G1 X103.735 Y16.932
X104.312 Y17.281
X104.895 Y17.618
G2 X105.29 Y17.194 I0.141 J-0.265
G1 X105.255 Y17.137 Z-8.893
X105.221 Y17.084 Z-8.871
X105.191 Y17.035 Z-8.835
X105.166 Y16.995 Z-8.788
X105.147 Y16.965 Z-8.731
X105.135 Y16.946 Z-8.668
X105.131 Y16.94 Z-8.601
G0 Z2
X31.403 Y8.966
Z-8.301
G1 Z-8.601 F700
X31.399 Y8.972 Z-8.668
X31.386 Y8.99 Z-8.731
X31.365 Y9.019 Z-8.788
X31.338 Y9.058 Z-8.835
X31.305 Y9.105 Z-8.871
X31.269 Y9.156 Z-8.893
X31.23 Y9.211 Z-8.901
G2 X30.952 Y9.946 I1.295 J0.91
G1 X30.929 Y10.251
X30.925 Y10.397
X31.033 Y10.757
X31.547 Y11.303
G2 X34.924 Y11.756 I2.712 J-7.395
X50.979 Y11.32 I-16.077 J-888.196
G1 X55.917 Y11.197
X60.854 Y11.06
X65.791 Y10.911
X70.727 Y10.749
X75.663 Y10.574
X80.598 Y10.386
X83.963 Y10.247
X87.328 Y10.118
X92.712 Y9.905
G3 X97.664 Y9.734 I11.477 J260.381
X98.263 Y9.719 I6.525 J260.552 F630
G1 X98.421 Y9.779
X98.561 Y9.872
X98.677 Y9.994
X98.763 Y10.139
X99.172 Y11.423 F700
G2 X100.639 Y14.809 I6.437 J-0.776
X103.853 Y17.594 I10.206 J-8.536
X104.273 Y17.194 I0.156 J-0.256
G1 X104.241 Y17.136 Z-8.893
X104.211 Y17.08 Z-8.871
X104.184 Y17.03 Z-8.835
X104.161 Y16.988 Z-8.788
X104.144 Y16.957 Z-8.731
X104.133 Y16.937 Z-8.668
X104.13 Y16.931 Z-8.601
G0 Z2
X31.38 Y9.271
Z-8.301
G1 Z-8.601 F700
X31.375 Y9.277 Z-8.668
X31.363 Y9.295 Z-8.731
X31.342 Y9.325 Z-8.788
X31.315 Y9.363 Z-8.835
X31.282 Y9.41 Z-8.871
X31.245 Y9.462 Z-8.893
X31.207 Y9.516 Z-8.901
G2 X30.929 Y10.251 I1.295 J0.91
G1 X30.903 Y10.694
X30.951 Y11.066
X31.152 Y11.382
X31.746 Y11.841
G2 X34.72 Y12.253 I2.647 J-8.171
X49.53 Y11.849 I-8.585 J-587.168
G1 X54.468 Y11.73
X59.405 Y11.597
X64.342 Y11.45
X69.728 Y11.297
X75.112 Y11.095
X80.496 Y10.884
X91.265 Y10.465
X96.649 Y10.253
X97.658 Y10.214
X97.826 Y10.224 F630
X97.988 Y10.27
X98.136 Y10.352
X98.261 Y10.464
X98.358 Y10.601
X98.871 Y11.847 F700
G2 X99.904 Y14.612 I4.943 J-0.271
X102.798 Y17.494 I10.26 J-7.408
X103.241 Y17.12 I0.171 J-0.246
G1 X103.213 Y17.06 Z-8.893
X103.186 Y17.002 Z-8.871
X103.162 Y16.951 Z-8.835
X103.141 Y16.908 Z-8.788
X103.126 Y16.876 Z-8.731
X103.117 Y16.855 Z-8.668
X103.114 Y16.849 Z-8.601
G0 Z2
X31.33 Y9.704
Z-8.301
G1 Z-8.601 F700
X31.326 Y9.71 Z-8.668
X31.313 Y9.728 Z-8.731
X31.293 Y9.758 Z-8.788
X31.267 Y9.797 Z-8.835
X31.235 Y9.845 Z-8.871
X31.2 Y9.898 Z-8.893
X31.163 Y9.953 Z-8.901
G2 X30.903 Y10.694 I1.316 J0.879
G1 X30.951 Y11.305
X30.976 Y11.491
X31.183 Y11.803
X31.746 Y12.298
G2 X36.105 Y12.738 I3.343 J-11.309
X40.817 Y12.599 I0.632 J-58.503
G1 X47.858 Y12.418
X54.898 Y12.224
X61.938 Y12.017
X68.978 Y11.798
X76.017 Y11.565
X80.055 Y11.398
X81.401 Y11.352
G3 X96.95 Y10.768 I31.902 J642.06
X97.549 Y10.753 I16.353 J642.644 F630
G1 X97.702 Y10.839 F700
X97.834 Y10.944 F630
X98.045 Y11.206 F700
X98.324 Y11.819
G2 X100.919 Y16.509 I7.641 J-1.165
G1 X101.432 Y17.059
X101.952 Y17.488
G2 X102.412 Y17.135 I0.183 J-0.238
G1 X102.386 Y17.074 Z-8.893
X102.362 Y17.015 Z-8.871
X102.34 Y16.962 Z-8.835
X102.322 Y16.919 Z-8.788
X102.309 Y16.886 Z-8.731
X102.3 Y16.865 Z-8.668
X102.297 Y16.858 Z-8.601
G0 Z2
X31.204 Y10.459
Z-8.301
G1 Z-8.601 F700
X31.201 Y10.466 Z-8.668
X31.191 Y10.486 Z-8.731
X31.175 Y10.518 Z-8.788
X31.154 Y10.56 Z-8.835
X31.129 Y10.612 Z-8.871
X31.101 Y10.668 Z-8.893
X31.072 Y10.728 Z-8.901
G2 X30.951 Y11.305 I1.065 J0.524
G1 X30.989 Y11.778
X31.013 Y11.964
X31.217 Y12.279
X31.787 Y12.767
G2 X37.489 Y13.198 I3.966 J-14.531
G1 X38.839 Y13.209
X40.185 Y13.146
G3 X49.918 Y12.861 I13.813 J305.822
G1 X57.175 Y12.652
X64.432 Y12.434
X71.689 Y12.205
X78.945 Y11.967
X80.29 Y11.886
X81.637 Y11.845
X86.595 Y11.643
X91.554 Y11.45
X96.513 Y11.267
X97.113 Y11.245 F630
X97.269 Y11.333 F700
X97.407 Y11.43 F630
X97.635 Y11.678 F700
X98.216 Y12.893
G2 X99.428 Y15.589 I5.176 J-0.707
X101.416 Y17.702 I9.903 J-7.328
X101.893 Y17.373 I0.194 J-0.229
G1 X101.871 Y17.31 Z-8.893
X101.849 Y17.25 Z-8.871
X101.83 Y17.197 Z-8.835
X101.814 Y17.152 Z-8.788
X101.802 Y17.118 Z-8.731
X101.795 Y17.097 Z-8.668
X101.792 Y17.09 Z-8.601
G0 Z2
X31.282 Y10.74
Z-8.301
G1 Z-8.601 F700
X31.279 Y10.747 Z-8.668
X31.269 Y10.767 Z-8.731
X31.253 Y10.799 Z-8.788
X31.232 Y10.842 Z-8.835
X31.207 Y10.893 Z-8.871
X31.179 Y10.95 Z-8.893
X31.15 Y11.01 Z-8.901
G2 X30.989 Y11.778 I1.42 J0.698
G1 X31.024 Y12.221
X31.048 Y12.407
X31.245 Y12.726
X31.801 Y13.23
G2 X37.473 Y13.699 I4.013 J-14.019
G1 X38.822 Y13.71
G3 X43.759 Y13.539 I3.872 J40.426
G1 X45.102 Y13.431
X50.486 Y13.311
X55.87 Y13.179
X61.253 Y13.034
X66.637 Y12.875
G2 X81.444 Y12.336 I-22.433 J-819.358
G1 X88.797 Y12.057
X96.151 Y11.787
X96.751 Y11.765 F630
X96.904 Y11.862 F700
X97.168 Y12.071
X97.554 Y12.622
X98.025 Y13.885
G2 X99.412 Y16.344 I6.252 J-1.903
G1 X99.904 Y16.945
X100.14 Y17.185
X100.62 Y17.657
G2 X101.109 Y17.346 I0.203 J-0.221
G1 X101.089 Y17.282 Z-8.893
X101.07 Y17.221 Z-8.871
X101.053 Y17.167 Z-8.835
X101.039 Y17.122 Z-8.788
X101.028 Y17.088 Z-8.731
X101.021 Y17.067 Z-8.668
X101.019 Y17.059 Z-8.601
G0 Z2
X31.317 Y11.183
Z-8.301
G1 Z-8.601 F700
X31.314 Y11.19 Z-8.668
X31.304 Y11.21 Z-8.731
X31.289 Y11.242 Z-8.788
X31.268 Y11.285 Z-8.835
X31.243 Y11.336 Z-8.871
X31.215 Y11.393 Z-8.893
X31.185 Y11.453 Z-8.901
G2 X31.024 Y12.221 I1.42 J0.698
G1 X31.049 Y12.527
X31.057 Y12.695
X31.077 Y12.881
X31.273 Y13.201
X31.833 Y13.699
G2 X37.36 Y14.205 I4.021 J-13.494
G1 X52.176 Y13.768
X66.991 Y13.341
G2 X81.613 Y12.824 I-11.802 J-541.464
G1 X86.346 Y12.644
X91.08 Y12.471
X95.814 Y12.306
X96.413 Y12.285 F630
X96.715 Y12.474 F700
X96.954 Y12.711
X97.631 Y13.875
G2 X98.843 Y16.409 I5.086 J-0.875
G1 X99.328 Y17.046
X99.784 Y17.542
G2 X100.288 Y17.257 I0.214 J-0.21
G1 X100.271 Y17.192 Z-8.893
X100.255 Y17.131 Z-8.871
X100.241 Y17.076 Z-8.835
X100.229 Y17.03 Z-8.788
X100.22 Y16.995 Z-8.731
X100.215 Y16.973 Z-8.668
X100.213 Y16.966 Z-8.601
G0 Z2
X31.378 Y11.665
Z-8.301
G1 Z-8.601 F700
X31.375 Y11.672 Z-8.668
X31.364 Y11.691 Z-8.731
X31.348 Y11.723 Z-8.788
X31.326 Y11.765 Z-8.835
X31.299 Y11.815 Z-8.871
X31.27 Y11.871 Z-8.893
X31.239 Y11.931 Z-8.901
G2 X31.057 Y12.695 I1.401 J0.736
G1 X31.068 Y13
X31.095 Y13.374
X31.303 Y13.687
X31.876 Y14.171
G2 X37.183 Y14.713 I3.995 J-12.883
G1 X41.165 Y14.582
X45.149 Y14.462
X49.132 Y14.352
X53.116 Y14.252
X54.462 Y14.205
X55.802 Y14.069
G2 X63.102 Y13.953 I1.845 J-114.185
X81.495 Y13.327 I-14.873 J-707.075
G1 X88.431 Y13.071
X95.366 Y12.807
X95.966 Y12.784 F630
X96.125 Y12.837 F700
X96.417 Y13.005
X96.867 Y13.507
X97.491 Y14.7
X97.661 Y15.431
G2 X99.243 Y17.697 I10.585 J-5.702
X99.754 Y17.425 I0.219 J-0.205
G1 X99.739 Y17.36 Z-8.893
X99.725 Y17.298 Z-8.871
X99.712 Y17.242 Z-8.835
X99.702 Y17.196 Z-8.788
X99.693 Y17.161 Z-8.731
X99.688 Y17.14 Z-8.668
X99.687 Y17.132 Z-8.601
G0 Z2
X31.421 Y11.981
Z-8.301
G1 Z-8.601 F700
X31.417 Y11.987 Z-8.668
X31.406 Y12.007 Z-8.731
X31.388 Y12.038 Z-8.788
X31.365 Y12.079 Z-8.835
X31.337 Y12.129 Z-8.871
X31.306 Y12.184 Z-8.893
X31.273 Y12.242 Z-8.901
G2 X31.068 Y13 I1.378 J0.778
G1 X31.082 Y13.611
X31.095 Y13.798
X31.299 Y14.113
X31.848 Y14.623
G2 X37.145 Y15.214 I4.073 J-12.472
G1 X41.005 Y15.081
X44.866 Y14.958
X48.727 Y14.848
X52.588 Y14.748
X53.782 Y14.732
X55.127 Y14.652
X56.463 Y14.485
X57.206 Y14.588
G2 X80.613 Y13.868 I-16.266 J-910.008
G1 X85.458 Y13.677
X90.304 Y13.497
X95.15 Y13.33
X95.75 Y13.31 F630
X96.058 Y13.488 F700
X96.315 Y13.707
X96.712 Y14.251
X97.297 Y15.464
X97.529 Y16.096
X97.861 Y16.769
X98.689 Y17.832
G2 X99.213 Y17.586 I0.229 J-0.193
G1 X99.202 Y17.52 Z-8.893
X99.191 Y17.458 Z-8.871
X99.181 Y17.402 Z-8.835
X99.172 Y17.355 Z-8.788
X99.166 Y17.32 Z-8.731
X99.162 Y17.298 Z-8.668
X99.161 Y17.29 Z-8.601
G0 Z2
X31.436 Y12.592
Z-8.301
G1 Z-8.601 F700
X31.432 Y12.599 Z-8.668
X31.421 Y12.618 Z-8.731
X31.404 Y12.649 Z-8.788
X31.38 Y12.691 Z-8.835
X31.352 Y12.74 Z-8.871
X31.321 Y12.795 Z-8.893
X31.288 Y12.853 Z-8.901
G2 X31.082 Y13.611 I1.376 J0.781
G1 X31.086 Y13.917
X31.109 Y14.291
X31.315 Y14.604
X31.881 Y15.096
G2 X36.965 Y15.72 I4.052 J-11.973
G1 X42.203 Y15.549
X47.44 Y15.389
X52.678 Y15.239
G2 X57.405 Y14.958 I-0.358 J-45.904
X62.186 Y14.932 I2.263 J-23.777
X72.283 Y14.686 I-1.584 J-271.964
G3 X80.358 Y14.373 I37.235 J857.267
X94.896 Y13.851 I31.598 J676.761
X95.496 Y13.836 I17.06 J677.283 F630
G1 X95.794 Y14.007 F700
X96.038 Y14.239
X96.438 Y14.781
X96.992 Y16.008
X97.253 Y16.63
X97.589 Y17.3
X98.04 Y17.801
G2 X98.547 Y17.52 I0.216 J-0.208
G1 X98.531 Y17.456 Z-8.893
X98.515 Y17.394 Z-8.871
X98.502 Y17.339 Z-8.835
X98.49 Y17.293 Z-8.788
X98.482 Y17.258 Z-8.731
X98.476 Y17.236 Z-8.668
X98.474 Y17.229 Z-8.601
G0 Z2
X31.45 Y12.901
Z-8.301
G1 Z-8.601 F700
X31.447 Y12.908 Z-8.668
X31.435 Y12.927 Z-8.731
X31.417 Y12.958 Z-8.788
X31.394 Y12.999 Z-8.835
X31.365 Y13.048 Z-8.871
X31.333 Y13.103 Z-8.893
X31.3 Y13.161 Z-8.901
G2 X31.086 Y13.917 I1.368 J0.795
G1 X31.091 Y14.36
X31.113 Y14.734
X31.318 Y15.048
X31.871 Y15.555
G2 X36.884 Y16.223 I4.124 J-11.803
G3 X43.615 Y16.01 I27.002 J747.184
X50.13 Y15.84 I12.516 J355.198
X55.588 Y15.607 I11.722 J210.084
G1 X56.926 Y15.452
G2 X62.897 Y15.388 I2.573 J-38.31
X72.178 Y15.165 I1.017 J-151.238
X80.255 Y14.867 I-11.224 J-413.817
G1 X87.359 Y14.599
X94.462 Y14.335
X95.062 Y14.313 F630
X95.38 Y14.43 F700
X95.643 Y14.641
X96.092 Y15.143
X96.605 Y16.389
X96.922 Y17.115
X97.283 Y17.773
G2 X97.54 Y17.919 I0.258 J-0.153
G1 X97.541
X97.599 Y17.913
X97.654 Y17.897
X97.706 Y17.869
X97.741 Y17.83 Z-8.896
X97.775 Y17.792 Z-8.882
X97.807 Y17.756 Z-8.858
X97.819 Y17.706 Z-8.819
X97.829 Y17.665 Z-8.769
X97.836 Y17.636 Z-8.712
X97.841 Y17.619 Z-8.649
X97.84 Y17.615 Z-8.601
G0 Z2
X31.455 Y13.344
Z-8.301
G1 Z-8.601 F700
X31.451 Y13.351 Z-8.668
X31.44 Y13.37 Z-8.731
X31.422 Y13.401 Z-8.788
X31.398 Y13.442 Z-8.835
X31.37 Y13.491 Z-8.871
X31.338 Y13.546 Z-8.893
X31.304 Y13.604 Z-8.901
G2 X31.091 Y14.36 I1.368 J0.795
G1 X31.094 Y14.665
X31.114 Y14.971
X31.137 Y15.157
X31.321 Y15.483
X31.851 Y16.014
G2 X37.464 Y16.706 I4.439 J-12.904
G1 X41.785 Y16.559
X46.106 Y16.421
X50.428 Y16.292
X54.749 Y16.173
X56.091 Y16.055
X57.428 Y15.893
G2 X63.55 Y15.814 I2.739 J-24.894
G1 X64.297 Y15.906
X81.282 Y15.327
X85.569 Y15.157
X89.855 Y14.996
X94.142 Y14.845
X94.742 Y14.824 F630
X95.064 Y14.922 F700
X95.337 Y15.119 F630
X95.564 Y15.369 F700
X96.24 Y16.534
X96.398 Y17.267
X96.756 Y17.837
G2 X97.304 Y17.647 I0.248 J-0.168
G1 X97.299 Y17.581 Z-8.893
X97.294 Y17.517 Z-8.871
X97.29 Y17.461 Z-8.835
X97.287 Y17.413 Z-8.788
X97.284 Y17.378 Z-8.731
X97.283 Y17.355 Z-8.668
X97.282 Y17.348 Z-8.601
G0 Z2
X31.421 Y13.937
Z-8.301
G1 Z-8.601 F700
X31.418 Y13.943 Z-8.668
X31.408 Y13.963 Z-8.731
X31.392 Y13.995 Z-8.788
X31.37 Y14.037 Z-8.835
X31.344 Y14.088 Z-8.871
X31.316 Y14.145 Z-8.893
X31.285 Y14.204 Z-8.901
G2 X31.114 Y14.971 I1.41 J0.718
G1 X31.15 Y15.444
X31.174 Y15.63
X31.345 Y15.963
X31.877 Y16.492
G2 X37.184 Y17.2 I4.287 J-11.894
X47.453 Y16.835 I-11.138 J-457.264
G1 X48.195 Y16.916
G2 X55.905 Y16.579 I-11.979 J-362.474
G1 X57.244 Y16.425
G2 X64.037 Y16.282 I2.666 J-34.595
G1 X64.781 Y16.384
G2 X73.007 Y16.124 I-3.851 J-251.436
X81.084 Y15.833 I-6.185 J-284.506
G1 X85.37 Y15.665
X89.656 Y15.507
X93.942 Y15.361
X94.542 Y15.341 F630
X94.701 Y15.431 F700
X94.992 Y15.6
G3 X96.053 Y17.781 I-2.818 J2.721
G1 X96.084 Y17.842
X96.127 Y17.896
X96.18 Y17.938
X96.241 Y17.967
X96.307 Y17.983
X96.374 Y17.984
X96.44 Y17.97
X96.501 Y17.943
X96.554 Y17.903
X96.597 Y17.852
X96.628 Y17.794
X96.646 Y17.731
X96.657 Y17.665 Z-8.893
X96.669 Y17.603 Z-8.871
X96.679 Y17.547 Z-8.835
X96.687 Y17.5 Z-8.788
X96.694 Y17.465 Z-8.731
X96.697 Y17.443 Z-8.668
X96.699 Y17.435 Z-8.601
G0 Z2
X31.446 Y14.407
Z-8.301
G1 Z-8.601 F700
X31.443 Y14.414 Z-8.668
X31.433 Y14.434 Z-8.731
X31.417 Y14.466 Z-8.788
X31.396 Y14.508 Z-8.835
X31.371 Y14.559 Z-8.871
X31.343 Y14.616 Z-8.893
X31.313 Y14.676 Z-8.901
G2 X31.15 Y15.444 I1.418 J0.703
G1 X31.19 Y15.887
X31.197 Y15.954
X31.227 Y16.192
X31.255 Y16.266
X31.28 Y16.255 Z-8.843
G2 X31.54 Y16.092 Z-8.19 I-0.396 J-0.918
G1 X31.59 Y16.046 Z-8.046 F1200
X31.636 Y15.996 Z-7.901
G2 X31.852 Y15.59 I-0.752 J-0.659
X31.353 Y15.417 I-0.256 J-0.067
X31.255 Y15.724 I1.45 J0.633
G1 X31.233 Y15.858 Z-8.19
G2 X31.227 Y16.192 Z-8.901 I1.571 J0.192 F700
G1 X31.254 Y16.263
X31.268 Y16.287
X31.317 Y16.345
X31.365 Y16.381
X32.422 Y16.915
X33.646 Y17.332
G2 X39.212 Y17.648 I3.666 J-15.36
G3 X49.255 Y17.356 I14.711 J332.875
G1 X50.6 Y17.296
X51.946 Y17.345
X52.606 Y17.209
X53.355 Y17.244
X54.69 Y17.063
X55.427 Y17.2
G3 X59.505 Y17.096 I2.256 J8.512
G1 X60.84 Y16.947
X61.51 Y17.017
X62.848 Y16.856
X64.194 Y16.825
X64.94 Y16.904
X66.287 Y16.861
X67.63 Y16.767
X68.3 Y16.841
X69.643 Y16.735
X70.316 Y16.753
X71.4 Y16.717
X72.736 Y16.552
X73.478 Y16.666
G3 X80.875 Y16.351 I12.675 J210.09
G1 X82.221 Y16.286
X83.568 Y16.252
G3 X93.564 Y15.878 I16.906 J318.001
X94.164 Y15.866 I6.909 J318.375 F630
G1 X94.487 Y15.963
X94.759 Y16.16 F700
G3 X95.504 Y17.648 I-2.034 J1.948
G2 X95.783 Y17.84 I0.28 J-0.108
G1 X95.784
X95.846 Y17.834
X95.905 Y17.815
X95.946 Y17.782 Z-8.896
X95.986 Y17.75 Z-8.882
X96.024 Y17.721 Z-8.858
X96.043 Y17.675 Z-8.821
X96.059 Y17.638 Z-8.775
X96.071 Y17.61 Z-8.721
X96.078 Y17.593 Z-8.663
X96.08 Y17.587 Z-8.601
G0 Z-8.196
X96.212 Y16.933
Z-8.301
G1 Z-8.601 F700
X96.219 Y16.93 Z-8.668
X96.239 Y16.922 Z-8.731
X96.273 Y16.909 Z-8.788
X96.317 Y16.893 Z-8.835
X96.37 Y16.872 Z-8.871
X96.43 Y16.85 Z-8.893
X96.492 Y16.826 Z-8.901
G3 X97.253 Y16.63 I1.282 J3.388
G1 X95.389 Y17.41
X95.253 Y17.54
X95.114 Y17.635 F630
X94.804 Y17.767 F700
X93.475 Y17.987
G2 X87.27 Y17.901 I-3.764 J47.328
X80.429 Y17.855 I-4.304 J130.896
G1 X76.876 Y17.846
X73.323 Y17.848
X69.77 Y17.858
X66.217 Y17.878
X64.876 Y17.783
X63.539 Y17.954
X62.802 Y17.815
X61.459 Y17.909
X60.713 Y17.832
X59.367 Y17.884
X58.483 Y17.835
X57.137 Y17.881
X55.791 Y17.813
X54.448 Y17.912
X53.702 Y17.832
X53.029 Y17.859
X52.356 Y17.853
X52.35 Z-8.889
X52.678 Y17.823 Z-8.19
X52.814 Y17.811 Z-7.901 F1200
X74.887 Y15.8
G2 X75.145 Y15.439 I-0.035 J-0.298
X74.762 Y15.216 I-0.293 J0.063
G1 X74.699 Y15.244 Z-8.046
X74.645 Y15.285 Z-8.19
X74.605 Y15.331 Z-8.32 F700
X74.576 Y15.384 Z-8.45
X74.558 Y15.443 Z-8.58
X74.552 Y15.504 Z-8.71
Y15.594 Z-8.901
X74.601 Y16.828
X75.283 Y17.14
X76.611 Y16.913
X77.946 Y17.094
X78.597 Y16.924
X79.944 Y16.906
G3 X93.293 Y16.374 I36.248 J742.146
X93.893 Y16.356 I22.9 J742.678 F630
G1 X94.054 Y16.425
X94.353 Y16.579 F700
X94.817 Y17.068
G2 X95.127 Y17.137 Z-8.19 I0.21 J-0.214
G1 X95.188 Y17.107 Z-8.046 F1200
X95.241 Y17.064 Z-7.901
G2 X95.071 Y16.557 I-0.214 J-0.21
G1 X86.813 Y15.337
X86.791 Y15.335
X86.769 Y15.334
X86.702 Y15.341 Z-8.046
X86.638 Y15.364 Z-8.19
G2 X86.469 Y15.633 Z-8.901 I0.131 J0.27 F700
G1 X86.508 Y16.87
X87.189 Y17.184
X88.518 Y16.964
X89.266 Y17.016
X90.612 Y16.968
X91.955 Y16.86
X92.702 Y16.921
X93.373 Y16.856
X94.042 Y16.935
X94.076
X94.127 Y16.92 Z-8.896
X94.176 Y16.906 Z-8.882
X94.222 Y16.892 Z-8.858
X94.256 Y16.857 Z-8.821
X94.285 Y16.828 Z-8.775
X94.306 Y16.807 Z-8.721
X94.319 Y16.794 Z-8.663
X94.324 Y16.789 Z-8.601
G0 Z-7.786
X86.842 Y16.886
Z-7.89
G1 Z-8.19 F700
G2 X86.508 Y16.87 Z-8.901 I-0.347 J3.629
G1 X85.834 Y16.891
X85.739 Y17.03 F630
X85.616 Y17.144
X85.47 Y17.228
X85.148 Y17.326 F700
X84.475 Y17.364
X83.802 Y17.33
G2 X83.498 Y17.639 I-0.005 J0.3
G1 X83.513 Y17.69 Z-8.896
X83.527 Y17.739 Z-8.882
X83.541 Y17.785 Z-8.858
X83.576 Y17.82 Z-8.821
X83.604 Y17.848 Z-8.775
X83.626 Y17.87 Z-8.721
X83.639 Y17.883 Z-8.663
X83.643 Y17.887 Z-8.601
G0 Z2
X-3.404 Y7.7
Z-9.291
G1 Z-9.591 F700
X-3.398 Y7.704 Z-9.657
X-3.379 Y7.715 Z-9.721
X-3.348 Y7.733 Z-9.778
X-3.307 Y7.757 Z-9.825
X-3.257 Y7.785 Z-9.861
X-3.202 Y7.817 Z-9.883
X-3.145 Y7.851 Z-9.891
G2 X-1.556 Y8.296 I1.665 J-2.878
G1 X-1.388 Y8.294
X-1.168 Y8.281
X-1.013 Y7.547 F630
X-0.838 Y7.259 F700
X-0.383 Y6.763
X0.21 Y6.443
X1.509 Y6.088
X2.856 Y6.122
X4.203 Y6.119
X35.185 Y6.197
X36.532 Y6.19
X37.879 Y6.143
X48.651 Y5.826
X70.194 Y5.19
X98.461 Y4.087
X99.808 Y4.101
X101.148 Y4.237
X102.155 Y4.324
X102.48 Y4.408 F630
X102.776 Y4.57 F700
X103.293 Y5.001
X103.64 Y5.578
X104.055 Y6.86
G2 X104.221 Y10.597 I48.255 J-0.27
X106.335 Y12.704 I3.404 J-1.302
G1 X107.559 Y13.268
G3 X111.416 Y17.599 I-1.884 J5.562
G1 X111.679 Y18.92
X111.648 Y19.255 F630
X111.529 Y19.57
X111.342 Y19.85 F700
X110.868 Y20.329
X110.267 Y20.633
X108.962 Y20.967
X107.616 Y20.936
X106.269 Y20.943
X86.063 Y20.944
X85.411 Y20.775
X84.253 Y20.086
X83.628 Y19.672
X82.908 Y19.46
X82.159 Y19.495
X81.466 Y19.783
X80.867 Y20.09
X79.572 Y20.461
X78.225 Y20.447
X76.878 Y20.443
X76.128 Y20.464
X75.71 Y20.598
X75.517 Y20.693
X75.359 Y20.838
X75.248 Y21.022
X75.194 Y21.229
X75.201 Y21.444
X75.269 Y21.647
G2 X75.688 Y21.761 I0.264 J-0.143
G1 X75.725 Y21.723 Z-9.886
X75.76 Y21.686 Z-9.871
X75.794 Y21.651 Z-9.848
X75.807 Y21.604 Z-9.811
X75.817 Y21.565 Z-9.765
X75.826 Y21.536 Z-9.711
X75.831 Y21.518 Z-9.652
X75.832 Y21.512 Z-9.591
G0 Z2
X74.935 Y16.842
Z-7.89
G1 Z-8.19 F700
G2 X74.601 Y16.828 Z-8.901 I-0.318 J3.632
G1 X73.928 Y16.855
X73.851 Y17.004 F630
X73.742 Y17.133
X73.607 Y17.234
X73.453 Y17.303
X73.123 Y17.368 F700
X72.375 Y17.319
X71.03 Y17.397
X70.282 Y17.337
X69.609 Y17.355
X69.575 Y17.359
X69.527 Y17.381 Z-8.896
X69.48 Y17.403 Z-8.882
X69.437 Y17.423 Z-8.858
X69.407 Y17.462 Z-8.821
X69.383 Y17.495 Z-8.775
X69.365 Y17.519 Z-8.721
X69.354 Y17.534 Z-8.663
X69.35 Y17.539 Z-8.601
G0 Z2
X-2.403 Y7.932
Z-9.291
G1 Z-9.591 F700
X-2.397 Y7.936 Z-9.657
X-2.378 Y7.947 Z-9.721
X-2.347 Y7.965 Z-9.778
X-2.306 Y7.988 Z-9.825
X-2.256 Y8.017 Z-9.861
X-2.202 Y8.049 Z-9.883
X-2.144 Y8.082 Z-9.891
G2 X-1.388 Y8.294 I0.792 J-1.37
G1 X-1.082 Y8.291
X-0.894 Y8.279
G3 X1.24 Y6.771 I2.678 J1.525
G1 X2.573 Y6.583
X3.92 Y6.628
X5.267 Y6.62
X9.308 Y6.632
X34.902 Y6.696
X36.249 Y6.692
X37.595 Y6.655
X41.635 Y6.534
X48.367 Y6.335
X69.911 Y5.699
X71.257 Y5.651
X98.178 Y4.598
X99.525 Y4.594
X100.867 Y4.706
X101.538 Y4.769
X102.171 Y4.997
X102.472 Y5.221
X102.625 Y5.292
X102.758 Y5.394 F630
X102.973 Y5.654 F700
X103.267 Y6.26
X103.607 Y7.564
G2 X103.921 Y11.112 I10.706 J0.841
X106.097 Y13.114 I4.031 J-2.196
G1 X107.304 Y13.707
G3 X110.858 Y17.456 I-1.754 J5.221
G1 X111.006 Y18.113
X110.991 Y18.45
X110.824 Y19.102
X110.706 Y19.458 F630
X110.635 Y19.611
X110.532 Y19.744
X110.272 Y19.958 F700
X109.648 Y20.211
X108.33 Y20.49
X107.435 Y20.448
X106.088 Y20.442
X87.229 Y20.444
G3 X84.029 Y19.357 I-0.07 J-5.051
G1 X83.328 Y19.089
X82.582 Y19.017
X81.843 Y19.146
X80.59 Y19.639
X79.945 Y19.836
X79.289 Y19.986
X77.943 Y19.939
X76.519 Y19.957
X75.781 Y20.092
X75.401 Y20.302
X75.22 Y20.442
X75.089 Y20.629
X75.021 Y20.847
X75.022 Y21.076
X75.092 Y21.294
G2 X75.511 Y21.407 I0.264 J-0.143
G1 X75.548 Y21.369 Z-9.886
X75.584 Y21.332 Z-9.871
X75.617 Y21.298 Z-9.848
X75.63 Y21.25 Z-9.811
X75.641 Y21.211 Z-9.765
X75.649 Y21.182 Z-9.711
X75.654 Y21.164 Z-9.652
X75.655 Y21.158 Z-9.591
G0 Z2
X32.809 Y16.652
Z-8.301
G1 Z-8.601 F700
X32.814 Y16.658 Z-8.668
X32.828 Y16.674 Z-8.731
X32.852 Y16.702 Z-8.788
X32.882 Y16.738 Z-8.835
X32.919 Y16.781 Z-8.871
X32.961 Y16.829 Z-8.893
X33.004 Y16.88 Z-8.901
G2 X33.646 Y17.332 I1.203 J-1.028
X35.653 Y17.927 I6.223 J-17.288
X39.441 Y18.153 I2.479 J-9.714
X42.805 Y17.99 I-2.969 J-96.024
G1 X42.871 Y17.974 Z-8.759
X42.932 Y17.945 Z-8.617
X42.984 Y17.902 Z-8.474
X43.025 Y17.85 Z-8.332
X43.054 Y17.789 Z-8.19
X43.07 Y17.723 Z-8.046 F1200
Y17.655 Z-7.901
G2 X42.774 Y17.388 I-0.298 J0.033
G1 X35.755 Y17.351
G2 X35.472 Y17.549 I-0.002 J0.3
G1 X35.456 Y17.615 Z-8.046
X35.455 Y17.683 Z-8.19
G2 X35.651 Y17.933 Z-8.901 I0.298 J-0.032 F700
G1 X36.095 Y18.082
X36.401 Y18.19
X36.719 Y18.331
X37.41 Y18.623
G2 X41.522 Y18.556 I1.604 J-27.76
G1 X41.585 Y18.549 Z-8.759
X41.646 Y18.529 Z-8.617
X41.701 Y18.494 Z-8.474
X41.748 Y18.448 Z-8.332
X41.784 Y18.392 Z-8.19
X41.804 Y18.327 Z-8.046 F1200
X41.809 Y18.259 Z-7.901
G2 X41.522 Y17.974 I-0.3 J0.014
G1 X36.873 Y17.766
G2 X36.594 Y17.926 I-0.013 J0.3
G1 X36.569 Y17.989 Z-8.046
X36.559 Y18.056 Z-8.19
G2 X36.719 Y18.331 Z-8.901 I0.3 J0.009 F700
G1 X37.973 Y18.942
X38.317 Y19.091
X39.064 Y19.155
X40.411 Y19.131
X41.081 Y19.069
G2 X41.327 Y18.868 Z-8.19 I-0.038 J-0.298
G1 X41.342 Y18.801 Z-8.046 F1200
X41.341 Y18.733 Z-7.901
G2 X41.053 Y18.471 I-0.298 J0.038
G1 X38.125 Y18.378
G2 X37.851 Y18.535 I-0.01 J0.3
G1 X37.825 Y18.599 Z-8.046
X37.815 Y18.666 Z-8.19
G2 X37.973 Y18.942 Z-8.901 I0.3 J0.012 F700
G1 X41.548 Y20.71
X41.567 Y20.724
G2 X41.992 Y20.638 I0.172 J-0.246
G1 X42.008 Y20.588 Z-8.896
X42.024 Y20.539 Z-8.882
X42.038 Y20.494 Z-8.858
X42.039 Y20.478 Z-8.849
X42.029 Y20.435 Z-8.811
X42.021 Y20.399 Z-8.766
X42.015 Y20.373 Z-8.715
X42.012 Y20.357 Z-8.659
X42.011 Y20.351 Z-8.601
G0 Z2
X-2.097 Y7.928
Z-9.291
G1 Z-9.591 F700
X-2.091 Y7.932 Z-9.657
X-2.072 Y7.943 Z-9.721
X-2.041 Y7.961 Z-9.778
X-2 Y7.985 Z-9.825
X-1.95 Y8.013 Z-9.861
X-1.895 Y8.045 Z-9.883
X-1.838 Y8.078 Z-9.891
G2 X-1.082 Y8.291 I0.792 J-1.37
G1 X-0.775 Y8.287
X-0.588 Y8.275
G3 X3.546 Y7.115 I3.343 J3.966
G1 X10.281 Y7.136
X34.528 Y7.195
X35.875 Y7.194
X37.222 Y7.167
X39.915 Y7.083
X49.34 Y6.806
X69.537 Y6.21
X70.884 Y6.165
X97.804 Y5.113
X99.151 Y5.075
X100.495 Y5.162
X101.164 Y5.239
X101.493 Y5.313
X101.809 Y5.429
X102.106 Y5.588
X102.373 Y5.793 F630
X102.573 Y6.064 F700
X102.883 Y6.662
X103.159 Y7.981
G2 X103.394 Y10.956 I9.262 J0.767
X106.74 Y13.945 I5.035 J-2.269
G1 X107.953 Y14.541
G3 X110.491 Y17.933 I-2.276 J4.349
G1 X110.463 Y18.609
X110.356 Y18.928 F630
X110.285 Y19.081 F700
X110.189 Y19.219 F630
X109.95 Y19.457 F700
G3 X106.955 Y19.986 I-2.263 J-4.064
G1 X105.769 Y19.938
X104.422 Y19.947
X103.075 Y19.941
X86.911 Y19.944
X86.242 Y19.861
X84.976 Y19.402
G2 X81.441 Y18.807 I-2.264 J2.652
G1 X80.171 Y19.256
X79.519 Y19.424
X78.178 Y19.547
X77.431 Y19.477
X76.681 Y19.473
X75.938 Y19.573
X75.247 Y19.866
X75.051 Y20.06
X74.913 Y20.249
X74.84 Y20.471
X74.839 Y20.705
X74.909 Y20.928
G2 X75.473 Y20.792 I0.264 J-0.143
G1 X75.474 Y20.725 Z-9.883
X75.476 Y20.662 Z-9.861
X75.477 Y20.605 Z-9.825
X75.479 Y20.557 Z-9.778
X75.48 Y20.522 Z-9.721
Y20.499 Z-9.657
Y20.492 Z-9.591
G0 Z2
X-1.791 Y7.925
Z-9.291
G1 Z-9.591 F700
X-1.785 Y7.928 Z-9.657
X-1.766 Y7.939 Z-9.721
X-1.735 Y7.957 Z-9.778
X-1.694 Y7.981 Z-9.825
X-1.644 Y8.01 Z-9.861
X-1.589 Y8.041 Z-9.883
X-1.532 Y8.075 Z-9.891
G2 X-0.775 Y8.287 I0.792 J-1.37
G1 X-0.332 Y8.282
X0.417 Y8.235
X0.993 Y7.885
X2.297 Y7.549
G2 X8.873 Y7.628 I5.105 J-151.767
G1 X31.674 Y7.688
X37.524 Y7.526
X43.373 Y7.374
X49.223 Y7.233
X55.073 Y7.102
G2 X61.363 Y6.952 I-10.627 J-578.172
G1 X69.442 Y6.713
X70.788 Y6.669
X97.709 Y5.617
G3 X101.127 Y5.783 I1.221 J10.169
X101.709 Y5.928 I-2.197 J10.004 F630
G1 X101.962 Y6.175
X102.165 Y6.444 F700
X102.485 Y7.037
X102.681 Y8.369
X102.664 Y9.119
G2 X106.022 Y14.118 I5.114 J0.192
G1 X107.212 Y14.759
X107.828 Y15.031
X108.39 Y15.402
X109.319 Y16.378
X109.893 Y17.597
X109.941 Y17.93
X109.956 Y18.267
X109.926 Y18.432 F630
X109.87 Y18.591
X109.789 Y18.739
X109.577 Y19
X109.29 Y19.177 F700
X108.666 Y19.43
X107.332 Y19.612
G2 X100.453 Y19.445 I-4.814 J56.48
G1 X93.717 Y19.443
X86.982 Y19.444
X86.313 Y19.367
X85.052 Y18.894
G2 X81.477 Y18.303 I-2.379 J3.278
G3 X77.462 Y19.022 I-3.524 J-8.11
G1 X76.713 Y19.004
X75.969 Y19.093
X75.261 Y19.342
X74.912 Y19.63
X74.775 Y19.778
X74.683 Y19.957
X74.641 Y20.153
X74.653 Y20.354
X74.718 Y20.544
G2 X75.281 Y20.409 I0.264 J-0.143
G1 X75.283 Y20.342 Z-9.883
X75.285 Y20.278 Z-9.861
X75.286 Y20.222 Z-9.825
X75.287 Y20.174 Z-9.778
X75.288 Y20.138 Z-9.721
X75.289 Y20.116 Z-9.657
Y20.109 Z-9.591
G0 Z2
X54.059 Y6.752
Z-9.291
G1 Z-9.591 F700
X54.066 Y6.756 Z-9.657
X54.085 Y6.767 Z-9.721
X54.116 Y6.785 Z-9.778
X54.157 Y6.809 Z-9.825
X54.206 Y6.837 Z-9.861
X54.261 Y6.869 Z-9.883
X54.319 Y6.903 Z-9.891
G2 X55.074 Y7.118 I0.798 J-1.367
G3 X63.202 Y7.255 I2.309 J104.196
G2 X68.459 Y7.228 I2.428 J-38.129
G1 X71.153 Y7.156
X98.074 Y6.103
G3 X100.822 Y6.232 I1.021 J7.596
X101.401 Y6.39 I-1.727 J7.468 F630
G1 X101.634 Y6.654
X101.829 Y6.929 F700
X102.084 Y7.552
G2 X102.458 Y11.121 I24.614 J-0.777
X105.423 Y14.368 I5.489 J-2.036
G1 X106.327 Y14.872
X107.539 Y15.46
X108.112 Y15.813
X108.563 Y16.313
X109.01 Y16.817
X109.259 Y17.443
X109.37 Y17.761 F630
X109.39 Y17.928
X109.377 Y18.096
X109.328 Y18.257
X109.244 Y18.403
X109.016 Y18.65 F700
G3 X106.009 Y19.012 I-1.946 J-3.492
G2 X94.382 Y18.945 I-8.304 J431.44
G1 X86.974 Y18.944
X86.305 Y18.86
X85.057 Y18.353
G2 X81.444 Y17.831 I-2.409 J3.904
G3 X76.673 Y18.531 I-3.964 J-10.4
G1 X75.929 Y18.634
X75.213 Y18.859
X74.607 Y19.301
X74.532 Y19.433
X74.461 Y19.606
X74.435 Y19.792
X74.456 Y19.978
X74.522 Y20.153
G2 X75.082 Y20.004 I0.26 J-0.15
G1 Y19.937 Z-9.883
Y19.874 Z-9.861
X75.083 Y19.817 Z-9.825
Y19.769 Z-9.778
Y19.734 Z-9.721
Y19.712 Z-9.657
Y19.704 Z-9.591
G0 Z-8.086
X62.251 Y6.759
Z-9.291
G1 Z-9.591 F700
X62.257 Y6.764 Z-9.657
X62.274 Y6.777 Z-9.721
X62.302 Y6.8 Z-9.778
X62.339 Y6.83 Z-9.825
X62.384 Y6.865 Z-9.861
X62.433 Y6.905 Z-9.883
X62.485 Y6.946 Z-9.891
G2 X63.201 Y7.27 I0.99 J-1.235
G1 X63.645 Y7.34
X63.986 Y7.398 F630
X64.02 Y7.453 F700
X64.129 Y7.606
X64.859 Y7.776
G2 X73.687 Y7.555 I0.36 J-161.676
G1 X97.915 Y6.61
X99.262 Y6.57
X100.007 Y6.619
X100.606 Y6.658 F630
X100.92 Y6.78
X101.184 Y6.989
X101.376 Y7.266
X101.513 Y7.573 F700
X101.809 Y8.887
G2 X104.763 Y14.517 I5.611 J0.646
X107.806 Y16.211 I27.275 J-45.442
G1 X108.251 Y16.716
X108.464 Y16.977
X108.625 Y17.272
X108.76 Y17.581 F630
X108.772 Y17.749
X108.745 Y17.915
X108.682 Y18.071
X108.586 Y18.21
X108.461 Y18.323
X108.314 Y18.405
X107.668 Y18.596 F700
X106.322 Y18.651
G2 X101.362 Y18.486 I-3.245 J22.801
G1 X86.544 Y18.392
X85.276 Y17.939
G2 X80.843 Y17.5 I-2.69 J4.551
G1 X79.542 Y17.849
X78.223 Y18.124
X77.476 Y18.058
X76.726 Y18.064
X75.981 Y18.148
X75.256 Y18.343
X74.608 Y18.721
X74.415 Y18.946
X74.31 Y19.107
X74.249 Y19.289
X74.236 Y19.48
X74.273 Y19.669
X74.356 Y19.842
G2 X74.9 Y19.644 I0.246 J-0.172
G1 X74.895 Y19.578 Z-9.883
X74.889 Y19.515 Z-9.861
X74.884 Y19.458 Z-9.825
X74.88 Y19.411 Z-9.778
X74.877 Y19.375 Z-9.721
X74.875 Y19.353 Z-9.657
X74.874 Y19.345 Z-9.591
G0 Z-8.086
X63.605 Y6.452
Z-9.291
G1 Z-9.591 F700
X63.608 Y6.459 Z-9.657
X63.614 Y6.48 Z-9.721
X63.625 Y6.514 Z-9.778
X63.64 Y6.559 Z-9.825
X63.658 Y6.613 Z-9.861
X63.677 Y6.673 Z-9.883
X63.698 Y6.737 Z-9.891
G2 X64.02 Y7.453 I3.466 J-1.129
G1 X64.139 Y7.639
X64.247 Y7.792
X64.554 Y8.007
X65.27 Y8.232
G2 X75.206 Y7.979 I1.473 J-137.311
G1 X76.553 Y7.943
X85.976 Y7.577
X98.09 Y7.103
X99.437 Y7.066
X100.107 Y7.13
X100.273 Y7.156 F630
X100.434 Y7.207
X100.58 Y7.291
X100.707 Y7.401
X100.919 Y7.662 F700
X101.183 Y8.282
X101.426 Y9.607
G2 X102.949 Y13.687 I5.129 J0.41
X107.307 Y16.463 I10.171 J-11.158
G1 X107.794 Y16.935
X107.991 Y17.209
X108.322 Y17.795
G2 X108.878 Y17.631 I0.256 J-0.156
G1 X108.876 Y17.565 Z-9.883
X108.875 Y17.501 Z-9.861
X108.873 Y17.444 Z-9.825
X108.872 Y17.397 Z-9.778
X108.871 Y17.361 Z-9.721
Y17.339 Z-9.657
X108.87 Y17.331 Z-9.591
G0 Z-8.086
X63.723 Y6.638
Z-9.291
G1 Z-9.591 F700
X63.726 Y6.645 Z-9.657
X63.733 Y6.666 Z-9.721
X63.744 Y6.7 Z-9.778
X63.758 Y6.745 Z-9.825
X63.776 Y6.799 Z-9.861
X63.796 Y6.86 Z-9.883
X63.816 Y6.923 Z-9.891
G2 X64.139 Y7.639 I3.466 J-1.129
G1 X64.163 Y7.677 F630
X64.152 Y7.792 F700
X64.142 Y7.979
X64.408 Y8.244
X65.053 Y8.627
G2 X69.907 Y8.658 I2.568 J-21.845
X77.987 Y8.391 I-6.69 J-324.268
G1 X98.177 Y7.6
X99.524 Y7.564
X99.858 Y7.605 F630
X100.016 Y7.662
X100.161 Y7.749
X100.409 Y7.976
X100.588 Y8.262 F700
X100.806 Y8.899
X101.006 Y10.231
G2 X102.809 Y14.21 I5.391 J-0.045
X106.688 Y16.793 I12.685 J-14.85
X107.228 Y17.055 I8.805 J-17.433 F630
G1 X107.437 Y17.343 F700
X107.818 Y17.898
G2 X108.059 Y18.02 I0.241 J-0.178
G1 X108.06
X108.127 Y18.012
X108.192 Y17.989
X108.249 Y17.952
X108.28 Y17.909 Z-9.886
X108.311 Y17.868 Z-9.871
X108.339 Y17.829 Z-9.848
X108.347 Y17.786 Z-9.816
X108.354 Y17.749 Z-9.776
X108.36 Y17.72 Z-9.729
X108.359 Y17.701 Z-9.685
X108.358 Y17.689 Z-9.639
Y17.686 Z-9.591
G0 Z-8.086
X64.446 Y6.749
Z-9.291
G1 Z-9.591 F700
X64.444 Y6.756 Z-9.657
X64.436 Y6.777 Z-9.721
X64.424 Y6.81 Z-9.778
X64.407 Y6.855 Z-9.825
X64.388 Y6.908 Z-9.861
X64.366 Y6.967 Z-9.883
X64.343 Y7.03 Z-9.891
G2 X64.152 Y7.792 I3.421 J1.261
G1 X64.119 Y8.113
X64.109 Y8.3
X64.602 Y8.865
G2 X67.778 Y9.245 I2.445 J-6.976
G1 X72.154 Y9.102
X76.529 Y8.947
X80.904 Y8.781
X85.278 Y8.603
X98.738 Y8.079
X99.412 Y8.068 F630
X99.573 Y8.117
X99.722 Y8.195
X99.983 Y8.408
X100.159 Y8.696 F700
X100.389 Y9.328
X100.535 Y10.668
G2 X103.703 Y15.521 I6.577 J-0.832
G1 X104.808 Y16.294
X105.99 Y16.941
X106.585 Y17.256
X107.099 Y17.691
X107.156 Y17.726
X107.218 Y17.748
X107.285 Y17.756
G2 X107.529 Y17.63 I0 J-0.3
G1 X107.548 Y17.581 Z-9.886
X107.566 Y17.533 Z-9.871
X107.583 Y17.488 Z-9.848
X107.585 Y17.456 Z-9.826
X107.576 Y17.409 Z-9.778
X107.569 Y17.374 Z-9.721
X107.565 Y17.352 Z-9.658
X107.563 Y17.344 Z-9.591
G0 Z-8.086
X64.595 Y7.145
Z-9.291
G1 Z-9.591 F700
X64.591 Y7.151 Z-9.657
X64.577 Y7.169 Z-9.721
X64.556 Y7.197 Z-9.778
X64.528 Y7.236 Z-9.825
X64.494 Y7.281 Z-9.861
X64.456 Y7.332 Z-9.883
X64.416 Y7.386 Z-9.891
G2 X64.119 Y8.113 I1.271 J0.943
G1 X64.088 Y8.418
X64.078 Y8.605
X64.246 Y8.941
X64.833 Y9.408
G2 X69.589 Y9.653 I3.002 J-12.016
G1 X73.898 Y9.519
X78.206 Y9.375
X82.514 Y9.219
X86.821 Y9.052
X91.128 Y8.874
X98.531 Y8.587
X98.868 Y8.579
X99.036 Y8.587 F630
X99.199 Y8.628
X99.349 Y8.704
X99.479 Y8.812
X99.689 Y9.074 F700
X99.962 Y9.691
G2 X103.418 Y15.91 I7.359 J-0.02
X106.44 Y17.738 I8.911 J-11.321
G1 X106.497 Y17.761
X106.559 Y17.772
X106.621 Y17.769
X106.682 Y17.752
X106.738 Y17.723
X106.786 Y17.682
X106.825 Y17.631
X106.852 Y17.573
X106.865 Y17.51
Y17.445
X106.85 Y17.382
X106.822 Y17.323
X106.786 Y17.267 Z-9.883
X106.752 Y17.213 Z-9.861
X106.721 Y17.166 Z-9.825
X106.695 Y17.126 Z-9.778
X106.676 Y17.096 Z-9.721
X106.664 Y17.077 Z-9.657
X106.66 Y17.071 Z-9.591
G0 Z-8.086
X64.564 Y7.45
Z-9.291
G1 Z-9.591 F700
X64.559 Y7.456 Z-9.657
X64.546 Y7.474 Z-9.721
X64.525 Y7.503 Z-9.778
X64.496 Y7.541 Z-9.825
X64.462 Y7.587 Z-9.861
X64.425 Y7.638 Z-9.883
X64.385 Y7.691 Z-9.891
G2 X64.088 Y8.418 I1.271 J0.943
G1 X64.059 Y8.724
X64.053 Y8.911
X64.206 Y9.254
X64.449 Y9.539
X65.086 Y9.934
G2 X69.732 Y10.15 I2.95 J-13.344
G1 X73.223 Y10.044
X76.714 Y9.928
X80.204 Y9.802
X83.694 Y9.665
X87.184 Y9.518
X90.852 Y9.382
X94.52 Y9.257
X98.188 Y9.144
X98.788 Y9.127 F630
X98.937 Y9.205
X99.193 Y9.424
X99.364 Y9.714
X99.704 Y11.018 F700
G2 X101.603 Y14.995 I6.445 J-0.635
X105.408 Y17.774 I9.639 J-9.203
X105.79 Y17.339 I0.133 J-0.269
G1 X105.753 Y17.283 Z-9.883
X105.718 Y17.231 Z-9.861
X105.687 Y17.183 Z-9.825
X105.66 Y17.144 Z-9.778
X105.641 Y17.114 Z-9.721
X105.628 Y17.096 Z-9.657
X105.624 Y17.089 Z-9.591
G0 Z-8.086
X64.518 Y7.748
Z-9.291
G1 Z-9.591 F700
X64.514 Y7.754 Z-9.657
X64.501 Y7.772 Z-9.721
X64.48 Y7.801 Z-9.778
X64.452 Y7.839 Z-9.825
X64.419 Y7.886 Z-9.861
X64.382 Y7.937 Z-9.883
X64.344 Y7.992 Z-9.891
G2 X64.059 Y8.724 I1.287 J0.921
G1 X64.023 Y9.167
X64.016 Y9.354
X64.19 Y9.686
X64.715 Y10.222
G2 X69.079 Y10.684 I3.168 J-9.088
G1 X76.216 Y10.434
X83.353 Y10.174
X90.49 Y9.902
X97.626 Y9.62
X98.225 Y9.595 F630
X98.39 Y9.641
X98.543 Y9.712
X98.676 Y9.815
X98.889 Y10.076 F700
X99.348 Y11.343
G2 X101.252 Y15.313 I6.394 J-0.625
X104.376 Y17.788 I9.103 J-8.281
X104.78 Y17.373 I0.147 J-0.262
G1 X104.746 Y17.315 Z-9.883
X104.713 Y17.261 Z-9.861
X104.684 Y17.212 Z-9.825
X104.66 Y17.171 Z-9.778
X104.642 Y17.14 Z-9.721
X104.63 Y17.121 Z-9.657
X104.627 Y17.115 Z-9.591
G0 Z-8.086
X64.479 Y8.189
Z-9.291
G1 Z-9.591 F700
X64.475 Y8.196 Z-9.657
X64.462 Y8.214 Z-9.721
X64.441 Y8.243 Z-9.778
X64.413 Y8.281 Z-9.825
X64.381 Y8.328 Z-9.861
X64.344 Y8.379 Z-9.883
X64.305 Y8.434 Z-9.891
G2 X64.023 Y9.167 I1.289 J0.918
G1 X63.997 Y9.472
X63.993 Y9.66
X64.118 Y10.013
X64.331 Y10.322
X64.931 Y10.772
G2 X69.209 Y11.177 I3.128 J-10.249
G1 X89.852 Y10.425
X97.592 Y10.125
X97.761 Y10.119 F630
X97.928 Y10.136
X98.087 Y10.19
X98.231 Y10.279
X98.351 Y10.397
X98.714 Y10.964 F700
X99.069 Y12.263
G2 X101.27 Y16.017 I7.041 J-1.606
G1 X101.795 Y16.552
X102.704 Y17.305
X103.259 Y17.686
G2 X103.686 Y17.294 I0.161 J-0.253
G1 X103.655 Y17.235 Z-9.883
X103.626 Y17.179 Z-9.861
X103.6 Y17.128 Z-9.825
X103.578 Y17.086 Z-9.778
X103.561 Y17.054 Z-9.721
X103.551 Y17.035 Z-9.657
X103.547 Y17.028 Z-9.591
G0 Z-8.086
X64.383 Y8.678
Z-9.291
G1 Z-9.591 F700
X64.379 Y8.684 Z-9.657
X64.366 Y8.702 Z-9.721
X64.345 Y8.731 Z-9.778
X64.318 Y8.77 Z-9.825
X64.285 Y8.816 Z-9.861
X64.248 Y8.868 Z-9.883
X64.209 Y8.922 Z-9.891
G2 X63.997 Y9.472 I0.967 J0.688
G1 X63.963 Y9.946
X63.96 Y10.133
X64.105 Y10.479
X64.579 Y11.06
G2 X68.509 Y11.68 I3.151 J-7.199
X83.305 Y11.125 I-13.924 J-568.704
G1 X87.872 Y10.989
X92.438 Y10.844
X97.004 Y10.69
X97.604 Y10.67 F630
X97.754 Y10.745
X97.888 Y10.847
X98.12 Y11.091 F700
X98.419 Y11.695
G2 X102.624 Y17.821 I9.311 J-1.884
G1 X102.672 Y17.853
X102.726 Y17.874
X102.785 Y17.884
X102.844 Y17.88
X102.902 Y17.863
X102.956 Y17.833
X103.002 Y17.792
X103.039 Y17.742
X103.064 Y17.684
X103.076 Y17.621
X103.074 Y17.556
X103.057 Y17.493
X103.031 Y17.432 Z-9.883
X103.006 Y17.374 Z-9.861
X102.983 Y17.321 Z-9.825
X102.964 Y17.278 Z-9.778
X102.95 Y17.245 Z-9.721
X102.941 Y17.225 Z-9.657
X102.938 Y17.218 Z-9.591
G0 Z-8.086
X64.405 Y8.962
Z-9.291
G1 Z-9.591 F700
X64.401 Y8.968 Z-9.657
X64.389 Y8.986 Z-9.721
X64.368 Y9.016 Z-9.778
X64.341 Y9.055 Z-9.825
X64.309 Y9.102 Z-9.861
X64.273 Y9.154 Z-9.883
X64.235 Y9.209 Z-9.891
G2 X63.963 Y9.946 I1.302 J0.899
G1 X63.933 Y10.389
X63.932 Y10.576
X64.064 Y10.927
X64.522 Y11.521
G2 X68.258 Y12.174 I3.201 J-7.297
X76.899 Y11.913 I-20.693 J-828.157
X83.292 Y11.574 I-7.898 J-209.201
X92.956 Y11.288 I-0.558 J-182.497
G1 X94.303 Y11.248
X96.395 Y11.171
X96.995 Y11.148 F630
X97.162 Y11.171
X97.32 Y11.228
X97.603 Y11.411
X97.807 Y11.678 F700
X98.328 Y12.921
G2 X100.463 Y16.65 I8.255 J-2.25
G1 X101.466 Y17.6
G2 X101.949 Y17.278 I0.198 J-0.225
G1 X101.928 Y17.215 Z-9.883
X101.907 Y17.155 Z-9.861
X101.889 Y17.101 Z-9.825
X101.874 Y17.056 Z-9.778
X101.862 Y17.022 Z-9.721
X101.855 Y17.001 Z-9.657
X101.853 Y16.994 Z-9.591
G0 Z-8.086
X64.307 Y9.589
Z-9.291
G1 Z-9.591 F700
X64.303 Y9.595 Z-9.657
X64.291 Y9.613 Z-9.721
X64.27 Y9.643 Z-9.778
X64.243 Y9.682 Z-9.825
X64.211 Y9.729 Z-9.861
X64.175 Y9.781 Z-9.883
X64.137 Y9.836 Z-9.891
G2 X63.933 Y10.389 I0.977 J0.674
G1 X63.916 Y10.694
X63.914 Y10.862
X63.93 Y11.237
X64.11 Y11.565
X64.673 Y12.061
G2 X69.77 Y12.637 I3.77 J-10.516
X82.147 Y12.177 I-19.23 J-683.156
G1 X83.487 Y12.035
G2 X90.368 Y11.885 I1.687 J-80.226
G3 X96.323 Y11.702 I11.246 J268.724
X96.923 Y11.691 I5.291 J268.907 F630
G1 X97.07 Y11.811
X97.319 Y12.038 F700
X97.677 Y12.609
G2 X100.664 Y17.527 I10.503 J-3.013
X101.142 Y17.2 I0.195 J-0.228
G1 X101.12 Y17.137 Z-9.883
X101.099 Y17.077 Z-9.861
X101.08 Y17.023 Z-9.825
X101.064 Y16.978 Z-9.778
X101.052 Y16.945 Z-9.721
X101.045 Y16.924 Z-9.657
X101.042 Y16.917 Z-9.591
G0 Z-8.086
X64.298 Y9.854
Z-9.291
G1 Z-9.591 F700
X64.294 Y9.86 Z-9.657
X64.283 Y9.879 Z-9.721
X64.264 Y9.91 Z-9.778
X64.239 Y9.95 Z-9.825
X64.21 Y9.999 Z-9.861
X64.177 Y10.053 Z-9.883
X64.142 Y10.11 Z-9.891
G2 X63.914 Y10.862 I1.353 J0.821
G1 X63.909 Y11.473
X63.916 Y11.654
X64.104 Y11.979
X64.63 Y12.513
G2 X69.474 Y13.143 I3.764 J-10.002
G1 X73.416 Y13.022
X77.358 Y12.891
G3 X90.041 Y12.439 I15.151 J247.133
X95.99 Y12.217 I5.646 J71.36
X96.59 Y12.222 I-0.303 J71.582 F630
G1 X96.873 Y12.448
X97.094 Y12.702 F700
X97.731 Y13.889
G2 X99.469 Y17.042 I7.78 J-2.233
G1 X99.974 Y17.597
G2 X100.408 Y17.591 I0.214 J-0.21
G1 X100.433 Y17.545 Z-9.886
X100.457 Y17.499 Z-9.871
X100.48 Y17.457 Z-9.848
X100.485 Y17.42 Z-9.822
X100.489 Y17.387 Z-9.789
X100.484 Y17.355 Z-9.746
X100.482 Y17.332 Z-9.697
X100.48 Y17.317 Z-9.645
X100.479 Y17.312 Z-9.591
G0 Z-8.086
X64.236 Y10.653
Z-9.291
G1 Z-9.591 F700
X64.232 Y10.659 Z-9.657
X64.22 Y10.678 Z-9.721
X64.202 Y10.709 Z-9.778
X64.177 Y10.749 Z-9.825
X64.147 Y10.798 Z-9.861
X64.115 Y10.852 Z-9.883
X64.08 Y10.909 Z-9.891
G2 X63.909 Y11.473 I1.015 J0.616
G1 X63.908 Y11.61
X63.93 Y11.916
X63.983 Y12.287
X64.202 Y12.591
X64.795 Y13.05
G2 X69.833 Y13.631 I3.84 J-11.176
G3 X74.891 Y13.501 I3.644 J43.533
X82.508 Y13.144 I14.448 J226.887
G1 X83.847 Y13.001
G2 X89.451 Y12.878 I1.757 J-47.674
X95.416 Y12.726 I-6.225 J-361.212
X96.015 Y12.706 I-12.189 J-361.06 F630
G1 X96.178 Y12.748
X96.329 Y12.822
X96.597 Y13.027 F700
X97.009 Y13.559
X97.601 Y14.769
G2 X99.429 Y17.747 I7.562 J-2.592
X99.942 Y17.477 I0.22 J-0.203
G1 X99.928 Y17.412 Z-9.883
X99.914 Y17.35 Z-9.861
X99.901 Y17.295 Z-9.825
X99.891 Y17.248 Z-9.778
X99.883 Y17.214 Z-9.721
X99.878 Y17.192 Z-9.657
X99.876 Y17.185 Z-9.591
G0 Z-8.086
X64.231 Y10.88
Z-9.291
G1 Z-9.591 F700
X64.228 Y10.887 Z-9.657
X64.218 Y10.907 Z-9.721
X64.202 Y10.939 Z-9.778
X64.18 Y10.981 Z-9.825
X64.155 Y11.032 Z-9.861
X64.126 Y11.089 Z-9.883
X64.096 Y11.148 Z-9.891
G2 X63.93 Y11.916 I1.415 J0.709
G1 X63.974 Y12.389
X64.027 Y12.761
X64.479 Y13.359
G2 X68.204 Y14.126 I3.391 J-7.037
G1 X69.268 Y14.157
X70.614 Y14.116
X73.302 Y13.937
G2 X81.401 Y13.673 I0.997 J-93.779
G1 X82.748 Y13.626
X84.087 Y13.473
G2 X89.563 Y13.322 I1.879 J-31.341
X93.673 Y13.229 I1.379 J-29.784
G3 X95.257 Y13.211 I1.042 J22.778
X95.857 Y13.233 I-0.542 J22.795 F630
G1 X96.151 Y13.413
X96.398 Y13.643 F700
X97.172 Y14.746
G2 X98.875 Y17.867 I6.733 J-1.648
G1 X98.924 Y17.91
X98.98 Y17.942
X99.043 Y17.96
X99.108 Y17.964
X99.172 Y17.954
X99.233 Y17.931
X99.287 Y17.895
X99.332 Y17.848
X99.366 Y17.792
X99.387 Y17.73
X99.395 Y17.665
X99.388 Y17.6
X99.373 Y17.535 Z-9.883
X99.359 Y17.473 Z-9.861
X99.347 Y17.418 Z-9.825
X99.337 Y17.372 Z-9.778
X99.329 Y17.337 Z-9.721
X99.324 Y17.315 Z-9.657
X99.323 Y17.308 Z-9.591
G0 Z-8.086
X64.253 Y11.348
Z-9.291
G1 Z-9.591 F700
X64.25 Y11.354 Z-9.657
X64.24 Y11.374 Z-9.721
X64.225 Y11.407 Z-9.778
X64.205 Y11.45 Z-9.825
X64.18 Y11.501 Z-9.861
X64.153 Y11.558 Z-9.883
X64.124 Y11.619 Z-9.891
G2 X63.974 Y12.389 I1.429 J0.68
G1 X64.03 Y13
X64.056 Y13.186
X64.233 Y13.516
X64.805 Y14.002
G2 X69.938 Y14.618 I3.951 J-11.227
G3 X74.722 Y14.428 I6.48 J102.526
G2 X83.834 Y14.008 I-4.789 J-203.292
X89.391 Y13.85 I1.073 J-59.946
X93.711 Y13.677 I0.986 J-29.396
G3 X94.959 Y13.712 I0.303 J11.552
X95.555 Y13.776 I-0.945 J11.517 F630
G1 X95.857 Y13.932
X96.345 Y14.396 F700
X96.747 Y15.026
X97.069 Y15.532 F630
G2 X98.295 Y17.97 I4.046 J-0.506 F700
X98.822 Y17.729 I0.231 J-0.191
G1 X98.811 Y17.664 Z-9.883
X98.8 Y17.601 Z-9.861
X98.791 Y17.545 Z-9.825
X98.783 Y17.498 Z-9.778
X98.777 Y17.463 Z-9.721
X98.773 Y17.441 Z-9.657
X98.772 Y17.434 Z-9.591
G0 Z-8.086
X64.312 Y11.959
Z-9.291
G1 Z-9.591 F700
X64.308 Y11.966 Z-9.657
X64.299 Y11.986 Z-9.721
X64.283 Y12.018 Z-9.778
X64.263 Y12.061 Z-9.825
X64.238 Y12.112 Z-9.861
X64.211 Y12.17 Z-9.883
X64.182 Y12.23 Z-9.891
G2 X64.03 Y13 I1.428 J0.683
G1 X64.07 Y13.443
X64.096 Y13.629
X64.28 Y13.956
X64.821 Y14.475
G2 X69.852 Y15.118 I3.975 J-11.08
G3 X74.72 Y14.917 I9.473 J169.945
G2 X84.695 Y14.422 I-2.197 J-145.114
X90.041 Y14.28 I1.943 J-27.578
X93.682 Y14.176 I1.351 J-16.424
G1 X95.028 Y14.232
X95.356 Y14.305 F630
X95.643 Y14.481 F700
X96.135 Y14.942
X96.466 Y15.528
X96.998 Y16.766
X97.107 Y17.124
X97.447 Y17.706
G2 X98 Y17.534 I0.254 J-0.16
G1 X97.998 Y17.467 Z-9.883
X97.995 Y17.404 Z-9.861
X97.993 Y17.347 Z-9.825
X97.991 Y17.3 Z-9.778
X97.99 Y17.264 Z-9.721
X97.989 Y17.242 Z-9.657
X97.988 Y17.234 Z-9.591
G0 Z-8.086
X64.352 Y12.402
Z-9.291
G1 Z-9.591 F700
X64.349 Y12.409 Z-9.657
X64.339 Y12.429 Z-9.721
X64.324 Y12.461 Z-9.778
X64.303 Y12.504 Z-9.825
X64.279 Y12.555 Z-9.861
X64.251 Y12.613 Z-9.883
X64.223 Y12.673 Z-9.891
G2 X64.07 Y13.443 I1.427 J0.684
G1 X64.111 Y13.917
X64.137 Y14.102
X64.315 Y14.433
X64.854 Y14.954
G2 X69.776 Y15.618 I3.99 J-11.004
G3 X74.405 Y15.425 I11.306 J216.137
G2 X83.162 Y15.075 I-4.707 J-227.342
G3 X87.636 Y14.98 I2.939 J33.133
G1 X88.982 Y14.886
X90.322 Y14.75
G2 X94.018 Y14.672 I1.461 J-18.219
G1 X94.69 Y14.722
X95.021 Y14.781 F630
X95.318 Y14.939
X95.582 Y15.149 F700
X95.998 Y15.679
X96.518 Y16.921
X96.649 Y17.273
X96.957 Y17.872
G2 X97.518 Y17.729 I0.262 J-0.146
G1 X97.519 Y17.663 Z-9.883
X97.52 Y17.599 Z-9.861
X97.521 Y17.542 Z-9.825
X97.522 Y17.495 Z-9.778
Y17.459 Z-9.721
Y17.437 Z-9.657
X97.523 Y17.429 Z-9.591
G0 Z-8.086
X64.398 Y12.877
Z-9.291
G1 Z-9.591 F700
X64.395 Y12.884 Z-9.657
X64.385 Y12.904 Z-9.721
X64.37 Y12.936 Z-9.778
X64.349 Y12.979 Z-9.825
X64.324 Y13.03 Z-9.861
X64.297 Y13.087 Z-9.883
X64.267 Y13.147 Z-9.891
G2 X64.111 Y13.917 I1.425 J0.689
G1 X64.149 Y14.36
X64.164 Y14.528
X64.176 Y14.665
X64.218 Y14.804
X64.302 Y14.922
X64.419 Y15.008
X64.441 Y14.991 Z-9.833
G2 X64.65 Y14.767 Z-9.18 I-0.616 J-0.787
G1 X64.687 Y14.71 Z-9.035 F1200
X64.719 Y14.65 Z-8.891
G2 X64.788 Y13.937 I-0.895 J-0.447
X64.332 Y13.895 I-0.236 J0.065
X64.222 Y14.198 I1.425 J0.689
G1 X64.194 Y14.332 Z-9.18
G2 X64.176 Y14.665 Z-9.891 I1.562 J0.253 F700
G1 X64.185 Y14.754
X64.202 Y14.814
X64.234 Y14.873
G2 X66.264 Y15.708 I3.083 J-4.607
X71.491 Y16.05 I3.469 J-12.928
G3 X75.604 Y15.935 I2.901 J30.293
G2 X80.982 Y15.657 I-7.035 J-188.266
X84.478 Y15.44 I0.675 J-17.355
X90.64 Y15.22 I1.687 J-39.11
X94.31 Y15.177 I1.589 J-21.178
G1 X94.644 Y15.229 F630
X94.953 Y15.361
X95.216 Y15.572
X95.44 Y15.824 F700
X96.115 Y16.989
X96.184 Y17.358
X96.438 Y17.981
G2 X97.01 Y17.889 I0.274 J-0.123
G1 X97.017 Y17.822 Z-9.883
X97.023 Y17.759 Z-9.861
X97.029 Y17.702 Z-9.825
X97.034 Y17.655 Z-9.778
X97.038 Y17.62 Z-9.721
X97.04 Y17.598 Z-9.657
Y17.59 Z-9.591
G0 Z-8.086
X65.424 Y15.04
Z-9.291
G1 Z-9.591 F700
X65.429 Y15.045 Z-9.657
X65.443 Y15.062 Z-9.721
X65.466 Y15.089 Z-9.778
X65.497 Y15.126 Z-9.825
X65.534 Y15.169 Z-9.861
X65.576 Y15.217 Z-9.883
X65.619 Y15.268 Z-9.891
G2 X66.262 Y15.719 I1.202 J-1.03
G1 X68.099 Y16.344
G2 X71.684 Y16.544 I2.278 J-8.598
G3 X75.921 Y16.461 I2.595 J24.391
G2 X81.298 Y16.127 I-5.684 J-134.604
G1 X82.045 Y16.203
X83.384 Y16.062
X84.723 Y15.913
G2 X91.308 Y15.63 I1.812 J-34.621
G1 X92.048 Y15.735
X92.831 Y15.744
X94.178 Y15.7
X94.507 Y15.771 F630
X94.794 Y15.947 F700
G3 X95.898 Y17.992 I-3.151 J3.021
G2 X96.473 Y17.916 I0.277 J-0.115
G1 X96.482 Y17.85 Z-9.883
X96.49 Y17.787 Z-9.861
X96.497 Y17.731 Z-9.825
X96.504 Y17.684 Z-9.778
X96.508 Y17.649 Z-9.721
X96.511 Y17.627 Z-9.657
X96.512 Y17.619 Z-9.591
G0 Z-8.086
X67.263 Y15.663
Z-9.291
G1 Z-9.591 F700
X67.268 Y15.668 Z-9.657
X67.282 Y15.685 Z-9.721
X67.305 Y15.713 Z-9.778
X67.336 Y15.749 Z-9.825
X67.373 Y15.792 Z-9.861
X67.414 Y15.84 Z-9.883
X67.457 Y15.891 Z-9.891
G2 X68.099 Y16.344 I1.205 J-1.026
G1 X69.443 Y16.803
G2 X73.028 Y16.939 I2.092 J-7.824
G1 X74.373 Y16.837
X75.036 Y16.953
G2 X84.605 Y16.446 I-4.501 J-175.518
X91.4 Y16.123 I1.504 J-40.087
G1 X92.133 Y16.265
X93.479 Y16.209
X93.815 Y16.206
X93.983 Y16.227
X94.305 Y16.323 F630
X94.58 Y16.518
X94.801 Y16.772 F700
X95.163 Y17.34
X95.353 Y17.986
G2 X95.745 Y18.172 I0.285 J-0.094
G1 X95.788 Y18.141 Z-9.886
X95.83 Y18.111 Z-9.871
X95.868 Y18.083 Z-9.848
X95.89 Y18.039 Z-9.811
X95.907 Y18.002 Z-9.765
X95.92 Y17.975 Z-9.711
X95.928 Y17.958 Z-9.652
X95.931 Y17.953 Z-9.591
G0 Z-9.186
X96.041 Y17.32
Z-9.291
G1 Z-9.591 F700
X96.048 Y17.318 Z-9.657
X96.07 Y17.313 Z-9.721
X96.104 Y17.304 Z-9.778
X96.15 Y17.291 Z-9.825
X96.205 Y17.277 Z-9.861
X96.266 Y17.26 Z-9.883
X96.331 Y17.243 Z-9.891
G3 X97.107 Y17.124 I0.933 J3.5
G1 X94.53 Y17.908
X93.186 Y17.998
X92.439 Y17.926
X91.093 Y17.968
X89.827 Y17.916
G3 X85.508 Y17.514 I-1.314 J-9.29
G1 X84.908 Y17.201
G2 X84.508 Y17.369 I-0.12 J0.275
G1 X84.498 Y17.424 Z-9.885
X84.488 Y17.476 Z-9.87
X84.504 Y17.534 Z-9.838
X84.517 Y17.584 Z-9.792
X84.527 Y17.623 Z-9.736
X84.538 Y17.64 Z-9.69
X84.545 Y17.651 Z-9.641
X84.547 Y17.654 Z-9.591
G0 Z-7.486
X86.652 Y16.244
Z-7.591
G1 Z-9.891 F700
G3 X86.784 Y15.47 I3.615 J0.218
G1 X86.757 Y16.515
X87.199 Y17.121
G3 X93.658 Y16.74 I4.78 J26.08
G1 X94.313 Y16.889
G2 X94.611 Y16.779 Z-9.18 I0.06 J-0.294
G1 X94.646 Y16.721 Z-9.035 F1200
X94.667 Y16.656 Z-8.891
G2 X94.541 Y16.347 I-0.294 J-0.061
G1 X93.299 Y15.509
X93.251 Y15.482
X93.199 Y15.465
X93.145 Y15.458
X93.077 Y15.462 Z-9.035
X93.012 Y15.482 Z-9.18
G2 X92.831 Y15.744 Z-9.891 I0.119 J0.275 F700
G1 X92.818 Y16.986
X93.491 Y17.318
X94.164 Y17.343
Z-9.89
G2 X94.433 Y17.175 Z-9.18 I0 J-0.3
G1 X94.456 Y17.111 Z-9.035 F1200
X94.464 Y17.043 Z-8.891
G2 X94.021 Y16.779 I-0.3 J-0.001
G1 X93.373 Y17.133
G2 X93.66 Y17.659 I0.144 J0.263
X93.594 Y17.106 I-0.144 J-0.263
G1 X93.286 Y17.038
X93.151 Y17.017 Z-9.18
G2 X92.818 Y16.986 Z-9.891 I-0.499 J3.611 F700
G1 X92.145 Y16.979
X92.047 Y17.116 F630
X91.921 Y17.228
X91.774 Y17.309
X91.45 Y17.403 F700
X90.78 Y17.472
X89.437 Y17.374
X88.772 Y17.481
G2 X88.539 Y17.848 I0.058 J0.294
G1 X88.564 Y17.894 Z-9.886
X88.588 Y17.939 Z-9.871
X88.611 Y17.981 Z-9.848
X88.653 Y18.008 Z-9.811
X88.687 Y18.03 Z-9.765
X88.712 Y18.046 Z-9.711
X88.728 Y18.056 Z-9.652
X88.733 Y18.06 Z-9.591
G0 Z-8.086
X68.607 Y16.122
Z-9.291
G1 Z-9.591 F700
X68.612 Y16.128 Z-9.657
X68.626 Y16.144 Z-9.721
X68.649 Y16.172 Z-9.778
X68.68 Y16.208 Z-9.825
X68.717 Y16.251 Z-9.861
X68.758 Y16.299 Z-9.883
X68.801 Y16.35 Z-9.891
G2 X69.443 Y16.803 I1.205 J-1.026
G1 X70.073 Y17.019
X70.548 Y17.198
X70.685 Y17.252
X71.397 Y17.489
X72.07
X72.916 Y17.475
X74.255 Y17.331
X74.996 Y17.45
X76.343 Y17.444
X77.685 Y17.325
X78.645 Y17.337
X79.317 Y17.284
G2 X79.565 Y17.087 Z-9.18 I-0.034 J-0.298
G1 X79.581 Y17.021 Z-9.035 F1200
Y16.953 Z-8.891
G2 X79.283 Y16.686 I-0.298 J0.034
G1 X70.804 Y16.676
G2 X70.528 Y16.858 I0 J0.3
G1 X70.509 Y16.923 Z-9.035
X70.504 Y16.991 Z-9.18
G2 X70.685 Y17.252 Z-9.891 I0.3 J-0.015 F700
G1 X71.102 Y17.414
X71.297 Y17.499
X71.604 Y17.644
X72.297 Y17.931
X73.044 Y17.993
X73.709 Y17.886
X74.38 Y17.828
G2 X74.627 Y17.629 Z-9.18 I-0.036 J-0.298
G1 X74.642 Y17.562 Z-9.035 F1200
Y17.494 Z-8.891
G2 X74.362 Y17.231 I-0.298 J0.036
G1 X71.759 Y17.078
G2 X71.475 Y17.24 I-0.018 J0.299
G1 X71.451 Y17.304 Z-9.035
X71.441 Y17.371 Z-9.18
G2 X71.604 Y17.644 Z-9.891 I0.3 J0.007 F700
G1 X72.216 Y17.934
X72.4 Y18.025
X72.828 Y18.283
X73.489 Y18.638
X74.076 Y18.308
G2 X74.218 Y18.025 Z-9.18 I-0.156 J-0.256
G1 X74.205 Y17.958 Z-9.035 F1200
X74.176 Y17.896 Z-8.891
