(prop3faceoff)
(Machine)
(  vendor: Autodesk)
(  description: Generic 3-axis)
(T1  D=3 CR=0 - ZMIN=-4.99 - flat end mill)
G90 G94
G17
G21
G28 G91 Z0
G90

(Adaptive2)
T1
S18000 M3
G0 Z2 F250
X8.342 Y10.033
X8.342 Y10.033 Z-4.99
G3 X8.063 Y7.558 I11.488 J-2.547
X8.019 Y0.695 I216.425 J-4.812
G1 X8.016 Y-4.297
X8.015 Y-8.04
X8.017 Y-8.664
X8.052 Y-9.287
X8.2 Y-9.893
X8.498 Y-10.442
X8.922 Y-10.899
X9.436 Y-11.253
X10.006 Y-11.508
X10.605 Y-11.683
G3 X13.084 Y-11.935 I2.544 J12.702
X16.827 Y-11.972 I3.043 J117.558
G1 X20.571 Y-11.975
X52.392 Y-11.979
X102.932 Y-11.985
X107.923 Y-11.986
X108.547 Y-11.984
X109.171 Y-11.962
X109.783 Y-11.841
X110.347 Y-11.574
X110.824 Y-11.173
X111.199 Y-10.674
X111.473 Y-10.113
X111.663 Y-9.519
G3 X111.94 Y-7.043 I-11.566 J2.55
X111.985 Y-0.18 I-224.601 J4.889
G1 X111.986 Y7.931
X111.985 Y8.555
X111.961 Y9.179
X111.837 Y9.79
X111.565 Y10.352
X111.162 Y10.828
X110.661 Y11.2
X110.1 Y11.472
X109.505 Y11.659
G3 X107.028 Y11.931 I-2.552 J-11.811
X100.165 Y11.975 I-4.887 J-226.865
G1 X91.43 Y11.977
X40.89 Y11.984
X12.813 Y11.987
X12.189
X11.565 Y11.978
X10.945 Y11.903
X10.359 Y11.691
X9.846 Y11.335
X9.433 Y10.868
X9.122 Y10.327
X8.903 Y9.743
G3 X8.572 Y7.275 I9.819 J-2.571
X8.521 Y2.908 I105.557 J-3.414
G1 X8.516 Y-2.083
X8.515 Y-7.699
X8.522 Y-8.323
X8.575 Y-8.944
X8.763 Y-9.539
X9.095 Y-10.068
X9.546 Y-10.499
X10.077 Y-10.826
X10.656 Y-11.06
G3 X13.119 Y-11.416 I2.569 J9.072
X17.485 Y-11.471 I3.402 J97.239
G1 X21.853 Y-11.475
X56.794 Y-11.48
X107.334 Y-11.486
X107.958 Y-11.485
X108.581 Y-11.469
X109.197 Y-11.37
X109.77 Y-11.121
X110.261 Y-10.736
X110.65 Y-10.249
X110.938 Y-9.695
X111.139 Y-9.104
G3 X111.436 Y-6.632 I-10.879 J2.563
X111.482 Y-2.888 I-98.083 J3.056
G1 X111.485 Y0.231
X111.486 Y7.719
X111.479 Y8.343
X111.42 Y8.964
X111.231 Y9.558
X110.894 Y10.083
X110.44 Y10.511
X109.906 Y10.835
X109.327 Y11.066
G3 X106.863 Y11.417 I-2.577 J-9.244
X102.496 Y11.471 I-3.401 J-98.49
G1 X98.128 Y11.476
X85.025 Y11.477
X34.486 Y11.484
X13.272 Y11.487
X12.648
X12.024 Y11.475
X11.405 Y11.395
X10.823 Y11.171
X10.315 Y10.808
X9.908 Y10.335
X9.603 Y9.791
X9.39 Y9.204
G3 X9.071 Y6.735 I10.173 J-2.571
X9.017 Y0.496 I170.891 J-4.581
G1 X9.015 Y-6.991
X9.018 Y-7.615
X9.046 Y-8.239
X9.182 Y-8.848
X9.47 Y-9.401
X9.887 Y-9.865
X10.395 Y-10.227
X10.961 Y-10.49
X11.558 Y-10.671
G3 X14.036 Y-10.933 I2.548 J12.234
G1 X14.66 Y-10.952
G3 X20.899 Y-10.975 I4.533 J380.727
G1 X65.199 Y-10.981
X107.004 Y-10.986
X107.627 Y-10.983
X108.251 Y-10.953
X108.859 Y-10.813
X109.413 Y-10.527
X109.878 Y-10.111
X110.239 Y-9.602
X110.502 Y-9.036
X110.682 Y-8.439
G3 X110.943 Y-5.961 I-12.22 J2.54
G1 X110.962 Y-5.337
X110.971 Y-4.713
G3 X110.985 Y0.902 I-561.444 J4.188
G1 X110.986 Y7.142
X110.983 Y7.766
X110.934 Y8.388
X110.76 Y8.987
X110.439 Y9.522
X109.997 Y9.963
X109.472 Y10.3
X108.897 Y10.541
G3 X106.436 Y10.913 I-2.587 J-8.791
X102.07 Y10.971 I-3.408 J-91.965
G1 X97.702 Y10.976
X74.616 Y10.979
X24.076 Y10.986
X13.469 Y10.987
X12.845 Y10.984
X12.222 Y10.953
X11.616 Y10.807
X11.066 Y10.512
X10.606 Y10.09
X10.25 Y9.578
X9.992 Y9.01
X9.815 Y8.411
G3 X9.559 Y5.933 I12.525 J-2.549
X9.52 Y2.189 I115.439 J-3.066
G1 X9.517 Y-1.554
X9.515 Y-6.546
X9.519 Y-7.17
X9.554 Y-7.793
X9.706 Y-8.398
X10.005 Y-8.946
X10.429 Y-9.403
X10.943 Y-9.757
X11.513 Y-10.011
X12.112 Y-10.185
G3 X14.592 Y-10.435 I2.548 J12.845
X18.335 Y-10.472 I3.054 J117.571
G1 X22.079 Y-10.475
X27.071 Y-10.476
X77.61 Y-10.482
X106.312 Y-10.486
X106.936 Y-10.485
X107.559 Y-10.472
X108.175 Y-10.373
X108.75 Y-10.13
X109.244 Y-9.749
X109.637 Y-9.264
X109.929 Y-8.713
X110.132 Y-8.123
G3 X110.435 Y-5.651 I-10.683 J2.564
X110.485 Y0.588 I-181.747 J4.564
G1 X110.486 Y6.203
X110.485 Y6.827
X110.474 Y7.451
X110.396 Y8.07
X110.179 Y8.655
X109.818 Y9.164
X109.347 Y9.574
X108.804 Y9.881
X108.219 Y10.097
G3 X105.75 Y10.422 I-2.563 J-9.929
X101.383 Y10.472 I-3.405 J-107.655
G1 X96.392 Y10.476
X60.203 Y10.481
X14.031 Y10.487
X13.407 Y10.485
X12.784 Y10.458
X12.174 Y10.326
X11.617 Y10.045
X11.147 Y9.634
X10.781 Y9.129
X10.514 Y8.565
X10.33 Y7.969
G3 X10.061 Y5.492 I12.029 J-2.558
X10.019 Y-1.371 I222.676 J-4.82
G1 X10.015 Y-5.739
X10.016 Y-6.363
X10.028 Y-6.986
X10.115 Y-7.604
X10.34 Y-8.186
X10.708 Y-8.69
X11.184 Y-9.094
X11.73 Y-9.395
X12.317 Y-9.606
G3 X14.787 Y-9.923 I2.569 J10.235
X21.026 Y-9.975 I4.557 J172.827
G1 X43.488 Y-9.978
X94.028 Y-9.984
X105.883 Y-9.986
X106.507 Y-9.984
X107.13 Y-9.963
X107.744 Y-9.85
X108.311 Y-9.591
X108.796 Y-9.198
X109.178 Y-8.704
X109.459 Y-8.147
X109.653 Y-7.554
G3 X109.938 Y-5.08 I-11.333 J2.561
X109.983 Y1.783 I-207.817 J4.798
G1 X109.986 Y6.151
X109.981 Y6.775
X109.93 Y7.397
X109.754 Y7.995
X109.43 Y8.529
X108.987 Y8.967
X108.461 Y9.303
X107.885 Y9.543
G3 X105.424 Y9.913 I-2.585 J-8.815
X101.057 Y9.971 I-3.409 J-92.528
G1 X97.314 Y9.976
X92.322
X41.783 Y9.983
X14.329 Y9.987
X13.705 Y9.981
X13.083 Y9.932
X12.486 Y9.751
X11.954 Y9.425
X11.517 Y8.979
X11.184 Y8.452
X10.946 Y7.875
G3 X10.579 Y5.414 I8.876 J-2.582
X10.521 Y1.047 I94.12 J-3.423
G1 X10.516 Y-3.321
Y-5.816
X10.526 Y-6.44
X10.602 Y-7.059
X10.82 Y-7.644
X11.178 Y-8.155
X11.647 Y-8.567
X12.189 Y-8.875
X12.774 Y-9.093
X13.381 Y-9.238
G3 X16.489 Y-9.453 I2.84 J18.523
X24.6 Y-9.476 I5.374 J462.112
G1 X63.909 Y-9.481
X105.089 Y-9.486
X105.713 Y-9.485
X106.337 Y-9.478
X106.958 Y-9.42
X107.554 Y-9.233
X108.08 Y-8.898
X108.51 Y-8.445
X108.836 Y-7.914
X109.069 Y-7.335
G3 X109.425 Y-4.872 I-9.159 J2.583
G1 X109.452 Y-4.248
X109.466 Y-3.624
X109.474 Y-3.001
G3 X109.479 Y6.359 I-914.688 J5.251
G1 X109.417 Y6.98
X109.218 Y7.571
X108.878 Y8.094
X108.422 Y8.52
X107.888 Y8.842
X107.307 Y9.071
G3 X104.842 Y9.417 I-2.578 J-9.395
X100.476 Y9.471 I-3.412 J-99.083
G1 X96.108 Y9.476
X69.902 Y9.48
X19.363 Y9.487
X14.995
X14.371 Y9.484
X13.748 Y9.454
X13.14 Y9.314
X12.587 Y9.024
X12.124 Y8.606
X11.764 Y8.096
X11.502 Y7.53
X11.322 Y6.933
G3 X11.06 Y4.455 I12.286 J-2.554
X11.018 Y-2.408 I229.114 J-4.822
G1 X11.016 Y-4.904
X11.018 Y-5.528
X11.041 Y-6.152
X11.161 Y-6.764
X11.427 Y-7.328
X11.827 Y-7.807
X12.325 Y-8.182
X12.885 Y-8.458
X13.479 Y-8.649
G3 X15.954 Y-8.93 I2.553 J11.463
X19.698 Y-8.972 I3.057 J104.973
G1 X22.817 Y-8.975
X37.792 Y-8.977
X88.332 Y-8.984
X105.178 Y-8.985
X105.802 Y-8.98
X106.424 Y-8.927
X107.021 Y-8.745
X107.552 Y-8.418
X107.988 Y-7.972
X108.321 Y-7.444
X108.558 Y-6.867
G3 X108.923 Y-4.405 I-8.969 J2.589
X108.981 Y-0.039 I-93.42 J3.416
G1 X108.986 Y3.705
Y4.953
X108.983 Y5.577
X108.959 Y6.2
X108.828 Y6.81
X108.549 Y7.369
X108.14 Y7.839
X107.636 Y8.207
X107.073 Y8.476
X106.477 Y8.661
G3 X104 Y8.932 I-2.555 J-11.905
X97.137 Y8.974 I-4.792 J-220.946
G1 X94.017 Y8.976
X43.478 Y8.983
X15.4 Y8.987
X14.776 Y8.982
X14.154 Y8.941
X13.552 Y8.776
X13.01 Y8.467
X12.561 Y8.034
X12.216 Y7.514
X11.967 Y6.941
G3 X11.583 Y4.484 I8.505 J-2.59
X11.521 Y0.117 I88.381 J-3.428
G1 X11.516 Y-3.627
X11.517 Y-4.875
X11.527 Y-5.499
X11.616 Y-6.116
X11.848 Y-6.695
X12.219 Y-7.197
X12.697 Y-7.598
X13.244 Y-7.898
X13.832 Y-8.108
X14.44 Y-8.248
X15.057 Y-8.338
X15.679 Y-8.393
G3 X20.045 Y-8.47 I3.476 J73.195
G1 X22.541 Y-8.475
X66.217 Y-8.481
X104.278 Y-8.485
X104.902 Y-8.484
X105.525 Y-8.47
X106.143 Y-8.377
X106.722 Y-8.144
X107.221 Y-7.77
X107.619 Y-7.29
X107.915 Y-6.741
X108.123 Y-6.152
G3 X108.434 Y-3.682 I-10.42 J2.567
X108.482 Y1.309 I-128.306 J3.714
G1 X108.486 Y4.429
X108.484 Y5.053
X108.459 Y5.676
X108.334 Y6.288
X108.06 Y6.849
X107.656 Y7.324
X107.155 Y7.696
X106.594 Y7.968
X105.998 Y8.155
G3 X103.522 Y8.43 I-2.561 J-11.762
X96.659 Y8.476 I-4.896 J-221.954
G1 X63.59 Y8.48
X16.17 Y8.487
X15.546 Y8.485
X14.923 Y8.47
X14.307 Y8.366
X13.735 Y8.118
X13.244 Y7.733
X12.854 Y7.246
X12.566 Y6.692
X12.365 Y6.102
G3 X12.066 Y3.629 I10.859 J-2.567
X12.019 Y-2.61 I176.839 J-4.465
G1 X12.016 Y-3.858
X12.017 Y-4.482
X12.037 Y-5.106
X12.148 Y-5.72
X12.404 Y-6.289
X12.795 Y-6.775
X13.287 Y-7.159
X13.843 Y-7.442
X14.435 Y-7.639
G3 X16.909 Y-7.928 I2.56 J11.178
X20.652 Y-7.972 I3.062 J100.541
G1 X23.772 Y-7.975
X48.106 Y-7.979
X98.646 Y-7.985
X104.261
X104.885 Y-7.978
X105.505 Y-7.91
X106.096 Y-7.709
X106.615 Y-7.363
X107.037 Y-6.903
X107.356 Y-6.367
X107.582 Y-5.786
G3 X107.928 Y-3.321 I-9.462 J2.582
X107.982 Y3.542 I-174.573 J4.808
G1 X107.985 Y4.166
X107.979 Y4.79
X107.928 Y5.412
X107.748 Y6.009
X107.421 Y6.541
X106.975 Y6.977
X106.447 Y7.309
X105.87 Y7.547
G3 X103.409 Y7.914 I-2.586 J-8.904
X99.042 Y7.971 I-3.41 J-93.606
G1 X95.299 Y7.976
X79.7 Y7.978
X29.16 Y7.985
X16.681 Y7.987
X16.057 Y7.986
X15.434 Y7.969
X14.818 Y7.87
X14.245 Y7.623
X13.752 Y7.241
X13.36 Y6.755
X13.07 Y6.203
X12.868 Y5.612
G3 X12.567 Y3.14 I10.823 J-2.572
X12.526 Y-4.347 I198.711 J-4.833
G1 X12.586 Y-4.968
X12.779 Y-5.561
X13.119 Y-6.084
X13.574 Y-6.511
X14.108 Y-6.834
X14.688 Y-7.065
G3 X17.152 Y-7.417 I2.583 J9.28
X21.519 Y-7.471 I3.411 J97.664
G1 X25.886 Y-7.476
X33.998 Y-7.477
X84.537 Y-7.483
X103.256 Y-7.485
X103.88 Y-7.484
X104.503 Y-7.47
X105.121 Y-7.383
X105.701 Y-7.153
X106.204 Y-6.784
X106.607 Y-6.307
X106.907 Y-5.761
X107.118 Y-5.173
G3 X107.433 Y-2.703 I-10.305 J2.568
X107.478 Y4.16 I-178.835 J4.607
G1 X107.447 Y4.783
X107.297 Y5.388
X106.999 Y5.936
X106.574 Y6.393
X106.06 Y6.747
X105.491 Y7.004
X104.893 Y7.179
G3 X102.414 Y7.434 I-2.553 J-12.634
X95.551 Y7.474 I-4.795 J-235.267
G1 X91.807 Y7.477
X41.268 Y7.484
X16.934 Y7.487
X16.31 Y7.482
X15.687 Y7.447
X15.083 Y7.29
X14.537 Y6.987
X14.084 Y6.559
X13.734 Y6.042
X13.481 Y5.472
X13.308 Y4.872
G3 X13.057 Y2.393 I12.825 J-2.549
X13.024 Y-3.846 I189.839 J-4.12
G1 X13.085 Y-4.467
X13.281 Y-5.06
X13.619 Y-5.584
X14.074 Y-6.011
X14.607 Y-6.335
X15.187 Y-6.565
G3 X17.651 Y-6.916 I2.585 J9.318
X23.89 Y-6.971 I4.438 J149.958
G1 X74.43 Y-6.982
X103.131 Y-6.985
X103.755 Y-6.98
X104.377 Y-6.933
X104.978 Y-6.764
X105.515 Y-6.446
X105.958 Y-6.007
X106.298 Y-5.484
X106.542 Y-4.91
G3 X106.921 Y-2.451 I-8.648 J2.592
X106.975 Y3.788 I-128.305 J4.233
G1 X106.929 Y4.41
X106.747 Y5.006
X106.422 Y5.539
X105.976 Y5.976
X105.449 Y6.309
X104.872 Y6.548
G3 X102.411 Y6.914 I-2.581 J-8.887
X99.916 Y6.968 I-2.441 J-54.75
G1 X99.292 Y6.972
X98.044 Y6.974
X94.3 Y6.976
X49.376 Y6.982
X17.555 Y6.987
X16.931 Y6.985
X16.308 Y6.96
X15.697 Y6.833
X15.138 Y6.556
X14.665 Y6.149
X14.295 Y5.647
X14.024 Y5.085
X13.837 Y4.489
G3 X13.562 Y2.013 I11.782 J-2.563
X13.534 Y-3.602 I124.258 J-3.415
G1 X13.649 Y-4.216
X13.903 Y-4.786
X14.294 Y-5.271
X14.786 Y-5.655
X15.342 Y-5.939
X15.934 Y-6.136
X16.544 Y-6.266
X17.163 Y-6.349
X17.784 Y-6.4
G3 X22.151 Y-6.471 I3.475 J79.848
G1 X25.271 Y-6.476
X68.323 Y-6.481
X102.64 Y-6.485
X103.264 Y-6.48
X103.886 Y-6.432
X104.485 Y-6.258
X105.022 Y-5.94
X105.465 Y-5.5
X105.803 Y-4.976
X106.046 Y-4.401
G3 X106.422 Y-1.942 I-8.743 J2.593
X106.464 Y3.673 I-94.358 J3.526
G1 X106.336 Y4.284
X106.063 Y4.845
X105.658 Y5.32
X105.157 Y5.692
X104.596 Y5.965
X104.001 Y6.153
G3 X101.526 Y6.431 I-2.56 J-11.665
X97.782 Y6.473 I-3.062 J-105.423
G1 X94.663 Y6.476
X53.482 Y6.482
X17.917 Y6.486
X17.293 Y6.482
X16.671 Y6.443
X16.068 Y6.282
X15.524 Y5.977
X15.073 Y5.546
X14.725 Y5.027
X14.474 Y4.456
X14.303 Y3.856
G3 X14.057 Y1.376 I13.052 J-2.548
X14.028 Y-2.991 I107.778 J-2.879
G1 X14.117 Y-3.609
X14.348 Y-4.189
X14.717 Y-4.691
X15.194 Y-5.094
X15.741 Y-5.394
X16.328 Y-5.605
G3 X18.798 Y-5.923 I2.575 J10.27
X25.037 Y-5.976 I4.562 J171.119
G1 X66.217 Y-5.981
X101.782 Y-5.985
X102.406 Y-5.984
X103.03 Y-5.969
X103.646 Y-5.875
X104.225 Y-5.64
X104.723 Y-5.265
X105.121 Y-4.784
X105.417 Y-4.235
X105.624 Y-3.646
G3 X105.934 Y-1.175 I-10.46 J2.57
X105.961 Y3.191 I-70.492 J2.607
G1 X105.826 Y3.802
X105.55 Y4.361
X105.143 Y4.834
X104.64 Y5.204
X104.078 Y5.474
X103.482 Y5.659
G3 X101.005 Y5.931 I-2.561 J-11.907
X94.142 Y5.976 I-4.899 J-224.121
G1 X53.586 Y5.982
X18.645 Y5.987
X18.021 Y5.985
X17.397 Y5.969
X16.783 Y5.86
X16.214 Y5.605
X15.727 Y5.214
X15.342 Y4.723
X15.057 Y4.168
X14.859 Y3.576
G3 X14.565 Y1.103 I11.043 J-2.567
X14.54 Y-2.64 I59.773 J-2.273
G1 X14.662 Y-3.252
X14.925 Y-3.818
X15.323 Y-4.298
X15.82 Y-4.676
X16.378 Y-4.954
X16.972 Y-5.147
X17.583 Y-5.273
G3 X20.694 Y-5.456 I2.83 J21.596
X26.31 Y-5.476 I3.982 J337.981
G1 X68.114 Y-5.481
X101.183 Y-5.485
X101.807
X102.431 Y-5.476
X103.05 Y-5.4
X103.637 Y-5.187
X104.149 Y-4.831
X104.564 Y-4.365
X104.875 Y-3.824
X105.096 Y-3.24
G3 X105.43 Y-0.773 I-9.786 J2.582
X105.473 Y2.346 I-56.75 J2.351
G1 X105.413 Y2.967
X105.222 Y3.561
X104.883 Y4.084
X104.427 Y4.511
X103.894 Y4.834
X103.314 Y5.064
G3 X100.85 Y5.417 I-2.584 J-9.27
G1 X100.226 Y5.443
G3 X92.115 Y5.476 I-5.593 J-373.886
G1 X49.687 Y5.482
X19.114 Y5.486
X18.49 Y5.485
X17.866 Y5.463
X17.253 Y5.348
X16.687 Y5.086
X16.204 Y4.691
X15.823 Y4.197
X15.543 Y3.639
X15.35 Y3.046
G3 X15.064 Y0.572 I11.372 J-2.568
X15.032 Y-1.924 I46.463 J-1.846
G1 X15.107 Y-2.543
X15.319 Y-3.13
X15.675 Y-3.642
X16.142 Y-4.056
X16.683 Y-4.367
X17.267 Y-4.587
G3 X19.734 Y-4.92 I2.578 J9.79
X23.477 Y-4.973 I3.208 J95.496
G1 X25.973 Y-4.976
X74.016 Y-4.982
X100.846 Y-4.985
X101.47 Y-4.984
X102.094 Y-4.964
X102.708 Y-4.857
X103.28 Y-4.607
X103.769 Y-4.219
X104.156 Y-3.73
X104.442 Y-3.175
X104.642 Y-2.584
G3 X104.937 Y-0.111 I-10.91 J2.557
G1 X104.959 Y0.513
X104.97 Y1.136
X104.972 Y1.76
X104.925 Y2.382
X104.752 Y2.982
X104.432 Y3.517
X103.991 Y3.959
X103.466 Y4.296
X102.891 Y4.538
G3 X100.431 Y4.912 I-2.593 J-8.767
X96.064 Y4.972 I-3.417 J-90.789
G1 X92.321 Y4.976
X41.781 Y4.983
X19.319 Y4.986
X18.695 Y4.98
X18.073 Y4.926
X17.476 Y4.745
X16.946 Y4.416
X16.512 Y3.968
X16.18 Y3.439
X15.944 Y2.862
G3 X15.578 Y0.401 I8.967 J-2.59
G1 X15.551 Y-0.223
X15.538 Y-0.847
X15.543 Y-1.471
X15.621 Y-2.089
X15.846 Y-2.672
X16.209 Y-3.179
X16.682 Y-3.586
X17.227 Y-3.89
X17.813 Y-4.103
G3 X20.283 Y-4.422 I2.575 J10.196
X24.65 Y-4.472 I3.414 J107.945
G1 X29.641 Y-4.476
X33.385 Y-4.477
X83.925 Y-4.483
X100.147 Y-4.485
X100.771 Y-4.484
X101.395 Y-4.477
X102.015 Y-4.406
X102.605 Y-4.203
X103.122 Y-3.854
X103.543 Y-3.393
X103.86 Y-2.856
X104.085 Y-2.274
G3 X104.428 Y0.191 I-9.519 J2.581
G1 X104.453 Y0.815
X104.454 Y1.439
X104.382 Y2.059
X104.169 Y2.645
X103.811 Y3.156
X103.342 Y3.568
X102.8 Y3.876
X102.215 Y4.094
G3 X99.747 Y4.422 I-2.567 J-9.864
X95.38 Y4.472 I-3.412 J-106.118
G1 X91.012 Y4.477
X80.405 Y4.478
X29.866 Y4.485
X19.882 Y4.486
X19.258 Y4.483
X18.636 Y4.436
X18.035 Y4.268
X17.497 Y3.953
X17.051 Y3.516
X16.709 Y2.994
X16.464 Y2.421
G3 X16.082 Y-0.037 I8.592 J-2.594
G1 X16.057 Y-0.661
X16.079 Y-1.285
X16.223 Y-1.892
X16.52 Y-2.441
X16.945 Y-2.898
X17.459 Y-3.251
X18.028 Y-3.507
X18.627 Y-3.682
G3 X21.106 Y-3.935 I2.55 J12.696
X27.969 Y-3.976 I4.895 J244.268
G1 X47.311 Y-3.979
X97.851 Y-3.985
X99.723
X100.347 Y-3.984
X100.97 Y-3.971
X101.589 Y-3.891
X102.172 Y-3.667
X102.68 Y-3.306
X103.089 Y-2.834
X103.395 Y-2.29
X103.609 Y-1.704
G3 X103.898 Y1.388 I-9.198 J2.42
G1 X103.728 Y1.989
X103.408 Y2.525
X102.966 Y2.965
X102.441 Y3.302
X101.865 Y3.543
G3 X99.405 Y3.914 I-2.585 J-8.801
X95.038 Y3.972 I-3.415 J-92.264
G1 X91.294 Y3.977
X64.465 Y3.98
X20.789 Y3.986
X20.165
X19.541 Y3.974
X18.922 Y3.893
X18.337 Y3.675
X17.829 Y3.313
X17.42 Y2.842
X17.114 Y2.299
X16.897 Y1.713
X16.752 Y1.107
X16.66 Y0.49
X16.606 Y-0.132
X16.609 Y-0.756
X16.741 Y-1.366
X17.027 Y-1.92
X17.444 Y-2.384
X17.955 Y-2.743
X18.522 Y-3.002
X19.121 Y-3.179
G3 X21.599 Y-3.434 I2.551 J12.584
X28.463 Y-3.476 I4.896 J240.8
G1 X65.275 Y-3.481
X99.592 Y-3.485
X100.216 Y-3.48
X100.839 Y-3.439
X101.442 Y-3.28
X101.984 Y-2.97
X102.434 Y-2.538
X102.78 Y-2.018
X103.029 Y-1.447
X103.199 Y-0.846
X103.309 Y-0.232
X103.366 Y0.389
X103.331 Y1.012
X103.141 Y1.607
X102.797 Y2.128
X102.336 Y2.548
X101.798 Y2.864
X101.216 Y3.087
G3 X98.749 Y3.421 I-2.558 J-9.609
X95.006 Y3.473 I-3.207 J-96.131
G1 X92.51 Y3.476
X44.466 Y3.483
X20.756 Y3.486
X20.132 Y3.48
X19.512 Y3.414
X18.92 Y3.215
X18.399 Y2.873
X17.974 Y2.416
X17.653 Y1.881
X17.424 Y1.3
X17.272 Y0.695
X17.186 Y0.077
X17.215 Y-0.546
X17.407 Y-1.139
X17.756 Y-1.657
X18.222 Y-2.072
X18.763 Y-2.382
X19.348 Y-2.599
G3 X21.817 Y-2.923 I2.562 J9.948
X28.056 Y-2.976 I4.559 J169.607
G1 X36.791 Y-2.977
X87.33 Y-2.983
X98.561 Y-2.985
X99.185 Y-2.984
X99.809 Y-2.977
X100.431 Y-2.925
X101.027 Y-2.741
X101.558 Y-2.413
X101.993 Y-1.966
X102.325 Y-1.437
X102.561 Y-0.86
X102.711 Y-0.254
X102.751 Y0.369
X102.618 Y0.978
X102.317 Y1.525
X101.883 Y1.973
X101.359 Y2.313
X100.783 Y2.553
G3 X98.322 Y2.916 I-2.563 J-8.844
X93.955 Y2.972 I-3.407 J-95.668
G1 X89.587 Y2.977
X70.869 Y2.979
X21.577 Y2.986
X20.953 Y2.984
X20.33 Y2.962
X19.718 Y2.837
X19.156 Y2.566
X18.68 Y2.163
X18.307 Y1.663
X18.035 Y1.101
X17.869 Y0.5
X17.868 Y-0.124
X18.059 Y-0.718
X18.416 Y-1.23
X18.892 Y-1.634
X19.44 Y-1.93
X20.03 Y-2.135
G3 X22.503 Y-2.43 I2.522 J10.636
X26.246 Y-2.473 I3.044 J101.688
G1 X29.366 Y-2.476
X63.059 Y-2.48
X98.624 Y-2.485
X99.248 Y-2.481
X99.87 Y-2.434
X100.471 Y-2.265
X101.009 Y-1.95
X101.454 Y-1.513
X101.793 Y-0.989
X101.995 Y-0.399
X101.999 Y0.225
X101.797 Y0.815
X101.425 Y1.317
X100.937 Y1.705
X100.378 Y1.983
X99.783 Y2.171
G3 X97.306 Y2.435 I-2.511 J-11.798
X92.939 Y2.473 I-3.342 J-133.181
G1 X84.204 Y2.478
X42.399 Y2.483
X21.809 Y2.486
X21.185 Y2.479
X20.564 Y2.424
X19.968 Y2.24
X19.44 Y1.907
X19.011 Y1.453
G3 X18.784 Y0.254 I1.402 J-0.887
G1 X18.952 Y-0.347
X19.313 Y-0.856
X19.801 Y-1.245
X20.361 Y-1.518
X20.959 Y-1.699
G3 X23.439 Y-1.941 I2.46 J12.383
X27.182 Y-1.974 I3.009 J130.099
G1 X31.55 Y-1.977
X43.405 Y-1.978
X93.944 Y-1.984
X97.688 Y-1.985
X98.312 Y-1.984
X98.936 Y-1.973
X99.555 Y-1.898
X100.142 Y-1.686
X100.396 Y-1.504
G3 X100.891 Y-0.11 I-0.842 J1.085
G1 X100.798 Y0.188
X100.511 Y0.742
X100.061 Y1.174
X99.517 Y1.48
X98.926 Y1.681
G3 X96.449 Y1.941 I-2.414 J-11.048
X92.706 Y1.974 I-2.979 J-125.721
G1 X87.714 Y1.977
X59.636 Y1.981
G3 X57.4 Y1.946 I12.005 J-827.931
G1 X56.836 Y1.941
X56.212 Y1.939
X54.964 Y1.937
X22.519 Y1.941
X21.895 Y1.938
X21.272 Y1.906
X20.968 Y1.833
G3 X20.212 Y0.461 I0.379 J-1.104
G1 X20.303 Y0.163
X20.633 Y-0.367
X21.114 Y-0.763
X21.677 Y-1.033
X22.277 Y-1.203
G3 X24.761 Y-1.406 I2.353 J13.441
X29.129 Y-1.43 I3.235 J198.922
G1 X29.753 Y-1.431
G3 X34.12 Y-1.477 I3.239 J101.079
G1 X79.668 Y-1.483
G3 X81.904 Y-1.447 I-12.015 J827.829
G1 X82.468 Y-1.443
X83.092 Y-1.44
X84.34 Y-1.439
X97.443
X98.067 Y-1.436
X98.379 Y-1.423
G3 X99.056 Y0.583 I-0.126 J1.16
G1 X98.816 Y0.782
X98.249 Y1.043
X97.647 Y1.207
G3 X95.163 Y1.407 I-2.36 J-13.812
X87.676 Y1.432 I-5.056 J-394.161
G1 X70.205 Y1.435
X59.598 Y1.436
G2 X54.634 Y1.392 I-4.493 J229.276
G1 X46.523 Y1.393
X23.203 Y1.396
G2 X23.072 Y1.96 I0.01 J0.3
G1 X23.13 Y1.992 Z-4.982
X23.186 Y2.021 Z-4.96
X23.237 Y2.048 Z-4.925
X23.278 Y2.071 Z-4.877
X23.31 Y2.087 Z-4.82
X23.33 Y2.098 Z-4.757
X23.336 Y2.101 Z-4.69
G0 Z2
G28 G91 Z0
G90
G28 G91 X0 Y0
G90
M5
M30
