(prop1part2)
(Machine)
(  vendor: Autodesk)
(  description: Generic 3-axis)
(T2  D=3 CR=1.5 - ZMIN=-25.7 - ball end mill)
G90 G94
G17
G21
G28 G91 Z0
G90

(Adaptive1 3)
T2
S18000 M3
G54
G0 X233.183 Y-5.213
Z2.01
Z-1.384
G1 Z-1.684 F550
X233.177 Y-5.217 Z-1.75
X233.159 Y-5.231 Z-1.814
X233.131 Y-5.252 Z-1.871
X233.092 Y-5.28 Z-1.918
X233.047 Y-5.314 Z-1.954
X232.995 Y-5.351 Z-1.976
X232.942 Y-5.391 Z-1.984
G2 X231.412 Y-6.01 I-1.973 J2.676
G1 X231.231 Y-6.028
X231.027 Y-6.038
X230.956 Y-5.601
X230.837 Y-5.175 F495
X230.588 Y-4.809
X230.254 Y-4.518 F550
X229.482 Y-4.087
X227.737 Y-3.784
G2 X221.257 Y-4.279 I-8.031 J62.526
G1 X219.49 Y-4.392
X217.723 Y-4.5
X200.05 Y-5.543
X198.281 Y-5.627
X182.368 Y-6.427
X161.15 Y-7.492
X157.612 Y-7.625
X154.073 Y-7.748
X131.072 Y-8.552
X115.148 Y-9.107
X113.393 Y-9.333
X112.518 Y-9.469
X112.105 Y-9.627 F495
X111.741 Y-9.88
X111.461 Y-10.222
X111.262 Y-10.618 F550
X111.01 Y-11.467
X110.999 Y-13.237
G2 X111.052 Y-15.957 I-4.817 J-1.454
G1 X110.737 Y-16.638
X110.552 Y-16.964
X110.038 Y-17.51
X108.987 Y-17.859
X106.007 Y-18.705
X105.726 Y-18.629
Y-18.135
Y-18.088 F1200
X108.349 Y-9.03
X108.944 Y-8.213
X110.151 Y-7.289
G2 X110.549 Y-7.022 I1.585 J-1.934
G1 X111.357 Y-6.752
X115.38 Y-6.235
X229.622 Y1.102
G2 X232.438 Y-1.304 I0.317 J-2.48
G1 X232.583 Y-4.212
G2 X231.954 Y-5.738 I-1.563 J-0.247
X231.634 Y-5.919 I-0.934 J1.278 F550
G1 X231.231 Y-6.028
X231.01 Y-6.05
X230.823 Y-6.059
G3 X228.836 Y-4.534 I-2.628 J-1.367
G1 X227.963 Y-4.389
X219.575 Y-4.892
X211.187 Y-5.384
X205.885 Y-5.699
X200.583 Y-6.012
X191.743 Y-6.458
X181.134 Y-6.99
X161.684 Y-7.965
X157.556 Y-8.126
X153.428 Y-8.276
X149.3 Y-8.414
X140.453 Y-8.725
X129.837 Y-9.095
X115.683 Y-9.589
X113.919 Y-9.744
X113.483 Y-9.817
X113.059 Y-9.944
X112.296 Y-10.393
X112.118 Y-10.524 F495
X111.953 Y-10.672
X111.839 Y-10.862
X111.604 Y-11.715 F550
X111.448 Y-13.479
G2 X110.549 Y-17.674 I-3.998 J-1.338
X107.698 Y-18.728 I-4.943 J8.994
G1 X106.737 Y-19.367
X106.075 Y-19.719
X105.641 Y-19.806
X105.323 Y-19.643
Y-19.377
X105.378 Y-19.224
X108.889 Y-9.431 F1200
G2 X109.344 Y-8.628 I2.365 J-0.81
G1 X110.553 Y-7.566
X112.966 Y-6.591
X114.173 Y-6.446
X226.806 Y-1.121
X228.013 Y-1.107
G2 X229.622 Y-1.641 I0.065 J-2.499
G1 X231.634 Y-3.137
G2 X231.731 Y-5.76 I-0.835 J-1.344
X231.01 Y-6.05 I-0.933 J1.279 F550
G1 X230.608 Y-6.09
X230.421 Y-6.099
X229.74 Y-5.533
X229.375 Y-5.283
X228.556 Y-4.947
X226.791 Y-4.807
G2 X220.677 Y-5.291 I-6.232 J39.887
G1 X215.708 Y-5.608
X210.739 Y-5.913
X205.768 Y-6.206
X200.797 Y-6.486
X195.825 Y-6.753
X190.853 Y-7.008
X185.88 Y-7.25
X180.906 Y-7.48
X176.614 Y-7.719
X172.321 Y-7.944
X168.027 Y-8.155
X163.732 Y-8.352
X159.437 Y-8.535
X155.142 Y-8.704
X150.846 Y-8.86
X145.538 Y-9.048
X129.614 Y-9.598
X115.46 Y-10.082
X113.701 Y-10.282
X113.28 Y-10.421
X112.89 Y-10.629
X112.702 Y-10.747
X112.538 Y-10.895 F495
X112.287 Y-11.26 F550
X111.994 Y-12.095
X111.965 Y-13.865
G2 X110.197 Y-18.434 I-3.94 J-1.102
G1 X109.486 Y-18.693
X108.783 Y-18.955
X107.929 Y-19.187
X107.187 Y-19.671
X106.932 Y-19.697
X106.737 Y-19.467
X106.794 Y-19.247
X109.114 Y-10.234 F1200
X109.645 Y-9.215
X110.138 Y-8.628
G2 X110.551 Y-8.227 I1.937 J-1.581
G1 X112.162 Y-7.328
X113.486 Y-7.04
X114.978 Y-6.839
X226.404 Y-1.502
G2 X227.611 Y-1.674 I0.261 J-2.486
G1 X230.858 Y-3.008
G2 X231.329 Y-5.8 I-0.462 J-1.514
X230.608 Y-6.09 I-0.933 J1.279 F550
G1 X230.206 Y-6.13
X230.018 Y-6.139
X229.214 Y-5.769
X228.402 Y-5.417
X226.635 Y-5.308
G2 X219.338 Y-5.865 I-7.854 J54.771
G1 X217.57 Y-5.993
X215.8 Y-6.025
X215.058 Y-6.131
X210.074 Y-6.441
X205.088 Y-6.736
X200.102 Y-7.017
X195.116 Y-7.283
X190.128 Y-7.536
X185.14 Y-7.773
X180.151 Y-7.997
X176.041 Y-8.234
X171.93 Y-8.455
X167.817 Y-8.66
X163.705 Y-8.85
X159.591 Y-9.023
X155.477 Y-9.181
X151.973 Y-9.292
X148.469 Y-9.414
X144.966 Y-9.547
X141.463 Y-9.691
X137.63 Y-9.834
X133.797 Y-9.968
X129.964 Y-10.092
X124.656 Y-10.268
X119.35 Y-10.458
X114.043 Y-10.662
X113.632 Y-10.825
X113.234 Y-11.018
X113.066 Y-11.162 F495
X112.777 Y-11.498
X112.6 Y-11.903 F550
X112.421 Y-12.77
X112.519 Y-14.538
G2 X108.996 Y-19.375 I-4.371 J-0.519
G1 X108.577 Y-19.525
X108.158 Y-19.667
X108.071 Y-19.68
X107.784 Y-19.467
X107.849 Y-19.133
X109.487 Y-10.736 F1200
X110.151 Y-9.467
X110.975 Y-8.628
G2 X112.162 Y-7.896 I1.854 J-1.677
G1 X113.771 Y-7.379
X230.025 Y-2.979
G2 X230.927 Y-5.84 I-0.03 J-1.582
X230.206 Y-6.13 I-0.933 J1.279 F550
G1 X229.803 Y-6.17
X229.054 Y-6.207
X228.221 Y-5.907
X226.454 Y-5.797
G2 X220.281 Y-6.285 I-5.608 J31.647
G1 X219.303 Y-6.399
X217.535 Y-6.499
X215.765 Y-6.515
G2 X210.281 Y-6.819 I-4.443 J30.496
G1 X209.541 Y-6.948
G2 X195.546 Y-7.707 I-26.494 J359.28
X188.981 Y-8.087 I-14.523 J193.802
G1 X185.784 Y-8.24
X182.588 Y-8.401
X179.393 Y-8.572
X177.625 Y-8.66
X175.855 Y-8.686
G2 X165.991 Y-9.236 I-25.534 J368.948
G1 X164.221 Y-9.218
G2 X156.406 Y-9.545 I-5.88 J46.939
G1 X155.665 Y-9.661
X148.69 Y-9.926
X141.714 Y-10.176
X134.739 Y-10.412
X127.762 Y-10.633
X123.272 Y-10.815
X118.782 Y-10.986
X114.292 Y-11.146
X113.87 Y-11.282 F495
X113.678 Y-11.391
X113.502 Y-11.526
G3 X112.979 Y-14.116 I2.282 J-1.809 F550
G2 X109.109 Y-19.884 I-5.033 J-0.806
G1 X108.908 Y-19.868
X108.756 Y-19.467
X108.778 Y-19.313
X109.92 Y-11.438 F1200
G2 X110.403 Y-10.243 I2.481 J-0.307
G1 X111.056 Y-9.3
X112.162 Y-8.431
X113.369 Y-7.969
X118.196 Y-7.711
X229.622 Y-3.019
G2 X230.525 Y-5.88 I-0.03 J-1.582
X229.803 Y-6.17 I-0.933 J1.279 F550
G1 X228.597 Y-6.29
X227.429 Y-6.347
X225.66 Y-6.274
X224.945 Y-6.5
X224.202 Y-6.604
X222.689 Y-6.717
X220.919 Y-6.756
X218.027 Y-6.972
X216.257 Y-7.024
X214.487 Y-7.036
G2 X210.217 Y-7.32 I-3.237 J16.446
X204.604 Y-7.709 I-5.384 J37.026
X199.176 Y-8.072 I-10.872 J121.522
G1 X198.131 Y-8.124
X196.36 Y-8.134
G2 X189.646 Y-8.544 I-8.557 J84.93
G3 X180.235 Y-9 I36.439 J-850.187
G1 X178.469 Y-9.131
X176.699 Y-9.179
X174.929 Y-9.188
G2 X168.542 Y-9.598 I-9.468 J97.581
G1 X166.775 Y-9.714
X165.005 Y-9.748
X163.237 Y-9.66
G2 X158.577 Y-10.071 I-3.818 J16.649
G3 X152.522 Y-10.274 I-0.813 J-66.221
G1 X147.601 Y-10.448
X142.68 Y-10.632
X137.76 Y-10.828
G2 X131.123 Y-10.912 I-4.484 J91.505
G1 X130.387 Y-11.034
X129.639 Y-11.092
X127.869 Y-11.132
G3 X114.882 Y-11.639 I18.052 J-629.422
X114.283 Y-11.669 I31.04 J-628.915 F495
G1 X114.087 Y-11.804 F550
X113.915 Y-11.942
X113.771 Y-12.111 F495
X113.548 Y-12.493 F550
X113.376 Y-13.361
G2 X112.066 Y-18.7 I-6.07 J-1.342
G1 X111.537 Y-19.235
X111.169 Y-19.48
X110.798 Y-19.721
X110.553 Y-19.75
X110.343 Y-19.467
X110.347 Y-19.28
X110.514 Y-11.84 F1200
G2 X111.427 Y-9.832 I2.499 J0.074
G1 X112.966 Y-8.751
G2 X114.173 Y-8.342 I1.379 J-2.085
G1 X228.416 Y-3.139
G2 X229.318 Y-6 I-0.03 J-1.582
X228.597 Y-6.29 I-0.933 J1.279 F550
G1 X220.37 Y-7.107
X213.531 Y-7.597
X206.693 Y-8.098
X204.924 Y-8.159
G2 X196.827 Y-8.637 I-10.113 J102.439
G1 X195.057 Y-8.639
G2 X190.037 Y-8.95 I-3.876 J21.884
X184.211 Y-9.245 I-6.193 J64.554
G1 X183.256 Y-9.362
G3 X177.697 Y-9.658 I0.169 J-55.396
G1 X175.927 Y-9.686
X174.157 Y-9.687
X173.42 Y-9.827
G2 X165.495 Y-10.24 I-18.744 J283.222
G1 X163.725 Y-10.204
X161.954 Y-10.174
X161.244 Y-10.415
G2 X155.737 Y-10.514 I-3.294 J30.126
X149.753 Y-10.821 I-5.626 J51.106
X140.746 Y-11.143 I-23.638 J535.731
X131.135 Y-11.427 I-8.255 J116.625
X121.721 Y-11.808 I-9.606 J120.848
G1 X120.74 Y-11.916
X118.97 Y-11.957
G3 X115.081 Y-12.129 I-1.003 J-21.382
X114.488 Y-12.218 I2.886 J-21.21 F495
G1 X114.322 Y-12.393
X114.19 Y-12.57
X113.993 Y-12.967 F550
X113.839 Y-13.838
G2 X111.686 Y-19.724 I-6.011 J-1.138
G1 X111.357 Y-19.746
X111.207 Y-19.467
X111.19 Y-19.329
X110.539 Y-13.847 F1200
X110.757 Y-12.241
X111.517 Y-10.596
X112.264 Y-9.783
X113.369 Y-9.131
X114.575 Y-8.909
X117.391 Y-8.618
X206.291 Y-4.959
G2 X207.42 Y-7.818 I0.214 J-1.568
X207.096 Y-7.995 I-0.915 J1.291 F550
G1 X206.693 Y-8.098
G3 X197.59 Y-9.028 I17.47 J-216.09
G2 X191.724 Y-9.449 I-25.669 J316.157
G1 X189.954 Y-9.451
G2 X184.597 Y-9.674 I-4.18 J35.905
X178.481 Y-10.055 I-7.23 J66.888
G1 X177.584 Y-10.15
X175.815 Y-10.193
X174.044 Y-10.17
G2 X169.022 Y-10.483 I-4.012 J23.879
X162.64 Y-10.642 I-3.865 J27.072
G1 X160.871 Y-10.736
X160.155 Y-10.961
G2 X154.695 Y-10.937 I-2.613 J26.717
X150.568 Y-11.275 I-3.109 J12.624
G1 X149.273 Y-11.386
X147.504 Y-11.45
X145.734 Y-11.425
G2 X140.049 Y-11.622 I-4.051 J34.758
X134.17 Y-11.881 I-4.856 J43.39
G1 X133.383 Y-11.945
X131.612 Y-11.938
X129.843 Y-11.884
X129.11 Y-12.046
X128.154 Y-12.124
X126.385 Y-12.192
X121.075 Y-12.318
G2 X116.83 Y-12.411 I-2.651 J24.062
G1 X115.672 Y-12.583
X115.078 Y-12.671 F495
X114.88 Y-12.77
X114.718 Y-12.921
X114.485 Y-13.297
X114.375 Y-13.726
G2 X112.454 Y-19.72 I-7.134 J-1.018 F550
G1 X112.162 Y-19.804
X111.94 Y-19.467
X111.936 Y-19.39
X111.599 Y-12.642 F1200
G2 X113.369 Y-10.051 I2.492 J0.198
G1 X116.184 Y-9.149
X197.441 Y-5.891
G2 X198.301 Y-8.714 I-0.117 J-1.578
X197.844 Y-8.964 I-0.977 J1.245 F550
G1 X197.591 Y-9.03
G3 X193.197 Y-9.727 I7.443 J-61.04
G1 X192.654 Y-9.82
X187.477 Y-10.132
X186.183 Y-10.183
X184.413 Y-10.164
G2 X179.335 Y-10.467 I-4.191 J27.519
X174.35 Y-10.674 I-3.67 J28.31
X169.099 Y-11 I-5.908 J52.739
X162.091 Y-11.116 I-4.057 J33.405
G1 X160.33 Y-11.318
G2 X155.033 Y-11.446 I-3.032 J15.777
X147.253 Y-11.916 I-7.864 J65.598
G1 X145.483 Y-11.924
X144.635 Y-12.028
X143.814 Y-12.093
X142.188 Y-12.149
G3 X137.006 Y-12.348 I-1.086 J-39.346
G2 X129.822 Y-12.395 I-4.692 J168.56
X124.838 Y-12.704 I-4.052 J25.007
G1 X123.07 Y-12.785
X121.299 Y-12.784
G2 X116.525 Y-12.911 I-3.126 J27.687
G1 X115.796 Y-13.091
X115.576 Y-13.115 F495
X115.371 Y-13.199
X115.199 Y-13.339
X115.075 Y-13.522
X114.932 Y-13.941
G2 X113.123 Y-19.741 I-8.368 J-0.572 F550
G1 X113.09 Y-19.784
X113.049 Y-19.821
X113.001 Y-19.85
X112.948 Y-19.869
X112.891 Y-19.877
X112.564 Y-19.508
X112.562 Y-19.503
X111.604 Y-17.058 F1200
G2 X111.413 Y-15.854 I2.299 J0.981
G1 X111.76 Y-12.985
X112.285 Y-11.84
X112.506 Y-11.438
G2 X113.369 Y-10.636 I2.086 J-1.378
G1 X115.782 Y-9.658
X192.614 Y-6.626
G2 X193.881 Y-9.361 I0.195 J-1.571
X193.197 Y-9.731 I-1.072 J1.164 F550
G1 X192.614 Y-9.857
X192.212 Y-9.957
X191.588 Y-10.162
X191.206 Y-10.267
G2 X186.189 Y-10.628 I-4.403 J26.137
G1 X184.419 Y-10.681
G2 X178.519 Y-10.949 I-4.455 J33.057
X173.954 Y-11.159 I-3.133 J18.354
X167.827 Y-11.516 I-5.305 J38.367
X161.793 Y-11.574 I-3.227 J21.611
X154.713 Y-11.943 I-4.637 J20.835
X149.837 Y-12.303 I-4.226 J24.04
G1 X148.07 Y-12.41
X146.76 Y-12.445
X144.99 Y-12.402
G2 X140.359 Y-12.629 I-3.343 J20.845
X129.591 Y-12.879 I-8.972 J154.807
G1 X128.854 Y-13.017
X127.784 Y-13.127
G2 X116.813 Y-13.435 I-30.028 J875.33
X116.213 Y-13.448 I-19.056 J875.637 F495
G1 X116.004 Y-13.497
X115.813 Y-13.608
X115.662 Y-13.771
X115.469 Y-14.169
G2 X115.008 Y-17.262 I-14.944 J0.647 F550
X113.672 Y-19.846 I-11.962 J4.547
G1 X113.369 Y-19.965
X113.202 Y-19.868
X113.108 Y-19.619
X112.162 Y-17.109 F1200
G2 X111.932 Y-15.854 I2.263 J1.063
G1 X112.246 Y-13.445
G2 X112.832 Y-12.241 I2.459 J-0.453
G1 X113.771 Y-11.052
G2 X115.38 Y-10.274 I1.821 J-1.713
G1 X191.005 Y-7.095
G2 X192.23 Y-9.722 I0.036 J-1.582
X191.588 Y-10.162 I-1.188 J1.045 F550
G1 X191.085 Y-10.328 F495
X191.074 Y-10.335 F550
X191.051 Y-10.361
X190.79 Y-10.63
X190.086 Y-10.889
G2 X183.218 Y-11.156 I-5.951 J64.738
G1 X182.49 Y-11.335
X181.7 Y-11.409
X180.743 Y-11.458
X177.202 Y-11.49
X176.465 Y-11.625
X175.716 Y-11.668
X173.945 Y-11.68
G2 X167.242 Y-12.032 I-6.006 J50.386
X161.771 Y-12.067 I-2.857 J18.717
X154.394 Y-12.414 I-4.701 J21.328
X148.393 Y-12.821 I-4.691 J24.737
G1 X147.644 Y-12.902
G3 X142.208 Y-13.162 I0.075 J-58.359
G1 X140.436 Y-13.137
G2 X129.377 Y-13.386 I-8.659 J138.717
X123.592 Y-13.703 I-4.349 J26.41
X117.105 Y-13.932 I-8.291 J143.135
X116.506 Y-13.938 I-1.805 J143.364 F495
G1 X116.301 Y-14.031
X116.13 Y-14.172
X116.008 Y-14.356
X115.756 Y-15.205 F550
G2 X114.513 Y-19.446 I-8.538 J0.199
G1 X114.282 Y-19.824
X114.032 Y-19.959
X113.817 Y-19.868
X113.714 Y-19.621
X112.484 Y-16.657 F1200
X112.399 Y-15.854
X112.572 Y-14.534
X112.715 Y-13.847
G2 X113.369 Y-12.494 I2.474 J-0.362
G1 X114.393 Y-11.438
G2 X116.184 Y-10.711 I1.762 J-1.773
G1 X189.798 Y-7.777
G2 X191.38 Y-9.657 I0.027 J-1.582
X191.074 Y-10.333 I-1.554 J0.298 F550
G1 X191.051 Y-10.361
X190.7 Y-10.761
X190.448 Y-11.039
X189.777 Y-11.373
G2 X181.918 Y-11.682 I-6.198 J57.466
G1 X181.191 Y-11.883
X180.443 Y-11.938
X178.673 Y-11.987
X176.903 Y-11.965
X176.166 Y-12.104
G3 X171.495 Y-12.419 I-0.289 J-30.542
G1 X169.832 Y-12.499
X168.061 Y-12.472
G2 X161.603 Y-12.585 I-3.703 J27.02
X154.576 Y-12.934 I-4.566 J21.065
X148.608 Y-13.319 I-5.011 J31.201
G1 X147.719 Y-13.391
G3 X142.327 Y-13.649 I-0.273 J-50.68
G1 X140.555 Y-13.643
X138.785 Y-13.666
G2 X131.02 Y-13.908 I-6.634 J88.154
G1 X129.251 Y-13.878
G2 X122.501 Y-14.198 I-4.866 J31.196
X117.492 Y-14.441 I-6.403 J80.42
X116.892 Y-14.449 I-1.394 J80.663 F495
G1 X116.684 Y-14.531
X116.508 Y-14.665
X116.378 Y-14.844
X116.235 Y-15.263 F550
G2 X114.891 Y-19.78 I-9.386 J0.333
G1 X114.575 Y-19.916
X114.464 Y-19.868
X114.361 Y-19.565
X113.094 Y-15.854 F1200
G2 X113.279 Y-13.847 I2.371 J0.794
G1 X113.771 Y-12.906
G2 X114.575 Y-12.013 I2.205 J-1.177
G1 X115.38 Y-11.494
G2 X116.587 Y-11.161 I1.247 J-2.167
G1 X189.396 Y-8.219
G2 X191.005 Y-10.046 I0.046 J-1.582
X190.719 Y-10.736 I-1.563 J0.245 F550
G1 X190.7 Y-10.761
X190.69 Y-10.773 F495
X190.703 Y-10.836 F550
X190.731 Y-11.021
X190.503 Y-11.319
X189.915 Y-11.785
G2 X184.9 Y-12.127 I-3.85 J19.516
G1 X183.783 Y-12.188
X182.012 Y-12.196
G2 X175.71 Y-12.432 I-4.197 J27.8
G1 X174.979 Y-12.608
G2 X169.808 Y-13.006 I-16.588 J181.737
G1 X168.037 Y-12.975
G2 X161.682 Y-13.094 I-3.69 J27.366
X154.198 Y-13.421 I-4.805 J24.163
X147.845 Y-13.78 I-4.543 J23.966
G1 X147.101 Y-13.882
X146.109 Y-13.919
X144.339 Y-13.907
X143.6 Y-14.035
X142.853 Y-14.099
X141.228 Y-14.157
X139.458 Y-14.11
G2 X130.029 Y-14.401 I-7.692 J96.271
G1 X129.146 Y-14.36
G2 X123.308 Y-14.694 I-4.294 J23.833
G3 X117.764 Y-14.944 I4.242 J-155.719
X117.165 Y-14.983 I9.787 J-155.469 F495
G1 X116.977 Y-15.116
X116.828 Y-15.281
X116.734 Y-15.481
G2 X115.599 Y-19.513 I-10.488 J0.776 F550
G1 X115.524 Y-19.95
X115.38 Y-20.148
X115.231 Y-20.188
X114.978 Y-20.049
X114.938 Y-19.961
X113.629 Y-17.058 F1200
G2 X113.374 Y-15.854 I2.243 J1.103
G1 X113.535 Y-14.65
X113.771 Y-13.991
G2 X114.691 Y-12.755 I2.368 J-0.802
G1 X115.38 Y-12.245
G2 X116.587 Y-11.798 I1.443 J-2.042
G1 X188.189 Y-8.927
G2 X190.2 Y-9.832 I0.084 J-2.499
G1 X190.365 Y-10.131
X190.645 Y-10.635 F550
X190.703 Y-10.836
X190.79 Y-11.258
X190.818 Y-11.443
X190.338 Y-12.019
G2 X186.996 Y-12.6 I-3.024 J7.491
G3 X180.06 Y-12.92 I-0.908 J-55.582
G1 X178.836 Y-12.982
X177.065 Y-12.975
X175.296 Y-12.923
G2 X166.737 Y-13.464 I-6.594 J36.341
X161.531 Y-13.565 I-2.895 J15.068
X153.822 Y-13.892 I-4.812 J22.36
X150.021 Y-14.314 I-3.385 J13.169
G1 X149.058 Y-14.298
X148.095 Y-14.297
X147.133 Y-14.309
X146.17 Y-14.336
X145.208 Y-14.377
X144.247 Y-14.433
X143.287 Y-14.502
X142.327 Y-14.586
X141.369 Y-14.683
G3 X136.227 Y-14.859 I-1.542 J-30.281
G2 X128.864 Y-14.883 I-4.954 J383.7
X121.845 Y-15.17 I-4.768 J30.596
X118.372 Y-15.41 I-3.843 J30.359
X117.772 Y-15.412 I-0.369 J30.599 F495
G1 X117.561 Y-15.502
X117.379 Y-15.629
X117.243 Y-15.803
X116.922 Y-16.628 F550
G2 X116.231 Y-19.345 I-6.677 J0.252
G1 X116.157 Y-19.553
X116.137 Y-19.995
G2 X115.838 Y-20.272 I-0.299 J0.024
G1 X115.567 Y-20.1
X115.562 Y-20.084
X114.287 Y-16.255 F1200
G2 X115.54 Y-13.044 I2.313 J0.948
G1 X117.391 Y-12.179
X118.196 Y-12.04
X189.396 Y-10.055
G2 X190.426 Y-10.57 I-0.144 J-1.576
X190.79 Y-11.258 I-1.175 J-1.061 F550
G1 X190.827 Y-11.438
X190.856 Y-11.623
X190.746 Y-11.982
X190.238 Y-12.534
G2 X185.518 Y-13.138 I-3.951 J12.114
G3 X179.363 Y-13.476 I-0.775 J-42.066
G1 X177.785 Y-13.489
X176.015 Y-13.445
X175.131 Y-13.418
G2 X166.858 Y-13.961 I-6.296 J32.652
X161.43 Y-14.096 I-3.22 J20.233
X154.153 Y-14.419 I-4.667 J23.028
X145.98 Y-14.793 I-6.103 J43.832
G1 X144.215 Y-14.959
X142.446 Y-15.025
X141.701 Y-15.109
X139.931 Y-15.152
X138.161 Y-15.096
G2 X133.45 Y-15.342 I-3.376 J19.458
G3 X125.904 Y-15.674 I-0.706 J-69.904
G1 X124.329 Y-15.727
G3 X119.299 Y-15.873 I-1.726 J-27.22
G1 X118.793 Y-15.892
X118.193 Y-15.914 F495
X117.985 Y-15.99
X117.808 Y-16.122
X117.677 Y-16.301
X117.47 Y-16.692 F550
X117.357 Y-17.433
X117.176 Y-18.161
X116.898 Y-19.001
X116.74 Y-19.415 F495
X116.699 Y-19.633
X116.724 Y-19.852
X116.812 Y-20.055
X116.956 Y-20.224
X117.329 Y-20.462 F550
G3 X121.436 Y-20.964 I2.942 J7.029
G1 X139.139 Y-20.957
X180.733 Y-20.94
X180.963 Y-20.978
X181.169 Y-21.087
X181.329 Y-21.256
X181.427 Y-21.467
X181.453 Y-21.698
X181.403 Y-21.926
X181.284 Y-22.126
X181.107 Y-22.277
X180.384 Y-22.584
X178.133 Y-23.539 F1200
G2 X176.926 Y-23.779 I-1.076 J2.257
G1 X116.989 Y-23.607
G2 X114.898 Y-22.678 I-0.143 J2.496
G1 X113.9 Y-21.474
G2 X113.444 Y-19.887 I2.04 J1.445
G1 X113.502 Y-18.664
X114.391 Y-15.452
X114.978 Y-14.454
X115.782 Y-13.567
G2 X117.391 Y-12.816 I1.793 J-1.742
G1 X120.609 Y-12.428
X189.166 Y-10.234
G2 X190.463 Y-10.75 I0.123 J-1.578
X190.669 Y-11.037 I-1.174 J-1.062 F550
G1 X190.827 Y-11.438
X190.91 Y-11.84
X190.939 Y-12.025
X190.798 Y-12.372
X190.573 Y-12.672
X189.958 Y-13.102
G2 X184.642 Y-13.655 I-4.38 J16.276
G1 X182.874 Y-13.575
G2 X174.821 Y-13.88 I-5.273 J32.792
X167.451 Y-14.456 I-5.534 J23.36
G1 X165.679 Y-14.485
G2 X161.595 Y-14.612 I-2.472 J13.689
X153.947 Y-14.925 I-5.01 J28.821
X145.88 Y-15.292 I-5.983 J42.65
X140.678 Y-15.636 I-12.986 J156.973
G1 X138.908 Y-15.645
X138.025 Y-15.577
G2 X132.026 Y-15.809 I-3.946 J24.409
G1 X131.277 Y-15.878
X129.507 Y-15.914
X127.737 Y-15.9
G2 X121.555 Y-16.104 I-3.744 J19.611
X119.143 Y-16.376 I-3.946 J24.214
X118.544 Y-16.406 I-1.535 J24.485 F495
G1 X118.341 Y-16.499
X118.171 Y-16.642
X118.051 Y-16.827
X117.488 Y-18.506 F550
X117.381 Y-19.248
X117.333 Y-19.464 F495
X117.351 Y-19.685
X117.432 Y-19.891
X117.57 Y-20.064
X117.752 Y-20.189
X118.596 Y-20.456 F550
X120.365 Y-20.542
G2 X129.964 Y-20.459 I6.951 J-249.102
G1 X142.357 Y-20.455
X180.285 Y-20.44
X181.029 Y-20.531
X181.4 Y-20.656
X181.59 Y-20.751
X181.745 Y-20.896
X181.853 Y-21.079
X181.906 Y-21.284
X181.9 Y-21.497
X181.834 Y-21.698
X181.714 Y-21.874
X181.55 Y-22.008
X180.841 Y-22.348
X178.475 Y-23.481 F1200
G2 X177.328 Y-23.726 I-1.081 J2.254
G1 X119 Y-23.791
X117.794 Y-23.676
X116.158 Y-23.08
X114.978 Y-22.09
X114.355 Y-21.073
G2 X114.032 Y-19.467 I2.154 J1.269
G1 X114.344 Y-17.46
X115.083 Y-15.452
G2 X115.782 Y-14.449 I2.338 J-0.884
G1 X116.587 Y-13.773
G2 X118.196 Y-13.138 I1.665 J-1.865
G1 X121.816 Y-12.823
X189.396 Y-10.64
G2 X190.541 Y-11.154 I-0.022 J-1.582
X190.749 Y-11.438 I-1.167 J-1.069 F550
G1 X190.91 Y-11.84
X190.995 Y-12.241
X191.025 Y-12.426
X190.878 Y-12.771
X190.388 Y-13.339
G2 X187.244 Y-14.061 I-3.118 J6.364
X181.455 Y-14.108 I-3.355 J56.746
X177.44 Y-14.479 I-3.198 J12.72
G1 X175.67 Y-14.443
X174.787 Y-14.376
G2 X166.204 Y-14.909 I-5.947 J26.385
X161.175 Y-15.112 I-3.3 J19.395
X154.379 Y-15.452 I-4.592 J23.711
G1 X152.609 Y-15.41
G2 X147.487 Y-15.781 I-3.631 J14.615
G1 X144.376 Y-15.932
X141.266 Y-16.09
X140.382 Y-16.129
X139.48 Y-16.14
X137.71 Y-16.085
G2 X131.489 Y-16.288 I-3.962 J26.01
G1 X130.742 Y-16.364
G3 X125.517 Y-16.692 I-0.198 J-38.616
G1 X124.136 Y-16.723
G3 X119.315 Y-16.863 I-1.818 J-20.458
X118.723 Y-16.96 I3.004 J-20.318 F495
G1 X118.562 Y-17.136
X118.33 Y-17.512 F550
X118.065 Y-18.357
X117.962 Y-18.788
X117.893 Y-19.225 F495
X117.924 Y-19.444
X118.018 Y-19.644
X118.166 Y-19.808
X118.356 Y-19.922
X119.215 Y-20.136 F550
G2 X129.92 Y-19.986 I7.029 J-119.821
G1 X134.641 Y-19.96
X139.362 Y-19.947
X144.083 Y-19.945
X156.133 Y-19.94
X168.184 Y-19.948
X180.234 Y-19.969
X180.979 Y-20.047
X181.688 Y-20.291
X181.96 Y-20.437
X182.14 Y-20.572
X182.271 Y-20.754
X182.343 Y-20.966
X182.349 Y-21.191
X182.288 Y-21.407
X182.166 Y-21.595
X181.994 Y-21.739
X181.266 Y-22.035
X178.535 Y-23.143 F1200
X177.328 Y-23.236
X119 Y-23.432
X116.989 Y-22.905
X116.184 Y-22.413
X115.335 Y-21.624
X115.028 Y-21.073
G2 X114.668 Y-19.963 I2.132 J1.306
X116.184 Y-14.877 I6.951 J0.696
G1 X117.013 Y-14.248
X117.794 Y-13.801
X118.598 Y-13.591
X121.816 Y-13.316
X189.396 Y-11.047
G2 X190.625 Y-11.556 I0.064 J-1.581
X190.833 Y-11.84 I-1.164 J-1.072 F550
G1 X190.995 Y-12.241
X191.047 Y-12.483
X191.078 Y-12.668
X191 Y-13.035
X190.821 Y-13.364
X190.271 Y-13.875
G2 X186.223 Y-14.61 I-3.758 J9.17
G1 X184.974 Y-14.652
X183.204 Y-14.606
X181.433 Y-14.612
G2 X174.56 Y-14.858 I-4.229 J22.047
X168.459 Y-15.479 I-4.975 J18.579
G1 X166.688 Y-15.457
X164.918 Y-15.427
G2 X160.785 Y-15.618 I-2.693 J13.41
X154.372 Y-15.948 I-4.271 J20.553
G1 X152.601 Y-15.91
G2 X147.637 Y-16.294 I-3.733 J15.973
G1 X145.866 Y-16.293
X144.957 Y-16.394
X143.19 Y-16.512
X141.421 Y-16.577
X140.603 Y-16.616
G3 X136.152 Y-16.781 I-1.193 J-27.952
G2 X130.175 Y-16.767 I-2.86 J53.686
G1 X129.43 Y-16.869
X127.66 Y-16.929
G2 X121.28 Y-17.093 I-3.814 J24.204
G1 X120.542 Y-17.221
X119.792 Y-17.333
X119.572 Y-17.345
X119.352 Y-17.369 F495
X119.148 Y-17.457
X118.979 Y-17.6
X118.739 Y-17.971 F550
X118.586 Y-18.387
X118.475 Y-18.815 F495
X118.467 Y-19.036
X118.525 Y-19.25
X118.642 Y-19.437
X118.809 Y-19.583
X119.011 Y-19.673
X119.231 Y-19.7
G2 X123.346 Y-19.484 I2.94 J-16.697 F550
G1 X145.031 Y-19.451
G3 X149.821 Y-19.472 I2.725 J77.069
G1 X150.706 Y-19.449
X152.476 Y-19.458
X154.244 Y-19.544
G2 X158.97 Y-19.512 I2.57 J-30.607
X169.743 Y-19.492 I6.006 J-339.791
X176.379 Y-19.535 I2.869 J-69.86
X181.62 Y-19.724 I2.048 J-15.934
G1 X182.277 Y-20.107
X182.455 Y-20.234
X182.609 Y-20.379
X182.716 Y-20.562
X182.767 Y-20.767
X182.759 Y-20.978
X182.693 Y-21.179
X182.574 Y-21.353
X182.41 Y-21.487
X181.647 Y-21.673
X176.926 Y-22.823 F1200
X119 Y-22.96
G2 X117.452 Y-22.537 I-0.152 J2.495
G1 X116.435 Y-21.875
X115.77 Y-21.073
X115.401 Y-20.27
G2 X115.185 Y-18.664 I2.237 J1.117
G1 X115.725 Y-16.657
X116.587 Y-15.301
X116.989 Y-14.926
G2 X117.961 Y-14.395 I1.655 J-1.873
G1 X119.403 Y-14.011
X121.414 Y-13.802
X189.396 Y-11.292
G2 X190.678 Y-11.799 I0.117 J-1.578
X191.047 Y-12.483 I-1.165 J-1.071 F550
G1 X191.129 Y-12.863
X191.155 Y-13.023
X191.12 Y-13.396
X190.735 Y-14.04
G2 X187.923 Y-14.975 I-3.112 J4.662
X181.36 Y-15.092 I-4.109 J46.537
X174.702 Y-15.379 I-4.271 J21.703
X166.324 Y-15.925 I-5.973 J27.089
G1 X164.552 Y-15.916
G2 X160.384 Y-16.119 I-2.795 J14.479
X154.718 Y-16.47 I-3.923 J17.417
G3 X151.036 Y-16.715 I-1.178 J-10.122
G1 X150.217 Y-16.763
X149.1 Y-16.808
X145.559 Y-16.791
X144.681 Y-16.902
X143.199 Y-17.033
X141.428 Y-17.03
X140.685 Y-17.13
X138.915 Y-17.118
X137.145 Y-17.086
X136.426 Y-17.302
X134.656 Y-17.315
X133.909 Y-17.375
G3 X126.096 Y-17.626 I-2.626 J-39.997
G1 X124.329 Y-17.69
X123.58 Y-17.725
X121.37 Y-17.609
X120.492 Y-17.722
X120.056 Y-17.796
X119.836 Y-17.82 F495
X119.628 Y-17.896
X119.451 Y-18.028
X119.167 Y-18.368
X119.089 Y-18.575
X119.076 Y-18.796
X119.179 Y-19.226 F550
X119.125 Y-19.467
X119 Y-19.563
X118.646 Y-19.467
X118.648 Y-19.453
X118.8 Y-18.664 F1200
X119.624 Y-15.854
G2 X119.805 Y-15.454 I2.359 J-0.828
G1 X119.806 Y-15.452
G2 X121.816 Y-14.187 I2.177 J-1.229
G1 X189.396 Y-11.681
G2 X190.76 Y-12.179 I0.199 J-1.57
X191.129 Y-12.863 I-1.165 J-1.071 F550
G1 X191.211 Y-13.245
X191.229 Y-13.345
X191.222 Y-13.72
X191.096 Y-14.073
X190.603 Y-14.639
G2 X186.827 Y-15.574 I-4.02 J8.134
G1 X185.803 Y-15.632
X184.556 Y-15.647
G3 X179.541 Y-15.885 I-1.681 J-17.551
G2 X174.914 Y-15.909 I-2.481 J32.459
X169.814 Y-16.491 I-7.894 J46.498
G1 X168.928 Y-16.482
X167.158 Y-16.479
G3 X162.138 Y-16.66 I-1.837 J-18.787
G1 X160.363 Y-16.64
G2 X153.935 Y-16.949 I-4.228 J20.903
G1 X153.052 Y-16.884
G2 X146.922 Y-17.272 I-4.541 J23.181
G1 X145.153 Y-17.346
X143.686 Y-17.519
X141.916 Y-17.566
X140.147 Y-17.494
X139.419 Y-17.673
X137.658 Y-17.494
X136.594 Y-17.733
X135.851 Y-17.831
X134.082 Y-17.762
X133.344 Y-17.901
X131.586 Y-17.693
X131.153 Y-17.785
G3 X124.99 Y-18.212 I0.286 J-48.821
G1 X123.218 Y-18.172
G3 X120.827 Y-18.189 I-1.096 J-14.344
X120.231 Y-18.255 I1.294 J-14.328 F495
G1 X120.029 Y-18.358
X119.682 Y-18.632 F550
X119.38 Y-18.664
X119.233 Y-18.263
X119.268 Y-18.221
X121.232 Y-15.854 F1200
G2 X123.023 Y-14.882 I1.984 J-1.521
G1 X189.798 Y-12.093
G2 X190.881 Y-12.641 I-0.118 J-1.578
G1 X191.229 Y-13.345 F550
X191.252 Y-14.068
X191.248 Y-14.255
X191.086 Y-14.593
X190.576 Y-15.143
G2 X185.799 Y-16.102 I-4.35 J9.297
G1 X184.753 Y-16.144
X182.984 Y-16.096
X181.213 Y-16.083
G2 X174.867 Y-16.394 I-4.23 J21.393
X164.288 Y-16.831 I-6.871 J38.043
G1 X163.207 Y-17.048
X162.415 Y-17.127
X160.645 Y-17.144
G2 X153.73 Y-17.442 I-4.621 J26.879
G1 X152.847 Y-17.374
G2 X146.822 Y-17.753 I-4.218 J18.998
X140.575 Y-18.05 I-5.621 J52.385
G1 X138.804 Y-18.044
X137.035 Y-18.089
X136.317 Y-18.309
G3 X128.336 Y-18.377 I-3.116 J-102.66
G1 X126.569 Y-18.475
X125.842 Y-18.659
X124.072 Y-18.701
G3 X120.537 Y-18.72 I-1.681 J-16.005
G1 X120.32 Y-18.664
X120.258 Y-18.263
X120.398 Y-18.205
X127.85 Y-15.139 F1200
X190.201 Y-12.967
G2 X190.953 Y-13.356 I-0.133 J-1.179
X191.252 Y-14.068 I-0.886 J-0.79 F550
G1 X191.264 Y-14.469
X191.259 Y-14.719
X191.098 Y-15.058
X190.599 Y-15.618
G2 X185.907 Y-16.601 I-4.48 J9.693
G1 X184.911 Y-16.641
X181.371 Y-16.567
G2 X174.518 Y-16.886 I-4.524 J23.362
G1 X173.789 Y-17.077
X172.025 Y-17.233
X171.299 Y-17.419
X169.529 Y-17.445
X168.783 Y-17.522
X167.016 Y-17.405
G2 X164.06 Y-17.332 I-1.135 J13.807
G1 X163.343 Y-17.554
X161.967 Y-17.649
X160.197 Y-17.611
X159.477 Y-17.818
X157.71 Y-17.928
X156.968 Y-18.04
G2 X153.03 Y-17.905 I1.263 J94.35
X146.819 Y-18.273 I-4.602 J25.122
G1 X145.935 Y-18.318
X145.494 Y-18.357
X142.324 Y-18.574
X140.554 Y-18.534
X137.899 Y-18.562
X137.014 Y-18.593
X136.307 Y-18.844
X134.538 Y-18.797
X132.771 Y-18.684
X132.039 Y-18.85
X131.604 Y-18.772
X130.536 Y-18.83
X129.651 Y-18.798
X129.21 Y-18.824
X128.938 Y-18.664
X129.057 Y-18.262
X129.106 Y-18.252
X145.247 Y-15.051 F1200
X149.974 Y-14.773
X189.798 Y-12.995
G2 X191.024 Y-13.73 I-0.113 J-1.579
X191.264 Y-14.469 I-1.339 J-0.844 F550
G1 X191.27 Y-14.65
X191.251 Y-15.051
X191.231 Y-15.237
X191.072 Y-15.577
X190.558 Y-16.123
G2 X185.883 Y-17.097 I-4.536 J10.065
G1 X184.827 Y-17.138
X183.057 Y-17.105
X181.287 Y-17.062
G2 X175.282 Y-17.396 I-3.998 J17.758
G1 X174.397 Y-17.411
X173.679 Y-17.628
X172.794 Y-17.642
X171.039 Y-17.877
X170.293 Y-17.951
X168.522 Y-17.921
X167.776 Y-17.989
X166.897 Y-17.879
X166.154 Y-17.976
X164.388 Y-17.841
G2 X160.563 Y-18.11 I-2.82 J12.765
X154.629 Y-18.41 I-4.057 J21.466
G1 X153.89 Y-18.51
X153.012 Y-18.397
G2 X147.756 Y-18.776 I-4.003 J18.88
G1 X145.986 Y-18.807
X145.545 Y-18.852
X145.247 Y-18.664
X145.441 Y-18.277
X145.448 Y-18.263 F1200
X152.388 Y-15.818
X158.02 Y-15.047
X164.858 Y-14.477
X189.798 Y-13.455
G2 X191.069 Y-14.295 I-0.13 J-1.577
X191.251 Y-15.032 I-1.401 J-0.737 F550
G1 Y-15.051
X191.227 Y-15.452
X191.195 Y-15.735
X191.038 Y-16.075
X190.524 Y-16.621
G2 X184.774 Y-17.606 I-4.939 J11.562
G1 X183.002 Y-17.605
X181.232 Y-17.558
X180.512 Y-17.767
G2 X174.576 Y-17.889 I-3.617 J31.789
G1 X173.846 Y-18.089
G3 X170.265 Y-18.457 I17.412 J-187.104
G1 X168.496 Y-18.406
X167.752 Y-18.5
X166.875 Y-18.374
X166.134 Y-18.488
X164.372 Y-18.316
G2 X160.22 Y-18.617 I-3.008 J12.724
G1 X159.485 Y-18.768
X159.044 Y-18.808
X158.605 Y-18.858
G2 X158.411 Y-18.311 I-0.023 J0.299
G1 X158.466 Y-18.273 Z-1.976
X158.519 Y-18.238 Z-1.954
X158.565 Y-18.205 Z-1.918
X158.605 Y-18.178 Z-1.871
X158.634 Y-18.158 Z-1.814
X158.652 Y-18.146 Z-1.75
X158.659 Y-18.141 Z-1.684
G0 Z-1.279
X190.912 Y-14.421
Z-1.384
G1 Z-1.684 F550
X190.916 Y-14.428 Z-1.75
X190.926 Y-14.447 Z-1.814
X190.942 Y-14.479 Z-1.871
X190.964 Y-14.521 Z-1.918
X190.99 Y-14.572 Z-1.954
X191.02 Y-14.628 Z-1.976
X191.05 Y-14.687 Z-1.984
G2 X191.227 Y-15.452 I-1.405 J-0.728
G1 X191.202 Y-15.854
X191.149 Y-16.075
X191.044 Y-16.435
X190.841 Y-16.75
X190.264 Y-17.229
G2 X185.419 Y-18.097 I-4.546 J11.414
G1 X183.648 Y-18.134
X181.88 Y-18.044
X180.995 Y-18.072
X180.298 Y-18.347
X179.413 Y-18.311
G2 X174.951 Y-18.382 I-2.475 J15.253
G1 X174.513 Y-18.45
X173.781 Y-18.616
X172.013 Y-18.698
X171.583 Y-18.803
X171.265 Y-18.664
X171.294 Y-18.314
X171.374 Y-18.277
X177.731 Y-15.269 F1200
X178.535 Y-15.091
X189.396 Y-14.192
G2 X191.111 Y-15.298 I0.202 J-1.57
X191.149 Y-16.075 I-1.513 J-0.463 F550
G1 X191.01 Y-16.657
X190.904 Y-17.017
X190.459 Y-17.62
G2 X186.249 Y-18.565 I-4.52 J10.293
G1 X184.48 Y-18.651
X182.711 Y-18.586
X181.827 Y-18.543
X181.385 Y-18.559
X180.356 Y-18.768
X179.611 Y-18.851
X179.31 Y-18.664
X179.34 Y-18.384
X179.471 Y-18.311
X182.558 Y-16.601 F1200
X188.994 Y-14.829
G2 X190.973 Y-15.88 I0.465 J-1.513
X191.042 Y-16.342 I-1.514 J-0.462 F550
G1 X191.01 Y-16.657
X190.818 Y-17.46
X190.765 Y-17.64
X190.257 Y-18.192
G2 X185.403 Y-19.116 I-4.827 J12.142
X181.579 Y-19.042 I-0.972 J48.645
G1 X181.351 Y-18.942
X181.301 Y-18.664
X181.351 Y-18.57
X181.484 Y-18.518
X188.592 Y-15.713 F1200
G2 X190.78 Y-16.683 I0.675 J-1.431
X190.849 Y-17.145 I-1.514 J-0.462 F550
G1 X190.818 Y-17.46
X190.721 Y-17.861
X190.675 Y-18.056
X190.651 Y-18.153
X190.621 Y-18.212
X190.586 Y-18.265
X190.544 Y-18.314
G2 X190.223 Y-17.877 I-0.161 J0.219
X190.495 Y-17.848 I0.161 J-0.219
X190.651 Y-18.153 I-0.113 J-0.25
G1 X190.619 Y-18.226
X190.593 Y-18.263
X190.544 Y-18.314
G3 X184.157 Y-20.396 I32.85 J-111.59
G1 X184.161 Y-20.393 Z-1.969
X184.166 Y-20.395 Z-1.956
G0 Z2.01
X233.188 Y-4.45
Z-3.38
G1 Z-3.68 F550
X233.182 Y-4.455 Z-3.747
X233.164 Y-4.468 Z-3.81
X233.135 Y-4.489 Z-3.867
X233.097 Y-4.517 Z-3.915
X233.051 Y-4.55 Z-3.95
X233 Y-4.587 Z-3.972
X232.946 Y-4.627 Z-3.98
G2 X231.412 Y-5.236 I-1.957 J2.688
G1 X231.231 Y-5.253
X231.026 Y-5.262
X230.803 Y-4.879
X230.486 Y-4.571 F495
X230.11 Y-4.338 F550
G3 X226.145 Y-4.013 I-2.46 J-5.671
G1 X224.374 Y-4.11
X222.606 Y-4.208
X220.839 Y-4.316
X199.631 Y-5.566
X197.863 Y-5.646
X196.095 Y-5.74
X187.254 Y-6.182
X180.181 Y-6.537
X160.732 Y-7.513
X158.963 Y-7.58
X157.193 Y-7.639
X128.884 Y-8.628
X114.73 Y-9.122
X112.985 Y-9.42
X112.549 Y-9.498
X112.131 Y-9.644 F495
X111.764 Y-9.891
X111.478 Y-10.229
X111.276 Y-10.622 F550
X111.016 Y-11.469
X110.998 Y-13.239
G2 X111.052 Y-15.958 I-4.791 J-1.456
G1 X110.737 Y-16.638
X110.552 Y-16.964
X110.037 Y-17.51
X108.988 Y-17.858
X106.008 Y-18.705
X105.726 Y-18.628
Y-18.135
Y-18.098 F1200
X108.292 Y-9.431
G2 X108.942 Y-8.227 I2.441 J-0.54
G1 X110.151 Y-7.289
G2 X110.549 Y-7.022 I1.585 J-1.934
G1 X111.357 Y-6.752
X114.978 Y-6.261
X230.829 Y-2.114
G2 X231.955 Y-4.967 I0.201 J-1.57
X231.634 Y-5.146 I-0.926 J1.284 F550
G1 X231.231 Y-5.253
X230.829 Y-5.29
X230.642 Y-5.298
X229.884 Y-4.841
X229.044 Y-4.561
G3 X224.094 Y-4.657 I-2.182 J-15.294
X213.487 Y-5.251 I29.894 J-628.346
G1 X199.348 Y-6.083
X194.044 Y-6.34
X188.739 Y-6.609
X179.898 Y-7.051
X160.449 Y-8.027
X156.91 Y-8.148
X155.141 Y-8.213
X149.833 Y-8.396
X128.601 Y-9.138
X114.447 Y-9.632
G3 X112.329 Y-10.38 I0.274 J-4.147
X111.865 Y-10.76 I2.392 J-3.399 F495
G1 X111.612 Y-11.624 F550
X111.445 Y-13.387
G2 X110.61 Y-17.61 I-4.14 J-1.376
X107.781 Y-18.715 I-4.775 J8.048
G1 X106.82 Y-19.344
X106.158 Y-19.696
X105.724 Y-19.782
X105.675 Y-19.786
X105.376 Y-19.467
X105.475 Y-19.185
X108.944 Y-9.319 F1200
X109.107 Y-9.03
G2 X110.151 Y-7.931 I2.249 J-1.091
G1 X112.162 Y-6.886
G2 X113.369 Y-6.523 I1.299 J-2.136
G1 X230.427 Y-2.151
G2 X231.553 Y-5.004 I0.201 J-1.57
X231.231 Y-5.184 I-0.926 J1.284 F550
G1 X230.829 Y-5.29
X230.427 Y-5.328
X229.678 Y-5.36
X228.871 Y-4.994
X227.108 Y-4.842
G2 X213.551 Y-5.721 I-24.207 J268.241
G1 X209.135 Y-5.997
X204.717 Y-6.26
X200.299 Y-6.511
X195.88 Y-6.749
X191.461 Y-6.976
X187.04 Y-7.19
X182.62 Y-7.391
X180.854 Y-7.522
X179.084 Y-7.553
X174.666 Y-7.801
X170.247 Y-8.034
X165.827 Y-8.251
X161.406 Y-8.453
X156.985 Y-8.64
X152.563 Y-8.812
X148.14 Y-8.968
X143.717 Y-9.11
X139.293 Y-9.236
X133.987 Y-9.436
X128.681 Y-9.648
X124.258 Y-9.784
X119.835 Y-9.929
X115.412 Y-10.081
G3 X113.186 Y-10.47 I-0.269 J-5.025
X112.648 Y-10.736 I1.958 J-4.635 F495
G1 X112.363 Y-11.079
X112.192 Y-11.487 F550
X112.006 Y-12.352
X111.999 Y-14.123
G2 X110.605 Y-18.163 I-3.936 J-0.902
G1 X109.932 Y-18.505
G3 X107.101 Y-19.74 I3.48 J-11.837
G1 X107.048 Y-19.766
X106.991 Y-19.78
X106.932 Y-19.782
X106.873 Y-19.772
X106.818 Y-19.751
X106.767 Y-19.719
X106.724 Y-19.677
X106.69 Y-19.627
X106.678 Y-19.579 Z-3.976
X106.667 Y-19.533 Z-3.964
X106.656 Y-19.49 Z-3.944
X106.671 Y-19.435 Z-3.904
X106.682 Y-19.391 Z-3.852
X106.69 Y-19.36 Z-3.792
X106.695 Y-19.343 Z-3.725
X106.697 Y-19.34 Z-3.68
G0 Z2.01
X231.399 Y-4.861
Z-3.38
G1 Z-3.68 F550
X231.393 Y-4.866 Z-3.747
X231.375 Y-4.879 Z-3.81
X231.346 Y-4.9 Z-3.867
X231.308 Y-4.928 Z-3.915
X231.262 Y-4.961 Z-3.95
X231.211 Y-4.998 Z-3.972
X231.157 Y-5.038 Z-3.98
G2 X230.427 Y-5.328 I-0.931 J1.28
G1 X229.472 Y-5.417
X229.046 Y-5.435
X228.296 Y-5.423
X226.529 Y-5.31
G2 X220.974 Y-5.74 I-4.842 J26.477
X208.719 Y-6.491 I-24.291 J295.875
G1 X206.988 Y-6.649
X205.218 Y-6.656
G2 X197.639 Y-7.104 I-11.146 J124.16
X181.128 Y-7.932 I-34.637 J525.548
G1 X180.687 Y-7.985
X178.92 Y-8.08
X169.479 Y-8.545
X160.038 Y-9.016
X147.804 Y-9.443
X135.569 Y-9.861
G3 X128.232 Y-10.157 I14.188 J-443.276
X115.694 Y-10.598 I8.282 J-413.848
G1 X114.808 Y-10.601
X113.937 Y-10.756
X113.516 Y-10.893
X113.312 Y-10.978 F495
X113.127 Y-11.1
X112.97 Y-11.256
X112.719 Y-11.621 F550
X112.465 Y-12.469
X112.524 Y-14.238
G2 X109.833 Y-19.117 I-4.433 J-0.736
G1 X108.991 Y-19.39
X108.584 Y-19.565
X108.168 Y-19.716
X108.075 Y-19.731
X107.778 Y-19.467
X107.846 Y-19.181
X110.104 Y-9.832 F1200
G2 X111.656 Y-8.227 I2.384 J-0.752
G1 X114.173 Y-7.364
X229.22 Y-2.265
G2 X230.195 Y-5.131 I0.051 J-1.582
X229.622 Y-5.39 I-0.925 J1.284 F550
G1 X229.472 Y-5.417
G2 X215.945 Y-6.398 I-38.311 J434.197
G1 X208.705 Y-6.842
X207.096 Y-6.955
X204.28 Y-7.188
X203.073 Y-7.289
X199.09 Y-7.529
X195.106 Y-7.757
X191.122 Y-7.972
X187.137 Y-8.174
G2 X181.084 Y-8.423 I-13.173 J246.891
X169.506 Y-9.031 I-22.474 J317.523
G1 X167.741 Y-9.169
X165.97 Y-9.166
X165.227 Y-9.267
X163.459 Y-9.349
X161.689 Y-9.306
G2 X154.835 Y-9.69 I-6.192 J49.109
G1 X153.065 Y-9.781
X146.943 Y-9.972
X140.822 Y-10.174
X134.701 Y-10.388
X128.581 Y-10.614
X122.461 Y-10.851
X120.692 Y-10.79
G2 X116.189 Y-11.043 I-4.17 J34.098
G1 X114.42 Y-11.121
X114 Y-11.261 F495
X113.794 Y-11.342
X113.605 Y-11.457
X113.438 Y-11.603
X113.178 Y-11.961
X113.023 Y-12.376 F550
X112.887 Y-14.141
G2 X109.431 Y-19.775 I-4.714 J-0.986
G1 X109.346 Y-19.785
X109.067 Y-19.467
X109.097 Y-19.192
X109.938 Y-11.438 F1200
G2 X110.413 Y-10.234 I2.484 J-0.285
G1 X111.371 Y-9.03
X112.162 Y-8.45
X113.369 Y-7.965
X202.671 Y-4.15
G2 X203.8 Y-7.01 I0.214 J-1.568
X203.475 Y-7.186 I-0.915 J1.292 F550
G1 X203.073 Y-7.289
X195.43 Y-7.933
X188.994 Y-8.334
X183.766 Y-8.664
X178.537 Y-8.982
X173.307 Y-9.288
G3 X164.054 Y-9.787 I6.921 J-214.214
G1 X162.284 Y-9.834
X161.4 Y-9.791
G2 X155.134 Y-10.158 I-5.051 J32.551
G1 X153.85 Y-10.26
X152.08 Y-10.298
X150.31 Y-10.281
X149.565 Y-10.371
G2 X142.09 Y-10.585 I-9.227 J192.085
X133.906 Y-10.906 I-14.277 J259.165
G1 X132.984 Y-10.979
X131.214 Y-11.015
X129.444 Y-10.965
X128.706 Y-11.097
X127.26 Y-11.171
G3 X122.686 Y-11.36 I-0.727 J-37.854
G1 X120.914 Y-11.31
X119.147 Y-11.424
X117.38 Y-11.528
X115.609 Y-11.5
X114.731 Y-11.612
X114.298 Y-11.702
X114.101 Y-11.802
X113.927 Y-11.939
X113.782 Y-12.106
X113.565 Y-12.492
X113.418 Y-13.365
X113.379 Y-15.135
G2 X110.675 Y-19.803 I-5.06 J-0.186
G1 X110.614 Y-19.819
X110.553 Y-19.822
X110.257 Y-19.467
Y-19.266
X110.254 Y-12.642 F1200
G2 X110.553 Y-11.241 I2.492 J0.201
G1 X111.105 Y-10.234
G2 X112.162 Y-9.17 I2.22 J-1.149
G1 X113.369 Y-8.496
X115.38 Y-8.221
X163.651 Y-6.646
G2 X164.782 Y-9.511 I0.225 J-1.567
X164.456 Y-9.685 I-0.906 J1.298 F550
G1 X164.054 Y-9.786
G3 X157.396 Y-10.485 I5.025 J-79.831
G2 X149.346 Y-10.729 I-6.033 J66.088
G1 X148.611 Y-10.878
G2 X140.785 Y-11.062 I-6.03 J89.804
G1 X140.045 Y-11.185
G3 X132 Y-11.5 I2.963 J-178.231
G1 X130.23 Y-11.51
X128.464 Y-11.386
X127.743 Y-11.59
X126.994 Y-11.639
X125.224 Y-11.651
G2 X120.53 Y-11.795 I-3.124 J25.279
X115.046 Y-12.029 I-4.556 J42.37
G1 X114.83 Y-12.092 F495
X114.621 Y-12.166
X114.436 Y-12.286
X114.28 Y-12.443
X114.057 Y-12.825 F550
X113.846 Y-13.685
G2 X113.125 Y-18.056 I-6.992 J-1.091
G1 X112.697 Y-18.672
X112.23 Y-19.258
X111.902 Y-19.556
X111.565 Y-19.843
X111.357 Y-19.907
X111.229 Y-19.868
X111.158 Y-19.441
X111.096 Y-19.065 F1200
X110.805 Y-12.642
G2 X111.333 Y-11.037 I2.499 J0.068
G1 X112.225 Y-9.832
X112.966 Y-9.272
X113.369 Y-9.11
G2 X114.575 Y-8.77 I1.26 J-2.159
G1 X157.215 Y-7.364
G2 X158.094 Y-10.146 I-0.146 J-1.576
X157.396 Y-10.488 I-1.025 J1.206 F550
G1 X156.411 Y-10.674
X156.008 Y-10.77
X155.56 Y-10.911
G2 X149.011 Y-11.193 I-4.169 J20.611
G1 X148.275 Y-11.366
G2 X140.361 Y-11.563 I-6.507 J102.745
X134.287 Y-11.872 I-6.287 J63.606
X128.244 Y-11.874 I-3.031 J32.421
G1 X127.515 Y-12.057
G2 X121.945 Y-12.343 I-16.427 J265.137
G1 X120.175 Y-12.278
G2 X115.636 Y-12.554 I-4.938 J43.684
X115.036 Y-12.556 I-0.4 J43.96 F495
G1 X114.854 Y-12.731
X114.71 Y-12.899
X114.491 Y-13.284
X114.38 Y-13.712
G2 X114.131 Y-16.828 I-11.694 J-0.633 F550
X112.311 Y-19.858 I-6.746 J1.989
G1 X112.268 Y-19.889
X112.22 Y-19.912
X112.169 Y-19.926
X112.116 Y-19.93
X111.934 Y-19.868
X111.814 Y-19.507
X111.8 Y-19.467 F1200
X111.209 Y-13.445
G2 X111.544 Y-11.906 I2.486 J0.265
G1 X112.162 Y-10.766
X112.966 Y-9.995
X113.771 Y-9.54
G2 X114.978 Y-9.217 I1.229 J-2.177
G1 X154.802 Y-7.852
G2 X156.407 Y-8.628 I0.234 J-1.565
G1 X156.57 Y-9.03
G2 X156.207 Y-10.481 I-1.534 J-0.388
X155.606 Y-10.893 I-1.172 J1.063 F550
G1 X155.56 Y-10.911
X155.54 Y-10.917 F495
X155.522 Y-10.928
X155.513 Y-10.966 F550
X155.462 Y-11.147
X154.813 Y-11.522
G2 X149.294 Y-11.725 I-3.552 J21.5
X140.177 Y-12.049 I-6.845 J64.18
X134.961 Y-12.297 I-3.98 J28.719
X128.349 Y-12.382 I-3.704 J30.802
G1 X127.61 Y-12.519
G2 X120.441 Y-12.807 I-6.172 J64.433
G3 X116.013 Y-13.038 I6.973 J-175.98
X115.414 Y-13.078 I11.402 J-175.748 F495
G1 X115.24 Y-13.237
X115.107 Y-13.414
X114.923 Y-13.817 F550
X114.74 Y-15.578
G2 X113.11 Y-19.728 I-6.56 J0.181
G1 X112.886 Y-19.857
X112.622 Y-19.408
X112.564 Y-19.31 F1200
X111.585 Y-15.051
G2 X111.76 Y-13.553 I2.455 J0.472
G1 X112.564 Y-11.475
G2 X113.859 Y-10.234 I2.262 J-1.064
G1 X115.38 Y-9.699
X152.79 Y-8.008
G2 X155.539 Y-10.185 I0.268 J-2.486
X155.518 Y-10.938 I-2.481 J-0.309 F550
G1 X155.513 Y-10.966
X155.446 Y-11.258
X155.396 Y-11.438
X155.131 Y-11.704
X154.456 Y-12.031
G2 X149.174 Y-12.221 I-3.375 J20.284
X140.335 Y-12.546 I-6.629 J60.027
X134.894 Y-12.792 I-4.202 J32.555
X128.337 Y-12.883 I-3.697 J30.223
X120.535 Y-13.324 I-7.298 J59.825
G1 X116.252 Y-13.525
X116.03 Y-13.528 F495
X115.82 Y-13.595
X115.638 Y-13.721
X115.501 Y-13.895
X115.339 Y-14.307
G2 X114.746 Y-17.904 I-9.797 J-0.231 F550
G1 X114.429 Y-18.584
X114.08 Y-19.248
X113.7 Y-19.792
G2 X113.461 Y-19.912 I-0.24 J0.181
G1 X113.305 Y-19.868
X113.166 Y-19.551
X112.074 Y-17.058 F1200
G2 X111.862 Y-15.854 I2.281 J1.023
G1 X112.054 Y-13.847
X112.289 Y-13.044
X112.958 Y-11.84
G2 X114.978 Y-10.598 I2.163 J-1.254
G1 X152.79 Y-8.293
G2 X155.472 Y-10.476 I0.201 J-2.492
X155.446 Y-11.258 I-2.481 J-0.309 F550
G1 X155.355 Y-11.659
X155.304 Y-11.839
X154.767 Y-12.363
G2 X149.8 Y-12.757 I-3.589 J13.777
G1 X148.033 Y-12.646
G2 X143.102 Y-13.059 I-3.827 J16.039
G1 X141.331 Y-13.085
X139.563 Y-12.995
G2 X135.103 Y-13.294 I-3.338 J16.377
X128.463 Y-13.392 I-3.815 J33.522
X119.159 Y-13.779 I-7.236 J61.887
G1 X118.418 Y-13.888
X117.536 Y-13.967
X116.653 Y-14.023
X116.432 Y-14.026 F495
X116.221 Y-14.094
X116.039 Y-14.22
X115.902 Y-14.394
X115.822 Y-14.6
G2 X114.372 Y-19.749 I-9.829 J-0.011 F550
X114.111 Y-19.9 I-0.261 J0.148
G1 X113.976 Y-19.868
X113.832 Y-19.571
X112.617 Y-17.058 F1200
G2 X112.436 Y-15.452 I2.261 J1.068
G1 X113.085 Y-13.044
G2 X114.978 Y-11.153 I2.439 J-0.549
G1 X119 Y-10.498
X153.595 Y-9.79
G2 X155.31 Y-10.883 I0.206 J-1.569
X155.355 Y-11.659 I-1.509 J-0.477 F550
G1 X155.29 Y-11.94
X155.188 Y-12.301
X154.94 Y-12.582
X154.294 Y-12.963
G2 X147.755 Y-13.103 I-3.697 J19.986
X143.672 Y-13.57 I-3.427 J11.861
G1 X141.901 Y-13.555
X141.044 Y-13.558
X139.275 Y-13.488
G2 X135.162 Y-13.803 I-3.237 J15.258
X128.372 Y-13.918 I-4.194 J47.086
X118.053 Y-14.237 I-7.236 J66.979
G1 X117.628 Y-14.355
X116.904 Y-14.549
X116.686 Y-14.589 F495
X116.49 Y-14.691
X116.331 Y-14.846
X116.225 Y-15.04
X115.866 Y-16.773 F550
G2 X115.085 Y-19.456 I-5.692 J0.201
G1 X114.883 Y-19.849
X114.575 Y-19.999
X114.371 Y-19.868
X114.317 Y-19.675
X113.131 Y-15.452 F1200
G2 X114.173 Y-12.561 I2.376 J0.777
G1 X116.184 Y-11.428
G2 X117.391 Y-11.044 I1.337 J-2.112
G1 X153.595 Y-10.064
G2 X155.245 Y-11.164 I0.141 J-1.576
X155.306 Y-11.84 I-1.509 J-0.477 F550
G1 X155.29 Y-11.94
X155.273 Y-12.015 F495
X155.337 Y-12.241 F550
X155.379 Y-12.424
X155.187 Y-12.745
X154.648 Y-13.267
G2 X150.233 Y-13.754 I-3.376 J10.363
G1 X148.463 Y-13.697
X148.022 Y-13.654
G2 X140.807 Y-13.995 I-4.949 J28.183
G1 X139.037 Y-14.014
G2 X134.216 Y-14.278 I-3.426 J18.424
X128.36 Y-14.405 I-3.494 J26.061
X118.033 Y-14.733 I-7.245 J65.309
G1 X117.191 Y-15.008 F495
X116.995 Y-15.112
X116.839 Y-15.268
X116.631 Y-15.659 F550
X116.198 Y-17.376
G2 X115.473 Y-19.786 I-6.533 J0.649
X115.207 Y-19.949 I-0.267 J0.138
G1 X114.978 Y-19.842
X114.882 Y-19.661
X113.511 Y-17.058 F1200
G2 X113.385 Y-15.051 I2.221 J1.147
G1 X113.771 Y-13.954
X114.444 Y-13.044
G2 X115.465 Y-12.241 I2.003 J-1.497
G1 X116.989 Y-11.594
X117.794 Y-11.467
X153.997 Y-11.153
G2 X154.924 Y-11.582 I-0.166 J-1.574
X155.204 Y-11.94 I-1.093 J-1.145 F550
G1 X155.337 Y-12.241
X155.4 Y-12.462
X155.442 Y-12.645
X155.318 Y-12.998
X155.109 Y-13.31
X154.52 Y-13.773
G2 X150.404 Y-14.256 I-3.322 J10.533
G1 X148.634 Y-14.211
X147.752 Y-14.133
G2 X140.471 Y-14.465 I-4.782 J24.832
G1 X138.7 Y-14.53
G2 X134.455 Y-14.797 I-3.268 J18.061
X128.014 Y-14.894 I-3.844 J41.216
X121.776 Y-15.253 I-5.333 J38.315
G1 X121.026 Y-15.311
X119.255 Y-15.286
X118.372 Y-15.233
X117.936 Y-15.308 F495
X117.723 Y-15.371
X117.525 Y-15.469
X117.358 Y-15.615
X117.107 Y-15.979 F550
X116.551 Y-17.66
G2 X116.013 Y-19.806 I-5.277 J0.182
X115.741 Y-19.979 I-0.272 J0.127
G1 X115.508 Y-19.868
X115.452 Y-19.689
X114.253 Y-15.854 F1200
G2 X114.575 Y-13.847 I2.416 J0.641
G1 X114.576
G2 X115.38 Y-13.071 I2.094 J-1.366
G1 X116.184 Y-12.506
G2 X117.391 Y-12.028 I1.493 J-2.005
G1 X119 Y-11.918
X153.997 Y-11.368
G2 X154.987 Y-11.803 I-0.103 J-1.579
X155.4 Y-12.462 I-1.093 J-1.144 F550
G1 X155.514 Y-12.863
X155.556 Y-13.046
X155.421 Y-13.395
X154.96 Y-13.988
G2 X151.182 Y-14.734 I-3.258 J6.552
G1 X149.935 Y-14.761
G3 X145.807 Y-14.937 I-1.564 J-11.821
G2 X138.919 Y-14.95 I-3.542 J49.296
X133.151 Y-15.264 I-3.972 J19.834
X127.846 Y-15.367 I-3.029 J19.323
X121.475 Y-15.67 I-4.369 J24.704
X118.99 Y-15.778 I-1.966 J16.626
X118.39 Y-15.749 I0.52 J16.734 F495
G1 X118.172 Y-15.807
X117.972 Y-15.903
X117.802 Y-16.044
X117.534 Y-16.397 F550
X117.2 Y-17.216
X116.713 Y-18.918
X116.705 Y-19.293
X116.643 Y-19.506
X116.645 Y-19.727 F495
X116.712 Y-19.938
X116.838 Y-20.12
X117.185 Y-20.395 F550
G3 X121.123 Y-20.951 I2.787 J5.513
G1 X122.897 Y-20.959
X124.668 Y-20.965
X126.438 Y-20.96
X148.151 Y-20.953
X148.332 Y-20.988
X148.488 Y-21.088
X148.595 Y-21.238
X148.639 Y-21.418
X148.613 Y-21.6
X148.521 Y-21.761
X148.376 Y-21.875
X147.601 Y-21.997
X143.941 Y-22.57 F1200
X116.989 Y-23.616
G2 X114.978 Y-22.774 I-0.137 J2.496
G1 X114.173 Y-22.016
G2 X113.772 Y-21.474 I1.791 J1.744
G1 X113.369 Y-20.17
X113.406 Y-18.664
X114.097 Y-16.029
G2 X116.988 Y-12.725 I4.752 J-1.242
G1 X117.15 Y-12.647
X117.316 Y-12.581
X117.487 Y-12.527
X117.661 Y-12.485
X117.838 Y-12.456
X118.017 Y-12.439
X118.196 Y-12.436
X153.997 Y-11.767
G2 X155.101 Y-12.205 I0.011 J-1.583
X155.514 Y-12.863 I-1.093 J-1.144 F550
G1 X155.606 Y-13.186
X155.648 Y-13.369
X155.541 Y-13.728
X155.353 Y-14.053
X154.8 Y-14.56
G2 X150.855 Y-15.238 I-3.44 J8.202
G1 X149.771 Y-15.254
G3 X145.644 Y-15.437 I-1.544 J-11.786
G2 X138.974 Y-15.446 I-3.4 J45.431
X133.46 Y-15.785 I-4.101 J21.733
X127.5 Y-15.87 I-3.482 J35.256
X120.966 Y-16.139 I-4.247 J23.656
X119.273 Y-16.274 I-1.684 J10.433
X118.673 Y-16.256 I0.01 J10.568 F495
G1 X118.461 Y-16.333
X118.273 Y-16.449
X117.968 Y-16.77 F550
X117.572 Y-17.562
X117.366 Y-18.422
X117.251 Y-18.85
X117.205 Y-19.29 F495
X117.243 Y-19.508
X117.342 Y-19.706
X117.495 Y-19.866
X118.266 Y-20.3 F550
X120.011 Y-20.601
X120.756 Y-20.512
X122.047 Y-20.458
X125.587 Y-20.466
X134.439 Y-20.457
X147.582 Y-20.453
X148.037 Y-20.495
X148.27 Y-20.554
X148.472 Y-20.684
X148.622 Y-20.871
X148.706 Y-21.096
X148.714 Y-21.336
X148.646 Y-21.567
X148.508 Y-21.764
X148.316 Y-21.907
X147.61 Y-22.251
X145.081 Y-23.481 F1200
G2 X143.941 Y-23.739 I-1.106 J2.242
G1 X119.403 Y-23.825
X116.989 Y-23.346
X115.228 Y-22.277
X114.457 Y-21.295
X114.173 Y-20.669
G2 X113.938 Y-19.065 I2.222 J1.145
G1 X114.575 Y-16.189
X115.417 Y-14.65
X116.217 Y-13.847
X116.989 Y-13.343
X118.196 Y-12.997
X122.218 Y-12.788
X153.997 Y-12.093
G2 X155.193 Y-12.528 I0.103 J-1.579
X155.606 Y-13.186 I-1.093 J-1.144 F550
G1 X155.743 Y-13.666
X155.785 Y-13.849
X155.476 Y-14.532
G2 X152.736 Y-15.612 I-2.948 J3.462
X147.411 Y-15.652 I-2.884 J29.68
X139.454 Y-15.914 I-4.914 J28.316
X132.424 Y-16.243 I-4.982 J31.134
X127.404 Y-16.347 I-2.877 J17.627
X120.285 Y-16.563 I-4.215 J21.569
G1 X119.85 Y-16.653
X119.115 Y-16.806
X118.896 Y-16.834
X118.694 Y-16.924 F495
X118.357 Y-17.211
X118.127 Y-17.59 F550
X117.849 Y-18.43
X117.762 Y-18.864 F495
X117.766 Y-19.085
X117.834 Y-19.296
X117.96 Y-19.478
X118.134 Y-19.615
X118.532 Y-19.807 F550
X119.395 Y-20.007
G2 X125.452 Y-19.986 I4.429 J-404.699
G1 X126.337 Y-19.969
X128.107 Y-19.951
X137.919 Y-19.957
X147.732 Y-19.972
X148.46 Y-20.16
X148.814 Y-20.397
X148.977 Y-20.546
X149.09 Y-20.736
X149.143 Y-20.951
X149.13 Y-21.172
X149.054 Y-21.379
X148.921 Y-21.556
X148.742 Y-21.686
X148.024 Y-22.004
X145.952 Y-22.924 F1200
G2 X144.745 Y-23.194 I-1.1 J2.094
G1 X122.218 Y-23.225
X118.598 Y-23.138
X116.184 Y-22.114
G2 X114.978 Y-20.506 I1.109 J2.089
G1 X114.658 Y-18.664
G2 X114.767 Y-17.46 I2.332 J0.396
G1 X115.418 Y-15.854
G2 X116.041 Y-14.941 I2.212 J-0.84
G1 X116.989 Y-14.151
X117.794 Y-13.808
X119.805 Y-13.383
X154.399 Y-12.578
G2 X155.33 Y-13.008 I-0.163 J-1.574
X155.743 Y-13.666 I-1.093 J-1.144 F550
G1 X155.857 Y-14.068
X155.897 Y-14.242
X155.787 Y-14.6
X155.339 Y-15.202
G2 X152.517 Y-16.12 I-3.165 J4.928
X147.766 Y-16.163 I-2.61 J25.923
G1 X145.997 Y-16.24
G2 X140.448 Y-16.48 I-3.543 J17.648
G1 X138.682 Y-16.356
G2 X132.474 Y-16.728 I-4.183 J17.842
X127.144 Y-16.851 I-3.155 J21.039
X120.505 Y-17.078 I-3.994 J19.669
G1 X119.623 Y-17.174
X119.195 Y-17.287 F495
X119.006 Y-17.402
X118.843 Y-17.552
X118.583 Y-17.911 F550
X118.419 Y-18.321 F495
X118.361 Y-18.535
X118.339 Y-18.755
X118.383 Y-18.972
X118.488 Y-19.167
X118.645 Y-19.323
X118.841 Y-19.426
X119.71 Y-19.592 F550
X120.454 Y-19.497
X121.337 Y-19.561
X122.079 Y-19.456
G3 X129.602 Y-19.478 I4.689 J311.616
G1 X135.662 Y-19.471
X141.723 Y-19.477
X147.784 Y-19.496
X148.515 Y-19.695
X149.15 Y-20.094
X149.27 Y-20.182
X149.422 Y-20.332
X149.526 Y-20.519
X149.573 Y-20.727
X149.559 Y-20.94
X149.486 Y-21.141
X149.359 Y-21.313
X149.189 Y-21.442
X148.443 Y-21.687
X145.55 Y-22.639 F1200
X119.403 Y-22.762
X117.534 Y-22.277
G2 X116.184 Y-21.101 I0.652 J2.111
G1 X115.388 Y-19.467
G2 X115.296 Y-17.861 I2.008 J0.921
G1 X115.9 Y-16.184
X116.68 Y-15.223
X117.794 Y-14.462
X118.598 Y-14.15
X120.207 Y-14.009
X154.399 Y-12.972
G2 X155.444 Y-13.409 I-0.049 J-1.582
X155.857 Y-14.068 I-1.093 J-1.144 F550
G1 X155.963 Y-14.442
X155.993 Y-14.572
X155.901 Y-14.935
X155.723 Y-15.265
X155.196 Y-15.799
G2 X150.438 Y-16.712 I-4.102 J8.526
G1 X149.312 Y-16.736
X147.101 Y-16.635
X145.342 Y-16.836
X144.614 Y-17.014
G2 X139.001 Y-16.892 I-1.874 J42.986
G1 X137.239 Y-17.044
X136.528 Y-17.283
X134.758 Y-17.222
X134.019 Y-17.346
X133.139 Y-17.245
X131.369 Y-17.262
X130.65 Y-17.475
X128.882 Y-17.378
X128.134 Y-17.429
X127.252 Y-17.35
G2 X120.754 Y-17.622 I-4.136 J21.01
X120.159 Y-17.548 I2.362 J21.283 F495
G1 X119.729 Y-17.664
X119.527 Y-17.753
X119.348 Y-17.884
X119.197 Y-18.046
X119.074 Y-18.229
X118.985 Y-18.432
X118.959 Y-18.652
X118.998 Y-18.869
X119.099 Y-19.066
X119.253 Y-19.225
X119.447 Y-19.332
X119.664 Y-19.378
X119.884 Y-19.358
X120.579 Y-19.077 F550
G2 X129.428 Y-18.949 I7.319 J-201.05
G1 X131.195 Y-19.052
X131.937 Y-18.944
X133.707 Y-18.986
X135.477 Y-18.982
X137.247 Y-18.93
X139.014 Y-19.034
G2 X147.868 Y-19.018 I4.685 J-147.656
G1 X148.59 Y-19.232
X149.247 Y-19.594
X149.712 Y-20.029
X149.851 Y-20.205
X149.931 Y-20.414
X149.947 Y-20.637
X149.895 Y-20.855
X149.782 Y-21.048
X149.617 Y-21.199
X148.832 Y-21.232
X119.403 Y-22.469 F1200
X118.574 Y-22.266
G2 X115.85 Y-18.263 I1.218 J3.757
G1 X116.207 Y-17.058
X116.67 Y-16.255
X117.419 Y-15.452
X118.598 Y-14.755
X119.805 Y-14.521
X154.399 Y-13.346
G2 X155.55 Y-13.784 I0.058 J-1.582
X155.963 Y-14.442 I-1.093 J-1.144 F550
G1 X156.02 Y-14.65
X156.023 Y-14.699
X155.985 Y-15.051
X155.925 Y-15.421
X155.547 Y-16.069
G2 X152.004 Y-17.144 I-3.845 J6.295
X147.605 Y-17.13 I-2.131 J21.936
G1 X145.836 Y-17.179
X145.127 Y-17.423
X144.387 Y-17.549
X142.619 Y-17.468
X141.881 Y-17.606
X140.128 Y-17.358
X139.388 Y-17.476
G3 X135.57 Y-17.801 I-0.837 J-12.76
G1 X135.128 Y-17.743
X133.703 Y-17.784
X131.936 Y-17.676
X130.727 Y-17.9
X129.98 Y-17.969
X128.221 Y-17.775
X127.488 Y-17.936
X126.603 Y-17.92
X125.882 Y-18.126
G2 X120.662 Y-18.135 I-2.67 J36.04
X120.064 Y-18.087 I2.55 J36.049 F495
G1 X119.669 Y-18.34 F550
X119.314 Y-18.664
G3 X119.088 Y-18.869 I1.562 J-1.952
X122.663 Y-22.364 I1.788 J-1.748 F1200
X123.224 Y-21.474 I-1.788 J1.748
G1 X125.09 Y-16.255
G2 X126.643 Y-14.757 I2.342 J-0.874
G1 X127.85 Y-14.465
X154.802 Y-13.773
G2 X155.792 Y-14.305 I0 J-1.187
X155.989 Y-14.96 I-0.99 J-0.655 F550
G1 X155.985 Y-15.051
X155.895 Y-15.854
X155.869 Y-16.015
X155.458 Y-16.642
G2 X150.849 Y-17.687 I-4.21 J7.886
G1 X149.597 Y-17.759
X146.945 Y-17.62
X146.062 Y-17.689
G2 X143.099 Y-17.979 I-2.025 J5.405
G1 X141.461 Y-18.013
X140.713 Y-17.96
X140.277 Y-17.887
X139.529 Y-17.943
X137.759 Y-17.889
X137.046 Y-18.121
G2 X131.524 Y-18.178 I-3.101 J33.239
G1 X130.803 Y-18.416
X130.394 Y-18.664
G3 X130.131 Y-18.821 I1.149 J-2.22
X132.275 Y-23.275 I1.412 J-2.063 F1200
G1 X137.269 Y-21.474
G3 X138.807 Y-19.868 I-0.848 J2.352
G1 X139.008 Y-19.065
G2 X140.722 Y-15.743 I2.332 J0.9
G1 X144.745 Y-14.591
X146.354 Y-14.441
X154.399 Y-14.152
G2 X155.763 Y-15.088 I-0.082 J-1.58
X155.9 Y-15.732 I-1.445 J-0.644 F550
G1 X155.895 Y-15.854
X155.864 Y-16.105
X155.749 Y-16.476
X155.619 Y-16.828
X155.082 Y-17.352
G2 X149.268 Y-18.231 I-4.839 J12.337
G1 X148.825 Y-18.221
X147.058 Y-18.122
X146.174 Y-18.176
X145.743 Y-18.277
X145.55 Y-18.25
X145.411 Y-17.861
X145.533 Y-17.733
X145.55 Y-17.715 F1200
X149.572 Y-16.04
X153.595 Y-14.605
G2 X155.764 Y-15.698 I0.628 J-1.453
X155.805 Y-16.055 I-1.541 J-0.36 F550
G1 X155.749 Y-16.476
X155.567 Y-17.058
X155.438 Y-17.41
X154.882 Y-17.913
G2 X149.189 Y-18.732 I-4.72 J12.63
G1 X149.127 Y-18.721
X149.068 Y-18.698
X149.016 Y-18.662
X148.972 Y-18.616
X148.94 Y-18.561
X148.92 Y-18.5
X148.914 Y-18.436
X148.921 Y-18.372
X148.943 Y-18.311
X148.977 Y-18.256
X149.022 Y-18.209
X149.077 Y-18.174
X149.139 Y-18.151 F1200
X155.049 Y-16.725
X155.207 Y-16.687 F550
G2 X155.567 Y-17.058 I0.07 J-0.292
G1 X155.373 Y-17.68
X155.308 Y-17.856
X154.811 Y-18.418
G2 X149.874 Y-19.245 I-4.419 J11.234
G1 X149.813 Y-19.237
X149.753 Y-19.217
X149.7 Y-19.183
X149.655 Y-19.139
X149.62 Y-19.086
X149.598 Y-19.027
X149.589 Y-18.963
X149.593 Y-18.899
X149.612 Y-18.838
X149.644 Y-18.781
X149.687 Y-18.733
X149.74 Y-18.695
X149.773 Y-18.68 F1200
X149.807 Y-18.669
X154.856 Y-17.351
X155.008 Y-17.311 F550
G2 X155.373 Y-17.68 I0.076 J-0.29
G1 X155.204 Y-18.222
X155.074 Y-18.574
X154.881 Y-18.808
X154.374 Y-19.139
X154.318 Y-19.167
X154.259 Y-19.19
G2 X153.952 Y-18.699 I-0.088 J0.287
G1 X153.957 Y-18.694 F1200
X154.7 Y-17.933
X154.704 Y-17.929
G2 X155.204 Y-18.222 I0.211 J-0.213 F550
G1 X155.066 Y-18.664
X155.017 Y-18.833
X154.978 Y-18.895
X154.944 Y-18.93
X154.882 Y-18.971
X154.399 Y-19.142
X154.178 Y-19.218
G2 X150.377 Y-19.74 I-4.024 J15.206
G1 X150.314 Y-19.735
X150.254 Y-19.717
X150.198 Y-19.686
X150.151 Y-19.644
X150.113 Y-19.592
X150.088 Y-19.533
X150.076 Y-19.47
X150.078 Y-19.405
X150.094 Y-19.343
X150.123 Y-19.285
X150.164 Y-19.234
X150.216 Y-19.194
X150.271 Y-19.168 F1200
X150.33 Y-19.153
X154.029 Y-18.641
X154.058 Y-18.638
X154.088 Y-18.639
X154.117 Y-18.642
G2 X154.178 Y-19.218 I-0.047 J-0.296 F550
G1 X153.453 Y-19.467
X152.683 Y-19.618
X140.722 Y-21.962 F1200
X104.519 Y-23.787
X-0.069 Y-23.76
G2 X-1.568 Y-23.356 I-0.131 J2.497
G1 X-2.08 Y-23.035
G2 X-3.287 Y-21.698 I1.128 J2.231
G1 X-3.69 Y-20.534
X-3.769 Y18.669
X-3.607 Y20.676
G2 X-3.011 Y22.282 I2.5 J-0.015
G1 X-2.285 Y22.944
X-1.678 Y23.328
G2 X-0.471 Y23.754 I1.409 J-2.065
G1 X77.567 Y23.784
X78.774 Y23.331
X83.601 Y21.224
G2 X84.808 Y19.892 I-1.126 J-2.232
G1 X86.25 Y16.662
G2 X84.468 Y13.218 Z-11.262 I-2.293 J-0.997
X84.063 Y13.168 Z-11.932 I-0.511 J2.447 F550
G1 X83.864 Y13.166
X83.658 Y13.175
X83.535 Y13.915
X83.485 Y15.04
Y15.926
X83.474 Y16.129
X83.49 Y16.33
X83.56 Y16.519
X83.677 Y16.683
X83.833 Y16.81
X84.018 Y16.89
X84.217 Y16.919
G2 X84.507 Y16.585 I-0.008 J-0.3
G1 X84.475 Y16.299
X84.19 Y13.791 F1200
X84.15 Y13.432 F550
G2 X83.864 Y13.166 I-0.298 J0.034
G1 X83.458 Y13.163
X83.271 Y13.171
X83.089 Y13.899
X83.019 Y14.646
X82.995 Y15.433
X83.004 Y16.183
X83.015 Y16.266
X83.074 Y16.471
X83.188 Y16.652
X83.348 Y16.793
X83.542 Y16.884
X83.753 Y16.916
G2 X84.043 Y16.587 I-0.008 J-0.3
G1 X84.016 Y16.295
X83.778 Y13.788 F1200
X83.744 Y13.435 F550
G2 X83.458 Y13.163 I-0.299 J0.028
G1 X83.073 Y13.16
X82.886 Y13.168
X82.646 Y13.879
X82.551 Y14.623
X82.514 Y15.372
X82.528 Y16.122
X82.63 Y16.412
X82.738 Y16.613
X82.902 Y16.773
X83.106 Y16.876
X83.332 Y16.912
G2 X83.623 Y16.588 I-0.008 J-0.3
G1 X83.598 Y16.291
X83.389 Y13.786 F1200
X83.36 Y13.435 F550
G2 X83.073 Y13.16 I-0.299 J0.025
G1 X82.654 Y13.157
X82.467 Y13.165
X82.202 Y13.867
X82.085 Y14.608
X82.04 Y15.357
X82.065 Y16.106
X82.19 Y16.429
X82.301 Y16.623
X82.463 Y16.776
X82.664 Y16.874
X82.884 Y16.909
G2 X83.175 Y16.587 I-0.008 J-0.3
G1 X83.153 Y16.288
X82.966 Y13.783 F1200
X82.94 Y13.435 F550
G2 X82.654 Y13.157 I-0.299 J0.022
G1 X82.269 Y13.154
X82.082 Y13.162
X81.764 Y13.842
X81.624 Y14.579
X81.571 Y15.327
X81.599 Y16.076
X81.734 Y16.426
X81.845 Y16.62
X82.007 Y16.773
X82.208 Y16.871
X82.428 Y16.906
G2 X82.719 Y16.59 I-0.008 J-0.3
G1 X82.704 Y16.284
X82.574 Y13.781 F1200
X82.556 Y13.439 F550
G2 X82.269 Y13.154 I-0.3 J0.016
G1 X81.85 Y13.151
X81.663 Y13.159
X81.322 Y13.827
X81.166 Y14.561
X81.106 Y15.309
X81.135 Y16.058
X81.274 Y16.421
X81.385 Y16.616
X81.547 Y16.769
X81.748 Y16.867
X81.969 Y16.902
X82.428 Y16.906
G2 X82.715 Y16.551 I-0.008 J-0.3
G1 X82.666 Y16.288
X82.201 Y13.772 F1200
X82.132 Y13.397 F550
G2 X81.85 Y13.151 I-0.295 J0.054
G1 X81.465 Y13.148
X81.278 Y13.156
X80.884 Y13.795
X80.712 Y14.525
X80.644 Y15.272
X80.667 Y16.021
X80.81 Y16.409
X80.92 Y16.606
X81.083 Y16.763
X81.285 Y16.863
X81.508 Y16.899
X81.969 Y16.902
G2 X82.257 Y16.555 I-0.008 J-0.3
G1 X82.213 Y16.284
X81.808 Y13.77 F1200
X81.748 Y13.4 F550
G2 X81.465 Y13.148 I-0.296 J0.048
G1 X81.046 Y13.145
X80.858 Y13.153
X80.442 Y13.777
X80.257 Y14.504
X80.182 Y15.25
X80.204 Y16
X80.347 Y16.399
X80.456 Y16.599
X80.619 Y16.757
X80.823 Y16.859
X81.048 Y16.895
X81.508 Y16.899
G2 X81.797 Y16.555 I-0.008 J-0.3
G1 X81.756 Y16.28
X81.384 Y13.768 F1200
X81.33 Y13.401 F550
G2 X81.046 Y13.145 I-0.297 J0.044
G1 X80.661 Y13.143
X80.474 Y13.15
X80.002 Y13.734
X79.806 Y14.458
X79.723 Y15.203
X79.736 Y15.953
X79.977 Y16.663
X80.142 Y16.792
X80.32 Y16.865
X80.51 Y16.891
X81.048 Y16.895
G2 X81.337 Y16.559 I-0.008 J-0.3
G1 X81.302 Y16.275
X80.991 Y13.766 F1200
X80.946 Y13.405 F550
G2 X80.661 Y13.143 I-0.298 J0.037
G1 X80.242 Y13.139
X80.054 Y13.147
X79.552 Y13.705
X79.352 Y14.428
X79.263 Y15.172
X79.273 Y15.922
X79.472 Y16.647
X79.629 Y16.777
X79.815 Y16.859
X80.016 Y16.888
X80.51 Y16.891
G2 X80.801 Y16.566 I-0.008 J-0.3
G1 X80.775 Y16.27
X80.558 Y13.765 F1200
X80.528 Y13.413 F550
G2 X80.242 Y13.139 I-0.299 J0.026
G1 X79.857 Y13.137
X79.669 Y13.145
X79.386 Y13.391
X79.005 Y14.037
X78.84 Y14.768
X78.793 Y15.517
X78.889 Y16.26
X79.015 Y16.574
X79.179 Y16.74
X79.387 Y16.847
X79.617 Y16.885
X80.016 Y16.888
G2 X80.308 Y16.572 I-0.008 J-0.3
G1 X80.292 Y16.266
X80.161 Y13.763 F1200
X80.144 Y13.421 F550
G2 X79.857 Y13.137 I-0.3 J0.016
G1 X79.437 Y13.133
X79.25 Y13.141
X78.714 Y13.666
X78.457 Y14.371
X78.345 Y15.112
X78.366 Y15.862
X78.533 Y16.593
X78.566 Y16.631
X78.725 Y16.765
X78.914 Y16.851
X79.12 Y16.881
X79.617 Y16.885
G2 X79.909 Y16.567 I-0.008 J-0.3
G1 X79.891 Y16.263
X79.744 Y13.759 F1200
X79.724 Y13.416 F550
G2 X79.437 Y13.133 I-0.299 J0.018
G1 X79.053 Y13.131
X78.865 Y13.139
X78.563 Y13.361
X78.134 Y13.976
X77.938 Y14.7
X77.885 Y15.448
X77.966 Y16.194
X78.089 Y16.534
X78.105 Y16.557
X78.224 Y16.69
X78.371 Y16.792
X78.538 Y16.856
X78.715 Y16.878
X79.12 Y16.881
G2 X79.411 Y16.574 I-0.008 J-0.3
G1 X79.404 Y16.259
X79.347 Y13.757 F1200
X79.34 Y13.423 F550
G2 X79.053 Y13.131 I-0.3 J0.007
G1 X78.633 Y13.127
X78.446 Y13.135
X77.861 Y13.604
X77.571 Y14.296
X77.445 Y15.035
X77.45 Y15.785
X77.599 Y16.521
X77.653 Y16.589
X77.816 Y16.742
X78.016 Y16.84
X78.237 Y16.875
X78.715 Y16.878
G2 X79.007 Y16.57 I-0.008 J-0.3
G1 X78.998 Y16.256
X78.93 Y13.754 F1200
X78.92 Y13.419 F550
G2 X78.633 Y13.127 I-0.3 J0.008
G1 X78.248 Y13.125
X78.061 Y13.133
X77.732 Y13.312
X77.263 Y13.898
X77.047 Y14.616
X76.979 Y15.363
X77.042 Y16.11
X77.163 Y16.465
X77.201 Y16.525
X77.32 Y16.669
X77.47 Y16.778
X77.643 Y16.847
X77.827 Y16.872
X78.237 Y16.875
G2 X78.528 Y16.575 I-0.008 J-0.3
G1 X78.529 Y16.252
X78.535 Y13.751 F1200
X78.536 Y13.424 F550
G2 X78.248 Y13.125 I-0.3 J0
G1 X77.829 Y13.122
X77.642 Y13.129
X77.323 Y13.327
X76.81 Y13.874
X76.599 Y14.594
X76.526 Y15.341
X76.574 Y16.089
X76.713 Y16.437
X76.774 Y16.531
X76.893 Y16.67
X77.042 Y16.777
X77.213 Y16.845
X77.395 Y16.868
X77.827 Y16.872
G2 X78.119 Y16.571 I-0.008 J-0.3
G1 Y16.249
X78.117 Y13.748 F1200
X78.116 Y13.421 F550
G2 X77.829 Y13.122 I-0.3 J0
G1 X77.444 Y13.119
X77.257 Y13.127
X76.924 Y13.3
X76.645 Y13.55
X76.259 Y14.193
X76.1 Y14.926
X76.077 Y15.675
X76.219 Y16.412
X76.309 Y16.542
X76.428 Y16.676
X76.575 Y16.778
X76.743 Y16.842
X76.92 Y16.865
X77.395 Y16.868
G2 X77.687 Y16.573 I-0.008 J-0.3
G1 X77.691 Y16.246
X77.727 Y13.745 F1200
X77.732 Y13.423 F550
G2 X77.444 Y13.119 I-0.3 J-0.004
G1 X77.025 Y13.116
X76.838 Y13.124
X76.502 Y13.291
X75.97 Y13.819
X75.716 Y14.525
X75.62 Y15.269
X75.672 Y16.017
X75.79 Y16.373
X75.856 Y16.487
X75.974 Y16.641
X76.128 Y16.76
X76.307 Y16.835
X76.499 Y16.862
X76.92 Y16.865
G2 X77.212 Y16.575 I-0.008 J-0.3
G1 X77.223 Y16.243
X77.302 Y13.742 F1200
X77.312 Y13.425 F550
G2 X77.025 Y13.116 I-0.3 J-0.01
G1 X76.64 Y13.113
X76.453 Y13.121
X76.107 Y13.267
X75.815 Y13.501
X75.393 Y14.122
X75.208 Y14.848
X75.176 Y15.598
X75.299 Y16.338
X75.402 Y16.504
X75.521 Y16.651
X75.673 Y16.763
X75.847 Y16.833
X76.034 Y16.858
X76.499 Y16.862
G2 X76.791 Y16.575 I-0.008 J-0.3
G1 X76.805 Y16.24
X76.914 Y13.739 F1200
X76.927 Y13.425 F550
G2 X76.64 Y13.113 I-0.3 J-0.013
G1 X76.221 Y13.11
X76.033 Y13.118
X75.683 Y13.25
X75.119 Y13.744
X74.838 Y14.44
X74.727 Y15.181
X74.761 Y15.931
X74.878 Y16.32
X74.981 Y16.534
X75.146 Y16.704
X75.356 Y16.815
X75.59 Y16.855
X76.034 Y16.858
G2 X76.325 Y16.576 I-0.008 J-0.3
G1 X76.345 Y16.237
X76.49 Y13.736 F1200
X76.508 Y13.427 F550
G2 X76.221 Y13.11 I-0.299 J-0.017
G1 X75.66 Y13.105
X75.473 Y13.113
X75.137 Y13.28
X74.618 Y13.822
X74.37 Y14.53
X74.278 Y15.274
X74.327 Y16.023
X74.454 Y16.375
X74.523 Y16.489
X74.641 Y16.638
X74.794 Y16.753
X74.97 Y16.825
X75.158 Y16.851
X75.59 Y16.855
G2 X75.882 Y16.561 I-0.008 J-0.3
G1 X75.889 Y16.233
X75.94 Y13.732 F1200
X75.947 Y13.411 F550
G2 X75.66 Y13.105 I-0.3 J-0.006
G1 X75.247 Y13.102
X75.06 Y13.11
X74.722 Y13.273
X74.163 Y13.773
X73.926 Y14.485
X73.827 Y15.228
X73.856 Y15.978
X74 Y16.361
X74.109 Y16.557
X74.272 Y16.711
X74.473 Y16.811
X74.694 Y16.847
X75.158 Y16.851
G2 X75.45 Y16.559 I-0.008 J-0.3
G1 X75.459 Y16.229
X75.525 Y13.729 F1200
X75.534 Y13.409 F550
G2 X75.247 Y13.102 I-0.3 J-0.008
G1 X74.856 Y13.098
X74.481 Y13.113
X74.157 Y13.302
X73.671 Y13.873
X73.454 Y14.591
X73.374 Y15.337
X73.429 Y16.085
X73.576 Y16.43
X73.634 Y16.514
X73.752 Y16.65
X73.9 Y16.753
X74.067 Y16.819
X74.246 Y16.842
X74.694 Y16.847
G2 X74.986 Y16.562 I-0.007 J-0.3
G1 X75.003 Y16.226
X75.126 Y13.726 F1200
X75.142 Y13.413 F550
G2 X74.856 Y13.098 I-0.3 J-0.015
G1 X74.228 Y13.092
X74.04 Y13.099
X73.725 Y13.303
X73.218 Y13.855
X73.003 Y14.573
X72.921 Y15.319
X72.963 Y16.068
X73.104 Y16.388
X73.217 Y16.57
X73.377 Y16.712
X73.57 Y16.803
X73.781 Y16.836
X74.246 Y16.842
G2 X74.538 Y16.54 I-0.007 J-0.3
G1 X74.536 Y16.221
X74.516 Y13.719 F1200
X74.514 Y13.389 F550
G2 X74.228 Y13.092 I-0.3 J0.002
G1 X73.808 Y13.087
X73.621 Y13.093
X73.298 Y13.284
X72.767 Y13.813
X72.554 Y14.533
X72.467 Y15.277
X72.494 Y16.027
X72.635 Y16.367
X72.746 Y16.554
X72.907 Y16.701
X73.103 Y16.796
X73.318 Y16.83
X73.781 Y16.836
G2 X74.074 Y16.538 I-0.007 J-0.3
G1 X74.076 Y16.216
X74.092 Y13.715 F1200
X74.094 Y13.388 F550
G2 X73.808 Y13.087 I-0.3 J-0.002
G1 X73.423 Y13.081
X73.236 Y13.088
X72.897 Y13.248
X72.609 Y13.489
X72.217 Y14.128
X72.047 Y14.859
X72.007 Y15.607
X72.144 Y16.345
X72.233 Y16.483
X72.351 Y16.623
X72.499 Y16.73
X72.669 Y16.798
X72.85 Y16.823
X73.318 Y16.83
G2 X73.611 Y16.54 I-0.007 J-0.3
G1 X73.621 Y16.21
X73.699 Y13.71 F1200
X73.709 Y13.39 F550
G2 X73.423 Y13.081 I-0.3 J-0.009
G1 X73.004 Y13.075
X72.817 Y13.082
X72.473 Y13.232
X71.932 Y13.751
X71.669 Y14.453
X71.559 Y15.195
X71.6 Y15.944
X71.713 Y16.302
X71.783 Y16.429
X71.9 Y16.587
X72.053 Y16.709
X72.233 Y16.787
X72.427 Y16.816
X72.85 Y16.823
G2 X73.144 Y16.537 I-0.006 J-0.3
G1 X73.159 Y16.204
X73.274 Y13.704 F1200
X73.289 Y13.389 F550
G2 X73.004 Y13.075 I-0.3 J-0.014
G1 X72.619 Y13.069
X72.245 Y13.082
X71.923 Y13.275
X71.434 Y13.843
X71.197 Y14.555
X71.112 Y15.3
X71.169 Y16.048
X71.316 Y16.393
X71.374 Y16.48
X71.492 Y16.615
X71.638 Y16.719
X71.805 Y16.785
X71.983 Y16.809
X72.427 Y16.816
G2 X72.721 Y16.534 I-0.005 J-0.3
G1 X72.741 Y16.197
X72.886 Y13.697 F1200
X72.904 Y13.386 F550
G2 X72.619 Y13.069 I-0.299 J-0.017
G1 X72.03 Y13.059
X71.843 Y13.065
X71.521 Y13.257
X70.988 Y13.785
X70.754 Y14.498
X70.66 Y15.242
X70.694 Y15.991
X70.836 Y16.336
X70.947 Y16.523
X71.107 Y16.671
X71.302 Y16.766
X71.517 Y16.801
X71.983 Y16.809
G2 X72.277 Y16.513 I-0.005 J-0.3
G1 X72.281 Y16.189
X72.311 Y13.688 F1200
X72.315 Y13.362 F550
G2 X72.03 Y13.059 I-0.3 J-0.004
G1 X71.639 Y13.053
X71.452 Y13.059
X71.114 Y13.221
X70.828 Y13.464
X70.423 Y14.096
X70.245 Y14.824
X70.206 Y15.573
X70.343 Y16.31
X70.434 Y16.451
X70.552 Y16.591
X70.7 Y16.699
X70.87 Y16.768
X71.051 Y16.793
X71.517 Y16.801
G2 X71.811 Y16.512 I-0.005 J-0.3
G1 X71.823 Y16.182
X71.912 Y13.682 F1200
X71.923 Y13.363 F550
G2 X71.639 Y13.053 I-0.3 J-0.011
G1 X71.226 Y13.046
X71.039 Y13.052
X70.695 Y13.202
X70.146 Y13.713
X69.872 Y14.411
X69.759 Y15.153
X69.798 Y15.901
X69.91 Y16.26
X69.982 Y16.393
X70.098 Y16.553
X70.252 Y16.677
X70.433 Y16.757
X70.629 Y16.786
X71.051 Y16.793
G2 X71.345 Y16.509 I-0.005 J-0.3
G1 X71.363 Y16.174
X71.494 Y13.675 F1200
X71.51 Y13.361 F550
G2 X71.226 Y13.046 I-0.3 J-0.016
G1 X70.835 Y13.039
X70.46 Y13.052
X70.137 Y13.242
X69.643 Y13.806
X69.4 Y14.516
X69.312 Y15.261
X69.368 Y16.009
X69.498 Y16.319
X69.61 Y16.504
X69.769 Y16.65
X69.964 Y16.744
X70.177 Y16.779
X70.629 Y16.786
G2 X70.923 Y16.505 I-0.005 J-0.3
G1 X70.944 Y16.167
X71.1 Y13.668 F1200
X71.119 Y13.357 F550
G2 X70.835 Y13.039 I-0.299 J-0.019
G1 X70.207 Y13.029
X70.019 Y13.035
X69.703 Y13.236
X69.189 Y13.782
X68.953 Y14.494
X68.862 Y15.238
X68.901 Y15.987
X69.036 Y16.31
X69.148 Y16.496
X69.307 Y16.642
X69.502 Y16.736
X69.716 Y16.771
X70.177 Y16.779
G2 X70.472 Y16.481 I-0.005 J-0.3
G1 X70.474 Y16.159
X70.489 Y13.658 F1200
X70.491 Y13.33 F550
G2 X70.207 Y13.029 I-0.3 J-0.002
G1 X69.788 Y13.021
X69.6 Y13.028
X69.275 Y13.214
X68.738 Y13.738
X68.507 Y14.451
X68.409 Y15.195
X68.432 Y15.944
X68.57 Y16.291
X68.68 Y16.481
X68.841 Y16.63
X69.038 Y16.727
X69.254 Y16.763
X69.716 Y16.771
G2 X70.01 Y16.477 I-0.005 J-0.3
G1 X70.016 Y16.151
X70.066 Y13.651 F1200
X70.072 Y13.327 F550
G2 X69.788 Y13.021 I-0.3 J-0.006
G1 X69.403 Y13.015
X69.215 Y13.021
X68.874 Y13.176
X68.584 Y13.414
X68.177 Y14.044
X67.996 Y14.772
X67.949 Y15.52
X68.078 Y16.259
X68.17 Y16.406
X68.288 Y16.549
X68.437 Y16.659
X68.608 Y16.729
X68.792 Y16.755
X69.254 Y16.763
G2 X69.549 Y16.476 I-0.005 J-0.3
G1 X69.563 Y16.144
X69.673 Y13.644 F1200
X69.687 Y13.328 F550
G2 X69.403 Y13.015 I-0.3 J-0.013
G1 X68.983 Y13.008
X68.796 Y13.014
X68.45 Y13.157
X67.898 Y13.666
X67.623 Y14.363
X67.505 Y15.104
X67.539 Y15.853
X67.647 Y16.212
X67.721 Y16.35
X67.837 Y16.512
X67.992 Y16.638
X68.174 Y16.718
X68.371 Y16.748
X68.792 Y16.755
G2 X69.086 Y16.473 I-0.005 J-0.3
G1 X69.105 Y16.136
X69.249 Y13.637 F1200
X69.267 Y13.325 F550
G2 X68.983 Y13.008 I-0.299 J-0.017
G1 X68.599 Y13.001
X68.224 Y13.014
X67.897 Y13.197
X67.396 Y13.755
X67.15 Y14.464
X67.057 Y15.208
X67.107 Y15.957
X67.238 Y16.276
X67.349 Y16.463
X67.509 Y16.61
X67.705 Y16.705
X67.92 Y16.741
X68.371 Y16.748
G2 X68.665 Y16.469 I-0.006 J-0.3
G1 X68.688 Y16.129
X68.861 Y13.63 F1200
X68.882 Y13.322 F550
G2 X68.599 Y13.001 I-0.299 J-0.021
G1 X68.01 Y12.992
X67.822 Y12.998
X67.494 Y13.179
X66.949 Y13.694
X66.708 Y14.404
X66.605 Y15.147
X66.633 Y15.897
X66.772 Y16.254
X66.881 Y16.446
X67.042 Y16.598
X67.24 Y16.697
X67.458 Y16.733
X67.92 Y16.741
G2 X68.214 Y16.448 I-0.006 J-0.3
G1 X68.222 Y16.121
X68.286 Y13.621 F1200
X68.294 Y13.299 F550
G2 X68.01 Y12.992 I-0.3 J-0.008
G1 X67.618 Y12.985
X67.431 Y12.991
X67.087 Y13.141
X66.795 Y13.375
X66.381 Y14.001
X66.194 Y14.727
X66.148 Y15.476
X66.277 Y16.215
X66.373 Y16.37
X66.491 Y16.516
X66.64 Y16.627
X66.813 Y16.699
X66.998 Y16.725
X67.458 Y16.733
G2 X67.753 Y16.447 I-0.005 J-0.3
G1 X67.769 Y16.114
X67.888 Y13.614 F1200
X67.903 Y13.299 F550
G2 X67.618 Y12.985 I-0.3 J-0.014
G1 X67.205 Y12.978
X67.018 Y12.984
X66.667 Y13.117
X66.108 Y13.617
X65.826 Y14.312
X65.705 Y15.052
X65.737 Y15.801
X65.85 Y16.181
X65.952 Y16.394
X66.115 Y16.565
X66.324 Y16.677
X66.556 Y16.718
X66.998 Y16.725
G2 X67.292 Y16.444 I-0.005 J-0.3
G1 X67.313 Y16.106
X67.47 Y13.607 F1200
X67.489 Y13.296 F550
G2 X67.205 Y12.978 I-0.299 J-0.019
G1 X66.814 Y12.972
X66.439 Y12.984
X66.108 Y13.16
X65.601 Y13.712
X65.352 Y14.419
X65.257 Y15.163
X65.307 Y15.912
X65.439 Y16.263
X65.499 Y16.358
X65.616 Y16.503
X65.766 Y16.614
X65.938 Y16.684
X66.122 Y16.71
X66.556 Y16.718
G2 X66.85 Y16.441 I-0.005 J-0.3
G1 X66.877 Y16.099
X67.074 Y13.6 F1200
X67.098 Y13.295 F550
G2 X66.814 Y12.972 I-0.299 J-0.024
G1 X66.186 Y12.961
X65.999 Y12.967
X65.674 Y13.155
X65.144 Y13.686
X64.904 Y14.396
X64.807 Y15.14
X64.841 Y15.889
X64.98 Y16.233
X65.09 Y16.422
X65.25 Y16.571
X65.447 Y16.667
X65.663 Y16.703
X66.122 Y16.71
G2 X66.417 Y16.416 I-0.005 J-0.3
G1 X66.422 Y16.091
X66.465 Y13.59 F1200
X66.471 Y13.266 F550
G2 X66.186 Y12.961 I-0.3 J-0.005
G1 X65.767 Y12.954
X65.579 Y12.96
X65.246 Y13.131
X64.691 Y13.636
X64.458 Y14.349
X64.355 Y15.092
X64.372 Y15.841
X64.513 Y16.211
X64.621 Y16.405
X64.783 Y16.559
X64.982 Y16.658
X65.201 Y16.695
X65.663 Y16.703
G2 X65.957 Y16.412 I-0.005 J-0.3
G1 X65.967 Y16.083
X66.042 Y13.583 F1200
X66.051 Y13.262 F550
G2 X65.767 Y12.954 I-0.3 J-0.009
G1 X65.382 Y12.947
X65.007 Y12.96
X64.686 Y13.154
X64.203 Y13.728
X63.985 Y14.445
X63.899 Y15.19
X63.943 Y15.939
X64.091 Y16.284
X64.145 Y16.362
X64.263 Y16.496
X64.408 Y16.598
X64.574 Y16.663
X64.751 Y16.687
X65.201 Y16.695
G2 X65.495 Y16.411 I-0.005 J-0.3
G1 X65.514 Y16.076
X65.649 Y13.576 F1200
X65.666 Y13.263 F550
G2 X65.382 Y12.947 I-0.3 J-0.016
G1 X64.793 Y12.938
X64.606 Y12.944
X64.286 Y13.139
X63.758 Y13.672
X63.539 Y14.389
X63.445 Y15.134
X63.471 Y15.883
X63.608 Y16.216
X63.719 Y16.403
X63.879 Y16.55
X64.074 Y16.645
X64.289 Y16.68
X64.751 Y16.687
G2 X65.045 Y16.391 I-0.005 J-0.3
G1 X65.049 Y16.068
X65.074 Y13.567 F1200
X65.077 Y13.24 F550
G2 X64.793 Y12.938 I-0.3 J-0.003
G1 X64.402 Y12.931
X64.214 Y12.937
X63.879 Y13.104
X63.595 Y13.35
X63.202 Y13.988
X63.028 Y14.718
X62.985 Y15.467
X63.121 Y16.204
X63.208 Y16.335
X63.325 Y16.473
X63.473 Y16.579
X63.641 Y16.647
X63.821 Y16.672
X64.289 Y16.68
G2 X64.583 Y16.389 I-0.005 J-0.3
G1 X64.594 Y16.06
X64.676 Y13.56 F1200
X64.686 Y13.24 F550
G2 X64.402 Y12.931 I-0.3 J-0.01
G1 X63.989 Y12.924
X63.801 Y12.93
X63.461 Y13.087
X62.92 Y13.607
X62.652 Y14.307
X62.539 Y15.049
X62.578 Y15.798
X62.69 Y16.156
X62.757 Y16.278
X62.874 Y16.436
X63.027 Y16.558
X63.207 Y16.636
X63.401 Y16.665
X63.821 Y16.672
G2 X64.115 Y16.387 I-0.005 J-0.3
G1 X64.132 Y16.053
X64.257 Y13.553 F1200
X64.273 Y13.239 F550
G2 X63.989 Y12.924 I-0.3 J-0.015
G1 X63.598 Y12.917
X63.41 Y12.924
X63.062 Y13.063
X62.767 Y13.294
X62.334 Y13.907
X62.134 Y14.629
X62.09 Y15.378
X62.202 Y16.12
X62.306 Y16.293
X62.423 Y16.442
X62.574 Y16.557
X62.749 Y16.63
X62.936 Y16.657
X63.401 Y16.665
G2 X63.695 Y16.383 I-0.005 J-0.3
G1 X63.715 Y16.046
X63.863 Y13.546 F1200
X63.882 Y13.235 F550
G2 X63.598 Y12.917 I-0.299 J-0.018
G1 X63.185 Y12.911
X62.997 Y12.917
X62.642 Y13.038
X62.069 Y13.521
X61.773 Y14.21
X61.648 Y14.95
X61.67 Y15.699
X61.872 Y16.422
X62.028 Y16.544
X62.205 Y16.62
X62.396 Y16.648
X62.936 Y16.657
G2 X63.23 Y16.38 I-0.005 J-0.3
G1 X63.256 Y16.038
X63.445 Y13.539 F1200
X63.468 Y13.233 F550
G2 X63.185 Y12.911 I-0.299 J-0.023
G1 X62.55 Y12.9
X62.363 Y12.906
X62.036 Y13.09
X61.539 Y13.652
X61.29 Y14.359
X61.197 Y15.103
X61.249 Y15.852
X61.351 Y16.213
X61.383 Y16.268
X61.5 Y16.421
X61.652 Y16.538
X61.829 Y16.614
X62.019 Y16.641
X62.396 Y16.648
G2 X62.69 Y16.362 I-0.005 J-0.3
G1 X62.706 Y16.029
X62.82 Y13.529 F1200
X62.834 Y13.213 F550
G2 X62.55 Y12.9 I-0.3 J-0.014
G1 X62.165 Y12.893
X61.978 Y12.9
X61.646 Y13.075
X61.094 Y13.582
X60.849 Y14.291
X60.746 Y15.034
X60.773 Y15.783
X60.891 Y16.139
X60.96 Y16.258
X61.077 Y16.412
X61.229 Y16.531
X61.406 Y16.606
X61.597 Y16.634
X62.019 Y16.641
G2 X62.313 Y16.355 I-0.005 J-0.3
G1 X62.327 Y16.022
X62.436 Y13.522 F1200
X62.45 Y13.206 F550
G2 X62.165 Y12.893 I-0.3 J-0.013
G1 X61.746 Y12.886
X61.559 Y12.893
X61.216 Y13.044
X60.927 Y13.283
X60.515 Y13.91
X60.331 Y14.637
X60.288 Y15.386
X60.409 Y16.126
X60.508 Y16.281
X60.626 Y16.423
X60.774 Y16.532
X60.945 Y16.601
X61.127 Y16.627
X61.597 Y16.634
G2 X61.892 Y16.348 I-0.005 J-0.3
G1 X61.906 Y16.015
X62.016 Y13.515 F1200
X62.03 Y13.199 F550
G2 X61.746 Y12.886 I-0.3 J-0.013
G1 X61.361 Y12.88
X61.174 Y12.886
X60.819 Y13.008
X60.257 Y13.505
X59.97 Y14.198
X59.847 Y14.937
X59.87 Y15.687
X59.971 Y16.048
X60.05 Y16.205
X60.165 Y16.373
X60.321 Y16.504
X60.507 Y16.588
X60.708 Y16.619
X61.127 Y16.627
G2 X61.421 Y16.348 I-0.005 J-0.3
G1 X61.445 Y16.008
X61.623 Y13.508 F1200
X61.645 Y13.201 F550
G2 X61.361 Y12.88 I-0.299 J-0.021
G1 X60.942 Y12.873
X60.567 Y12.885
X60.238 Y13.065
X59.738 Y13.624
X59.49 Y14.331
X59.396 Y15.076
X59.446 Y15.824
X59.575 Y16.143
X59.685 Y16.331
X59.845 Y16.48
X60.042 Y16.576
X60.257 Y16.612
X60.708 Y16.619
G2 X61.002 Y16.341 I-0.005 J-0.3
G1 X61.026 Y16.001
X61.204 Y13.501 F1200
X61.226 Y13.194 F550
G2 X60.942 Y12.873 I-0.299 J-0.021
G1 X60.381 Y12.863
X60.194 Y12.87
X59.859 Y13.04
X59.298 Y13.537
X59.052 Y14.245
X58.944 Y14.987
X58.967 Y15.737
X59.107 Y16.115
X59.215 Y16.311
X59.376 Y16.466
X59.576 Y16.567
X59.797 Y16.604
X60.257 Y16.612
G2 X60.552 Y16.323 I-0.005 J-0.3
G1 X60.564 Y15.993
X60.654 Y13.493 F1200
X60.665 Y13.174 F550
G2 X60.381 Y12.863 I-0.3 J-0.011
G1 X59.968 Y12.857
X59.781 Y12.863
X59.433 Y13.003
X59.138 Y13.235
X58.721 Y13.858
X58.532 Y14.584
X58.485 Y15.333
X58.611 Y16.072
X58.71 Y16.235
X58.828 Y16.383
X58.978 Y16.497
X59.152 Y16.57
X59.339 Y16.596
X59.797 Y16.604
G2 X60.092 Y16.32 I-0.005 J-0.3
G1 X60.109 Y15.985
X60.236 Y13.485 F1200
X60.252 Y13.171 F550
G2 X59.968 Y12.857 I-0.3 J-0.015
G1 X59.577 Y12.85
X59.389 Y12.856
X59.031 Y12.966
X58.463 Y13.456
X58.173 Y14.147
X58.046 Y14.886
X58.071 Y15.636
X58.273 Y16.358
X58.431 Y16.483
X58.609 Y16.559
X58.8 Y16.587
X59.339 Y16.596
G2 X59.633 Y16.318 I-0.005 J-0.3
G1 X59.658 Y15.978
X59.838 Y13.478 F1200
X59.861 Y13.171 F550
G2 X59.577 Y12.85 I-0.299 J-0.022
G1 X58.949 Y12.839
X58.761 Y12.846
X58.433 Y13.026
X57.936 Y13.588
X57.688 Y14.296
X57.596 Y15.04
X57.65 Y15.788
X57.751 Y16.149
X57.785 Y16.208
X57.902 Y16.36
X58.054 Y16.478
X58.231 Y16.553
X58.421 Y16.581
X58.8 Y16.587
G2 X59.095 Y16.301 I-0.005 J-0.3
G1 X59.109 Y15.968
X59.219 Y13.468 F1200
X59.233 Y13.152 F550
G2 X58.949 Y12.839 I-0.3 J-0.013
G1 X58.529 Y12.832
X58.342 Y12.839
X58.016 Y13.024
X57.483 Y13.551
X57.242 Y14.262
X57.145 Y15.005
X57.18 Y15.755
X57.306 Y16.108
X57.37 Y16.213
X57.487 Y16.361
X57.637 Y16.474
X57.811 Y16.547
X57.998 Y16.574
X58.421 Y16.581
G2 X58.716 Y16.29 I-0.005 J-0.3
G1 X58.726 Y15.962
X58.804 Y13.461 F1200
X58.814 Y13.141 F550
G2 X58.529 Y12.832 I-0.3 J-0.009
G1 X58.145 Y12.826
X57.957 Y12.832
X57.616 Y12.989
X57.327 Y13.227
X56.916 Y13.855
X56.733 Y14.582
X56.692 Y15.331
X56.814 Y16.071
X56.91 Y16.22
X57.028 Y16.362
X57.176 Y16.471
X57.347 Y16.54
X57.529 Y16.566
X57.998 Y16.574
G2 X58.292 Y16.287 I-0.005 J-0.3
G1 X58.307 Y15.955
X58.415 Y13.455 F1200
X58.429 Y13.138 F550
G2 X58.145 Y12.826 I-0.3 J-0.013
G1 X57.725 Y12.819
X57.538 Y12.825
X57.192 Y12.971
X56.638 Y13.476
X56.361 Y14.173
X56.246 Y14.914
X56.278 Y15.664
X56.386 Y16.023
X56.459 Y16.16
X56.575 Y16.323
X56.73 Y16.448
X56.912 Y16.529
X57.109 Y16.559
X57.529 Y16.566
G2 X57.823 Y16.284 I-0.005 J-0.3
G1 X57.843 Y15.947
X57.991 Y13.448 F1200
X58.009 Y13.136 F550
G2 X57.725 Y12.819 I-0.299 J-0.018
G1 X57.34 Y12.812
X56.966 Y12.825
X56.638 Y13.008
X56.136 Y13.564
X55.89 Y14.273
X55.797 Y15.017
X55.846 Y15.765
X55.977 Y16.085
X56.087 Y16.273
X56.247 Y16.421
X56.443 Y16.516
X56.658 Y16.551
X57.109 Y16.559
G2 X57.403 Y16.28 I-0.005 J-0.3
G1 X57.427 Y15.94
X57.603 Y13.441 F1200
X57.624 Y13.133 F550
G2 X57.34 Y12.812 I-0.299 J-0.021
G1 X56.751 Y12.802
X56.564 Y12.809
X56.235 Y12.989
X55.689 Y13.502
X55.448 Y14.213
X55.346 Y14.956
X55.372 Y15.705
X55.511 Y16.064
X55.62 Y16.256
X55.781 Y16.409
X55.979 Y16.507
X56.198 Y16.544
X56.658 Y16.551
G2 X56.953 Y16.259 I-0.005 J-0.3
G1 X56.961 Y15.932
X57.027 Y13.432 F1200
X57.036 Y13.11 F550
G2 X56.751 Y12.802 I-0.3 J-0.008
G1 X56.36 Y12.796
X56.173 Y12.802
X55.828 Y12.95
X55.535 Y13.184
X55.121 Y13.809
X54.934 Y14.536
X54.888 Y15.284
X55.015 Y16.023
X55.112 Y16.18
X55.23 Y16.326
X55.379 Y16.438
X55.552 Y16.509
X55.738 Y16.536
X56.198 Y16.544
G2 X56.492 Y16.258 I-0.005 J-0.3
G1 X56.508 Y15.925
X56.629 Y13.425 F1200
X56.644 Y13.11 F550
G2 X56.36 Y12.796 I-0.3 J-0.015
G1 X55.947 Y12.789
X55.76 Y12.795
X55.408 Y12.926
X54.848 Y13.425
X54.566 Y14.12
X54.445 Y14.86
X54.476 Y15.609
X54.589 Y15.991
X54.691 Y16.204
X54.854 Y16.376
X55.063 Y16.487
X55.296 Y16.529
X55.738 Y16.536
G2 X56.032 Y16.255 I-0.005 J-0.3
G1 X56.053 Y15.917
X56.212 Y13.418 F1200
X56.231 Y13.108 F550
G2 X55.947 Y12.789 I-0.299 J-0.019
G1 X55.556 Y12.782
X55.181 Y12.795
X54.849 Y12.969
X54.341 Y13.52
X54.092 Y14.228
X53.997 Y14.972
X54.047 Y15.72
X54.178 Y16.072
X54.238 Y16.168
X54.355 Y16.313
X54.505 Y16.424
X54.677 Y16.495
X54.862 Y16.521
X55.296 Y16.529
G2 X55.589 Y16.252 I-0.005 J-0.3
G1 X55.617 Y15.91
X55.815 Y13.411 F1200
X55.84 Y13.106 F550
G2 X55.556 Y12.782 I-0.299 J-0.024
G1 X54.928 Y12.772
X54.741 Y12.778
X54.415 Y12.964
X53.884 Y13.494
X53.644 Y14.205
X53.547 Y14.948
X53.581 Y15.698
X53.719 Y16.043
X53.829 Y16.232
X53.99 Y16.381
X54.186 Y16.478
X54.402 Y16.514
X54.862 Y16.521
G2 X55.156 Y16.227 I-0.005 J-0.3
G1 X55.162 Y15.902
X55.207 Y13.401 F1200
X55.212 Y13.077 F550
G2 X54.928 Y12.772 I-0.3 J-0.005
G1 X54.509 Y12.765
X54.321 Y12.771
X53.987 Y12.941
X53.431 Y13.444
X53.197 Y14.157
X53.095 Y14.9
X53.112 Y15.649
X53.252 Y16.021
X53.361 Y16.215
X53.522 Y16.369
X53.721 Y16.469
X53.941 Y16.506
X54.402 Y16.514
G2 X54.697 Y16.223 I-0.005 J-0.3
G1 X54.707 Y15.894
X54.783 Y13.394 F1200
X54.793 Y13.074 F550
G2 X54.509 Y12.765 I-0.3 J-0.009
G1 X54.124 Y12.758
X53.749 Y12.771
X53.427 Y12.963
X52.943 Y13.536
X52.725 Y14.254
X52.638 Y14.998
X52.683 Y15.747
X52.83 Y16.092
X52.884 Y16.172
X53.002 Y16.306
X53.148 Y16.409
X53.314 Y16.474
X53.491 Y16.498
X53.941 Y16.506
G2 X54.235 Y16.222 I-0.005 J-0.3
G1 X54.253 Y15.887
X54.391 Y13.387 F1200
X54.408 Y13.074 F550
G2 X54.124 Y12.758 I-0.3 J-0.016
G1 X53.535 Y12.748
X53.347 Y12.755
X53.027 Y12.949
X52.497 Y13.48
X52.278 Y14.197
X52.184 Y14.941
X52.21 Y15.691
X52.348 Y16.026
X52.459 Y16.213
X52.619 Y16.36
X52.814 Y16.455
X53.029 Y16.49
X53.491 Y16.498
G2 X53.785 Y16.201 I-0.005 J-0.3
G1 X53.789 Y15.879
X53.816 Y13.378 F1200
X53.819 Y13.051 F550
G2 X53.535 Y12.748 I-0.3 J-0.003
G1 X53.144 Y12.742
X52.956 Y12.748
X52.62 Y12.914
X52.336 Y13.158
X51.941 Y13.796
X51.767 Y14.526
X51.725 Y15.275
X51.86 Y16.012
X51.947 Y16.145
X52.065 Y16.283
X52.213 Y16.39
X52.381 Y16.458
X52.562 Y16.483
X53.029 Y16.49
G2 X53.323 Y16.2 I-0.005 J-0.3
G1 X53.334 Y15.871
X53.417 Y13.371 F1200
X53.428 Y13.051 F550
G2 X53.144 Y12.742 I-0.3 J-0.01
G1 X52.731 Y12.735
X52.543 Y12.741
X52.201 Y12.895
X51.66 Y13.415
X51.392 Y14.115
X51.278 Y14.856
X51.317 Y15.605
X51.429 Y15.963
X51.497 Y16.087
X51.613 Y16.246
X51.767 Y16.368
X51.947 Y16.447
X52.141 Y16.476
X52.562 Y16.483
G2 X52.856 Y16.198 I-0.005 J-0.3
G1 X52.873 Y15.863
X52.999 Y13.364 F1200
X53.015 Y13.05 F550
G2 X52.731 Y12.735 I-0.3 J-0.015
G1 X52.339 Y12.728
X51.965 Y12.741
X51.646 Y12.938
X51.159 Y13.509
X50.919 Y14.219
X50.831 Y14.964
X50.887 Y15.712
X51.033 Y16.057
X51.09 Y16.14
X51.207 Y16.275
X51.354 Y16.378
X51.52 Y16.444
X51.697 Y16.468
X52.141 Y16.476
G2 X52.435 Y16.193 I-0.005 J-0.3
G1 X52.456 Y15.857
X52.605 Y13.357 F1200
X52.623 Y13.046 F550
G2 X52.339 Y12.728 I-0.299 J-0.018
G1 X51.711 Y12.718
X51.524 Y12.724
X51.212 Y12.932
X50.706 Y13.486
X50.472 Y14.198
X50.381 Y14.942
X50.42 Y15.691
X50.559 Y16.01
X50.671 Y16.191
X50.83 Y16.334
X51.022 Y16.426
X51.233 Y16.46
X51.697 Y16.468
G2 X51.992 Y16.169 I-0.005 J-0.3
G1 Y15.849
X51.995 Y13.347 F1200
X51.996 Y13.017 F550
G2 X51.711 Y12.718 I-0.3 J0
G1 X51.292 Y12.71
X51.105 Y12.716
X50.784 Y12.91
X50.256 Y13.443
X50.025 Y14.157
X49.928 Y14.901
X49.951 Y15.65
X50.09 Y15.987
X50.201 Y16.174
X50.36 Y16.321
X50.556 Y16.416
X50.77 Y16.452
X51.233 Y16.46
G2 X51.528 Y16.165 I-0.005 J-0.3
G1 X51.533 Y15.841
X51.571 Y13.34 F1200
X51.576 Y13.015 F550
G2 X51.292 Y12.71 I-0.3 J-0.005
G1 X50.907 Y12.703
X50.72 Y12.709
X50.383 Y12.874
X50.098 Y13.117
X49.695 Y13.75
X49.514 Y14.478
X49.468 Y15.226
X49.6 Y15.965
X49.688 Y16.101
X49.805 Y16.241
X49.953 Y16.348
X50.122 Y16.417
X50.303 Y16.443
X50.77 Y16.452
G2 X51.065 Y16.164 I-0.005 J-0.3
G1 X51.078 Y15.833
X51.178 Y13.333 F1200
X51.191 Y13.015 F550
G2 X50.907 Y12.703 I-0.3 J-0.012
G1 X50.488 Y12.695
X50.301 Y12.701
X49.96 Y12.858
X49.414 Y13.372
X49.141 Y14.07
X49.023 Y14.811
X49.059 Y15.56
X49.17 Y15.918
X49.239 Y16.044
X49.354 Y16.202
X49.507 Y16.325
X49.686 Y16.404
X49.879 Y16.434
X50.303 Y16.443
G2 X50.598 Y16.159 I-0.005 J-0.3
G1 X50.616 Y15.824
X50.754 Y13.325 F1200
X50.771 Y13.011 F550
G2 X50.488 Y12.695 I-0.3 J-0.017
G1 X50.103 Y12.688
X49.728 Y12.699
X49.407 Y12.893
X48.914 Y13.458
X48.669 Y14.166
X48.576 Y14.911
X48.627 Y15.659
X48.771 Y16.005
X48.829 Y16.091
X48.946 Y16.227
X49.092 Y16.332
X49.258 Y16.398
X49.435 Y16.424
X49.879 Y16.434
G2 X50.175 Y16.154 I-0.004 J-0.3
G1 X50.198 Y15.817
X50.365 Y13.317 F1200
X50.386 Y13.007 F550
G2 X50.103 Y12.688 I-0.299 J-0.02
G1 X49.514 Y12.675
X49.327 Y12.68
X49.004 Y12.871
X48.469 Y13.396
X48.227 Y14.106
X48.124 Y14.849
X48.153 Y15.599
X48.292 Y15.944
X48.401 Y16.131
X48.56 Y16.28
X48.755 Y16.376
X48.969 Y16.413
X49.435 Y16.424
G2 X49.732 Y16.13 I-0.004 J-0.3
G1 X49.738 Y15.806
X49.79 Y13.306 F1200
X49.797 Y12.98 F550
G2 X49.514 Y12.675 I-0.3 J-0.006
G1 X49.123 Y12.666
X48.935 Y12.671
X48.597 Y12.832
X48.31 Y13.074
X47.9 Y13.701
X47.714 Y14.428
X47.668 Y15.177
X47.799 Y15.915
X47.889 Y16.055
X48.006 Y16.197
X48.153 Y16.306
X48.322 Y16.375
X48.504 Y16.402
X48.969 Y16.413
G2 X49.266 Y16.126 I-0.003 J-0.3
G1 X49.28 Y15.796
X49.391 Y13.297 F1200
X49.405 Y12.978 F550
G2 X49.123 Y12.666 I-0.3 J-0.013
G1 X48.71 Y12.656
X48.523 Y12.661
X48.179 Y12.81
X47.626 Y13.317
X47.345 Y14.012
X47.225 Y14.753
X47.258 Y15.502
X47.367 Y15.861
X47.438 Y15.995
X47.553 Y16.155
X47.706 Y16.281
X47.886 Y16.361
X48.082 Y16.392
X48.504 Y16.402
G2 X48.8 Y16.12 I-0.003 J-0.3
G1 X48.82 Y15.785
X48.973 Y13.287 F1200
X48.992 Y12.974 F550
G2 X48.71 Y12.656 I-0.299 J-0.018
G1 X48.319 Y12.647
X47.944 Y12.656
X47.62 Y12.845
X47.121 Y13.406
X46.872 Y14.113
X46.777 Y14.857
X46.827 Y15.605
X46.955 Y15.916
X47.065 Y16.102
X47.223 Y16.249
X47.417 Y16.345
X47.63 Y16.381
X48.082 Y16.392
G2 X48.378 Y16.113 I-0.003 J-0.3
G1 X48.402 Y15.775
X48.578 Y13.277 F1200
X48.6 Y12.967 F550
G2 X48.319 Y12.647 I-0.299 J-0.021
G1 X47.691 Y12.632
X47.503 Y12.637
X47.185 Y12.835
X46.668 Y13.378
X46.425 Y14.088
X46.327 Y14.831
X46.36 Y15.581
X46.493 Y15.905
X46.603 Y16.091
X46.762 Y16.238
X46.956 Y16.334
X47.169 Y16.37
X47.63 Y16.381
G2 X47.927 Y16.086 I-0.003 J-0.3
G1 X47.932 Y15.764
X47.968 Y13.263 F1200
X47.973 Y12.935 F550
G2 X47.691 Y12.632 I-0.3 J-0.004
G1 X47.271 Y12.622
X47.084 Y12.627
X46.757 Y12.811
X46.217 Y13.331
X45.979 Y14.042
X45.875 Y14.785
X45.892 Y15.534
X46.027 Y15.882
X46.136 Y16.073
X46.295 Y16.224
X46.492 Y16.322
X46.708 Y16.359
X47.169 Y16.37
G2 X47.466 Y16.079 I-0.003 J-0.3
G1 X47.475 Y15.753
X47.545 Y13.253 F1200
X47.554 Y12.929 F550
G2 X47.271 Y12.622 I-0.3 J-0.008
G1 X46.886 Y12.612
X46.699 Y12.617
X46.357 Y12.77
X46.065 Y13.005
X45.653 Y13.632
X45.465 Y14.359
X45.412 Y15.107
X45.535 Y15.846
X45.627 Y15.994
X45.744 Y16.139
X45.892 Y16.25
X46.063 Y16.321
X46.246 Y16.348
X46.708 Y16.359
G2 X47.004 Y16.075 I-0.003 J-0.3
G1 X47.022 Y15.742
X47.152 Y13.243 F1200
X47.168 Y12.928 F550
G2 X46.886 Y12.612 I-0.3 J-0.016
G1 X46.467 Y12.603
X46.28 Y12.607
X45.932 Y12.749
X45.377 Y13.252
X45.096 Y13.948
X44.971 Y14.687
X44.999 Y15.437
X45.105 Y15.796
X45.178 Y15.936
X45.293 Y16.098
X45.447 Y16.225
X45.628 Y16.307
X45.825 Y16.338
X46.246 Y16.348
G2 X46.542 Y16.068 I-0.003 J-0.3
G1 X46.564 Y15.732
X46.728 Y13.233 F1200
X46.749 Y12.922 F550
G2 X46.467 Y12.603 I-0.299 J-0.02
G1 X46.082 Y12.593
X45.707 Y12.603
X45.379 Y12.784
X44.873 Y13.338
X44.622 Y14.045
X44.523 Y14.788
X44.567 Y15.537
X44.696 Y15.857
X44.806 Y16.045
X44.965 Y16.194
X45.159 Y16.291
X45.374 Y16.328
X45.825 Y16.338
G2 X46.121 Y16.061 I-0.003 J-0.3
G1 X46.147 Y15.722
X46.34 Y13.224 F1200
X46.364 Y12.916 F550
G2 X46.082 Y12.593 I-0.299 J-0.023
G1 X45.493 Y12.579
X45.306 Y12.584
X44.976 Y12.763
X44.427 Y13.274
X44.18 Y13.982
X44.072 Y14.724
X44.094 Y15.474
X44.23 Y15.833
X44.338 Y16.026
X44.498 Y16.179
X44.695 Y16.279
X44.913 Y16.317
X45.374 Y16.328
G2 X45.671 Y16.038 I-0.003 J-0.3
G1 X45.681 Y15.71
X45.765 Y13.21 F1200
X45.776 Y12.889 F550
G2 X45.493 Y12.579 I-0.3 J-0.01
G1 X45.102 Y12.57
X44.915 Y12.575
X44.57 Y12.722
X44.275 Y12.954
X43.856 Y13.576
X43.664 Y14.301
X43.612 Y15.049
X43.735 Y15.789
X43.83 Y15.946
X43.947 Y16.092
X44.096 Y16.205
X44.268 Y16.278
X44.453 Y16.306
X44.913 Y16.317
G2 X45.209 Y16.033 I-0.003 J-0.3
G1 X45.228 Y15.7
X45.367 Y13.201 F1200
X45.384 Y12.886 F550
G2 X45.102 Y12.57 I-0.3 J-0.017
G1 X44.689 Y12.56
X44.502 Y12.565
X44.15 Y12.695
X43.587 Y13.19
X43.299 Y13.883
X43.173 Y14.622
X43.199 Y15.371
X43.309 Y15.753
X43.409 Y15.967
X43.571 Y16.139
X43.779 Y16.252
X44.011 Y16.295
X44.453 Y16.306
G2 X44.749 Y16.027 I-0.003 J-0.3
G1 X44.773 Y15.689
X44.949 Y13.191 F1200
X44.971 Y12.881 F550
G2 X44.689 Y12.56 I-0.299 J-0.021
G1 X44.298 Y12.551
X43.923 Y12.561
X43.59 Y12.733
X43.078 Y13.282
X42.824 Y13.987
X42.724 Y14.73
X42.768 Y15.479
X42.897 Y15.831
X42.956 Y15.928
X43.073 Y16.073
X43.221 Y16.185
X43.393 Y16.257
X43.577 Y16.285
X44.011 Y16.295
G2 X44.307 Y16.021 I-0.003 J-0.3
G1 X44.337 Y15.679
X44.553 Y13.181 F1200
X44.579 Y12.876 F550
G2 X44.298 Y12.551 I-0.299 J-0.026
G1 X43.67 Y12.536
X43.482 Y12.541
X43.156 Y12.725
X42.622 Y13.252
X42.377 Y13.961
X42.274 Y14.704
X42.302 Y15.453
X42.438 Y15.799
X42.547 Y15.989
X42.707 Y16.139
X42.902 Y16.237
X43.118 Y16.274
X43.577 Y16.285
G2 X43.874 Y15.992 I-0.003 J-0.3
G1 X43.882 Y15.667
X43.944 Y13.167 F1200
X43.952 Y12.843 F550
G2 X43.67 Y12.536 I-0.3 J-0.007
G1 X43.251 Y12.526
X43.063 Y12.531
X42.728 Y12.699
X42.169 Y13.199
X41.93 Y13.91
X41.822 Y14.652
X41.834 Y15.402
X41.971 Y15.774
X42.079 Y15.969
X42.239 Y16.124
X42.437 Y16.225
X42.657 Y16.263
X43.118 Y16.274
G2 X43.415 Y15.985 I-0.003 J-0.3
G1 X43.427 Y15.657
X43.521 Y13.157 F1200
X43.533 Y12.837 F550
G2 X43.251 Y12.526 I-0.3 J-0.011
G1 X42.866 Y12.517
X42.491 Y12.527
X42.168 Y12.718
X41.68 Y13.287
X41.457 Y14.003
X41.365 Y14.748
X41.404 Y15.497
X41.549 Y15.842
X41.603 Y15.922
X41.719 Y16.057
X41.865 Y16.16
X42.03 Y16.227
X42.207 Y16.252
X42.657 Y16.263
G2 X42.953 Y15.981 I-0.003 J-0.3
G1 X42.974 Y15.646
X43.128 Y13.147 F1200
X43.148 Y12.835 F550
G2 X42.866 Y12.517 I-0.299 J-0.019
G1 X42.277 Y12.503
X42.089 Y12.508
X41.768 Y12.7
X41.235 Y13.229
X41.011 Y13.944
X40.912 Y14.688
X40.932 Y15.437
X41.067 Y15.772
X41.177 Y15.96
X41.336 Y16.108
X41.53 Y16.205
X41.745 Y16.241
X42.207 Y16.252
G2 X42.503 Y15.958 I-0.003 J-0.3
G1 X42.509 Y15.635
X42.553 Y13.134 F1200
X42.559 Y12.808 F550
G2 X42.277 Y12.503 I-0.3 J-0.005
G1 X41.886 Y12.494
X41.698 Y12.498
X41.361 Y12.662
X41.075 Y12.906
X40.677 Y13.541
X40.497 Y14.269
X40.45 Y15.018
X40.58 Y15.756
X40.666 Y15.888
X40.783 Y16.028
X40.929 Y16.135
X41.098 Y16.204
X41.277 Y16.23
X41.745 Y16.241
G2 X42.041 Y15.953 I-0.003 J-0.3
G1 X42.054 Y15.624
X42.155 Y13.124 F1200
X42.168 Y12.805 F550
G2 X41.886 Y12.494 I-0.3 J-0.012
G1 X41.473 Y12.484
X41.285 Y12.489
X40.943 Y12.641
X40.398 Y13.157
X40.125 Y13.856
X40.006 Y14.596
X40.04 Y15.346
X40.149 Y15.704
X40.216 Y15.828
X40.331 Y15.987
X40.484 Y16.11
X40.663 Y16.19
X40.857 Y16.22
X41.277 Y16.23
G2 X41.574 Y15.947 I-0.003 J-0.3
G1 X41.593 Y15.613
X41.736 Y13.114 F1200
X41.755 Y12.8 F550
G2 X41.473 Y12.484 I-0.3 J-0.017
G1 X41.081 Y12.474
X40.707 Y12.484
X40.387 Y12.68
X39.896 Y13.248
X39.652 Y13.957
X39.558 Y14.701
X39.609 Y15.449
X39.753 Y15.795
X39.808 Y15.878
X39.925 Y16.013
X40.07 Y16.117
X40.236 Y16.184
X40.413 Y16.21
X40.857 Y16.22
G2 X41.153 Y15.94 I-0.003 J-0.3
G1 X41.176 Y15.603
X41.342 Y13.105 F1200
X41.363 Y12.794 F550
G2 X41.081 Y12.474 I-0.299 J-0.02
G1 X40.591 Y12.463
X40.403 Y12.468
X40.063 Y12.624
X39.772 Y12.862
X39.351 Y13.482
X39.157 Y14.207
X39.113 Y14.956
X39.233 Y15.696
X39.325 Y15.845
X39.442 Y15.989
X39.59 Y16.1
X39.761 Y16.171
X39.944 Y16.198
X40.413 Y16.21
G2 X40.71 Y15.925 I-0.003 J-0.3
G1 X40.727 Y15.593
X40.856 Y13.094 F1200
X40.873 Y12.778 F550
G2 X40.591 Y12.463 I-0.3 J-0.016
G1 X40.034 Y12.449
X39.847 Y12.454
X39.232 Y12.884
X38.877 Y13.545
X38.702 Y14.274
X38.671 Y15.023
X38.784 Y15.765
X38.867 Y15.878
X39.028 Y16.04
X39.23 Y16.147
X39.455 Y16.187
X39.944 Y16.198
G2 X40.241 Y15.906 I-0.003 J-0.3
G1 X40.249 Y15.581
X40.309 Y13.081 F1200
X40.316 Y12.756 F550
G2 X40.034 Y12.449 I-0.3 J-0.007
G1 X39.649 Y12.44
X39.462 Y12.445
X39.118 Y12.596
X38.599 Y13.137
X38.332 Y13.838
X38.222 Y14.58
X38.248 Y15.329
X38.351 Y15.69
X38.408 Y15.792
X38.524 Y15.948
X38.676 Y16.069
X38.854 Y16.147
X39.046 Y16.177
X39.455 Y16.187
G2 X39.751 Y15.904 I-0.003 J-0.3
G1 X39.77 Y15.57
X39.913 Y13.071 F1200
X39.931 Y12.757 F550
G2 X39.649 Y12.44 I-0.3 J-0.017
G1 X39.23 Y12.43
X39.042 Y12.435
X38.703 Y12.595
X38.142 Y13.092
X37.886 Y13.797
X37.772 Y14.539
X37.782 Y15.289
X37.905 Y15.655
X38.01 Y15.858
X38.171 Y16.02
X38.374 Y16.126
X38.598 Y16.166
X39.046 Y16.177
G2 X39.342 Y15.893 I-0.003 J-0.3
G1 X39.36 Y15.56
X39.495 Y13.061 F1200
X39.512 Y12.746 F550
G2 X39.23 Y12.43 I-0.3 J-0.016
G1 X38.845 Y12.421
X38.47 Y12.431
X38.144 Y12.616
X37.648 Y13.179
X37.413 Y13.891
X37.316 Y14.635
X37.353 Y15.384
X37.491 Y15.732
X37.546 Y15.816
X37.662 Y15.955
X37.809 Y16.061
X37.977 Y16.13
X38.156 Y16.156
X38.598 Y16.166
G2 X38.894 Y15.888 I-0.003 J-0.3
G1 X38.919 Y15.55
X39.104 Y13.052 F1200
X39.127 Y12.743 F550
G2 X38.845 Y12.421 I-0.299 J-0.022
G1 X38.256 Y12.407
X38.069 Y12.412
X37.743 Y12.598
X37.202 Y13.118
X36.968 Y13.83
X36.864 Y14.573
X36.881 Y15.323
X37.015 Y15.667
X37.124 Y15.858
X37.283 Y16.009
X37.48 Y16.108
X37.697 Y16.145
X38.156 Y16.156
G2 X38.453 Y15.864 I-0.003 J-0.3
G1 X38.461 Y15.538
X38.529 Y13.038 F1200
X38.538 Y12.715 F550
G2 X38.256 Y12.407 I-0.3 J-0.008
G1 X37.865 Y12.398
X37.677 Y12.403
X37.336 Y12.558
X37.046 Y12.796
X36.639 Y13.426
X36.453 Y14.153
X36.401 Y14.901
X36.526 Y15.64
X36.616 Y15.784
X36.732 Y15.927
X36.88 Y16.037
X37.051 Y16.107
X37.233 Y16.134
X37.697 Y16.145
G2 X37.993 Y15.86 I-0.004 J-0.3
G1 X38.009 Y15.528
X38.131 Y13.029 F1200
X38.147 Y12.712 F550
G2 X37.865 Y12.398 I-0.3 J-0.015
G1 X37.452 Y12.388
X37.264 Y12.394
X36.917 Y12.535
X36.364 Y13.041
X36.084 Y13.737
X35.96 Y14.477
X35.988 Y15.226
X36.094 Y15.586
X36.167 Y15.724
X36.282 Y15.887
X36.437 Y16.014
X36.619 Y16.095
X36.817 Y16.126
X37.233 Y16.134
G2 X37.529 Y15.854 I-0.004 J-0.3
G1 X37.551 Y15.517
X37.714 Y13.019 F1200
X37.734 Y12.707 F550
G2 X37.452 Y12.388 I-0.299 J-0.019
G1 X37.061 Y12.38
X36.686 Y12.391
X36.359 Y12.576
X35.858 Y13.134
X35.609 Y13.841
X35.511 Y14.585
X35.558 Y15.333
X35.686 Y15.65
X35.797 Y15.838
X35.957 Y15.986
X36.152 Y16.082
X36.367 Y16.117
X36.817 Y16.126
G2 X37.111 Y15.848 I-0.005 J-0.3
G1 X37.136 Y15.508
X37.32 Y13.01 F1200
X37.343 Y12.701 F550
G2 X37.061 Y12.38 I-0.299 J-0.022
G1 X36.433 Y12.368
X36.245 Y12.374
X35.925 Y12.569
X35.404 Y13.108
X35.161 Y13.818
X35.061 Y14.561
X35.092 Y15.31
X35.227 Y15.642
X35.337 Y15.83
X35.498 Y15.979
X35.694 Y16.075
X35.91 Y16.11
X36.367 Y16.117
G2 X36.662 Y15.823 I-0.005 J-0.3
G1 X36.668 Y15.498
X36.711 Y12.998 F1200
X36.716 Y12.673 F550
G2 X36.433 Y12.368 I-0.3 J-0.005
G1 X36.013 Y12.361
X35.826 Y12.368
X35.496 Y12.547
X34.951 Y13.062
X34.714 Y13.773
X34.609 Y14.516
X34.624 Y15.266
X34.762 Y15.623
X34.872 Y15.816
X35.034 Y15.969
X35.233 Y16.067
X35.452 Y16.103
X35.91 Y16.11
G2 X36.204 Y15.819 I-0.006 J-0.3
G1 X36.214 Y15.49
X36.289 Y12.99 F1200
X36.298 Y12.67 F550
G2 X36.013 Y12.361 I-0.3 J-0.009
G1 X35.628 Y12.355
X35.441 Y12.362
X35.096 Y12.508
X34.801 Y12.74
X34.387 Y13.365
X34.199 Y14.092
X34.145 Y14.84
X34.267 Y15.58
X34.365 Y15.74
X34.484 Y15.887
X34.634 Y16
X34.809 Y16.071
X34.996 Y16.097
X35.452 Y16.103
G2 X35.745 Y15.819 I-0.007 J-0.3
G1 X35.763 Y15.483
X35.896 Y12.984 F1200
X35.913 Y12.671 F550
G2 X35.628 Y12.355 I-0.3 J-0.016
G1 X35.209 Y12.35
X35.022 Y12.357
X34.67 Y12.487
X34.111 Y12.987
X33.83 Y13.682
X33.705 Y14.422
X33.732 Y15.171
X33.845 Y15.553
X33.947 Y15.768
X34.111 Y15.94
X34.321 Y16.052
X34.555 Y16.092
X34.996 Y16.097
G2 X35.288 Y15.817 I-0.007 J-0.3
G1 X35.31 Y15.477
X35.474 Y12.977 F1200
X35.494 Y12.669 F550
G2 X35.209 Y12.35 I-0.299 J-0.02
G1 X34.648 Y12.343
X34.461 Y12.35
X34.127 Y12.521
X33.611 Y13.065
X33.358 Y13.771
X33.256 Y14.514
X33.298 Y15.263
X33.425 Y15.615
X33.491 Y15.725
X33.609 Y15.874
X33.761 Y15.988
X33.936 Y16.06
X34.124 Y16.087
X34.555 Y16.092
G2 X34.848 Y15.8 I-0.007 J-0.3
G1 X34.857 Y15.471
X34.925 Y12.971 F1200
X34.934 Y12.651 F550
G2 X34.648 Y12.343 I-0.3 J-0.008
G1 X34.235 Y12.338
X34.048 Y12.345
X33.712 Y12.512
X33.156 Y13.016
X32.912 Y13.725
X32.806 Y14.467
X32.828 Y15.217
X32.969 Y15.594
X33.079 Y15.79
X33.241 Y15.945
X33.442 Y16.045
X33.663 Y16.081
X34.124 Y16.087
G2 X34.417 Y15.797 I-0.007 J-0.3
G1 X34.428 Y15.466
X34.51 Y12.966 F1200
X34.521 Y12.647 F550
G2 X34.235 Y12.338 I-0.3 J-0.01
G1 X33.844 Y12.333
X33.469 Y12.347
X33.148 Y12.54
X32.663 Y13.113
X32.439 Y13.829
X32.352 Y14.573
X32.402 Y15.322
X32.549 Y15.667
X32.604 Y15.749
X32.723 Y15.884
X32.87 Y15.987
X33.037 Y16.052
X33.215 Y16.076
X33.663 Y16.081
G2 X33.956 Y15.798 I-0.007 J-0.3
G1 X33.974 Y15.461
X34.112 Y12.961 F1200
X34.129 Y12.649 F550
G2 X33.844 Y12.333 I-0.3 J-0.017
G1 X33.216 Y12.325
X33.029 Y12.333
X32.715 Y12.539
X32.21 Y13.093
X31.988 Y13.81
X31.9 Y14.555
X31.936 Y15.304
X32.076 Y15.621
X32.189 Y15.803
X32.348 Y15.946
X32.542 Y16.037
X32.753 Y16.07
X33.215 Y16.076
G2 X33.508 Y15.775 I-0.007 J-0.3
G1 X33.507 Y15.455
X33.502 Y12.953 F1200
Y12.625 F550
G2 X33.216 Y12.325 I-0.3 J0.001
G1 X32.797 Y12.32
X32.609 Y12.328
X32.288 Y12.52
X31.76 Y13.053
X31.54 Y13.77
X31.446 Y14.514
X31.468 Y15.264
X31.608 Y15.601
X31.719 Y15.788
X31.88 Y15.935
X32.076 Y16.03
X32.292 Y16.065
X32.753 Y16.07
G2 X33.047 Y15.774 I-0.007 J-0.3
G1 X33.05 Y15.449
X33.079 Y12.948 F1200
X33.082 Y12.623 F550
G2 X32.797 Y12.32 I-0.3 J-0.003
G1 X32.412 Y12.316
X32.224 Y12.323
X31.887 Y12.486
X31.601 Y12.729
X31.205 Y13.365
X31.03 Y14.095
X30.985 Y14.843
X31.118 Y15.581
X31.208 Y15.719
X31.326 Y15.859
X31.475 Y15.966
X31.645 Y16.034
X31.827 Y16.059
X32.292 Y16.065
G2 X32.585 Y15.775 I-0.007 J-0.3
G1 X32.597 Y15.444
X32.686 Y12.943 F1200
X32.697 Y12.626 F550
G2 X32.412 Y12.316 I-0.3 J-0.011
G1 X31.992 Y12.311
X31.805 Y12.318
X31.463 Y12.471
X30.921 Y12.989
X30.653 Y13.69
X30.538 Y14.431
X30.577 Y15.18
X30.689 Y15.538
X30.759 Y15.666
X30.876 Y15.824
X31.031 Y15.947
X31.212 Y16.026
X31.407 Y16.054
X31.827 Y16.059
G2 X32.12 Y15.774 I-0.007 J-0.3
G1 X32.137 Y15.438
X32.262 Y12.938 F1200
X32.278 Y12.625 F550
G2 X31.992 Y12.311 I-0.3 J-0.015
G1 X31.608 Y12.306
X31.233 Y12.32
X30.912 Y12.514
X30.421 Y13.08
X30.18 Y13.791
X30.091 Y14.536
X30.146 Y15.284
X30.292 Y15.629
X30.352 Y15.719
X30.471 Y15.855
X30.618 Y15.959
X30.786 Y16.025
X30.965 Y16.048
X31.407 Y16.054
G2 X31.7 Y15.772 I-0.007 J-0.3
G1 X31.72 Y15.434
X31.874 Y12.933 F1200
X31.893 Y12.624 F550
G2 X31.608 Y12.306 I-0.299 J-0.018
G1 X31.019 Y12.299
X30.831 Y12.306
X30.508 Y12.497
X29.974 Y13.023
X29.737 Y13.735
X29.64 Y14.479
X29.672 Y15.228
X29.815 Y15.577
X29.926 Y15.765
X30.087 Y15.913
X30.284 Y16.008
X30.5 Y16.043
X30.965 Y16.048
G2 X31.258 Y15.753 I-0.007 J-0.3
G1 X31.263 Y15.428
X31.3 Y12.927 F1200
X31.304 Y12.603 F550
G2 X31.019 Y12.299 I-0.3 J-0.004
G1 X30.627 Y12.294
X30.44 Y12.301
X30.101 Y12.462
X29.815 Y12.704
X29.408 Y13.334
X29.226 Y14.061
X29.184 Y14.81
X29.321 Y15.548
X29.414 Y15.693
X29.532 Y15.835
X29.682 Y15.943
X29.853 Y16.012
X30.036 Y16.037
X30.5 Y16.043
G2 X30.793 Y15.754 I-0.007 J-0.3
G1 X30.805 Y15.422
X30.901 Y12.922 F1200
X30.913 Y12.605 F550
G2 X30.627 Y12.294 I-0.3 J-0.011
G1 X30.214 Y12.289
X30.027 Y12.296
X29.682 Y12.443
X29.131 Y12.952
X28.855 Y13.649
X28.739 Y14.39
X28.777 Y15.139
X28.888 Y15.497
X28.963 Y15.637
X29.079 Y15.798
X29.234 Y15.923
X29.417 Y16.003
X29.614 Y16.032
X30.036 Y16.037
G2 X30.329 Y15.754 I-0.007 J-0.3
G1 X30.347 Y15.417
X30.483 Y12.917 F1200
X30.5 Y12.605 F550
G2 X30.214 Y12.289 I-0.3 J-0.016
G1 X29.823 Y12.284
X29.449 Y12.299
X29.123 Y12.485
X28.626 Y13.047
X28.381 Y13.756
X28.292 Y14.5
X28.347 Y15.248
X28.48 Y15.566
X28.592 Y15.752
X28.752 Y15.898
X28.948 Y15.993
X29.163 Y16.027
X29.614 Y16.032
G2 X29.907 Y15.751 I-0.007 J-0.3
G1 X29.929 Y15.412
X30.089 Y12.912 F1200
X30.109 Y12.603 F550
G2 X29.823 Y12.284 I-0.299 J-0.019
G1 X29.195 Y12.277
X29.008 Y12.284
X28.689 Y12.481
X28.171 Y13.023
X27.934 Y13.735
X27.842 Y14.479
X27.881 Y15.228
X28.018 Y15.559
X28.13 Y15.745
X28.29 Y15.892
X28.487 Y15.987
X28.702 Y16.021
X29.163 Y16.027
G2 X29.456 Y15.729 I-0.007 J-0.3
G1 X29.458 Y15.406
X29.478 Y12.905 F1200
X29.481 Y12.579 F550
G2 X29.195 Y12.277 I-0.3 J-0.002
G1 X28.776 Y12.272
X28.588 Y12.279
X28.26 Y12.46
X27.718 Y12.979
X27.487 Y13.692
X27.389 Y14.436
X27.412 Y15.186
X27.552 Y15.541
X27.662 Y15.732
X27.824 Y15.883
X28.022 Y15.98
X28.241 Y16.015
X28.702 Y16.021
G2 X28.995 Y15.727 I-0.007 J-0.3
G1 X29.002 Y15.4
X29.055 Y12.9 F1200
X29.062 Y12.578 F550
G2 X28.776 Y12.272 I-0.3 J-0.006
G1 X28.391 Y12.267
X28.204 Y12.274
X27.859 Y12.423
X27.566 Y12.657
X27.158 Y13.286
X26.976 Y14.014
X26.929 Y14.762
X27.057 Y15.501
X27.154 Y15.657
X27.272 Y15.802
X27.422 Y15.914
X27.596 Y15.984
X27.781 Y16.01
X28.241 Y16.015
G2 X28.533 Y15.729 I-0.007 J-0.3
G1 X28.549 Y15.395
X28.662 Y12.895 F1200
X28.677 Y12.58 F550
G2 X28.391 Y12.267 I-0.3 J-0.014
G1 X27.972 Y12.262
X27.784 Y12.269
X27.434 Y12.403
X26.879 Y12.908
X26.604 Y13.606
X26.485 Y14.346
X26.518 Y15.095
X26.627 Y15.454
X26.704 Y15.603
X26.821 Y15.767
X26.976 Y15.894
X27.16 Y15.975
X27.359 Y16.005
X27.781 Y16.01
G2 X28.074 Y15.727 I-0.007 J-0.3
G1 X28.093 Y15.39
X28.239 Y12.889 F1200
X28.257 Y12.579 F550
G2 X27.972 Y12.262 I-0.299 J-0.017
G1 X27.587 Y12.257
X27.212 Y12.271
X26.881 Y12.448
X26.375 Y13.002
X26.13 Y13.71
X26.037 Y14.454
X26.088 Y15.203
X26.222 Y15.532
X26.333 Y15.721
X26.494 Y15.869
X26.691 Y15.964
X26.907 Y15.999
X27.359 Y16.005
G2 X27.652 Y15.726 I-0.007 J-0.3
G1 X27.676 Y15.385
X27.851 Y12.884 F1200
X27.872 Y12.578 F550
G2 X27.587 Y12.257 I-0.299 J-0.021
G1 X26.998 Y12.25
X26.811 Y12.257
X26.479 Y12.432
X25.927 Y12.94
X25.687 Y13.651
X25.586 Y14.394
X25.614 Y15.143
X25.755 Y15.512
X25.865 Y15.705
X26.026 Y15.858
X26.226 Y15.957
X26.445 Y15.993
X26.907 Y15.999
G2 X27.2 Y15.707 I-0.007 J-0.3
G1 X27.209 Y15.378
X27.275 Y12.878 F1200
X27.284 Y12.558 F550
G2 X26.998 Y12.25 I-0.3 J-0.008
G1 X26.607 Y12.245
X26.232 Y12.259
X25.914 Y12.458
X25.436 Y13.036
X25.215 Y13.753
X25.133 Y14.498
X25.186 Y15.246
X25.336 Y15.59
X25.389 Y15.666
X25.507 Y15.799
X25.653 Y15.9
X25.818 Y15.964
X25.994 Y15.987
X26.445 Y15.993
G2 X26.738 Y15.708 I-0.006 J-0.3
G1 X26.755 Y15.373
X26.877 Y12.873 F1200
X26.892 Y12.559 F550
G2 X26.607 Y12.245 I-0.3 J-0.015
G1 X25.979 Y12.237
X25.791 Y12.244
X25.482 Y12.456
X24.984 Y13.017
X24.765 Y13.734
X24.681 Y14.479
X24.72 Y15.228
X24.858 Y15.537
X24.971 Y15.716
X25.13 Y15.857
X25.322 Y15.948
X25.532 Y15.981
X25.994 Y15.987
G2 X26.288 Y15.685 I-0.006 J-0.3
G1 X26.285 Y15.367
X26.267 Y12.865 F1200
X26.264 Y12.534 F550
G2 X25.979 Y12.237 I-0.3 J0.002
G1 X25.559 Y12.231
X25.372 Y12.237
X25.055 Y12.437
X24.535 Y12.978
X24.317 Y13.695
X24.226 Y14.44
X24.252 Y15.19
X24.389 Y15.516
X24.501 Y15.701
X24.661 Y15.846
X24.856 Y15.94
X25.069 Y15.974
X25.532 Y15.981
G2 X25.826 Y15.683 I-0.006 J-0.3
G1 X25.827 Y15.361
X25.842 Y12.859 F1200
X25.844 Y12.532 F550
G2 X25.559 Y12.231 I-0.3 J-0.002
G1 X25.174 Y12.225
X24.987 Y12.232
X24.653 Y12.403
X24.372 Y12.651
X23.98 Y13.291
X23.808 Y14.021
X23.766 Y14.769
X23.903 Y15.507
X23.988 Y15.633
X24.106 Y15.77
X24.253 Y15.875
X24.42 Y15.942
X24.599 Y15.966
X25.069 Y15.974
G2 X25.363 Y15.683 I-0.006 J-0.3
G1 X25.373 Y15.354
X25.45 Y12.854 F1200
X25.459 Y12.534 F550
G2 X25.174 Y12.225 I-0.3 J-0.009
G1 X24.755 Y12.218
X24.568 Y12.225
X24.231 Y12.39
X23.695 Y12.914
X23.43 Y13.616
X23.319 Y14.358
X23.36 Y15.107
X23.474 Y15.464
X23.539 Y15.579
X23.655 Y15.734
X23.808 Y15.854
X23.987 Y15.931
X24.179 Y15.959
X24.599 Y15.966
G2 X24.893 Y15.68 I-0.006 J-0.3
G1 X24.909 Y15.347
X25.025 Y12.847 F1200
X25.039 Y12.532 F550
G2 X24.755 Y12.218 I-0.3 J-0.014
G1 X24.37 Y12.212
X24.183 Y12.218
X23.837 Y12.362
X23.542 Y12.595
X23.113 Y13.21
X22.914 Y13.933
X22.871 Y14.682
X22.984 Y15.423
X23.086 Y15.591
X23.203 Y15.739
X23.353 Y15.852
X23.528 Y15.925
X23.714 Y15.952
X24.179 Y15.959
G2 X24.473 Y15.677 I-0.005 J-0.3
G1 X24.492 Y15.34
X24.636 Y12.841 F1200
X24.654 Y12.529 F550
G2 X24.37 Y12.212 I-0.3 J-0.017
G1 X23.951 Y12.205
X23.764 Y12.211
X23.412 Y12.342
X22.842 Y12.83
X22.55 Y13.52
X22.428 Y14.26
X22.452 Y15.01
X22.564 Y15.4
X22.639 Y15.576
X22.756 Y15.726
X22.907 Y15.843
X23.083 Y15.917
X23.272 Y15.944
X23.714 Y15.952
G2 X24.008 Y15.673 I-0.005 J-0.3
G1 X24.032 Y15.333
X24.213 Y12.834 F1200
X24.235 Y12.526 F550
G2 X23.951 Y12.205 I-0.299 J-0.022
G1 X23.39 Y12.196
X23.203 Y12.202
X22.865 Y12.366
X22.34 Y12.901
X22.081 Y13.605
X21.978 Y14.348
X22.016 Y15.097
X22.141 Y15.451
X22.211 Y15.569
X22.329 Y15.72
X22.48 Y15.836
X22.656 Y15.91
X22.844 Y15.937
X23.272 Y15.944
G2 X23.567 Y15.655 I-0.005 J-0.3
G1 X23.578 Y15.325
X23.663 Y12.825 F1200
X23.674 Y12.506 F550
G2 X23.39 Y12.196 I-0.3 J-0.01
G1 X22.977 Y12.189
X22.79 Y12.195
X22.45 Y12.355
X21.885 Y12.848
X21.637 Y13.555
X21.528 Y14.297
X21.547 Y15.047
X21.688 Y15.436
X21.796 Y15.634
X21.958 Y15.79
X22.158 Y15.892
X22.38 Y15.929
X22.844 Y15.937
G2 X23.139 Y15.649 I-0.005 J-0.3
G1 X23.152 Y15.318
X23.249 Y12.818 F1200
X23.261 Y12.5 F550
G2 X22.977 Y12.189 I-0.3 J-0.012
G1 X22.586 Y12.182
X22.211 Y12.195
X21.884 Y12.378
X21.391 Y12.943
X21.163 Y13.658
X21.073 Y14.402
X21.12 Y15.151
X21.263 Y15.498
X21.321 Y15.586
X21.439 Y15.724
X21.586 Y15.83
X21.754 Y15.897
X21.933 Y15.922
X22.38 Y15.929
