(prop2part1)
(T1  D=3 CR=0 - ZMIN=-23.871 - flat end mill)
G90 G94
G17
G21
G28 G91 Z0
G90

(Adaptive1)
T1
S18000 M3
G54
G0 X-3.36 Y17.09
Z2.21
Z-9.39
G1 Z-9.69 F100
X-3.353 Y17.094 Z-9.757
X-3.334 Y17.105 Z-9.82
X-3.303 Y17.123 Z-9.877
X-3.262 Y17.147 Z-9.925
X-3.213 Y17.175 Z-9.96
X-3.158 Y17.207 Z-9.982
X-3.1 Y17.24 Z-9.99
G2 X-1.51 Y17.682 I1.657 J-2.882
G1 X-1.328 Y17.679
X-1.141 Y17.667
G2 X-0.901 Y14.572 I-5.546 J-1.987
G1 X-1.051 Y14.36
X-1.229 Y14.18
X-1.444 Y14.045
X-1.683 Y13.963
X-1.935 Y13.938
G2 X-2.214 Y14.294 I0.015 J0.3
G1 X-2.163 Y14.562
X-1.687 Y17.065 F1200
X-1.617 Y17.435 F100
G2 X-1.328 Y17.679 I0.295 J-0.056
G1 X-0.947 Y17.674
X-0.76 Y17.662
G2 X-0.463 Y14.38 I-3.347 J-1.958
G1 X-0.671 Y14.195
X-0.891 Y14.048
X-1.14 Y13.958
X-1.403 Y13.93
G2 X-1.686 Y14.272 I0.015 J0.3
G1 X-1.645 Y14.556
X-1.289 Y17.057 F1200
X-1.238 Y17.416 F100
G2 X-0.947 Y17.674 I0.297 J-0.042
G1 X-0.584 Y17.668
X-0.397 Y17.656
X0.073 Y17.072
X0.238 Y16.34
X0.299 Y15.593
X0.257 Y14.844
X0.154 Y14.598
X0.026 Y14.371
X-0.153 Y14.18
X-0.371 Y14.037
X-0.617 Y13.949
X-0.877 Y13.922
G2 X-1.161 Y14.249 I0.015 J0.3
G1 X-1.133 Y14.55
X-0.908 Y17.05 F1200
X-0.877 Y17.395 F100
G2 X-0.584 Y17.668 I0.299 J-0.027
G1 X-0.236 Y17.663
X-0.049 Y17.651
X0.253 Y17.429
X0.65 Y16.793
X0.811 Y16.06
X0.844 Y15.311
X0.711 Y14.573
X0.637 Y14.45
X0.459 Y14.225
X0.229 Y14.054
X-0.038 Y13.948
X-0.323 Y13.914
G2 X-0.608 Y14.221 I0.015 J0.3
G1 X-0.6 Y14.543
X-0.538 Y17.043 F1200
X-0.53 Y17.371 F100
G2 X-0.236 Y17.663 I0.3 J-0.007
G1 X0.145 Y17.658
X0.332 Y17.646
X0.645 Y17.439
X1.138 Y16.875
X1.331 Y16.15
X1.385 Y15.402
X1.295 Y14.657
X1.209 Y14.493
X1.073 Y14.293
X0.897 Y14.127
X0.69 Y14.004
X0.46 Y13.929
X0.22 Y13.906
X-0.323 Y13.914
G2 X-0.605 Y14.257 I0.015 J0.3
G1 X-0.564 Y14.54
X-0.199 Y17.041 F1200
X-0.146 Y17.401 F100
G2 X0.145 Y17.658 I0.297 J-0.043
G1 X0.508 Y17.653
X0.882 Y17.628
X1.195 Y17.421
X1.661 Y16.834
X1.864 Y16.112
X1.916 Y15.364
X1.832 Y14.619
X1.742 Y14.459
X1.605 Y14.267
X1.431 Y14.109
X1.226 Y13.991
X1.002 Y13.92
X0.767 Y13.898
X0.22 Y13.906
G2 X-0.064 Y14.232 I0.015 J0.3
G1 X-0.037 Y14.534
X0.184 Y17.034 F1200
X0.215 Y17.379 F100
G2 X0.508 Y17.653 I0.299 J-0.027
G1 X1.004 Y17.645
X1.378 Y17.621
X1.692 Y17.415
X2.173 Y16.84
X2.388 Y16.122
X2.45 Y15.374
X2.383 Y14.627
X2.294 Y14.464
X2.157 Y14.268
X1.982 Y14.106
X1.776 Y13.986
X1.549 Y13.913
X1.312 Y13.89
X0.767 Y13.898
G2 X0.483 Y14.22 I0.015 J0.3
G1 X0.505 Y14.526
X0.686 Y17.026 F1200
X0.711 Y17.367 F100
G2 X1.004 Y17.645 I0.299 J-0.022
G1 X1.599 Y17.637
X1.786 Y17.625
X2.119 Y17.452
X2.662 Y16.935
X2.9 Y16.223
X2.988 Y15.479
X2.953 Y14.729
X2.859 Y14.524
X2.727 Y14.307
X2.549 Y14.126
X2.334 Y13.99
X2.094 Y13.908
X1.841 Y13.883
X1.312 Y13.89
G2 X1.028 Y14.217 I0.015 J0.3
G1 X1.054 Y14.518
X1.276 Y17.018 F1200
X1.306 Y17.363 F100
G2 X1.599 Y17.637 I0.299 J-0.026
G1 X2.099 Y17.629
X2.286 Y17.616
X2.631 Y17.469
X3.177 Y16.955
X3.425 Y16.247
X3.524 Y15.503
X3.498 Y14.754
X3.396 Y14.525
X3.265 Y14.305
X3.087 Y14.121
X2.87 Y13.983
X2.628 Y13.899
X2.373 Y13.874
X1.841 Y13.883
G2 X1.557 Y14.206 I0.016 J0.3
G1 X1.581 Y14.511
X1.778 Y17.01 F1200
X1.805 Y17.352 F100
G2 X2.099 Y17.629 I0.299 J-0.024
G1 X2.692 Y17.619
X2.879 Y17.606
X3.216 Y17.441
X3.724 Y16.89
X3.967 Y16.18
X4.062 Y15.436
X4.015 Y14.688
X3.914 Y14.482
X3.78 Y14.271
X3.602 Y14.097
X3.39 Y13.967
X3.153 Y13.888
X2.905 Y13.864
X2.373 Y13.874
G2 X2.09 Y14.202 I0.016 J0.3
G1 X2.119 Y14.501
X2.365 Y17.001 F1200
X2.399 Y17.348 F100
G2 X2.692 Y17.619 I0.299 J-0.029
G1 X3.191 Y17.61
X3.378 Y17.597
X3.715 Y17.432
X4.243 Y16.899
X4.494 Y16.193
X4.593 Y15.449
X4.558 Y14.7
X4.457 Y14.485
X4.324 Y14.27
X4.145 Y14.092
X3.931 Y13.959
X3.692 Y13.878
X3.441 Y13.854
X2.905 Y13.864
G2 X2.622 Y14.19 I0.016 J0.3
G1 X2.649 Y14.493
X2.867 Y16.992 F1200
X2.897 Y17.336 F100
G2 X3.191 Y17.61 I0.299 J-0.026
G1 X3.581 Y17.602
X3.955 Y17.576
X4.286 Y17.4
X4.789 Y16.844
X5.035 Y16.135
X5.128 Y15.391
X5.079 Y14.643
X4.98 Y14.447
X4.845 Y14.241
X4.668 Y14.071
X4.457 Y13.944
X4.224 Y13.867
X3.979 Y13.844
X3.441 Y13.854
G2 X3.157 Y14.166 I0.016 J0.3
G1 X3.17 Y14.484
X3.272 Y16.984 F1200
X3.286 Y17.314 F100
G2 X3.581 Y17.602 I0.3 J-0.012
G1 X4.132 Y17.592
X4.506 Y17.566
X4.829 Y17.376
X5.325 Y16.814
X5.569 Y16.105
X5.659 Y15.36
X5.61 Y14.612
X5.514 Y14.427
X5.379 Y14.225
X5.202 Y14.057
X4.993 Y13.933
X4.761 Y13.857
X4.519 Y13.834
X3.979 Y13.844
G2 X3.695 Y14.157 I0.016 J0.3
G1 X3.709 Y14.473
X3.822 Y16.973 F1200
X3.837 Y17.305 F100
G2 X4.132 Y17.592 I0.3 J-0.014
G1 X4.673 Y17.582
X5.047 Y17.557
X5.366 Y17.36
X5.858 Y16.794
X6.102 Y16.084
X6.192 Y15.34
X6.145 Y14.591
X6.051 Y14.413
X5.916 Y14.212
X5.739 Y14.046
X5.531 Y13.922
X5.3 Y13.847
X5.059 Y13.825
X4.519 Y13.834
G2 X4.235 Y14.148 I0.016 J0.3
G1 X4.249 Y14.464
X4.363 Y16.963 F1200
X4.378 Y17.296 F100
G2 X4.673 Y17.582 I0.3 J-0.014
G1 X5.224 Y17.573
X5.598 Y17.548
X5.911 Y17.342
X6.394 Y16.768
X6.635 Y16.058
X6.725 Y15.313
X6.677 Y14.564
X6.587 Y14.395
X6.45 Y14.197
X6.274 Y14.033
X6.067 Y13.912
X5.838 Y13.838
X5.599 Y13.816
X5.059 Y13.825
G2 X4.775 Y14.139 I0.016 J0.3
G1 X4.79 Y14.454
X4.913 Y16.953 F1200
X4.93 Y17.287 F100
G2 X5.224 Y17.573 I0.3 J-0.015
G1 X5.765 Y17.564
X5.952 Y17.551
X6.295 Y17.398
X6.867 Y16.914
X7.137 Y16.214
X7.258 Y15.474
X7.251 Y14.724
X7.157 Y14.492
X7.029 Y14.261
X6.85 Y14.068
X6.63 Y13.923
X6.381 Y13.834
X6.119 Y13.807
X5.599 Y13.816
G2 X5.315 Y14.13 I0.016 J0.3
G1 X5.33 Y14.445
X5.454 Y16.944 F1200
X5.471 Y17.278 F100
G2 X5.765 Y17.564 I0.3 J-0.015
G1 X6.316 Y17.553
X6.69 Y17.526
X7.004 Y17.322
X7.476 Y16.739
X7.714 Y16.028
X7.805 Y15.283
X7.726 Y14.537
X7.641 Y14.377
X7.504 Y14.176
X7.326 Y14.011
X7.117 Y13.889
X6.886 Y13.815
X6.644 Y13.794
X6.119 Y13.807
G2 X5.835 Y14.124 I0.016 J0.3
G1 X5.854 Y14.436
X6 Y16.936 F1200
X6.02 Y17.271 F100
G2 X6.316 Y17.553 I0.299 J-0.018
G1 X6.857 Y17.541
X7.044 Y17.527
X7.385 Y17.371
X7.952 Y16.88
X8.218 Y16.179
X8.338 Y15.438
X8.308 Y14.689
X8.208 Y14.454
X8.078 Y14.226
X7.898 Y14.036
X7.678 Y13.893
X7.43 Y13.807
X7.169 Y13.782
X6.644 Y13.794
G2 X6.362 Y14.113 I0.018 J0.299
G1 X6.382 Y14.425
X6.54 Y16.924 F1200
X6.561 Y17.26 F100
G2 X6.857 Y17.541 I0.299 J-0.019
G1 X7.408 Y17.526
X7.781 Y17.494
X8.094 Y17.286
X8.561 Y16.7
X8.796 Y15.988
X8.875 Y15.242
X8.782 Y14.497
X8.693 Y14.335
X8.553 Y14.136
X8.374 Y13.972
X8.162 Y13.852
X7.93 Y13.782
X7.688 Y13.764
X7.169 Y13.782
G2 X6.887 Y14.102 I0.018 J0.299
G1 X6.909 Y14.412
X7.085 Y16.913 F1200
X7.108 Y17.247 F100
G2 X7.408 Y17.526 I0.299 J-0.021
G1 X7.949 Y17.507
X8.136 Y17.491
X8.475 Y17.332
X9.038 Y16.836
X9.3 Y16.133
X9.41 Y15.391
X9.367 Y14.642
X9.262 Y14.404
X9.13 Y14.177
X8.947 Y13.989
X8.725 Y13.849
X8.476 Y13.766
X8.214 Y13.744
X7.688 Y13.764
G2 X7.41 Y14.086 I0.021 J0.299
G1 X7.434 Y14.398
X7.624 Y16.894 F1200
X7.65 Y17.23 F100
G2 X7.949 Y17.507 I0.299 J-0.023
G1 X8.5 Y17.485
X8.873 Y17.449
X9.184 Y17.239
X9.647 Y16.649
X9.875 Y15.934
X9.942 Y15.187
X9.839 Y14.445
X9.747 Y14.28
X9.605 Y14.083
X9.423 Y13.921
X9.21 Y13.803
X8.977 Y13.735
X8.734 Y13.72
X8.214 Y13.744
G2 X7.936 Y14.068 I0.021 J0.299
G1 X7.962 Y14.378
X8.169 Y16.876 F1200
X8.197 Y17.21 F100
G2 X8.5 Y17.485 I0.299 J-0.025
G1 X9.041 Y17.46
X9.228 Y17.441
X9.566 Y17.281
X10.125 Y16.78
X10.38 Y16.075
X10.479 Y15.331
X10.426 Y14.583
X10.318 Y14.342
X10.182 Y14.117
X9.997 Y13.931
X9.773 Y13.793
X9.523 Y13.713
X9.26 Y13.694
X8.734 Y13.72
G2 X8.46 Y14.046 I0.025 J0.299
G1 X8.488 Y14.357
X8.709 Y16.85 F1200
X8.738 Y17.186 F100
G2 X9.041 Y17.46 I0.299 J-0.026
G1 X9.577 Y17.433
X9.95 Y17.395
X10.264 Y17.189
X10.726 Y16.599
X10.948 Y15.883
X11.009 Y15.135
X10.901 Y14.393
X10.805 Y14.224
X10.662 Y14.027
X10.48 Y13.866
X10.267 Y13.749
X10.033 Y13.681
X9.79 Y13.667
X9.26 Y13.694
G2 X8.987 Y14.021 I0.025 J0.299
G1 X9.015 Y14.331
X9.242 Y16.826 F1200
X9.273 Y17.16 F100
G2 X9.577 Y17.433 I0.299 J-0.027
G1 X10.118 Y17.405
X10.491 Y17.367
X10.797 Y17.15
X11.261 Y16.56
X11.478 Y15.842
X11.533 Y15.094
X11.438 Y14.35
X11.339 Y14.18
X11.195 Y13.988
X11.014 Y13.831
X10.802 Y13.717
X10.572 Y13.652
X10.332 Y13.639
X9.79 Y13.667
G2 X9.517 Y13.994 I0.026 J0.299
G1 X9.547 Y14.305
X9.783 Y16.797 F1200
X9.814 Y17.133 F100
G2 X10.118 Y17.405 I0.299 J-0.028
G1 X10.684 Y17.375
X10.87 Y17.356
X11.203 Y17.183
X11.746 Y16.666
X11.987 Y15.955
X12.071 Y15.21
X12.018 Y14.462
X11.912 Y14.239
X11.775 Y14.02
X11.59 Y13.839
X11.368 Y13.706
X11.121 Y13.629
X10.863 Y13.612
X10.332 Y13.639
G2 X10.06 Y13.968 I0.026 J0.299
G1 X10.091 Y14.276
X10.346 Y16.768 F1200
X10.381 Y17.106 F100
G2 X10.684 Y17.375 I0.298 J-0.03
G1 X11.225 Y17.348
X11.412 Y17.329
X11.753 Y17.173
X12.277 Y16.637
X12.518 Y15.927
X12.603 Y15.182
X12.551 Y14.433
X12.439 Y14.203
X12.301 Y13.987
X12.116 Y13.809
X11.895 Y13.678
X11.65 Y13.602
X11.394 Y13.585
X10.863 Y13.612
G2 X10.59 Y13.942 I0.026 J0.299
G1 X10.622 Y14.248
X10.886 Y16.74 F1200
X10.922 Y17.079 F100
G2 X11.225 Y17.348 I0.298 J-0.032
G1 X11.776 Y17.321
X11.963 Y17.304
X12.3 Y17.14
X12.814 Y16.594
X13.052 Y15.883
X13.135 Y15.137
X13.078 Y14.39
X12.969 Y14.169
X12.831 Y13.958
X12.649 Y13.783
X12.432 Y13.655
X12.191 Y13.579
X11.939 Y13.561
X11.394 Y13.585
G2 X11.121 Y13.917 I0.026 J0.299
G1 X11.156 Y14.221
X11.437 Y16.711 F1200
X11.476 Y17.055 F100
G2 X11.776 Y17.321 I0.298 J-0.034
G1 X12.317 Y17.298
X12.504 Y17.281
X12.838 Y17.11
X13.347 Y16.56
X13.585 Y15.848
X13.667 Y15.103
X13.61 Y14.355
X13.502 Y14.142
X13.364 Y13.932
X13.182 Y13.759
X12.966 Y13.632
X12.726 Y13.557
X12.476 Y13.539
X11.939 Y13.561
G2 X11.664 Y13.893 I0.023 J0.299
G1 X11.698 Y14.195
X11.978 Y16.688 F1200
X12.017 Y17.032 F100
G2 X12.317 Y17.298 I0.298 J-0.034
G1 X12.868 Y17.277
X13.055 Y17.263
X13.383 Y17.081
X13.882 Y16.521
X14.118 Y15.809
X14.198 Y15.064
X14.14 Y14.316
X14.037 Y14.116
X13.9 Y13.911
X13.722 Y13.742
X13.51 Y13.617
X13.276 Y13.542
X13.03 Y13.521
X12.476 Y13.539
G2 X12.201 Y13.873 I0.023 J0.299
G1 X12.236 Y14.173
X12.531 Y16.664 F1200
X12.572 Y17.013 F100
G2 X12.868 Y17.277 I0.298 J-0.035
G1 X13.249 Y17.267
X13.623 Y17.238
X13.942 Y17.041
X14.424 Y16.466
X14.655 Y15.753
X14.73 Y15.006
X14.665 Y14.259
X14.568 Y14.081
X14.43 Y13.883
X14.252 Y13.719
X14.043 Y13.599
X13.813 Y13.527
X13.572 Y13.507
X13.03 Y13.521
G2 X12.749 Y13.84 I0.018 J0.299
G1 X12.77 Y14.152
X12.93 Y16.651 F1200
X12.952 Y16.986 F100
G2 X13.249 Y17.267 I0.299 J-0.019
G1 X13.778 Y17.252
X14.153 Y17.23
X14.467 Y17.026
X14.951 Y16.452
X15.183 Y15.739
X15.262 Y14.993
X15.204 Y14.246
X15.113 Y14.076
X14.978 Y13.88
X14.804 Y13.717
X14.598 Y13.596
X14.372 Y13.522
X14.135 Y13.498
X13.572 Y13.507
G2 X13.291 Y13.825 I0.018 J0.299
G1 X13.311 Y14.138
X13.465 Y16.631 F1200
X13.486 Y16.971 F100
G2 X13.778 Y17.252 I0.299 J-0.019
G1 X14.427 Y17.246
X14.615 Y17.235
X14.939 Y17.046
X15.454 Y16.501
X15.701 Y15.793
X15.795 Y15.049
X15.761 Y14.3
X15.67 Y14.113
X15.538 Y13.904
X15.362 Y13.729
X15.151 Y13.599
X14.917 Y13.519
X14.671 Y13.493
X14.135 Y13.498
G2 X13.849 Y13.825 I0.013 J0.3
G1 X13.876 Y14.124
X14.105 Y16.626 F1200
X14.136 Y16.973 F100
G2 X14.427 Y17.246 I0.299 J-0.027
G1 X14.87 Y17.241
X15.058 Y17.231
X15.399 Y17.076
X15.953 Y16.571
X16.216 Y15.869
X16.329 Y15.127
X16.318 Y14.378
X16.222 Y14.155
X16.094 Y13.933
X15.918 Y13.747
X15.703 Y13.606
X15.462 Y13.519
X15.207 Y13.49
X14.671 Y13.493
G2 X14.384 Y13.812 I0.013 J0.3
G1 X14.404 Y14.12
X14.559 Y16.619 F1200
X14.58 Y16.96 F100
G2 X14.87 Y17.241 I0.299 J-0.019
G1 X15.433 Y17.239
X15.62 Y17.229
X15.962 Y17.075
X16.492 Y16.544
X16.754 Y15.841
X16.867 Y15.1
X16.844 Y14.35
X16.746 Y14.133
X16.616 Y13.917
X16.44 Y13.736
X16.228 Y13.6
X15.99 Y13.516
X15.74 Y13.488
X15.207 Y13.49
G2 X14.92 Y13.811 I0.012 J0.3
G1 X14.941 Y14.115
X15.119 Y16.617 F1200
X15.143 Y16.961 F100
G2 X15.433 Y17.239 I0.299 J-0.021
G1 X15.962 Y17.237
X16.15 Y17.227
X16.489 Y17.068
X17.021 Y16.539
X17.286 Y15.838
X17.4 Y15.097
X17.379 Y14.347
X17.281 Y14.131
X17.151 Y13.915
X16.975 Y13.734
X16.763 Y13.598
X16.526 Y13.514
X16.275 Y13.486
X15.74 Y13.488
G2 X15.452 Y13.809 I0.012 J0.3
G1 X15.473 Y14.113
X15.648 Y16.614 F1200
X15.673 Y16.958 F100
G2 X15.962 Y17.237 I0.299 J-0.021
G1 X16.525 Y17.235
X16.712 Y17.225
X17.046 Y17.054
X17.562 Y16.51
X17.824 Y15.807
X17.935 Y15.065
X17.906 Y14.316
X17.809 Y14.112
X17.678 Y13.901
X17.502 Y13.725
X17.292 Y13.593
X17.058 Y13.511
X16.811 Y13.484
X16.275 Y13.486
G2 X15.988 Y13.809 I0.012 J0.3
G1 X16.011 Y14.11
X16.208 Y16.613 F1200
X16.235 Y16.959 F100
G2 X16.525 Y17.235 I0.299 J-0.024
G1 X17.054 Y17.233
X17.242 Y17.223
X17.573 Y17.048
X18.092 Y16.507
X18.356 Y15.805
X18.467 Y15.063
X18.442 Y14.313
X18.346 Y14.111
X18.215 Y13.9
X18.04 Y13.724
X17.83 Y13.591
X17.595 Y13.509
X17.348 Y13.482
X16.811 Y13.484
G2 X16.524 Y13.807 I0.012 J0.3
G1 X16.547 Y14.109
X16.738 Y16.611 F1200
X16.765 Y16.956 F100
G2 X17.054 Y17.233 I0.299 J-0.023
G1 X17.617 Y17.231
X17.804 Y17.221
X18.13 Y17.035
X18.634 Y16.48
X18.893 Y15.776
X19.001 Y15.034
X18.969 Y14.284
X18.876 Y14.094
X18.744 Y13.888
X18.569 Y13.716
X18.361 Y13.587
X18.129 Y13.507
X17.885 Y13.48
X17.348 Y13.482
G2 X17.061 Y13.807 I0.011 J0.3
G1 X17.086 Y14.107
X17.298 Y16.609 F1200
X17.328 Y16.957 F100
G2 X17.617 Y17.231 I0.299 J-0.025
G1 X17.98 Y17.23
X18.355 Y17.21
X18.676 Y17.017
X19.174 Y16.455
X19.43 Y15.751
X19.534 Y15.008
X19.499 Y14.259
X19.408 Y14.08
X19.275 Y13.877
X19.101 Y13.709
X18.895 Y13.582
X18.665 Y13.504
X18.424 Y13.479
X17.885 Y13.48
G2 X17.597 Y13.789 I0.011 J0.3
G1 X17.606 Y14.106
X17.68 Y16.607 F1200
X17.69 Y16.939 F100
G2 X17.98 Y17.23 I0.3 J-0.009
G1 X18.707 Y17.228
X18.894 Y17.218
X19.211 Y17.016
X19.705 Y16.452
X19.961 Y15.747
X20.066 Y15.005
X20.036 Y14.255
X19.947 Y14.079
X19.814 Y13.876
X19.64 Y13.708
X19.433 Y13.581
X19.203 Y13.503
X18.962 Y13.477
X18.424 Y13.479
G2 X18.137 Y13.805 I0.011 J0.3
G1 X18.163 Y14.103
X18.387 Y16.605 F1200
X18.418 Y16.954 F100
G2 X18.707 Y17.228 I0.299 J-0.027
G1 X19.072 Y17.226
X19.259 Y17.216
X19.604 Y17.07
X20.182 Y16.591
X20.463 Y15.896
X20.597 Y15.158
X20.604 Y14.408
X20.512 Y14.173
X20.387 Y13.941
X20.21 Y13.746
X19.993 Y13.598
X19.746 Y13.506
X19.484 Y13.475
X18.962 Y13.477
G2 X18.674 Y13.787 I0.011 J0.3
G1 X18.685 Y14.102
X18.77 Y16.603 F1200
X18.781 Y16.937 F100
G2 X19.072 Y17.226 I0.3 J-0.01
G1 X19.572 Y17.225
X19.946 Y17.205
X20.276 Y17.026
X20.774 Y16.465
X21.032 Y15.761
X21.144 Y15.019
X21.094 Y14.271
X21.005 Y14.09
X20.874 Y13.883
X20.699 Y13.71
X20.49 Y13.58
X20.258 Y13.5
X20.014 Y13.473
X19.484 Y13.475
G2 X19.196 Y13.783 I0.011 J0.3
G1 X19.204 Y14.1
X19.272 Y16.601 F1200
X19.281 Y16.933 F100
G2 X19.572 Y17.225 I0.3 J-0.008
G1 X20.331 Y17.222
X20.518 Y17.213
X20.831 Y17.007
X21.317 Y16.436
X21.572 Y15.731
X21.672 Y14.987
X21.624 Y14.239
X21.534 Y14.066
X21.402 Y13.866
X21.229 Y13.7
X21.024 Y13.576
X20.797 Y13.499
X20.559 Y13.472
X20.014 Y13.473
G2 X19.727 Y13.803 I0.011 J0.3
G1 X19.756 Y14.097
X20.007 Y16.599 F1200
X20.043 Y16.952 F100
G2 X20.331 Y17.222 I0.299 J-0.03
G1 X20.664
X21.038 Y17.204
X21.354 Y17.001
X21.847 Y16.436
X22.102 Y15.731
X22.202 Y14.987
X22.164 Y14.238
X22.077 Y14.069
X21.944 Y13.869
X21.771 Y13.702
X21.566 Y13.577
X21.338 Y13.499
X21.099 Y13.473
X20.559 Y13.472
G2 X20.269 Y13.782 I0.01 J0.3
G1 X20.28 Y14.096
X20.363 Y16.598 F1200
X20.374 Y16.933 F100
G2 X20.664 Y17.222 I0.3 J-0.01
G1 X21.256 Y17.223
X21.444 Y17.213
X21.78 Y17.048
X22.334 Y16.542
X22.609 Y15.844
X22.733 Y15.105
X22.728 Y14.355
X22.639 Y14.144
X22.513 Y13.923
X22.338 Y13.736
X22.126 Y13.594
X21.886 Y13.505
X21.633 Y13.474
X21.099 Y13.473
G2 X20.81 Y13.787 I0.01 J0.3
G1 X20.825 Y14.097
X20.95 Y16.599 F1200
X20.967 Y16.938 F100
G2 X21.256 Y17.223 I0.3 J-0.015
G1 X21.756 Y17.225
X21.943 Y17.217
X22.291 Y17.077
X22.851 Y16.578
X23.133 Y15.883
X23.266 Y15.145
X23.27 Y14.395
X23.174 Y14.161
X23.049 Y13.935
X22.875 Y13.745
X22.661 Y13.6
X22.419 Y13.509
X22.163 Y13.477
X21.633 Y13.474
G2 X21.342 Y13.786 I0.009 J0.3
G1 X21.354 Y14.096
X21.455 Y16.599 F1200
X21.468 Y16.937 F100
G2 X21.756 Y17.225 I0.3 J-0.012
G1 X22.348 Y17.229
X22.536 Y17.22
X22.877 Y17.064
X23.405 Y16.532
X23.68 Y15.834
X23.805 Y15.095
X23.787 Y14.345
X23.692 Y14.132
X23.565 Y13.917
X23.392 Y13.736
X23.182 Y13.599
X22.947 Y13.512
X22.699 Y13.481
X22.163 Y13.477
G2 X21.872 Y13.795 I0.009 J0.3
G1 X21.89 Y14.099
X22.041 Y16.603 F1200
X22.061 Y16.947 F100
G2 X22.348 Y17.229 I0.299 J-0.018
G1 X22.848 Y17.233
X23.035 Y17.225
X23.378 Y17.073
X23.925 Y16.56
X24.206 Y15.865
X24.336 Y15.126
X24.329 Y14.376
X24.234 Y14.154
X24.108 Y13.933
X23.935 Y13.748
X23.724 Y13.607
X23.486 Y13.518
X23.234 Y13.487
X22.699 Y13.481
G2 X22.407 Y13.796 I0.007 J0.3
G1 X22.422 Y14.102
X22.545 Y16.606 F1200
X22.562 Y16.948 F100
G2 X22.848 Y17.233 I0.3 J-0.015
G1 X23.237 Y17.237
X23.612 Y17.222
X23.95 Y17.059
X24.475 Y16.524
X24.749 Y15.826
X24.872 Y15.086
X24.851 Y14.336
X24.757 Y14.132
X24.628 Y13.919
X24.455 Y13.741
X24.247 Y13.606
X24.013 Y13.522
X23.767 Y13.492
X23.234 Y13.487
G2 X22.941 Y13.787 I0.007 J0.3
G1 X22.942 Y14.108
X22.95 Y16.61 F1200
X22.951 Y16.938 F100
G2 X23.237 Y17.237 I0.3 J-0.001
G1 X23.788 Y17.242
X24.163 Y17.226
X24.495 Y17.052
X25.014 Y16.51
X25.286 Y15.811
X25.404 Y15.071
X25.382 Y14.321
X25.289 Y14.126
X25.16 Y13.916
X24.987 Y13.741
X24.78 Y13.609
X24.548 Y13.526
X24.304 Y13.496
X23.767 Y13.492
G2 X23.475 Y13.794 I0.008 J0.3
G1 X23.477 Y14.114
X23.498 Y16.615 F1200
X23.501 Y16.945 F100
G2 X23.788 Y17.242 I0.3 J-0.003
G1 X24.329 Y17.246
X24.704 Y17.231
X25.033 Y17.05
X25.549 Y16.506
X25.819 Y15.806
X25.936 Y15.065
X25.916 Y14.316
X25.824 Y14.124
X25.693 Y13.915
X25.519 Y13.74
X25.309 Y13.608
X25.076 Y13.526
X24.83 Y13.499
X24.304 Y13.496
G2 X24.012 Y13.799 I0.008 J0.3
G1 X24.015 Y14.118
X24.039 Y16.62 F1200
X24.042 Y16.95 F100
G2 X24.329 Y17.246 I0.3 J-0.003
G1 X24.88 Y17.249
X25.255 Y17.23
X25.58 Y17.043
X26.088 Y16.491
X26.355 Y15.79
X26.47 Y15.049
X26.446 Y14.299
X26.355 Y14.113
X26.223 Y13.907
X26.049 Y13.734
X25.841 Y13.605
X25.609 Y13.525
X25.366 Y13.498
X24.83 Y13.499
G2 X24.541 Y13.804 I0.011 J0.3
G1 X24.546 Y14.124
X24.585 Y16.625 F1200
X24.59 Y16.954 F100
G2 X24.88 Y17.249 I0.3 J-0.005
G1 X25.421 Y17.248
X25.796 Y17.228
X26.119 Y17.038
X26.624 Y16.483
X26.889 Y15.781
X27.003 Y15.04
X26.98 Y14.29
X26.89 Y14.109
X26.758 Y13.904
X26.584 Y13.733
X26.378 Y13.605
X26.148 Y13.525
X25.906 Y13.497
X25.366 Y13.498
G2 X25.077 Y13.803 I0.011 J0.3
G1 X25.082 Y14.123
X25.126 Y16.624 F1200
X25.131 Y16.953 F100
G2 X25.421 Y17.248 I0.3 J-0.005
G1 X25.972
X26.347 Y17.229
X26.665 Y17.031
X27.162 Y16.469
X27.424 Y15.767
X27.536 Y15.025
X27.511 Y14.275
X27.424 Y14.102
X27.291 Y13.899
X27.118 Y13.731
X26.912 Y13.604
X26.684 Y13.525
X26.443 Y13.498
X25.906 Y13.497
G2 X25.616 Y13.804 I0.01 J0.3
G1 X25.622 Y14.121
X25.676 Y16.623 F1200
X25.683 Y16.954 F100
G2 X25.972 Y17.248 I0.3 J-0.006
G1 X26.513
X26.888 Y17.23
X27.204 Y17.027
X27.697 Y16.463
X27.958 Y15.76
X28.07 Y15.018
X28.045 Y14.268
X27.96 Y14.1
X27.828 Y13.899
X27.656 Y13.732
X27.451 Y13.605
X27.224 Y13.527
X26.985 Y13.499
X26.443 Y13.498
G2 X26.153 Y13.805 I0.01 J0.3
G1 X26.161 Y14.122
X26.217 Y16.623 F1200
X26.224 Y16.955 F100
G2 X26.513 Y17.248 I0.3 J-0.007
G1 X27.064 Y17.25
X27.252 Y17.241
X27.595 Y17.09
X28.171 Y16.61
X28.458 Y15.917
X28.599 Y15.18
X28.612 Y14.43
X28.525 Y14.205
X28.402 Y13.973
X28.227 Y13.777
X28.011 Y13.628
X27.766 Y13.535
X27.505 Y13.502
X26.985 Y13.499
G2 X26.694 Y13.807 I0.009 J0.3
G1 X26.703 Y14.122
X26.768 Y16.624 F1200
X26.777 Y16.958 F100
G2 X27.064 Y17.25 I0.3 J-0.008
G1 X27.606 Y17.253
X27.98 Y17.236
X28.296 Y17.034
X28.78 Y16.461
X29.038 Y15.757
X29.15 Y15.015
X29.094 Y14.267
X29.014 Y14.109
X28.883 Y13.907
X28.71 Y13.738
X28.504 Y13.611
X28.276 Y13.532
X28.036 Y13.505
X27.505 Y13.502
G2 X27.214 Y13.812 I0.009 J0.3
G1 X27.224 Y14.125
X27.307 Y16.627 F1200
X27.318 Y16.963 F100
G2 X27.606 Y17.253 I0.3 J-0.01
G1 X28.156 Y17.255
X28.344 Y17.247
X28.685 Y17.091
X29.255 Y16.604
X29.54 Y15.91
X29.678 Y15.173
X29.668 Y14.423
X29.578 Y14.197
X29.453 Y13.969
X29.278 Y13.776
X29.063 Y13.63
X28.819 Y13.538
X28.561 Y13.507
X28.036 Y13.505
G2 X27.746 Y13.816 I0.009 J0.3
G1 X27.758 Y14.128
X27.855 Y16.63 F1200
X27.868 Y16.967 F100
G2 X28.156 Y17.255 I0.3 J-0.012
G1 X28.698 Y17.257
X28.885 Y17.248
X29.234 Y17.112
X29.788 Y16.606
X30.075 Y15.913
X30.209 Y15.175
X30.202 Y14.425
X30.103 Y14.188
X29.978 Y13.963
X29.803 Y13.773
X29.589 Y13.63
X29.347 Y13.54
X29.092 Y13.509
X28.561 Y13.507
G2 X28.271 Y13.82 I0.009 J0.3
G1 X28.284 Y14.13
X28.394 Y16.632 F1200
X28.409 Y16.971 F100
G2 X28.698 Y17.257 I0.3 J-0.013
G1 X29.248 Y17.259
X29.436 Y17.251
X29.783 Y17.108
X30.328 Y16.594
X30.612 Y15.899
X30.742 Y15.161
X30.73 Y14.411
X30.632 Y14.179
X30.505 Y13.958
X30.33 Y13.771
X30.118 Y13.63
X29.878 Y13.541
X29.624 Y13.511
X29.092 Y13.509
G2 X28.801 Y13.824 I0.009 J0.3
G1 X28.817 Y14.131
X28.943 Y16.634 F1200
X28.961 Y16.975 F100
G2 X29.248 Y17.259 I0.3 J-0.015
G1 X29.79 Y17.261
X29.977 Y17.253
X30.322 Y17.105
X30.865 Y16.588
X31.147 Y15.893
X31.274 Y15.154
X31.262 Y14.404
X31.164 Y14.177
X31.037 Y13.957
X30.863 Y13.772
X30.652 Y13.632
X30.414 Y13.544
X30.163 Y13.513
X29.624 Y13.511
G2 X29.334 Y13.827 I0.009 J0.3
G1 X29.35 Y14.134
X29.484 Y16.636 F1200
X29.502 Y16.978 F100
G2 X29.79 Y17.261 I0.3 J-0.016
G1 X30.34 Y17.265
X30.528 Y17.257
X30.869 Y17.101
X31.404 Y16.576
X31.683 Y15.879
X31.807 Y15.14
X31.792 Y14.39
X31.695 Y14.172
X31.568 Y13.955
X31.394 Y13.773
X31.184 Y13.635
X30.948 Y13.548
X30.698 Y13.517
X30.163 Y13.513
G2 X29.871 Y13.83 I0.008 J0.3
G1 X29.889 Y14.134
X30.034 Y16.638 F1200
X30.054 Y16.982 F100
G2 X30.34 Y17.265 I0.299 J-0.017
G1 X30.722 Y17.268
X31.096 Y17.252
X31.431 Y17.083
X31.952 Y16.544
X32.224 Y15.845
X32.341 Y15.104
X32.316 Y14.355
X32.222 Y14.154
X32.093 Y13.944
X31.92 Y13.768
X31.712 Y13.635
X31.48 Y13.552
X31.235 Y13.522
X30.698 Y13.517
G2 X30.406 Y13.82 I0.008 J0.3
G1 X30.409 Y14.139
X30.432 Y16.641 F1200
X30.434 Y16.971 F100
G2 X30.722 Y17.268 I0.3 J-0.003
G1 X31.433 Y17.272
X31.62 Y17.262
X31.953 Y17.09
X32.479 Y16.556
X32.753 Y15.857
X32.872 Y15.117
X32.855 Y14.367
X32.76 Y14.161
X32.63 Y13.948
X32.455 Y13.769
X32.245 Y13.634
X32.009 Y13.55
X31.76 Y13.522
X31.235
G2 X30.944 Y13.841 I0.008 J0.3
G1 X30.963 Y14.143
X31.122 Y16.648 F1200
X31.143 Y16.991 F100
G2 X31.433 Y17.272 I0.299 J-0.019
G1 X31.814
X32.188 Y17.253
X32.517 Y17.072
X33.027 Y16.522
X33.293 Y15.821
X33.407 Y15.08
X33.379 Y14.33
X33.286 Y14.139
X33.154 Y13.932
X32.98 Y13.759
X32.772 Y13.629
X32.54 Y13.549
X32.297 Y13.521
X31.76 Y13.522
G2 X31.471 Y13.826 I0.011 J0.3
G1 X31.476 Y14.146
X31.518 Y16.647 F1200
X31.524 Y16.977 F100
G2 X31.814 Y17.272 I0.3 J-0.005
G1 X32.343 Y17.271
X32.717 Y17.249
X33.045 Y17.067
X33.559 Y16.52
X33.825 Y15.819
X33.939 Y15.078
X33.915 Y14.328
X33.821 Y14.135
X33.688 Y13.926
X33.512 Y13.752
X33.301 Y13.622
X33.067 Y13.542
X32.821 Y13.516
X32.297 Y13.521
G2 X32.007 Y13.825 I0.011 J0.3
G1 X32.012 Y14.146
X32.048 Y16.647 F1200
X32.053 Y16.976 F100
G2 X32.343 Y17.271 I0.3 J-0.004
G1 X32.992 Y17.265
X33.179 Y17.254
X33.518 Y17.092
X34.064 Y16.579
X34.343 Y15.883
X34.469 Y15.143
X34.466 Y14.393
X34.37 Y14.173
X34.241 Y13.951
X34.064 Y13.765
X33.848 Y13.625
X33.606 Y13.539
X33.35 Y13.511
X32.821 Y13.516
G2 X32.535 Y13.832 I0.013 J0.3
G1 X32.551 Y14.143
X32.682 Y16.644 F1200
X32.7 Y16.981 F100
G2 X32.992 Y17.265 I0.3 J-0.016
G1 X33.435 Y17.261
X33.809 Y17.235
X34.137 Y17.052
X34.637 Y16.494
X34.899 Y15.791
X35.01 Y15.049
X34.97 Y14.3
X34.875 Y14.111
X34.741 Y13.903
X34.563 Y13.73
X34.351 Y13.602
X34.116 Y13.525
X33.869 Y13.502
X33.35 Y13.511
G2 X33.064 Y13.818 I0.013 J0.3
G1 X33.072 Y14.138
X33.134 Y16.639 F1200
X33.143 Y16.968 F100
G2 X33.435 Y17.261 I0.3 J-0.008
G1 X34.084 Y17.248
X34.271 Y17.235
X34.606 Y17.067
X35.145 Y16.545
X35.419 Y15.847
X35.539 Y15.107
X35.522 Y14.357
X35.424 Y14.139
X35.292 Y13.919
X35.113 Y13.736
X34.897 Y13.599
X34.654 Y13.516
X34.399 Y13.491
X33.869 Y13.502
G2 X33.586 Y13.821 I0.016 J0.3
G1 X33.606 Y14.131
X33.768 Y16.63 F1200
X33.789 Y16.967 F100
G2 X34.084 Y17.248 I0.299 J-0.019
G1 X34.527 Y17.24
X34.901 Y17.213
X35.224 Y17.022
X35.717 Y16.458
X35.973 Y15.752
X36.076 Y15.01
X36.027 Y14.261
X35.932 Y14.077
X35.796 Y13.872
X35.618 Y13.703
X35.407 Y13.577
X35.174 Y13.502
X34.929 Y13.48
X34.399 Y13.491
G2 X34.116 Y13.802 I0.016 J0.3
G1 X34.128 Y14.121
X34.22 Y16.621 F1200
X34.232 Y16.951 F100
G2 X34.527 Y17.24 I0.3 J-0.011
G1 X35.176 Y17.226
X35.363 Y17.212
X35.695 Y17.037
X36.225 Y16.507
X36.493 Y15.806
X36.605 Y15.065
X36.58 Y14.315
X36.483 Y14.104
X36.35 Y13.888
X36.17 Y13.707
X35.955 Y13.573
X35.714 Y13.492
X35.46 Y13.468
X34.929 Y13.48
G2 X34.647 Y13.801 I0.017 J0.3
G1 X34.67 Y14.11
X34.856 Y16.608 F1200
X34.881 Y16.948 F100
G2 X35.176 Y17.226 I0.299 J-0.022
G1 X35.619 Y17.216
X35.993 Y17.184
X36.312 Y16.987
X36.797 Y16.415
X37.046 Y15.707
X37.142 Y14.964
X37.085 Y14.216
X36.989 Y14.035
X36.85 Y13.831
X36.669 Y13.664
X36.456 Y13.541
X36.221 Y13.469
X35.975 Y13.451
X35.46 Y13.468
G2 X35.178 Y13.781 I0.017 J0.3
G1 X35.193 Y14.098
X35.308 Y16.598 F1200
X35.323 Y16.93 F100
G2 X35.619 Y17.216 I0.3 J-0.014
G1 X36.268 Y17.193
X36.455 Y17.177
X36.783 Y16.996
X37.306 Y16.458
X37.566 Y15.754
X37.671 Y15.012
X37.639 Y14.262
X37.538 Y14.054
X37.402 Y13.838
X37.22 Y13.66
X37.002 Y13.528
X36.759 Y13.45
X36.505 Y13.431
X35.975 Y13.451
G2 X35.698 Y13.776 I0.022 J0.299
G1 X35.725 Y14.085
X35.94 Y16.58 F1200
X35.969 Y16.918 F100
G2 X36.268 Y17.193 I0.299 J-0.026
G1 X36.711 Y17.177
X37.084 Y17.139
X37.4 Y16.937
X37.878 Y16.359
X38.119 Y15.649
X38.206 Y14.904
X38.141 Y14.157
X38.043 Y13.977
X37.902 Y13.776
X37.719 Y13.611
X37.504 Y13.491
X37.267 Y13.422
X37.022 Y13.407
X36.505 Y13.431
G2 X36.227 Y13.747 I0.022 J0.299
G1 X36.246 Y14.065
X36.392 Y16.563 F1200
X36.411 Y16.894 F100
G2 X36.711 Y17.177 I0.299 J-0.018
G1 X37.36 Y17.144
X37.547 Y17.126
X37.872 Y16.94
X38.387 Y16.395
X38.64 Y15.688
X38.736 Y14.945
X38.695 Y14.196
X38.593 Y13.989
X38.453 Y13.775
X38.269 Y13.599
X38.049 Y13.471
X37.805 Y13.396
X37.551 Y13.379
X37.022 Y13.407
G2 X36.749 Y13.735 I0.026 J0.299
G1 X36.779 Y14.044
X37.024 Y16.536 F1200
X37.057 Y16.874 F100
G2 X37.36 Y17.144 I0.299 J-0.029
G1 X37.803 Y17.122
X38.175 Y17.076
X38.488 Y16.87
X38.959 Y16.286
X39.192 Y15.573
X39.27 Y14.827
X39.195 Y14.081
X39.094 Y13.902
X38.948 Y13.7
X38.76 Y13.537
X38.54 Y13.42
X38.299 Y13.356
X38.05 Y13.347
X37.664 Y13.374
X37.551 Y13.379
G2 X37.277 Y13.699 I0.026 J0.299
G1 X37.3 Y14.018
X37.476 Y16.514 F1200
X37.499 Y16.844 F100
G2 X37.803 Y17.122 I0.299 J-0.021
G1 X38.452 Y17.075
X38.638 Y17.052
X38.962 Y16.863
X39.471 Y16.312
X39.714 Y15.602
X39.801 Y14.857
X39.749 Y14.109
X39.64 Y13.898
X39.496 Y13.684
X39.306 Y13.51
X39.081 Y13.385
X38.833 Y13.315
X38.576 Y13.306
X38.05 Y13.347
G2 X37.786 Y13.679 I0.034 J0.298
G1 X37.822 Y13.991
X38.105 Y16.475 F1200
X38.143 Y16.809 F100
G2 X38.452 Y17.075 I0.298 J-0.034
G1 X38.895 Y17.043
X39.267 Y16.993
X39.578 Y16.784
X40.042 Y16.194
X40.264 Y15.478
X40.333 Y14.731
X40.247 Y13.986
X40.141 Y13.805
X39.993 Y13.607
X39.805 Y13.447
X39.586 Y13.333
X39.346 Y13.27
X39.099 Y13.263
X38.576 Y13.306
G2 X38.311 Y13.63 I0.034 J0.298
G1 X38.339 Y13.951
X38.556 Y16.441 F1200
X38.585 Y16.769 F100
G2 X38.895 Y17.043 I0.299 J-0.026
G1 X39.544 Y16.989
X39.73 Y16.964
X40.052 Y16.771
X40.553 Y16.214
X40.787 Y15.501
X40.863 Y14.755
X40.801 Y14.007
X40.69 Y13.799
X40.545 Y13.589
X40.354 Y13.417
X40.13 Y13.295
X39.883 Y13.228
X39.627 Y13.219
X39.099 Y13.263
G2 X38.837 Y13.599 I0.035 J0.298
G1 X38.876 Y13.908
X39.19 Y16.392 F1200
X39.232 Y16.727 F100
G2 X39.544 Y16.989 I0.298 J-0.038
G1 X39.987 Y16.952
X40.359 Y16.902
X40.666 Y16.688
X41.121 Y16.092
X41.335 Y15.373
X41.394 Y14.625
X41.299 Y13.881
X41.193 Y13.705
X41.045 Y13.51
X40.857 Y13.353
X40.639 Y13.242
X40.401 Y13.181
X40.156 Y13.175
X39.627 Y13.219
G2 X39.364 Y13.547 I0.035 J0.298
G1 X39.395 Y13.865
X39.642 Y16.354 F1200
X39.674 Y16.682 F100
G2 X39.987 Y16.952 I0.299 J-0.03
G1 X40.636 Y16.898
X40.822 Y16.873
X41.14 Y16.674
X41.632 Y16.108
X41.857 Y15.393
X41.925 Y14.646
X41.854 Y13.899
X41.745 Y13.699
X41.598 Y13.491
X41.408 Y13.323
X41.184 Y13.203
X40.939 Y13.137
X40.686 Y13.129
X40.156 Y13.175
G2 X39.895 Y13.513 I0.036 J0.298
G1 X39.937 Y13.819
X40.278 Y16.302 F1200
X40.325 Y16.639 F100
G2 X40.636 Y16.898 I0.297 J-0.041
G1 X41.079 Y16.862
X41.45 Y16.807
X41.753 Y16.585
X42.198 Y15.982
X42.403 Y15.261
X42.454 Y14.512
X42.351 Y13.769
X42.247 Y13.601
X42.096 Y13.407
X41.905 Y13.252
X41.685 Y13.144
X41.446 Y13.086
X41.2 Y13.084
X40.686 Y13.129
G2 X40.423 Y13.46 I0.036 J0.298
G1 X40.458 Y13.775
X40.73 Y16.264 F1200
X40.767 Y16.595 F100
G2 X41.079 Y16.862 I0.298 J-0.033
G1 X41.728 Y16.799
X41.914 Y16.771
X42.227 Y16.565
X42.71 Y15.991
X42.926 Y15.273
X42.985 Y14.526
X42.906 Y13.78
X42.795 Y13.583
X42.645 Y13.378
X42.453 Y13.213
X42.227 Y13.096
X41.98 Y13.034
X41.726 Y13.03
X41.2 Y13.084
G2 X40.944 Y13.426 I0.041 J0.297
G1 X40.99 Y13.732
X41.362 Y16.207 F1200
X41.413 Y16.544 F100
G2 X41.728 Y16.799 I0.297 J-0.045
G1 X42.171 Y16.756
X42.542 Y16.697
X42.839 Y16.469
X43.275 Y15.859
X43.471 Y15.135
X43.513 Y14.386
X43.402 Y13.644
X43.296 Y13.478
X43.142 Y13.288
X42.95 Y13.136
X42.728 Y13.03
X42.489 Y12.976
X42.244 Y12.977
X41.726 Y13.03
G2 X41.469 Y13.364 I0.041 J0.297
G1 X41.508 Y13.68
X41.814 Y16.163 F1200
X41.855 Y16.493 F100
G2 X42.171 Y16.756 I0.298 J-0.037
G1 X42.82 Y16.686
X43.006 Y16.657
X43.315 Y16.444
X43.787 Y15.862
X43.994 Y15.141
X44.044 Y14.393
X43.957 Y13.648
X43.844 Y13.455
X43.692 Y13.252
X43.497 Y13.09
X43.27 Y12.976
X43.023 Y12.917
X42.77
X42.244 Y12.977
G2 X41.992 Y13.322 I0.044 J0.297
G1 X42.042 Y13.628
X42.447 Y16.098 F1200
X42.503 Y16.435 F100
G2 X42.82 Y16.686 I0.296 J-0.049
G1 X43.263 Y16.638
X43.632 Y16.572
X43.925 Y16.338
X44.351 Y15.721
X44.538 Y14.994
X44.57 Y14.245
X44.45 Y13.505
X44.344 Y13.343
X44.186 Y13.154
X43.99 Y13.005
X43.765 Y12.903
X43.524 Y12.853
X43.277 Y12.859
X42.77 Y12.917
G2 X42.517 Y13.254 I0.044 J0.297
G1 X42.56 Y13.569
X42.899 Y16.05 F1200
X42.944 Y16.38 F100
G2 X43.263 Y16.638 I0.297 J-0.041
G1 X43.912 Y16.555
X44.097 Y16.522
X44.402 Y16.304
X44.864 Y15.713
X45.061 Y14.989
X45.101 Y14.241
X45.003 Y13.497
X44.887 Y13.306
X44.731 Y13.106
X44.533 Y12.946
X44.303 Y12.837
X44.054 Y12.783
X43.8 Y12.788
X43.277 Y12.859
G2 X43.033 Y13.207 I0.051 J0.296
G1 X43.088 Y13.514
X43.529 Y15.975 F1200
X43.589 Y16.309 F100
G2 X43.912 Y16.555 I0.295 J-0.053
G1 X44.355 Y16.498
X44.724 Y16.427
X45.012 Y16.187
X45.427 Y15.563
X45.603 Y14.834
X45.625 Y14.084
X45.494 Y13.346
X45.384 Y13.185
X45.226 Y13.001
X45.031 Y12.856
X44.809 Y12.758
X44.571 Y12.71
X44.328 Y12.716
X43.8 Y12.788
G2 X43.554 Y13.129 I0.051 J0.296
G1 X43.602 Y13.445
X43.981 Y15.916 F1200
X44.031 Y16.244 F100
G2 X44.355 Y16.498 I0.297 J-0.045
G1 X45.004 Y16.407
X45.189 Y16.372
X45.489 Y16.148
X45.94 Y15.549
X46.127 Y14.822
X46.156 Y14.073
X46.048 Y13.331
X45.931 Y13.146
X45.773 Y12.949
X45.575 Y12.794
X45.346 Y12.687
X45.098 Y12.636
X44.846 Y12.643
X44.328 Y12.716
G2 X44.084 Y13.068 I0.051 J0.296
G1 X44.142 Y13.371
X44.615 Y15.831 F1200
X44.679 Y16.165 F100
G2 X45.004 Y16.407 I0.295 J-0.057
G1 X45.447 Y16.345
X45.631 Y16.31
X45.954 Y16.119
X46.449 Y15.555
X46.648 Y14.832
X46.691 Y14.083
X46.604 Y13.338
X46.477 Y13.115
X46.322 Y12.904
X46.12 Y12.736
X45.885 Y12.62
X45.629 Y12.563
X45.366 Y12.569
X44.846 Y12.643
G2 X44.603 Y12.987 I0.052 J0.295
G1 X44.655 Y13.3
X45.066 Y15.768 F1200
X45.12 Y16.096 F100
G2 X45.447 Y16.345 I0.296 J-0.049
G1 X46.035 Y16.262
X46.22 Y16.226
X46.539 Y16.029
X46.997 Y15.435
X47.185 Y14.709
X47.22 Y13.96
X47.108 Y13.219
X46.98 Y13.008
X46.821 Y12.806
X46.62 Y12.647
X46.388 Y12.538
X46.137 Y12.486
X45.881 Y12.494
X45.366 Y12.569
G2 X45.124 Y12.92 I0.052 J0.295
G1 X45.182 Y13.226
X45.646 Y15.687 F1200
X45.709 Y16.019 F100
G2 X46.035 Y16.262 I0.295 J-0.056
G1 X46.539 Y16.19
X46.723 Y16.152
X47.045 Y15.96
X47.522 Y15.381
X47.714 Y14.656
X47.747 Y13.907
X47.643 Y13.164
X47.511 Y12.942
X47.353 Y12.737
X47.152 Y12.574
X46.918 Y12.463
X46.665 Y12.409
X46.406 Y12.416
X45.881 Y12.494
G2 X45.64 Y12.843 I0.054 J0.295
G1 X45.697 Y13.152
X46.151 Y15.615 F1200
X46.213 Y15.946 F100
G2 X46.539 Y16.19 I0.295 J-0.054
G1 X47.102 Y16.101
X47.286 Y16.063
X47.605 Y15.866
X48.063 Y15.272
X48.247 Y14.545
X48.273 Y13.796
X48.154 Y13.055
X48.022 Y12.842
X47.861 Y12.641
X47.658 Y12.483
X47.424 Y12.376
X47.171 Y12.326
X46.914 Y12.337
X46.406 Y12.416
G2 X46.165 Y12.769 I0.054 J0.295
G1 X46.225 Y13.074
X46.707 Y15.532 F1200
X46.771 Y15.861 F100
G2 X47.102 Y16.101 I0.294 J-0.058
G1 X47.631 Y16.018
X47.815 Y15.978
X48.133 Y15.78
X48.595 Y15.189
X48.776 Y14.461
X48.798 Y13.712
X48.679 Y12.971
X48.545 Y12.757
X48.384 Y12.556
X48.182 Y12.398
X47.948 Y12.292
X47.695 Y12.242
X47.438 Y12.253
X46.914 Y12.337
G2 X46.678 Y12.691 I0.058 J0.294
G1 X46.74 Y12.997
X47.234 Y15.449 F1200
X47.301 Y15.779 F100
G2 X47.631 Y16.018 I0.294 J-0.059
G1 X48.194 Y15.926
X48.377 Y15.886
X48.69 Y15.679
X49.135 Y15.075
X49.307 Y14.345
X49.321 Y13.595
X49.19 Y12.857
X49.055 Y12.65
X48.891 Y12.452
X48.685 Y12.298
X48.449 Y12.196
X48.196 Y12.152
X47.94 Y12.167
X47.438 Y12.253
G2 X47.203 Y12.61 I0.058 J0.294
G1 X47.267 Y12.912
X47.792 Y15.359 F1200
X47.863 Y15.691 F100
G2 X48.194 Y15.926 I0.293 J-0.063
G1 X48.723 Y15.839
X48.906 Y15.796
X49.217 Y15.587
X49.665 Y14.985
X49.835 Y14.255
X49.845 Y13.505
X49.714 Y12.766
X49.577 Y12.556
X49.413 Y12.359
X49.207 Y12.205
X48.971 Y12.103
X48.718 Y12.058
X48.462 Y12.074
X47.94 Y12.167
G2 X47.71 Y12.525 I0.063 J0.293
G1 X47.777 Y12.83
X48.319 Y15.273 F1200
X48.392 Y15.607 F100
G2 X48.723 Y15.839 I0.293 J-0.065
G1 X49.286 Y15.734
X49.468 Y15.69
X49.774 Y15.473
X50.205 Y14.859
X50.365 Y14.126
Y13.376
X50.221 Y12.64
X50.085 Y12.44
X49.917 Y12.246
X49.709 Y12.097
X49.472 Y12
X49.219 Y11.96
X48.964 Y11.98
X48.462 Y12.074
G2 X48.233 Y12.435 I0.063 J0.293
G1 X48.303 Y12.736
X48.872 Y15.176 F1200
X48.949 Y15.505 F100
G2 X49.286 Y15.734 I0.292 J-0.068
G1 X49.815 Y15.635
X49.997 Y15.589
X50.302 Y15.37
X50.734 Y14.758
X50.891 Y14.024
X50.887 Y13.274
X50.743 Y12.538
X50.604 Y12.336
X50.436 Y12.143
X50.228 Y11.994
X49.992 Y11.897
X49.739 Y11.858
X49.484 Y11.877
X48.964 Y11.98
G2 X48.74 Y12.342 I0.068 J0.292
G1 X48.813 Y12.645
X49.399 Y15.078 F1200
X49.479 Y15.408 F100
G2 X49.815 Y15.635 I0.292 J-0.07
G1 X50.378 Y15.523
X50.56 Y15.477
X50.857 Y15.249
X51.272 Y14.624
X51.418 Y13.888
X51.406 Y13.138
X51.249 Y12.405
X51.113 Y12.214
X50.943 Y12.026
X50.735 Y11.882
X50.499 Y11.79
X50.248 Y11.753
X49.996 Y11.775
X49.484 Y11.877
G2 X49.262 Y12.244 I0.068 J0.292
G1 X49.337 Y12.542
X49.955 Y14.971 F1200
X50.039 Y15.301 F100
G2 X50.378 Y15.523 I0.291 J-0.074
G1 X50.741 Y15.451
X51.105 Y15.359
X51.398 Y15.125
X51.805 Y14.495
X51.944 Y13.758
X51.923 Y13.009
X51.76 Y12.277
X51.625 Y12.094
X51.455 Y11.911
X51.248 Y11.771
X51.015 Y11.681
X50.767 Y11.646
X50.518 Y11.668
X49.996 Y11.775
G2 X49.773 Y12.126 I0.07 J0.292
G1 X49.837 Y12.445
X50.334 Y14.895 F1200
X50.399 Y15.214 F100
G2 X50.741 Y15.451 I0.294 J-0.06
G1 X51.326 Y15.331
X51.689 Y15.236
X51.965 Y14.983
X52.345 Y14.336
X52.469 Y13.596
X52.436 Y12.847
X52.256 Y12.119
X52.13 Y11.958
X51.957 Y11.783
X51.751 Y11.65
X51.52 Y11.567
X51.276 Y11.537
X51.032 Y11.562
X50.518 Y11.668
G2 X50.296 Y12.025 I0.07 J0.292
G1 X50.366 Y12.337
X50.91 Y14.779 F1200
X50.982 Y15.1 F100
G2 X51.326 Y15.331 I0.293 J-0.065
G1 X51.875 Y15.216
X52.237 Y15.122
X52.773 Y14.597
X52.978 Y13.875
X53.011 Y13.126
X52.9 Y12.384
X52.583 Y11.704
X52.554 Y11.679
X52.344 Y11.537
X52.107 Y11.447
X51.856 Y11.413
X51.604 Y11.438
X51.032 Y11.562
G2 X50.813 Y11.921 I0.074 J0.291
G1 X50.886 Y12.232
X51.456 Y14.666 F1200
X51.532 Y14.989 F100
G2 X51.875 Y15.216 I0.292 J-0.068
G1 X52.56 Y15.067
X52.741 Y15.018
X53.027 Y14.775
X53.43 Y14.143
X53.55 Y13.403
X53.509 Y12.654
X53.292 Y11.936
X53.217 Y11.818
X53.045 Y11.612
X52.829 Y11.454
X52.581 Y11.353
X52.315 Y11.314
X52.049 Y11.341
X51.604 Y11.438
G2 X51.388 Y11.807 I0.074 J0.291
G1 X51.47 Y12.105
X52.128 Y14.523 F1200
X52.217 Y14.851 F100
G2 X52.56 Y15.067 I0.289 J-0.079
G1 X52.925 Y14.987
X53.287 Y14.889
X53.571 Y14.645
X53.957 Y14.002
X54.07 Y13.26
X54.014 Y12.512
X53.805 Y11.792
X53.675 Y11.624
X53.501 Y11.445
X53.291 Y11.311
X53.057 Y11.227
X52.809 Y11.198
X52.562 Y11.225
X52.049 Y11.341
G2 X51.834 Y11.702 I0.077 J0.29
G1 X51.909 Y12.013
X52.501 Y14.441 F1200
X52.579 Y14.763 F100
G2 X52.925 Y14.987 I0.291 J-0.071
G1 X53.652 Y14.822
X53.833 Y14.771
X54.108 Y14.516
X54.482 Y13.866
X54.586 Y13.123
X54.524 Y12.376
X54.32 Y11.654
X54.186 Y11.488
X54.012 Y11.316
X53.805 Y11.186
X53.573 Y11.106
X53.33 Y11.079
X53.087 Y11.106
X52.562 Y11.225
G2 X52.353 Y11.606 I0.077 J0.29
G1 X52.443 Y11.891
X53.204 Y14.286 F1200
X53.309 Y14.618 F100
G2 X53.652 Y14.822 I0.286 J-0.091
G1 X54.017 Y14.738
X54.378 Y14.636
X54.646 Y14.375
X55.007 Y13.717
X55.102 Y12.973
X55.035 Y12.226
X54.829 Y11.505
X54.696 Y11.347
X54.52 Y11.178
X54.311 Y11.053
X54.079 Y10.976
X53.836 Y10.953
X53.595 Y10.983
X53.087 Y11.106
G2 X52.873 Y11.472 I0.077 J0.29
G1 X52.953 Y11.776
X53.585 Y14.197 F1200
X53.67 Y14.52 F100
G2 X54.017 Y14.738 I0.29 J-0.076
G1 X54.744 Y14.563
X54.924 Y14.509
X55.442 Y13.967
X55.62 Y13.238
X55.622 Y12.488
X55.484 Y11.751
X55.145 Y11.082
X55.117 Y11.059
X54.904 Y10.924
X54.666 Y10.841
X54.415 Y10.814
X54.165 Y10.845
X53.595 Y10.983
G2 X53.391 Y11.368 I0.081 J0.289
G1 X53.486 Y11.651
X54.287 Y14.033 F1200
X54.399 Y14.365 F100
G2 X54.744 Y14.563 I0.284 J-0.096
G1 X55.109 Y14.474
X55.468 Y14.366
X55.727 Y14.095
X56.094 Y13.441
X56.173 Y12.695
X56.095 Y11.949
X55.843 Y11.243
X55.761 Y11.133
X55.581 Y10.945
X55.362 Y10.804
X55.116 Y10.719
X54.857 Y10.694
X54.6 Y10.73
X54.165 Y10.845
G2 X53.956 Y11.211 I0.081 J0.289
G1 X54.037 Y11.519
X54.674 Y13.937 F1200
X54.758 Y14.256 F100
G2 X55.109 Y14.474 I0.29 J-0.076
G1 X55.585 Y14.35
X55.8 Y14.292
X55.979 Y14.235
X56.248 Y13.974
X56.606 Y13.315
X56.688 Y12.569
X56.604 Y11.824
X56.371 Y11.111
X56.233 Y10.948
X56.053 Y10.778
X55.84 Y10.653
X55.604 Y10.579
X55.357 Y10.559
X55.112 Y10.595
X54.6 Y10.73
G2 X54.404 Y11.117 I0.087 J0.287
G1 X54.503 Y11.401
X55.335 Y13.771 F1200
X55.45 Y14.099 F100
G2 X55.8 Y14.292 I0.283 J-0.099
G1 X56.142 Y14.201
X56.499 Y14.086
X56.768 Y13.826
X57.123 Y13.165
X57.199 Y12.419
X57.111 Y11.674
X56.883 Y10.959
X56.739 Y10.793
X56.555 Y10.624
X56.338 Y10.501
X56.099 Y10.431
X55.85 Y10.416
X55.604 Y10.457
X55.112 Y10.595
G2 X54.91 Y10.965 I0.087 J0.287
G1 X54.999 Y11.271
X55.694 Y13.674 F1200
X55.786 Y13.992 F100
G2 X56.142 Y14.201 I0.288 J-0.083
G1 X56.701 Y14.044
X57.055 Y13.922
X57.314 Y13.65
X57.644 Y12.977
X57.708 Y12.23
X57.612 Y11.486
X57.375 Y10.774
X57.236 Y10.623
X57.052 Y10.462
X56.838 Y10.346
X56.604 Y10.28
X56.36 Y10.267
X56.12 Y10.308
X55.604 Y10.457
G2 X55.411 Y10.831 I0.093 J0.285
G1 X55.505 Y11.135
X56.244 Y13.526 F1200
X56.341 Y13.841 F100
G2 X56.701 Y14.044 I0.287 J-0.089
G1 X57.293 Y13.873
X57.471 Y13.812
X57.751 Y13.563
X58.144 Y12.924
X58.225 Y12.179
X58.147 Y11.433
X57.938 Y10.713
X57.786 Y10.525
X57.6 Y10.344
X57.377 Y10.211
X57.128 Y10.134
X56.869 Y10.118
X56.613 Y10.163
X56.12 Y10.308
G2 X55.929 Y10.689 I0.093 J0.285
G1 X56.028 Y10.984
X56.828 Y13.357 F1200
X56.936 Y13.678 F100
G2 X57.293 Y13.873 I0.284 J-0.096
G1 X57.793 Y13.724
X57.969 Y13.661
X58.264 Y13.43
X58.656 Y12.79
X58.739 Y12.045
X58.663 Y11.298
X58.456 Y10.578
X58.293 Y10.375
X58.107 Y10.193
X57.883 Y10.059
X57.635 Y9.982
X57.375 Y9.966
X57.118 Y10.011
X56.613 Y10.163
G2 X56.425 Y10.543 I0.097 J0.284
G1 X56.526 Y10.842
X57.325 Y13.214 F1200
X57.432 Y13.53 F100
G2 X57.793 Y13.724 I0.284 J-0.096
G1 X58.386 Y13.545
X58.562 Y13.482
X58.838 Y13.228
X59.183 Y12.562
X59.25 Y11.815
X59.16 Y11.071
X58.922 Y10.359
X58.768 Y10.184
X58.58 Y10.014
X58.358 Y9.892
X58.114 Y9.823
X57.86 Y9.813
X57.611 Y9.86
X57.118 Y10.011
G2 X56.933 Y10.399 I0.097 J0.284
G1 X57.039 Y10.686
X57.909 Y13.038 F1200
X58.027 Y13.359 F100
G2 X58.386 Y13.545 I0.281 J-0.104
G1 X58.885 Y13.39
X59.061 Y13.325
X59.336 Y13.071
X59.694 Y12.411
X59.761 Y11.664
X59.667 Y10.92
X59.435 Y10.207
X59.277 Y10.026
X59.088 Y9.855
X58.866 Y9.732
X58.621 Y9.663
X58.367 Y9.653
X58.117 Y9.701
X57.611 Y9.86
G2 X57.43 Y10.247 I0.1 J0.283
G1 X57.537 Y10.538
X58.406 Y12.887 F1200
X58.523 Y13.205 F100
G2 X58.885 Y13.39 I0.281 J-0.104
G1 X59.274 Y13.268
X59.626 Y13.137
X59.888 Y12.869
X60.214 Y12.194
X60.267 Y11.446
X60.161 Y10.703
X59.91 Y9.997
X59.761 Y9.837
X59.572 Y9.676
X59.351 Y9.561
X59.111 Y9.499
X58.863 Y9.492
X58.619 Y9.542
X58.117 Y9.701
G2 X57.932 Y10.076 I0.1 J0.283
G1 X58.032 Y10.382
X58.808 Y12.76 F1200
X58.909 Y13.071 F100
G2 X59.274 Y13.268 I0.285 J-0.093
G1 X59.896 Y13.07
X60.071 Y13.004
X60.347 Y12.749
X60.716 Y12.097
X60.78 Y11.35
X60.684 Y10.606
X60.454 Y9.892
X60.295 Y9.707
X60.106 Y9.534
X59.881 Y9.409
X59.633 Y9.339
X59.376 Y9.329
X59.124 Y9.379
X58.619 Y9.542
G2 X58.44 Y9.928 I0.102 J0.282
G1 X58.548 Y10.22
X59.416 Y12.569 F1200
X59.533 Y12.886 F100
G2 X59.896 Y13.07 I0.281 J-0.104
G1 X60.395 Y12.909
X60.57 Y12.843
X60.856 Y12.599
X61.225 Y11.947
X61.29 Y11.2
X61.195 Y10.456
X60.967 Y9.741
X60.802 Y9.548
X60.613 Y9.373
X60.388 Y9.247
X60.139 Y9.177
X59.882 Y9.166
X59.628 Y9.216
X59.124 Y9.379
G2 X58.945 Y9.764 I0.102 J0.282
G1 X59.052 Y10.058
X59.915 Y12.408 F1200
X60.031 Y12.724 F100
G2 X60.395 Y12.909 I0.282 J-0.103
G1 X60.917 Y12.74
X61.092 Y12.673
X61.377 Y12.428
X61.737 Y11.77
X61.798 Y11.023
X61.7 Y10.279
X61.466 Y9.567
X61.299 Y9.376
X61.109 Y9.203
X60.883 Y9.079
X60.635 Y9.01
X60.378 Y9.001
X60.126 Y9.053
X59.628 Y9.216
G2 X59.449 Y9.603 I0.102 J0.282
G1 X59.558 Y9.894
X60.435 Y12.241 F1200
X60.553 Y12.556 F100
G2 X60.917 Y12.74 I0.281 J-0.105
G1 X61.459 Y12.563
X61.634 Y12.495
X61.909 Y12.24
X62.251 Y11.573
X62.305 Y10.825
X62.199 Y10.083
X61.953 Y9.374
X61.791 Y9.195
X61.601 Y9.027
X61.377 Y8.908
X61.132 Y8.843
X60.879 Y8.836
X60.631 Y8.887
X60.126 Y9.053
G2 X59.95 Y9.443 I0.104 J0.282
G1 X60.062 Y9.73
X60.972 Y12.065 F1200
X61.096 Y12.383 F100
G2 X61.459 Y12.563 I0.28 J-0.109
G1 X61.828 Y12.442
X62.175 Y12.3
X62.44 Y12.035
X62.765 Y11.359
X62.808 Y10.61
X62.691 Y9.87
X62.432 Y9.166
X62.272 Y8.999
X62.079 Y8.837
X61.853 Y8.724
X61.608 Y8.666
X61.356 Y8.664
X61.111 Y8.72
X60.631 Y8.887
G2 X60.45 Y9.264 I0.104 J0.282
G1 X60.554 Y9.569
X61.355 Y11.939 F1200
X61.46 Y12.25 F100
G2 X61.828 Y12.442 I0.284 J-0.096
G1 X62.477 Y12.214
X62.65 Y12.143
X62.921 Y11.883
X63.269 Y11.219
X63.316 Y10.47
X63.202 Y9.729
X62.955 Y9.021
X62.788 Y8.838
X62.593 Y8.669
X62.364 Y8.551
X62.114 Y8.488
X61.857 Y8.486
X61.606 Y8.544
X61.111 Y8.72
G2 X60.942 Y9.111 I0.109 J0.279
G1 X61.057 Y9.401
X61.984 Y11.725 F1200
X62.109 Y12.039 F100
G2 X62.477 Y12.214 I0.279 J-0.111
G1 X62.92 Y12.059
X63.264 Y11.911
X63.506 Y11.624
X63.791 Y10.93
X63.812 Y10.181
X63.676 Y9.443
X63.387 Y8.751
X63.238 Y8.607
X63.042 Y8.456
X62.817 Y8.352
X62.574 Y8.302
X62.325 Y8.307
X62.085 Y8.368
X61.606 Y8.544
G2 X61.436 Y8.929 I0.111 J0.279
G1 X61.548 Y9.227
X62.433 Y11.568 F1200
X62.55 Y11.878 F100
G2 X62.92 Y12.059 I0.281 J-0.106
G1 X63.582 Y11.812
X63.754 Y11.738
X63.996 Y11.451
X64.293 Y10.763
X64.315 Y10.013
X64.176 Y9.276
X63.899 Y8.579
X63.743 Y8.425
X63.546 Y8.271
X63.32 Y8.166
X63.075 Y8.114
X62.826 Y8.119
X62.583 Y8.18
X62.085 Y8.368
G2 X61.926 Y8.767 I0.116 J0.277
G1 X62.051 Y9.047
X63.073 Y11.336 F1200
X63.213 Y11.65 F100
G2 X63.582 Y11.812 I0.274 J-0.122
G1 X64.012 Y11.652
X64.182 Y11.573
X64.448 Y11.308
X64.791 Y10.641
X64.823 Y9.892
X64.694 Y9.153
X64.436 Y8.449
X64.264 Y8.266
X64.061 Y8.095
X63.822 Y7.979
X63.562 Y7.923
X63.297 Y7.931
X63.041 Y8.003
X62.92 Y8.053
X62.583 Y8.18
G2 X62.422 Y8.572 I0.116 J0.277
G1 X62.543 Y8.862
X63.51 Y11.173 F1200
X63.64 Y11.483 F100
G2 X64.012 Y11.652 I0.277 J-0.116
G1 X64.575 Y11.423
X64.745 Y11.344
X65.002 Y11.071
X65.301 Y10.383
X65.316 Y9.634
X65.175 Y8.897
X64.89 Y8.203
X64.716 Y8.033
X64.513 Y7.876
X64.279 Y7.77
X64.028 Y7.721
X63.771 Y7.732
X63.524 Y7.802
X63.041 Y8.003
G2 X62.893 Y8.4 I0.125 J0.273
G1 X63.023 Y8.686
X64.059 Y10.959 F1200
X64.198 Y11.266 F100
G2 X64.575 Y11.423 I0.273 J-0.124
G1 X64.938 Y11.276
X65.278 Y11.117
X65.523 Y10.833
X65.805 Y10.139
X65.809 Y9.389
X65.653 Y8.655
X65.354 Y7.967
X65.186 Y7.81
X64.982 Y7.66
X64.75 Y7.561
X64.502 Y7.517
X64.25 Y7.53
X64.007 Y7.601
X63.524 Y7.802
G2 X63.371 Y8.188 I0.125 J0.273
G1 X63.494 Y8.491
X64.434 Y10.806 F1200
X64.557 Y11.107 F100
G2 X64.938 Y11.276 I0.278 J-0.113
G1 X65.483 Y11.046
X65.82 Y10.881
X66.049 Y10.584
X66.307 Y9.88
X66.296 Y9.13
X66.124 Y8.4
X65.812 Y7.718
X65.636 Y7.564
X65.426 Y7.42
X65.189 Y7.327
X64.936 Y7.292
X64.683 Y7.316
X64.442 Y7.397
X64.007 Y7.601
G2 X63.858 Y7.992 I0.126 J0.272
G1 X63.985 Y8.289
X64.971 Y10.586 F1200
X65.099 Y10.885 F100
G2 X65.483 Y11.046 I0.276 J-0.118
G1 X66.037 Y10.808
X66.205 Y10.725
X66.464 Y10.454
X66.799 Y9.783
X66.806 Y9.033
X66.653 Y8.299
X66.37 Y7.604
X66.167 Y7.398
X65.955 Y7.23
X65.708 Y7.118
X65.441 Y7.071
X65.171 Y7.09
X64.913 Y7.174
X64.442 Y7.397
G2 X64.308 Y7.791 I0.137 J0.267
G1 X64.446 Y8.085
X65.513 Y10.355 F1200
X65.655 Y10.656 F100
G2 X66.037 Y10.808 I0.271 J-0.128
G1 X66.529 Y10.59
X66.863 Y10.42
X67.079 Y10.113
X67.309 Y9.399
X67.277 Y8.65
X67.091 Y7.924
X66.743 Y7.259
X66.54 Y7.084
X66.329 Y6.942
X66.091 Y6.851
X65.838 Y6.818
X65.585 Y6.844
X65.344 Y6.927
X65.129 Y7.064
G2 X65.044 Y7.392 I0.197 J0.226
G1 X65.188 Y7.792
X66.031 Y10.129 F1200
X66.134 Y10.414 F100
G2 X66.529 Y10.59 I0.282 J-0.102
G1 X67.003 Y10.378
X67.338 Y10.208
X67.555 Y9.903
X67.799 Y9.194
X67.767 Y8.444
X67.574 Y7.719
X67.241 Y7.047
X66.683 Y6.546
X66.599 Y6.519
X66.331 Y6.467
X66.058 Y6.483
X65.797 Y6.566
X65.565 Y6.71
X65.129 Y7.064
G2 X65.064 Y7.436 I0.197 J0.226
G1 X65.247 Y7.765
X66.458 Y9.939 F1200
X66.628 Y10.246 F100
G2 X67.003 Y10.378 I0.262 J-0.146
G1 X67.288 Y10.251
X67.563 Y10.114
X67.89 Y9.931
X68.284 Y9.293
X68.316 Y8.544
X68.179 Y7.806
X67.903 Y7.109
X67.446 Y6.515
X67.424 Y6.499
X67.17 Y6.351
X66.889 Y6.262
X66.595 Y6.236
X66.303 Y6.275
X66.027 Y6.377
X65.779 Y6.536
X65.565 Y6.71
G2 X65.502 Y7.087 I0.197 J0.226
G1 X65.688 Y7.409
X67.008 Y9.694 F1200
X67.18 Y9.991 F100
G2 X67.563 Y10.114 I0.26 J-0.15
G1 X68.19 Y9.803
X68.38 Y9.693
X68.585 Y9.379
X68.82 Y8.667
X68.761 Y7.919
X68.546 Y7.201
X68.169 Y6.553
X67.636 Y6.025
X66.936 Y5.754
X66.802 Y5.759
X66.56 Y5.794
X66.333 Y5.882
X66.13 Y6.018
X65.963 Y6.195
X65.838 Y6.405
G2 X65.879 Y6.703 I0.278 J0.114
G1 X66.167 Y7.075
X67.897 Y9.313 F1200
X68.044 Y9.502 F100
G2 X68.518 Y9.504 I0.237 J-0.184
G1 X68.975 Y8.874
X69.091 Y8.714
X69.301 Y7.995
X69.147 Y7.261
X68.833 Y6.579
X68.375 Y5.986
X67.778 Y5.532
X67.08 Y5.257
X66.954 Y5.27
X66.674 Y5.336
X66.422 Y5.471
X66.213 Y5.668
X66.061 Y5.912
X65.838 Y6.405
G2 X65.944 Y6.765 I0.278 J0.114
G1 X66.256 Y6.983
X68.498 Y8.548 F1200
X68.697 Y8.686 F100
G2 X69.148 Y8.549 I0.172 J-0.246
G1 X69.405 Y7.812
X69.51 Y7.452
X69.443 Y6.705
X69.095 Y6.041
X68.593 Y5.484
X67.979 Y5.053
X67.286 Y4.767
X67.155 Y4.781
X66.911 Y4.834
X66.686 Y4.942
X66.491 Y5.097
X66.336 Y5.293
X66.229 Y5.518
X66.196 Y5.614
X66.061 Y5.912
G2 X66.184 Y6.283 I0.278 J0.114
G1 X66.492 Y6.468
X68.745 Y7.826 F1200
X68.97 Y7.961 F100
G2 X69.405 Y7.812 I0.155 J-0.257
G1 X69.663 Y7.063
X69.767 Y6.702
X69.628 Y5.965
X69.206 Y5.346
X68.647 Y4.846
X67.998 Y4.469
X67.276 Y4.268
X67.196 Y4.286
X66.935 Y4.383
X66.707 Y4.542
X66.526 Y4.753
X66.404 Y5.004
X66.229 Y5.518
G2 X66.388 Y5.877 I0.287 J0.087
G1 X66.711 Y6.029
X68.991 Y7.103 F1200
X69.255 Y7.227 F100
G2 X69.663 Y7.063 I0.128 J-0.271
G1 X69.905 Y6.355
X69.956 Y6.175
X69.861 Y5.431
X69.416 Y4.827
X68.844 Y4.342
X68.187 Y3.981
X67.47 Y3.76
X67.386 Y3.778
X67.119 Y3.873
X66.885 Y4.032
X66.7 Y4.246
X66.575 Y4.5
X66.404 Y5.004
G2 X66.581 Y5.369 I0.287 J0.087
G1 X66.896 Y5.494
X69.226 Y6.414 F1200
X69.514 Y6.528 F100
G2 X69.905 Y6.355 I0.11 J-0.279
G1 X70.088 Y5.816
X70.139 Y5.635
X70.109 Y5.261
X69.845 Y4.559
X69.319 Y4.025
X68.691 Y3.614
X67.997 Y3.332
X67.805 Y3.324
X67.521 Y3.349
X67.252 Y3.446
X67.018 Y3.609
X66.834 Y3.827
X66.711 Y4.085
X66.575 Y4.5
G2 X66.755 Y4.867 I0.287 J0.087
G1 X67.069 Y4.986
X69.408 Y5.878 F1200
X69.7 Y5.99 F100
G2 X70.088 Y5.816 I0.107 J-0.28
G1 X70.271 Y5.266
X70.32 Y5.085
X70.303 Y4.711
X70.011 Y4.019
X69.476 Y3.495
X68.84 Y3.097
X68.138 Y2.833
X67.875 Y2.842
X67.61 Y2.884
X67.363 Y2.989
X67.149 Y3.151
X66.98 Y3.36
X66.867 Y3.603
X66.711 Y4.085
G2 X66.905 Y4.451 I0.288 J0.082
G1 X67.216 Y4.555
X69.589 Y5.347 F1200
X69.894 Y5.449 F100
G2 X70.271 Y5.266 I0.095 J-0.285
G1 X70.445 Y4.727
X70.494 Y4.546
X70.473 Y4.171
X70.174 Y3.483
X69.63 Y2.967
X68.987 Y2.582
X68.28 Y2.332
X68.012 Y2.347
X67.752 Y2.393
X67.511 Y2.5
X67.302 Y2.661
X67.138 Y2.868
X67.027 Y3.107
X66.867 Y3.603
G2 X67.066 Y3.972 I0.288 J0.082
G1 X67.373 Y4.068
X69.761 Y4.813 F1200
X70.074 Y4.911 F100
G2 X70.445 Y4.727 I0.089 J-0.286
G1 X70.623 Y4.177
X70.671 Y3.996
X70.64 Y3.623
X70.326 Y2.942
X69.772 Y2.436
X69.121 Y2.063
X68.409 Y1.827
X68.151 Y1.847
X67.897 Y1.898
X67.661 Y2.006
X67.458 Y2.167
X67.297 Y2.371
X67.189 Y2.606
X67.027 Y3.107
G2 X67.232 Y3.477 I0.289 J0.082
G1 X67.535 Y3.566
X69.937 Y4.269 F1200
X70.256 Y4.363 F100
G2 X70.623 Y4.177 I0.084 J-0.288
G1 X70.797 Y3.638
X70.846 Y3.457
X70.805 Y3.084
X70.479 Y2.408
X69.917 Y1.911
X69.261 Y1.548
X68.546 Y1.322
X68.299 Y1.344
X68.05 Y1.397
X67.819 Y1.505
X67.62 Y1.664
X67.462 Y1.864
X67.355 Y2.095
X67.189 Y2.606
G2 X67.397 Y2.977 I0.289 J0.082
G1 X67.698 Y3.061
X70.11 Y3.734 F1200
X70.434 Y3.824 F100
G2 X70.797 Y3.638 I0.081 J-0.289
G1 X70.976 Y3.088
X71.026 Y2.908
X70.969 Y2.537
X70.624 Y1.871
X70.054 Y1.384
X69.392 Y1.031
X68.674 Y0.814
X68.444 Y0.84
X68.2 Y0.896
X67.975 Y1.006
X67.781 Y1.163
X67.628 Y1.361
X67.523 Y1.588
X67.355 Y2.095
G2 X67.567 Y2.469 I0.288 J0.084
G1 X67.863 Y2.547
X70.286 Y3.187 F1200
X70.618 Y3.274 F100
G2 X70.976 Y3.088 I0.077 J-0.29
G1 X71.102 Y2.708
X71.202 Y2.347
X71.125 Y1.98
X70.757 Y1.326
X70.177 Y0.85
X69.51 Y0.508
X68.788 Y0.304
X68.582 Y0.333
X68.346 Y0.394
X68.129 Y0.505
X67.942 Y0.661
X67.794 Y0.855
X67.692 Y1.076
X67.523 Y1.588
G2 X67.722 Y1.958 I0.288 J0.084
G1 X68.027 Y2.053
X70.416 Y2.793 F1200
X70.732 Y2.891 F100
G2 X71.102 Y2.708 I0.089 J-0.287
G1 X71.276 Y2.181
X71.376 Y1.819
X71.288 Y1.455
X70.911 Y0.806
X70.327 Y0.335
X69.657 Y-0.002
X68.936 Y-0.207
X68.741 Y-0.177
X68.507 Y-0.115
X68.293 Y-0.003
X68.109 Y0.152
X67.962 Y0.345
X67.861 Y0.564
X67.692 Y1.076
G2 X67.892 Y1.448 I0.288 J0.084
G1 X68.196 Y1.54
X70.59 Y2.267 F1200
X70.908 Y2.363 F100
G2 X71.276 Y2.181 I0.087 J-0.287
G1 X71.491 Y1.533
X71.541 Y1.353
X71.462 Y0.986
X71.106 Y0.326
X70.526 Y-0.15
X69.86 Y-0.494
X69.143 Y-0.714
X68.938 Y-0.688
X68.697 Y-0.63
X68.476 Y-0.52
X68.285 Y-0.363
X68.133 Y-0.167
X68.03 Y0.057
X67.861 Y0.564
G2 X68.075 Y0.939 I0.288 J0.084
G1 X68.369 Y1.014
X70.8 Y1.634 F1200
X71.136 Y1.72 F100
G2 X71.491 Y1.533 I0.074 J-0.291
G1 X71.637 Y1.092
X71.687 Y0.911
X71.637 Y0.539
X71.318 Y-0.139
X70.746 Y-0.624
X70.085 Y-0.979
X69.373 Y-1.215
X69.143 Y-1.195
X68.893 Y-1.143
X68.662 Y-1.035
X68.462 Y-0.877
X68.304 Y-0.677
X68.196 Y-0.445
X68.03 Y0.057
G2 X68.237 Y0.431 I0.288 J0.084
G1 X68.536 Y0.514
X70.949 Y1.185 F1200
X71.276 Y1.276 F100
G2 X71.637 Y1.092 I0.08 J-0.289
G1 X71.76 Y0.723
X71.86 Y0.362
X71.805 Y-0.009
X71.456 Y-0.673
X70.879 Y-1.152
X70.216 Y-1.503
X69.499 Y-1.722
X69.279 Y-1.696
X69.037 Y-1.639
X68.814 Y-1.53
X68.621 Y-1.372
X68.468 Y-1.176
X68.364 Y-0.95
X68.196 Y-0.445
G2 X68.391 Y-0.076 I0.288 J0.084
G1 X68.698 Y0.025
X71.075 Y0.803 F1200
X71.385 Y0.904 F100
G2 X71.76 Y0.723 I0.093 J-0.285
G1 X71.999 Y0.003
X72.049 Y-0.178
X71.971 Y-0.545
X71.604 Y-1.199
X71.023 Y-1.674
X70.357 Y-2.018
X69.638 Y-2.231
X69.43 Y-2.203
X69.192 Y-2.143
X68.973 Y-2.033
X68.785 Y-1.876
X68.635 Y-1.682
X68.533 Y-1.459
X68.364 Y-0.95
G2 X68.579 Y-0.575 I0.288 J0.084
G1 X68.872 Y-0.502
X71.308 Y0.105 F1200
X71.645 Y0.189 F100
G2 X71.999 Y0.003 I0.073 J-0.291
G1 X72.109 Y-0.33
X72.209 Y-0.691
X72.13 Y-1.058
X71.763 Y-1.712
X71.182 Y-2.185
X70.514 Y-2.527
X69.795 Y-2.74
X69.593 Y-2.712
X69.357 Y-2.652
X69.139 Y-2.541
X68.952 Y-2.384
X68.804 Y-2.191
X68.702 Y-1.969
X68.533 Y-1.459
G2 X68.731 Y-1.088 I0.288 J0.084
G1 X69.036 Y-0.993
X71.423 Y-0.246 F1200
X71.738 Y-0.148 F100
G2 X72.109 Y-0.33 I0.09 J-0.286
G1 X72.305 Y-0.921
X72.355 Y-1.101
X72.307 Y-1.473
X71.998 Y-2.157
X71.428 Y-2.644
X70.768 Y-3.001
X70.057 Y-3.239
X69.823 Y-3.22
X69.571 Y-3.17
X69.338 Y-3.062
X69.136 Y-2.904
X68.976 Y-2.702
X68.867 Y-2.469
X68.702 Y-1.969
G2 X68.908 Y-1.596 I0.288 J0.084
G1 X69.207 Y-1.511
X71.617 Y-0.828 F1200
X71.942 Y-0.736 F100
G2 X72.305 Y-0.921 I0.082 J-0.289
G1 X72.469 Y-1.419
X72.519 Y-1.599
X72.489 Y-1.973
X72.176 Y-2.655
X71.607 Y-3.144
X70.95 Y-3.504
X70.238 Y-3.742
X69.991 Y-3.722
X69.738 Y-3.672
X69.505 Y-3.565
X69.302 Y-3.406
X69.142 Y-3.205
X69.033 Y-2.971
X68.867 Y-2.469
G2 X69.073 Y-2.096 I0.288 J0.084
G1 X69.373 Y-2.011
X71.782 Y-1.326 F1200
X72.106 Y-1.234 F100
G2 X72.469 Y-1.419 I0.082 J-0.289
G1 X72.598 Y-1.807
X72.698 Y-2.169
X72.648 Y-2.54
X72.3 Y-3.205
X71.724 Y-3.685
X71.06 Y-4.035
X70.342 Y-4.249
X70.116 Y-4.223
X69.872 Y-4.166
X69.647 Y-4.055
X69.453 Y-3.896
X69.3 Y-3.697
X69.196 Y-3.469
X69.033 Y-2.971
G2 X69.228 Y-2.602 I0.288 J0.084
G1 X69.536 Y-2.502
X71.914 Y-1.727 F1200
X72.224 Y-1.626 F100
G2 X72.598 Y-1.807 I0.093 J-0.285
G1 X72.802 Y-2.429
X72.85 Y-2.61
X72.816 Y-2.983
X72.513 Y-3.67
X71.945 Y-4.159
X71.286 Y-4.517
X70.573 Y-4.751
X70.321 Y-4.732
X70.067 Y-4.681
X69.831 Y-4.573
X69.628 Y-4.413
X69.468 Y-4.209
X69.36 Y-3.974
X69.196 Y-3.469
G2 X69.404 Y-3.098 I0.288 J0.082
G1 X69.705 Y-3.013
X72.115 Y-2.333 F1200
X72.438 Y-2.242 F100
G2 X72.802 Y-2.429 I0.081 J-0.289
G1 X72.962 Y-2.925
X73.059 Y-3.288
X72.964 Y-3.65
X72.57 Y-4.288
X71.98 Y-4.752
X71.308 Y-5.084
X70.578 Y-5.259
X70.396 Y-5.229
X70.163 Y-5.165
X69.95 Y-5.051
X69.766 Y-4.894
X69.622 Y-4.7
X69.523 Y-4.48
X69.36 Y-3.974
G2 X69.566 Y-3.603 I0.288 J0.082
G1 X69.868 Y-3.517
X72.276 Y-2.831 F1200
X72.598 Y-2.739 F100
G2 X72.962 Y-2.925 I0.082 J-0.289
G1 X73.13 Y-3.445
X73.178 Y-3.627
X73.138 Y-3.999
X72.855 Y-4.694
X72.283 Y-5.179
X71.624 Y-5.537
X70.907 Y-5.757
X70.657 Y-5.74
X70.399 Y-5.692
X70.161 Y-5.584
X69.955 Y-5.423
X69.793 Y-5.217
X69.683 Y-4.979
X69.523 Y-4.48
G2 X69.731 Y-4.109 I0.289 J0.082
G1 X70.032 Y-4.025
X72.443 Y-3.349 F1200
X72.766 Y-3.258 F100
G2 X73.13 Y-3.445 I0.081 J-0.289
G1 X73.252 Y-3.825
X73.349 Y-4.188
X73.317 Y-4.561
X72.985 Y-5.233
X72.408 Y-5.713
X71.743 Y-6.059
X71.022 Y-6.266
X70.78 Y-6.241
X70.535 Y-6.187
X70.309 Y-6.079
X70.114 Y-5.923
X69.958 Y-5.726
X69.852 Y-5.499
X69.683 Y-4.979
G2 X69.88 Y-4.612 I0.289 J0.082
G1 X70.189 Y-4.512
X72.569 Y-3.742 F1200
X72.877 Y-3.642 F100
G2 X73.252 Y-3.825 I0.092 J-0.285
G1 X73.483 Y-4.534
X73.535 Y-4.715
X73.481 Y-5.086
X73.137 Y-5.752
X72.558 Y-6.229
X71.889 Y-6.569
X71.169 Y-6.777
X70.94 Y-6.75
X70.698 Y-6.694
X70.475 Y-6.585
X70.282 Y-6.429
X70.129 Y-6.234
X70.024 Y-6.01
X69.852 Y-5.499
G2 X70.066 Y-5.122 I0.287 J0.086
G1 X70.357 Y-5.049
X72.791 Y-4.435 F1200
X73.129 Y-4.35 F100
G2 X73.483 Y-4.534 I0.073 J-0.291
G1 X73.612 Y-4.914
X73.714 Y-5.275
X73.638 Y-5.642
X73.265 Y-6.293
X72.678 Y-6.76
X72.006 Y-7.092
X71.282 Y-7.288
X71.08 Y-7.258
X70.847 Y-7.197
X70.632 Y-7.087
X70.446 Y-6.932
X70.299 Y-6.741
X70.197 Y-6.522
X70.024 Y-6.01
G2 X70.225 Y-5.636 I0.287 J0.086
G1 X70.526 Y-5.546
X72.924 Y-4.829 F1200
X73.246 Y-4.733 F100
G2 X73.612 Y-4.914 I0.086 J-0.287
G1 X73.791 Y-5.442
X73.843 Y-5.622
X73.816 Y-5.996
X73.552 Y-6.698
X72.982 Y-7.186
X72.324 Y-7.545
X71.612 Y-7.78
X71.355 Y-7.768
X71.098 Y-7.724
X70.858 Y-7.62
X70.65 Y-7.463
X70.484 Y-7.262
X70.37 Y-7.027
X70.197 Y-6.522
G2 X70.4 Y-6.148 I0.287 J0.086
G1 X70.7 Y-6.06
X73.102 Y-5.357 F1200
X73.426 Y-5.262 F100
G2 X73.791 Y-5.442 I0.084 J-0.288
G1 X73.84 Y-5.585
X73.97 Y-5.874
X74.038 Y-6.049
X74.042 Y-6.424
X73.805 Y-7.135
X73.246 Y-7.635
X72.597 Y-8.01
X71.893 Y-8.27
X71.58
X71.311 Y-8.235
X71.058 Y-8.136
X70.837 Y-7.978
X70.662 Y-7.771
X70.543 Y-7.527
X70.37 Y-7.027
G2 X70.57 Y-6.652 I0.287 J0.088
G1 X70.87 Y-6.56
X73.266 Y-5.825 F1200
X73.612 Y-5.719 F100
G2 X73.97 Y-5.874 I0.088 J-0.287
G1 X74.2 Y-6.387
X74.268 Y-6.562
Y-6.937
X73.989 Y-7.633
X73.432 Y-8.135
X72.784 Y-8.512
X72.079 Y-8.769
X71.731 Y-8.77
X71.471 Y-8.742
X71.225 Y-8.656
X71.004 Y-8.518
X70.819 Y-8.333
X70.68 Y-8.112
X70.593 Y-7.866
X70.564 Y-7.607
G2 X70.763 Y-7.335 I0.3 J-0.01
G1 X71.165 Y-7.191
X73.502 Y-6.354 F1200
X73.829 Y-6.237 F100
G2 X74.2 Y-6.387 I0.101 J-0.282
G1 X74.264 Y-6.531 F90
X74.375 Y-6.622 F100
X74.515 Y-6.747
X74.546 Y-7.121
X74.488 Y-7.492
X74.149 Y-8.16
X73.587 Y-8.657
X72.935 Y-9.029
X72.226 Y-9.272
X71.476 Y-9.274
X70.781 Y-8.991
X70.704 Y-8.906
X70.543 Y-8.679
X70.444 Y-8.419
X70.414 Y-8.143
X70.454 Y-7.868
X70.562 Y-7.611
G2 X70.769 Y-7.466 I0.26 J-0.15
G1 X70.826 Y-7.45
X71.259 Y-7.283
X73.804 Y-6.3 F1200
G3 X73.587 Y-5.741 I-0.108 J0.28
X73.651 Y-6.317 I0.108 J-0.28
G1 X73.66 Y-6.318
G2 X74.375 Y-6.622 I-0.241 J-1.564 F100
G1 X74.544 Y-6.759
X74.683 Y-6.885
X74.831 Y-7.229
X74.796 Y-7.978
X74.401 Y-8.616
X73.843 Y-9.116
X73.197 Y-9.497
X72.495 Y-9.762
X71.748 Y-9.832
X71.016 Y-9.668
X70.37 Y-9.287
X70.264 Y-9.114
X70.149 Y-8.855
X70.104 Y-8.575
X70.132 Y-8.293
X70.231 Y-8.028
X70.394 Y-7.796
X70.434 Y-7.762
X70.48 Y-7.735
X70.53 Y-7.717
X71.135 Y-7.555
X73.79 Y-6.841 F1200
X74.285 Y-6.708 F100
G2 X74.544 Y-6.759 I0.078 J-0.29
G1 X74.932 Y-7.075
X75.077 Y-7.194
X75.189 Y-7.552
X75.184 Y-7.927
X74.981 Y-8.649
G2 X70.366 Y-9.968 I-3.041 J1.906
G1 X69.85 Y-9.409
X69.809 Y-9.292
X69.755 Y-9.061
X69.752 Y-8.823
X69.8 Y-8.591
X69.897 Y-8.374
X70.038 Y-8.183
X70.081 Y-8.147
X70.131 Y-8.119
X70.184 Y-8.102
X70.784 Y-7.965
X74.166 Y-7.192 F1200
X74.747 Y-7.059 F100
X74.809 Y-7.051
X74.872 Y-7.057
X74.932 Y-7.075
X75.114 Y-7.161
X75.279 Y-7.249
X75.483 Y-7.564
X75.591 Y-8.307
G2 X69.495 Y-9.879 I-3.547 J1.146
G1 X69.467 Y-9.703
X69.406 Y-9.467
X69.398 Y-9.224
X69.444 Y-8.985
X69.542 Y-8.762
X69.686 Y-8.566
X70.038 Y-8.183
X70.083 Y-8.146
X70.135 Y-8.117
X70.192 Y-8.1
X70.788 Y-7.98
X74.344 Y-7.262 F1200
X74.936 Y-7.143 F100
X74.996 Y-7.137
X75.056 Y-7.143
X75.114 Y-7.161
X75.583 Y-7.382
X75.748 Y-7.47
X75.913 Y-7.807
X76.03 Y-8.548
X75.784 Y-9.257
X75.358 Y-9.874
X74.818 Y-10.395
X74.412 Y-10.674
X74.232 Y-10.758
X74.033 Y-10.777
X73.84 Y-10.73
X72.748 Y-10.836 F90
X72.697 Y-10.887 F100
X72.524 Y-11.043
X72.379 Y-11.162
X71.66 Y-11.377
X70.915 Y-11.296
X70.21 Y-11.038
X69.581 Y-10.63
X69.076 Y-10.076
X69.069 Y-10.046
X69.033 Y-9.813
X69.049 Y-9.577
X69.114 Y-9.351
X69.226 Y-9.143
X69.472 Y-8.785
X69.554 Y-8.709
X69.686 Y-8.566
G2 X70.093 Y-8.548 I0.213 J-0.211
G1 X70.35 Y-8.766
X72.292 Y-10.415 F1200
X72.51 Y-10.599 F100
G2 X72.524 Y-11.043 I-0.194 J-0.229
G1 X72.008 Y-11.509
X71.784 Y-11.693
X71.045 Y-11.823
X70.313 Y-11.66
X69.64 Y-11.328
X69.056 Y-10.858
X68.994 Y-10.774
X68.877 Y-10.575
X68.804 Y-10.356
X68.778 Y-10.127
G2 X69.195 Y-9.859 I0.3 J-0.008
G1 X69.381 Y-9.938
X71.738 Y-10.942 F1200
X71.917 Y-11.018 F100
G2 X72.008 Y-11.509 I-0.117 J-0.276
G1 X71.656 Y-11.827
X71.359 Y-11.976
X71.227 Y-12.014
X71.026 Y-12.072
X70.798 Y-12.126
X70.612 Y-12.153
X70.424 Y-12.149
X70.24 Y-12.112
G2 X70.271 Y-11.533 I0.093 J0.285
G1 X70.313 Y-11.528 F1200
X70.913 Y-11.488
X70.94 Y-11.487
X70.967 Y-11.489
X70.994 Y-11.494
G2 X71.026 Y-12.072 I-0.062 J-0.294 F100
G1 X70.564 Y-12.206
X70.156 Y-12.088
X69.943 Y-12.026
X69.769 Y-11.976
X69.654 Y-11.911
X69.525 Y-11.825
X69.409 Y-11.722
X69.308 Y-11.603
G2 X69.687 Y-11.165 I0.248 J0.169
G1 X69.722 Y-11.184 F1200
X69.754 Y-11.209
X70.04 Y-11.459
X70.051 Y-11.47
G2 X69.769 Y-11.976 I-0.209 J-0.215 F100
G1 X69.472 Y-11.827
X68.783 Y-10.887
X68.775 Y-9.798
X69.226 Y-9.143
X69.271 Y-9.094
X69.326 Y-9.057
X69.387 Y-9.032
X69.952 Y-8.876
X74.823 Y-7.524 F1200
X75.384 Y-7.369 F100
X75.451 Y-7.358
X75.518 Y-7.363
X75.583 Y-7.382
X75.886 Y-7.525
X76.051 Y-7.613
X76.265 Y-7.921
X76.391 Y-8.274
X76.395 Y-9.024
X76.107 Y-9.716
X75.665 Y-10.323
X75.33 Y-10.643
X75.125 Y-10.797
X74.889 Y-10.9
X74.636 Y-10.945
X74.379 Y-10.931
X74.132 Y-10.857
G2 X73.997 Y-10.443 I0.129 J0.271
G1 X74.14 Y-10.18
X75.341 Y-7.958 F1200
X75.503 Y-7.658 F100
G2 X75.886 Y-7.525 I0.264 J-0.143
G1 X76.095 Y-7.62
X76.265 Y-7.691
X76.434 Y-7.771
X76.668 Y-8.064
X76.9 Y-8.777
X76.761 Y-9.514
X76.428 Y-10.187
X75.971 Y-10.781
X75.777 Y-10.934
X75.578 Y-11.06
X75.356 Y-11.14
X75.122 Y-11.171
X74.887 Y-11.152
X74.662 Y-11.083
X74.132 Y-10.857
G2 X74.019 Y-10.409 I0.129 J0.271
G1 X74.171 Y-10.2
X75.685 Y-8.115 F1200
X75.917 Y-7.795 F100
G2 X76.265 Y-7.691 I0.243 J-0.176
G1 X76.621 Y-7.838
X76.791 Y-7.919
X77.053 Y-8.187
X77.222 Y-8.521
X77.321 Y-9.265
X77.12 Y-9.987
X76.759 Y-10.645
X76.273 Y-11.216
X76.212 Y-11.252
X75.982 Y-11.354
X75.734 Y-11.401
X75.482 Y-11.391
X75.24 Y-11.323
X74.784 Y-11.135
X74.662 Y-11.083
G2 X74.537 Y-10.65 I0.127 J0.272
G1 X74.685 Y-10.418
X76.06 Y-8.275 F1200
X76.264 Y-7.957 F100
G2 X76.621 Y-7.838 I0.253 J-0.162
G1 X77.116 Y-8.043
X77.288 Y-8.118
X77.518 Y-8.414
X77.666 Y-8.759
X77.769 Y-9.502
X77.579 Y-10.227
X77.233 Y-10.893
X76.771 Y-11.484
X76.745 Y-11.498
X76.52 Y-11.591
X76.28 Y-11.631
X76.037 Y-11.618
X75.803 Y-11.552
X75.24 Y-11.323
G2 X75.106 Y-10.894 I0.122 J0.274
G1 X75.25 Y-10.658
X76.566 Y-8.497 F1200
X76.764 Y-8.172 F100
G2 X77.116 Y-8.043 I0.256 J-0.156
G1 X77.449 Y-8.169
X77.621 Y-8.243
X77.9 Y-8.494
X78.232 Y-9.167
X78.202 Y-9.916
X77.974 Y-10.631
X77.611 Y-11.287
X77.499 Y-11.418
X77.302 Y-11.6
X77.066 Y-11.728
X76.807 Y-11.796
X76.539 Y-11.799
X76.278 Y-11.736
X76.024 Y-11.642
X75.803 Y-11.552
G2 X75.658 Y-11.143 I0.122 J0.274
G1 X75.793 Y-10.875
X76.925 Y-8.636 F1200
X77.086 Y-8.318 F100
G2 X77.449 Y-8.169 I0.268 J-0.135
G1 X77.839 Y-8.315
X78.183 Y-8.465
X78.441 Y-8.737
X78.717 Y-9.434
X78.663 Y-10.182
X78.433 Y-10.896
X78.075 Y-11.555
X77.919 Y-11.7
X77.724 Y-11.845
X77.502 Y-11.943
X77.264 Y-11.991
X77.021 Y-11.985
X76.786 Y-11.926
X76.278 Y-11.736
G2 X76.121 Y-11.331 I0.114 J0.277
G1 X76.249 Y-11.06
X77.323 Y-8.787 F1200
X77.472 Y-8.471 F100
G2 X77.839 Y-8.315 I0.271 J-0.128
G1 X78.208 Y-8.454
X78.426 Y-8.531
X78.599 Y-8.603
X78.864 Y-8.868
X79.036 Y-9.201
X79.192 Y-9.935
X79.074 Y-10.675
X78.8 Y-11.374
X78.372 Y-11.989
X78.33 Y-12.017
X78.106 Y-12.129
X77.862 Y-12.188
X77.611 Y-12.19
X77.366 Y-12.135
X76.921 Y-11.976
X76.786 Y-11.926
G2 X76.633 Y-11.513 I0.114 J0.277
G1 X76.764 Y-11.253
X77.904 Y-9.006 F1200
X78.068 Y-8.682 F100
G2 X78.426 Y-8.531 I0.268 J-0.136
G1 X78.927 Y-8.709
X79.101 Y-8.78
X79.338 Y-9.07
X79.673 Y-9.741
X79.657 Y-10.491
X79.46 Y-11.215
X79.116 Y-11.881
X79.006 Y-12.001
X78.813 Y-12.169
X78.586 Y-12.287
X78.338 Y-12.35
X78.082 Y-12.353
X77.833 Y-12.298
X77.366 Y-12.135
G2 X77.204 Y-11.726 I0.109 J0.28
G1 X77.329 Y-11.463
X78.414 Y-9.189 F1200
X78.567 Y-8.866 F100
G2 X78.927 Y-8.709 I0.271 J-0.129
G1 X79.3 Y-8.839
X79.65 Y-8.973
X79.892 Y-9.261
X80.165 Y-9.959
X80.138 Y-10.709
X79.94 Y-11.432
X79.606 Y-12.103
X79.464 Y-12.236
X79.277 Y-12.378
X79.064 Y-12.477
X78.835 Y-12.528
X78.6 Y-12.53
X78.37 Y-12.481
X77.833 Y-12.298
G2 X77.667 Y-11.897 I0.109 J0.28
G1 X77.788 Y-11.622
X78.799 Y-9.331 F1200
X78.943 Y-9.006 F100
G2 X79.3 Y-8.839 I0.274 J-0.121
G1 X79.949 Y-9.051
X80.125 Y-9.118
X80.363 Y-9.407
X80.654 Y-10.099
X80.637 Y-10.848
X80.454 Y-11.576
X80.144 Y-12.258
X80 Y-12.397
X79.813 Y-12.543
X79.598 Y-12.645
X79.366 Y-12.698
X79.129 Y-12.701
X78.896 Y-12.652
X78.37 Y-12.481
G2 X78.203 Y-12.068 I0.103 J0.282
G1 X78.327 Y-11.814
X79.436 Y-9.537 F1200
X79.597 Y-9.208 F100
G2 X79.949 Y-9.051 I0.27 J-0.131
G1 X80.253 Y-9.15
X80.604 Y-9.284
X80.849 Y-9.568
X81.145 Y-10.257
X81.134 Y-11.007
X80.963 Y-11.737
X80.666 Y-12.426
X80.528 Y-12.561
X80.345 Y-12.705
X80.135 Y-12.807
X79.909 Y-12.863
X79.676 Y-12.87
X79.447 Y-12.827
X79.078 Y-12.711
X78.896 Y-12.652
G2 X78.72 Y-12.259 I0.103 J0.282
G1 X78.833 Y-11.976
X79.764 Y-9.647 F1200
X79.892 Y-9.327 F100
G2 X80.253 Y-9.15 I0.279 J-0.111
G1 X80.392 Y-9.196
X80.723 Y-9.293
X81.077 Y-9.418
X81.325 Y-9.698
X81.637 Y-10.38
X81.639 Y-11.13
X81.484 Y-11.864
X81.207 Y-12.561
X81.073 Y-12.698
X80.889 Y-12.849
X80.677 Y-12.958
X80.446 Y-13.017
X80.208 Y-13.026
X79.973 Y-12.984
X79.447 Y-12.827
G2 X79.261 Y-12.438 I0.095 J0.284
G1 X79.368 Y-12.153
X80.246 Y-9.803 F1200
X80.367 Y-9.479 F100
G2 X80.723 Y-9.293 I0.281 J-0.105
G1 X81.318 Y-9.469
X81.495 Y-9.531
X81.764 Y-9.792
X82.132 Y-10.445
X82.156 Y-11.195
X82.025 Y-11.933
X81.775 Y-12.64
X81.63 Y-12.805
X81.449 Y-12.97
X81.235 Y-13.091
X81 Y-13.162
X80.755 Y-13.178
X80.512 Y-13.14
X79.973 Y-12.984
G2 X79.79 Y-12.588 I0.095 J0.284
G1 X79.9 Y-12.312
X80.833 Y-9.976 F1200
X80.964 Y-9.648 F100
G2 X81.318 Y-9.469 I0.279 J-0.111
G1 X81.654 Y-9.565
X82.01 Y-9.682
X82.286 Y-9.936
X82.631 Y-10.602
X82.661 Y-11.352
X82.537 Y-12.091
X82.289 Y-12.799
X82.146 Y-12.958
X81.965 Y-13.12
X81.752 Y-13.238
X81.519 Y-13.306
X81.276 Y-13.322
X81.036 Y-13.284
X80.512 Y-13.14
G2 X80.317 Y-12.76 I0.089 J0.286
G1 X80.413 Y-12.466
X81.194 Y-10.086 F1200
X81.3 Y-9.763 F100
G2 X81.654 Y-9.565 I0.285 J-0.094
G1 X82.186 Y-9.711
X82.542 Y-9.828
X82.806 Y-10.094
X83.133 Y-10.769
X83.166 Y-11.518
X83.046 Y-12.258
X82.796 Y-12.966
X82.661 Y-13.112
X82.483 Y-13.268
X82.275 Y-13.382
X82.047 Y-13.449
X81.811 Y-13.466
X81.576 Y-13.431
X81.036 Y-13.284
G2 X80.841 Y-12.903 I0.089 J0.286
G1 X80.938 Y-12.61
X81.725 Y-10.231 F1200
X81.832 Y-9.908 F100
G2 X82.186 Y-9.711 I0.285 J-0.094
G1 X82.758 Y-9.864
X82.937 Y-9.921
X83.222 Y-10.164
X83.631 Y-10.793
X83.689 Y-11.541
X83.594 Y-12.284
X83.377 Y-13.002
X83.232 Y-13.185
X83.053 Y-13.364
X82.837 Y-13.497
X82.597 Y-13.577
X82.344 Y-13.601
X82.093 Y-13.566
X81.576 Y-13.431
G2 X81.378 Y-13.046 I0.086 J0.288
G1 X81.476 Y-12.761
X82.296 Y-10.388 F1200
X82.409 Y-10.059 F100
G2 X82.758 Y-9.864 I0.284 J-0.098
G1 X83.139 Y-9.963
X83.497 Y-10.076
X83.783 Y-10.319
X84.141 Y-10.977
X84.197 Y-11.725
X84.101 Y-12.469
X83.87 Y-13.182
X83.729 Y-13.348
X83.556 Y-13.511
X83.351 Y-13.634
X83.125 Y-13.709
X82.888 Y-13.735
X82.651 Y-13.708
X82.093 Y-13.566
G2 X81.891 Y-13.193 I0.086 J0.288
G1 X81.981 Y-12.891
X82.691 Y-10.492 F1200
X82.786 Y-10.171 F100
G2 X83.139 Y-9.963 I0.288 J-0.085
G1 X83.668 Y-10.101
X83.85 Y-10.14
X84.031 Y-10.188
X84.299 Y-10.45
X84.648 Y-11.114
X84.71 Y-11.862
X84.616 Y-12.606
X84.39 Y-13.321
X84.263 Y-13.47
X84.09 Y-13.633
X83.886 Y-13.755
X83.66 Y-13.83
X83.424 Y-13.854
X83.187 Y-13.828
X82.651 Y-13.708
G2 X82.445 Y-13.316 I0.076 J0.29
G1 X82.542 Y-13.046
X83.392 Y-10.677 F1200
X83.515 Y-10.334 F100
G2 X83.85 Y-10.14 I0.282 J-0.101
G1 X84.231 Y-10.221
X84.412 Y-10.269
X84.708 Y-10.499
X85.146 Y-11.109
X85.233 Y-11.854
X85.167 Y-12.601
X84.977 Y-13.326
X84.838 Y-13.517
X84.667 Y-13.703
X84.458 Y-13.845
X84.223 Y-13.935
X83.973 Y-13.97
X83.722 Y-13.947
X83.187 Y-13.828
G2 X82.976 Y-13.451 I0.076 J0.29
G1 X83.064 Y-13.161
X83.79 Y-10.764 F1200
X83.892 Y-10.429 F100
G2 X84.231 Y-10.221 I0.287 J-0.087
G1 X84.76 Y-10.334
X84.942 Y-10.381
X85.246 Y-10.601
X85.657 Y-11.228
X85.75 Y-11.972
X85.689 Y-12.72
X85.499 Y-13.446
X85.358 Y-13.637
X85.187 Y-13.819
X84.979 Y-13.959
X84.745 Y-14.047
X84.497 Y-14.081
X84.248 Y-14.057
X83.722 Y-13.947
G2 X83.506 Y-13.569 I0.072 J0.291
G1 X83.593 Y-13.283
X84.321 Y-10.879 F1200
X84.422 Y-10.543 F100
G2 X84.76 Y-10.334 I0.287 J-0.087
G1 X85.323 Y-10.451
X85.505 Y-10.498
X85.794 Y-10.737
X86.175 Y-11.383
X86.267 Y-12.127
X86.203 Y-12.874
X86.004 Y-13.598
X85.87 Y-13.769
X85.701 Y-13.942
X85.498 Y-14.074
X85.272 Y-14.159
X85.032 Y-14.191
X84.791 Y-14.171
X84.248 Y-14.057
G2 X84.034 Y-13.676 I0.072 J0.291
G1 X84.123 Y-13.395
X84.879 Y-10.995 F1200
X84.986 Y-10.657 F100
G2 X85.323 Y-10.451 I0.286 J-0.09
G1 X85.686 Y-10.527
X86.049 Y-10.621
X86.326 Y-10.874
X86.693 Y-11.528
X86.783 Y-12.273
X86.717 Y-13.02
X86.515 Y-13.742
X86.393 Y-13.891
X86.224 Y-14.059
X86.023 Y-14.185
X85.8 Y-14.266
X85.564 Y-14.297
X85.327 Y-14.277
X84.791 Y-14.171
G2 X84.568 Y-13.805 I0.068 J0.292
G1 X84.644 Y-13.506
X85.262 Y-11.076 F1200
X85.345 Y-10.749 F100
G2 X85.686 Y-10.527 I0.291 J-0.074
G1 X86.183 Y-10.623
X86.548 Y-10.71
X86.823 Y-10.965
X87.202 Y-11.612
X87.301 Y-12.356
X87.244 Y-13.103
X87.056 Y-13.829
X86.936 Y-13.982
X86.772 Y-14.15
X86.575 Y-14.28
X86.355 Y-14.364
X86.122 Y-14.4
X85.887 Y-14.386
X85.327 Y-14.277
G2 X85.104 Y-13.914 I0.068 J0.292
G1 X85.177 Y-13.611
X85.766 Y-11.18 F1200
X85.846 Y-10.849 F100
G2 X86.183 Y-10.623 I0.292 J-0.071
G1 X86.778 Y-10.734
X86.96 Y-10.778
X87.258 Y-11.006
X87.701 Y-11.611
X87.822 Y-12.351
X87.788 Y-13.1
X87.63 Y-13.834
X87.508 Y-14.013
X87.344 Y-14.202
X87.141 Y-14.349
X86.911 Y-14.447
X86.665 Y-14.49
X86.415 Y-14.476
X85.887 Y-14.386
G2 X85.657 Y-14.018 I0.061 J0.294
G1 X85.732 Y-13.727
X86.357 Y-11.29 F1200
X86.442 Y-10.956 F100
G2 X86.778 Y-10.734 I0.291 J-0.075
G1 X86.945 Y-10.766
X87.177 Y-10.802
X87.544 Y-10.879
X87.834 Y-11.116
X88.228 Y-11.755
X88.344 Y-12.496
X88.308 Y-13.245
X88.136 Y-13.975
X88.015 Y-14.137
X87.854 Y-14.311
X87.659 Y-14.447
X87.44 Y-14.538
X87.206 Y-14.579
X86.969 Y-14.57
X86.415 Y-14.476
G2 X86.183 Y-14.119 I0.061 J0.294
G1 X86.248 Y-13.814
X86.775 Y-11.37 F1200
X86.847 Y-11.037 F100
G2 X87.177 Y-10.802 I0.293 J-0.063
G1 X87.712 Y-10.887
X87.896 Y-10.925
X88.216 Y-11.12
X88.467 Y-11.399
X88.793 Y-12.075
X88.871 Y-12.821
X88.796 Y-13.567
X88.546 Y-14.274
X88.501 Y-14.322
X88.298 Y-14.491
X88.06 Y-14.606
X87.802 Y-14.662
X87.538 Y-14.655
X86.969 Y-14.57
G2 X86.73 Y-14.213 I0.055 J0.295
G1 X86.794 Y-13.913
X87.312 Y-11.456 F1200
X87.383 Y-11.123 F100
G2 X87.712 Y-10.887 I0.294 J-0.062
G1 X88.218 Y-10.965
X88.402 Y-11.001
X88.714 Y-11.209
X89.211 Y-11.771
X89.387 Y-12.5
X89.389 Y-13.25
X89.232 Y-13.983
X89.146 Y-14.147
X88.992 Y-14.37
X88.787 Y-14.548
X88.545 Y-14.672
X88.28 Y-14.732
X88.009 Y-14.725
X87.538 Y-14.655
G2 X87.298 Y-14.303 I0.055 J0.295
G1 X87.357 Y-13.996
X87.827 Y-11.538 F1200
X87.891 Y-11.206 F100
G2 X88.218 Y-10.965 I0.295 J-0.056
G1 X88.599 Y-11.02
X88.967 Y-11.093
X89.289 Y-11.286
X89.746 Y-11.88
X89.911 Y-12.612
X89.905 Y-13.362
X89.75 Y-14.096
X89.62 Y-14.303
X89.46 Y-14.502
X89.258 Y-14.659
X89.025 Y-14.765
X88.774 Y-14.814
X88.519 Y-14.804
X88.009 Y-14.725
G2 X87.767 Y-14.382 I0.055 J0.295
G1 X87.819 Y-14.065
X88.218 Y-11.596 F1200
X88.27 Y-11.271 F100
G2 X88.599 Y-11.02 I0.296 J-0.048
G1 X89.129 Y-11.098
X89.31 Y-11.131
X89.493 Y-11.174
X89.812 Y-11.371
X90.272 Y-11.963
X90.433 Y-12.696
X90.427 Y-13.446
X90.281 Y-14.181
X90.145 Y-14.393
X89.985 Y-14.59
X89.783 Y-14.745
X89.552 Y-14.849
X89.302 Y-14.897
X89.049 Y-14.887
X88.519 Y-14.804
G2 X88.283 Y-14.444 I0.057 J0.295
G1 X88.349 Y-14.147
X88.9 Y-11.69 F1200
X88.974 Y-11.362 F100
G2 X89.31 Y-11.131 I0.293 J-0.066
G1 X89.851 Y-11.231
X90.034 Y-11.274
X90.352 Y-11.472
X90.802 Y-12.072
X90.957 Y-12.806
X90.948 Y-13.556
X90.799 Y-14.291
X90.654 Y-14.509
X90.485 Y-14.708
X90.274 Y-14.862
X90.033 Y-14.962
X89.775 Y-15.001
X89.515 Y-14.979
X89.129 Y-14.9
X89.049 Y-14.887
G2 X88.813 Y-14.526 I0.057 J0.295
G1 X88.881 Y-14.23
X89.44 Y-11.789 F1200
X89.515 Y-11.46 F100
G2 X89.851 Y-11.231 I0.292 J-0.067
G1 X90.402 Y-11.335
X90.584 Y-11.381
X90.897 Y-11.587
X91.334 Y-12.197
X91.482 Y-12.932
X91.467 Y-13.682
X91.31 Y-14.415
X91.165 Y-14.629
X90.996 Y-14.823
X90.786 Y-14.973
X90.546 Y-15.07
X90.291 Y-15.109
X90.034 Y-15.086
X89.515 Y-14.979
G2 X89.295 Y-14.615 I0.071 J0.292
G1 X89.371 Y-14.312
X89.98 Y-11.887 F1200
X90.063 Y-11.558 F100
G2 X90.402 Y-11.335 I0.291 J-0.073
G1 X90.943 Y-11.443
X91.125 Y-11.489
X91.434 Y-11.702
X91.863 Y-12.317
X92.005 Y-13.053
X91.986 Y-13.803
X91.825 Y-14.535
X91.684 Y-14.739
X91.517 Y-14.929
X91.311 Y-15.075
X91.077 Y-15.171
X90.827 Y-15.211
X90.575 Y-15.192
X90.034 Y-15.086
G2 X89.814 Y-14.72 I0.071 J0.292
G1 X89.892 Y-14.42
X90.519 Y-11.994 F1200
X90.605 Y-11.664 F100
G2 X90.943 Y-11.443 I0.29 J-0.075
G1 X91.494 Y-11.55
X91.677 Y-11.594
X91.977 Y-11.819
X92.393 Y-12.443
X92.529 Y-13.18
X92.504 Y-13.93
X92.338 Y-14.661
X92.202 Y-14.852
X92.035 Y-15.037
X91.83 Y-15.18
X91.598 Y-15.273
X91.351 Y-15.311
X91.102 Y-15.293
X90.575 Y-15.192
G2 X90.351 Y-14.823 I0.066 J0.293
G1 X90.429 Y-14.53
X91.071 Y-12.105 F1200
X91.159 Y-11.77 F100
G2 X91.494 Y-11.55 I0.29 J-0.077
G1 X91.875 Y-11.622
X92.24 Y-11.709
X92.529 Y-11.948
X92.925 Y-12.585
X93.052 Y-13.324
X93.019 Y-14.073
X92.844 Y-14.803
X92.718 Y-14.97
X92.553 Y-15.146
X92.353 Y-15.281
X92.128 Y-15.37
X91.889 Y-15.408
X91.648 Y-15.392
X91.102 Y-15.293
G2 X90.875 Y-14.937 I0.066 J0.293
G1 X90.941 Y-14.627
X91.467 Y-12.18 F1200
X91.537 Y-11.855 F100
G2 X91.875 Y-11.622 I0.293 J-0.063
G1 X92.405 Y-11.721
X92.771 Y-11.8
X93.053 Y-12.047
X93.447 Y-12.686
X93.573 Y-13.425
X93.541 Y-14.174
X93.371 Y-14.905
X93.251 Y-15.065
X93.085 Y-15.24
X92.886 Y-15.376
X92.661 Y-15.464
X92.422 Y-15.502
X92.181 Y-15.486
X91.648 Y-15.392
G2 X91.417 Y-15.036 I0.062 J0.293
G1 X91.482 Y-14.729
X92.002 Y-12.287 F1200
X92.073 Y-11.956 F100
G2 X92.405 Y-11.721 I0.293 J-0.062
G1 X93.054 Y-11.828
X93.237 Y-11.868
X93.529 Y-12.103
X93.954 Y-12.721
X94.093 Y-13.458
X94.075 Y-14.208
X93.926 Y-14.943
X93.807 Y-15.116
X93.645 Y-15.301
X93.446 Y-15.446
X93.22 Y-15.543
X92.978 Y-15.587
X92.732 Y-15.577
X92.405 Y-15.525
X92.181 Y-15.486
G2 X91.953 Y-15.119 I0.062 J0.293
G1 X92.027 Y-14.825
X92.639 Y-12.391 F1200
X92.724 Y-12.053 F100
G2 X93.054 Y-11.828 I0.291 J-0.073
G1 X93.497 Y-11.902
X93.68 Y-11.939
X93.993 Y-12.147
X94.459 Y-12.734
X94.614 Y-13.468
X94.612 Y-14.218
X94.486 Y-14.957
X94.358 Y-15.159
X94.198 Y-15.358
X93.996 Y-15.514
X93.764 Y-15.62
X93.513 Y-15.669
X93.258 Y-15.659
X92.732 Y-15.577
G2 X92.496 Y-15.218 I0.057 J0.295
G1 X92.561 Y-14.918
X93.095 Y-12.471 F1200
X93.168 Y-12.136 F100
G2 X93.497 Y-11.902 I0.293 J-0.064
G1 X93.98 Y-11.976
X94.348 Y-12.051
X94.631 Y-12.297
X95.016 Y-12.94
X95.148 Y-13.679
X95.129 Y-14.428
X94.954 Y-15.158
X94.847 Y-15.304
X94.686 Y-15.479
X94.492 Y-15.616
X94.272 Y-15.707
X94.039 Y-15.75
X93.801 Y-15.741
X93.258 Y-15.659
G2 X93.021 Y-15.304 I0.057 J0.295
G1 X93.083 Y-15
X93.583 Y-12.546 F1200
X93.651 Y-12.214 F100
G2 X93.98 Y-11.976 I0.294 J-0.06
G1 X94.589 Y-12.069
X94.773 Y-12.104
X95.071 Y-12.332
X95.517 Y-12.935
X95.669 Y-13.669
X95.667 Y-14.419
X95.526 Y-15.156
X95.409 Y-15.333
X95.25 Y-15.525
X95.051 Y-15.676
X94.824 Y-15.778
X94.579 Y-15.826
X94.33 Y-15.818
X93.801 Y-15.741
G2 X93.562 Y-15.379 I0.054 J0.295
G1 X93.629 Y-15.086
X94.188 Y-12.644 F1200
X94.267 Y-12.301 F100
G2 X94.589 Y-12.069 I0.292 J-0.067
G1 X95.151 Y-12.145
X95.336 Y-12.179
X95.63 Y-12.412
X96.046 Y-13.036
X96.196 Y-13.771
X96.19 Y-14.521
X96.047 Y-15.257
X95.931 Y-15.426
X95.774 Y-15.608
X95.581 Y-15.752
X95.361 Y-15.85
X95.125 Y-15.898
X94.885 Y-15.894
X94.446 Y-15.836
X94.33 Y-15.818
G2 X94.092 Y-15.453 I0.054 J0.295
G1 X94.161 Y-15.164
X94.747 Y-12.719 F1200
X94.83 Y-12.374 F100
G2 X95.151 Y-12.145 I0.292 J-0.07
G1 X95.515 Y-12.194
X95.883 Y-12.262
X96.169 Y-12.505
X96.575 Y-13.136
X96.722 Y-13.871
X96.714 Y-14.621
X96.569 Y-15.357
X96.462 Y-15.509
X96.304 Y-15.686
X96.112 Y-15.826
X95.895 Y-15.921
X95.662 Y-15.968
X95.425 Y-15.963
X94.885 Y-15.894
G2 X94.638 Y-15.546 I0.048 J0.296
G1 X94.692 Y-15.24
X95.131 Y-12.772 F1200
X95.19 Y-12.44 F100
G2 X95.515 Y-12.194 I0.295 J-0.053
G1 X96.014 Y-12.257
X96.383 Y-12.322
X96.671 Y-12.562
X97.09 Y-13.184
X97.246 Y-13.918
X97.245 Y-14.668
X97.114 Y-15.407
X97.009 Y-15.56
X96.853 Y-15.742
X96.661 Y-15.885
X96.443 Y-15.984
X96.209 Y-16.033
X95.969 Y-16.031
X95.425 Y-15.963
G2 X95.177 Y-15.618 I0.048 J0.296
G1 X95.228 Y-15.309
X95.636 Y-12.84 F1200
X95.691 Y-12.507 F100
G2 X96.014 Y-12.257 I0.296 J-0.049
G1 X96.607 Y-12.331
X96.791 Y-12.364
X97.104 Y-12.571
X97.587 Y-13.145
X97.765 Y-13.873
X97.788 Y-14.623
X97.687 Y-15.366
X97.574 Y-15.558
X97.421 Y-15.762
X97.225 Y-15.924
X96.997 Y-16.037
X96.748 Y-16.095
X96.494 Y-16.094
X95.969 Y-16.031
G2 X95.72 Y-15.681 I0.046 J0.296
G1 X95.775 Y-15.379
X96.224 Y-12.912 F1200
X96.285 Y-12.576 F100
G2 X96.607 Y-12.331 I0.295 J-0.054
G1 X97.106 Y-12.39
X97.291 Y-12.42
X97.617 Y-12.607
X98.103 Y-13.177
X98.289 Y-13.904
X98.323 Y-14.653
X98.229 Y-15.397
X98.108 Y-15.61
X97.956 Y-15.815
X97.761 Y-15.98
X97.534 Y-16.095
X97.286 Y-16.155
X97.03 Y-16.157
X96.494 Y-16.094
G2 X96.245 Y-15.746 I0.046 J0.296
G1 X96.298 Y-15.442
X96.728 Y-12.975 F1200
X96.787 Y-12.637 F100
G2 X97.106 Y-12.39 I0.296 J-0.052
G1 X97.699 Y-12.458
X97.884 Y-12.488
X98.198 Y-12.693
X98.646 Y-13.295
X98.825 Y-14.023
X98.852 Y-14.772
X98.736 Y-15.513
X98.619 Y-15.703
X98.466 Y-15.897
X98.273 Y-16.052
X98.05 Y-16.16
X97.809 Y-16.216
X97.562
X97.03 Y-16.157
G2 X96.78 Y-15.803 I0.044 J0.297
G1 X96.837 Y-15.507
X97.314 Y-13.041 F1200
X97.381 Y-12.7 F100
G2 X97.699 Y-12.458 I0.295 J-0.057
G1 X98.198 Y-12.514
X98.383 Y-12.544
X98.698 Y-12.748
X99.165 Y-13.335
X99.351 Y-14.061
X99.382 Y-14.811
X99.278 Y-15.553
X99.16 Y-15.749
X99.008 Y-15.947
X98.814 Y-16.106
X98.59 Y-16.217
X98.347 Y-16.275
X98.097 Y-16.276
X97.562 Y-16.216
G2 X97.31 Y-15.865 I0.044 J0.297
G1 X97.365 Y-15.566
X97.818 Y-13.099 F1200
X97.88 Y-12.759 F100
G2 X98.198 Y-12.514 I0.295 J-0.054
G1 X98.588 Y-12.558
X98.958 Y-12.618
X99.264 Y-12.834
X99.706 Y-13.441
X99.885 Y-14.169
X99.908 Y-14.918
X99.791 Y-15.659
X99.678 Y-15.835
X99.525 Y-16.024
X99.333 Y-16.175
X99.114 Y-16.28
X98.876 Y-16.334
X98.632 Y-16.335
X98.097 Y-16.276
G2 X97.843 Y-15.938 I0.043 J0.297
G1 X97.886 Y-15.624
X98.223 Y-13.145 F1200
X98.267 Y-12.816 F100
G2 X98.588 Y-12.558 I0.297 J-0.04
G1 X99.139 Y-12.618
X99.509 Y-12.674
X99.806 Y-12.904
X100.237 Y-13.517
X100.414 Y-14.246
X100.435 Y-14.996
X100.318 Y-15.736
X100.211 Y-15.9
X100.059 Y-16.084
X99.871 Y-16.232
X99.655 Y-16.335
X99.423 Y-16.389
X99.184 Y-16.392
X98.632 Y-16.335
G2 X98.378 Y-15.995 I0.043 J0.297
G1 X98.423 Y-15.684
X98.774 Y-13.208 F1200
X98.822 Y-12.875 F100
G2 X99.139 Y-12.618 I0.297 J-0.042
G1 X99.68 Y-12.672
X99.865 Y-12.701
X100.193 Y-12.882
X100.722 Y-13.414
X100.928 Y-14.135
X100.981 Y-14.883
X100.905 Y-15.629
X100.79 Y-15.852
X100.643 Y-16.069
X100.45 Y-16.245
X100.22 Y-16.37
X99.967 Y-16.437
X99.705 Y-16.443
X99.184 Y-16.392
G2 X98.926 Y-16.053 I0.04 J0.297
G1 X98.969 Y-15.744
X99.316 Y-13.263 F1200
X99.363 Y-12.93 F100
G2 X99.68 Y-12.672 I0.297 J-0.042
G1 X100.231 Y-12.726
X100.416 Y-12.753
X100.753 Y-12.918
X101.253 Y-13.476
X101.46 Y-14.197
X101.513 Y-14.945
X101.431 Y-15.691
X101.31 Y-15.917
X101.163 Y-16.128
X100.972 Y-16.298
X100.747 Y-16.42
X100.499 Y-16.486
X100.243 Y-16.494
X99.705 Y-16.443
G2 X99.448 Y-16.101 I0.04 J0.297
G1 X99.494 Y-15.795
X99.866 Y-13.32 F1200
X99.917 Y-12.981 F100
G2 X100.231 Y-12.726 I0.297 J-0.045
G1 X100.772 Y-12.776
X100.957 Y-12.802
X101.29 Y-12.975
X101.785 Y-13.538
X101.992 Y-14.259
X102.044 Y-15.007
X101.958 Y-15.752
X101.838 Y-15.972
X101.691 Y-16.18
X101.5 Y-16.348
X101.276 Y-16.468
X101.03 Y-16.534
X100.776 Y-16.541
X100.243 Y-16.494
G2 X99.983 Y-16.151 I0.037 J0.298
G1 X100.029 Y-15.849
X100.407 Y-13.369 F1200
X100.458 Y-13.03 F100
G2 X100.772 Y-12.776 I0.297 J-0.045
G1 X101.323 Y-12.824
X101.508 Y-12.849
X101.835 Y-13.033
X102.319 Y-13.606
X102.525 Y-14.327
X102.574 Y-15.076
X102.483 Y-15.82
X102.366 Y-16.029
X102.22 Y-16.231
X102.032 Y-16.396
X101.812 Y-16.513
X101.571 Y-16.578
X101.321 Y-16.587
X100.776 Y-16.541
G2 X100.516 Y-16.196 I0.037 J0.298
G1 X100.564 Y-15.896
X100.958 Y-13.42 F1200
X101.012 Y-13.077 F100
G2 X101.323 Y-12.824 I0.296 J-0.047
G1 X101.864 Y-12.869
X102.05 Y-12.893
X102.372 Y-13.086
X102.85 Y-13.663
X103.055 Y-14.385
X103.103 Y-15.133
X103.013 Y-15.878
X102.9 Y-16.077
X102.753 Y-16.277
X102.566 Y-16.44
X102.346 Y-16.556
X102.107 Y-16.62
X101.858 Y-16.629
X101.321 Y-16.587
G2 X101.059 Y-16.242 I0.034 J0.298
G1 X101.106 Y-15.945
X101.499 Y-13.464 F1200
X101.553 Y-13.121 F100
G2 X101.864 Y-12.869 I0.296 J-0.047
G1 X102.233 Y-12.899
X102.606 Y-12.941
X102.921 Y-13.145
X103.386 Y-13.733
X103.587 Y-14.455
X103.632 Y-15.204
X103.538 Y-15.948
X103.431 Y-16.13
X103.286 Y-16.323
X103.104 Y-16.48
X102.891 Y-16.593
X102.659 Y-16.657
X102.418 Y-16.669
X101.858 Y-16.629
G2 X101.594 Y-16.299 I0.034 J0.298
G1 X101.627 Y-15.985
X101.891 Y-13.503 F1200
X101.926 Y-13.167 F100
G2 X102.233 Y-12.899 I0.298 J-0.032
G1 X102.882 Y-12.939
X103.068 Y-12.96
X103.391 Y-13.152
X103.892 Y-13.71
X104.107 Y-14.428
X104.167 Y-15.176
X104.096 Y-15.922
X103.99 Y-16.121
X103.848 Y-16.327
X103.663 Y-16.495
X103.445 Y-16.617
X103.205 Y-16.687
X102.955 Y-16.701
X102.418 Y-16.669
G2 X102.149 Y-16.33 I0.028 J0.299
G1 X102.19 Y-16.031
X102.53 Y-13.542 F1200
X102.577 Y-13.199 F100
G2 X102.882 Y-12.939 I0.297 J-0.041
G1 X103.325 Y-12.967
X103.698 Y-13.005
X104.003 Y-13.224
X104.45 Y-13.826
X104.65 Y-14.549
X104.698 Y-15.297
X104.599 Y-16.041
X104.503 Y-16.201
X104.359 Y-16.39
X104.179 Y-16.543
X103.969 Y-16.655
X103.741 Y-16.719
X103.504 Y-16.732
X102.955 Y-16.701
G2 X102.685 Y-16.37 I0.028 J0.299
G1 X102.718 Y-16.062
X102.985 Y-13.574 F1200
X103.021 Y-13.235 F100
G2 X103.325 Y-12.967 I0.298 J-0.032
G1 X103.974 Y-13.001
X104.161 Y-13.02
X104.473 Y-13.229
X104.956 Y-13.802
X105.171 Y-14.521
X105.232 Y-15.268
X105.158 Y-16.015
X105.061 Y-16.192
X104.919 Y-16.392
X104.736 Y-16.556
X104.522 Y-16.676
X104.286 Y-16.745
X104.041 Y-16.76
X103.504 Y-16.732
G2 X103.233 Y-16.392 I0.026 J0.299
G1 X103.274 Y-16.096
X103.623 Y-13.607 F1200
X103.672 Y-13.26 F100
G2 X103.974 Y-13.001 I0.297 J-0.042
G1 X104.417 Y-13.025
X104.604 Y-13.042
X104.934 Y-13.22
X105.458 Y-13.756
X105.689 Y-14.47
X105.767 Y-15.216
X105.718 Y-15.964
X105.614 Y-16.174
X105.477 Y-16.387
X105.294 Y-16.563
X105.075 Y-16.692
X104.833 Y-16.768
X104.58 Y-16.786
X104.041 Y-16.76
G2 X103.768 Y-16.428 I0.026 J0.299
G1 X103.802 Y-16.123
X104.078 Y-13.634 F1200
X104.116 Y-13.292 F100
G2 X104.417 Y-13.025 I0.298 J-0.033
G1 X104.794 Y-13.042
X105.168 Y-13.077
X105.499 Y-13.253
X105.997 Y-13.814
X106.225 Y-14.528
X106.302 Y-15.274
X106.241 Y-16.022
X106.137 Y-16.221
X105.997 Y-16.427
X105.815 Y-16.596
X105.6 Y-16.72
X105.362 Y-16.792
X105.115 Y-16.809
X104.58 Y-16.786
G2 X104.304 Y-16.469 I0.023 J0.299
G1 X104.323 Y-16.15
X104.472 Y-13.652 F1200
X104.492 Y-13.324 F100
G2 X104.794 Y-13.042 I0.299 J-0.018
G1 X105.509 Y-13.073
X105.696 Y-13.09
X106.022 Y-13.274
X106.522 Y-13.833
X106.755 Y-14.546
X106.834 Y-15.292
X106.779 Y-16.04
X106.675 Y-16.239
X106.537 Y-16.445
X106.357 Y-16.614
X106.143 Y-16.739
X105.907 Y-16.813
X105.66 Y-16.832
X105.115 Y-16.809
G2 X104.84 Y-16.475 I0.023 J0.299
G1 X104.876 Y-16.175
X105.17 Y-13.685 F1200
X105.211 Y-13.338 F100
G2 X105.509 Y-13.073 I0.298 J-0.035
G1 X106.072 Y-13.094
X106.259 Y-13.11
X106.578 Y-13.307
X107.061 Y-13.881
X107.29 Y-14.595
X107.367 Y-15.341
X107.306 Y-16.088
X107.206 Y-16.274
X107.067 Y-16.474
X106.887 Y-16.639
X106.676 Y-16.761
X106.443 Y-16.832
X106.199 Y-16.851
X105.66 Y-16.832
G2 X105.384 Y-16.496 I0.021 J0.299
G1 X105.42 Y-16.2
X105.73 Y-13.705 F1200
X105.774 Y-13.357 F100
G2 X106.072 Y-13.094 I0.298 J-0.037
G1 X106.435 Y-13.107
X106.809 Y-13.139
X107.122 Y-13.345
X107.598 Y-13.925
X107.825 Y-14.64
X107.899 Y-15.386
X107.835 Y-16.133
X107.74 Y-16.304
X107.602 Y-16.499
X107.425 Y-16.659
X107.218 Y-16.778
X106.99 Y-16.848
X106.752 Y-16.869
X106.199 Y-16.851
G2 X105.921 Y-16.531 I0.021 J0.299
G1 X105.942 Y-16.217
X106.113 Y-13.72 F1200
X106.135 Y-13.387 F100
G2 X106.435 Y-13.107 I0.299 J-0.02
G1 X106.931 Y-13.121
X107.305 Y-13.15
X107.623 Y-13.35
X108.115 Y-13.916
X108.35 Y-14.628
X108.432 Y-15.373
X108.382 Y-16.122
X108.29 Y-16.296
X108.153 Y-16.497
X107.975 Y-16.664
X107.765 Y-16.787
X107.533 Y-16.861
X107.291 Y-16.882
X106.752 Y-16.869
G2 X106.47 Y-16.553 I0.018 J0.299
G1 X106.487 Y-16.238
X106.617 Y-13.738 F1200
X106.635 Y-13.406 F100
G2 X106.931 Y-13.121 I0.3 J-0.016
G1 X107.454 Y-13.135
X107.828 Y-13.163
X108.147 Y-13.359
X108.64 Y-13.925
X108.879 Y-14.636
X108.966 Y-15.381
X108.921 Y-16.129
X108.828 Y-16.306
X108.693 Y-16.507
X108.516 Y-16.673
X108.308 Y-16.796
X108.078 Y-16.871
X107.837 Y-16.894
X107.291 Y-16.882
G2 X107.009 Y-16.568 I0.018 J0.299
G1 X107.024 Y-16.251
X107.142 Y-13.751 F1200
X107.157 Y-13.42 F100
G2 X107.454 Y-13.135 I0.3 J-0.014
G1 X108.026 Y-13.146
X108.213 Y-13.159
X108.555 Y-13.313
X109.122 Y-13.804
X109.386 Y-14.506
X109.5 Y-15.247
X109.49 Y-15.997
X109.394 Y-16.227
X109.265 Y-16.454
X109.087 Y-16.645
X108.868 Y-16.788
X108.622 Y-16.875
X108.362 Y-16.902
X107.837 Y-16.894
G2 X107.553 Y-16.577 I0.015 J0.3
G1 X107.57 Y-16.265
X107.713 Y-13.765 F1200
X107.732 Y-13.429 F100
G2 X108.026 Y-13.146 I0.3 J-0.017
G1 X108.619 Y-13.156
X108.806 Y-13.169
X109.148 Y-13.322
X109.672 Y-13.859
X109.93 Y-14.563
X110.039 Y-15.305
X110.008 Y-16.054
X109.907 Y-16.272
X109.776 Y-16.486
X109.6 Y-16.666
X109.388 Y-16.8
X109.15 Y-16.883
X108.9 Y-16.91
X108.362 Y-16.902
G2 X108.078 Y-16.579 I0.015 J0.3
G1 X108.102 Y-16.274
X108.298 Y-13.775 F1200
X108.325 Y-13.433 F100
G2 X108.619 Y-13.156 I0.299 J-0.024
G1 X109.118 Y-13.162
X109.305 Y-13.173
X109.649 Y-13.324
X110.191 Y-13.842
X110.457 Y-14.543
X110.571 Y-15.284
X110.55 Y-16.034
X110.449 Y-16.261
X110.32 Y-16.48
X110.143 Y-16.664
X109.929 Y-16.802
X109.688 Y-16.887
X109.435 Y-16.914
X108.9 Y-16.91
G2 X108.613 Y-16.59 I0.013 J0.3
G1 X108.634 Y-16.284
X108.804 Y-13.783 F1200
X108.827 Y-13.441 F100
G2 X109.118 Y-13.162 I0.299 J-0.02
G1 X109.711 Y-13.167
X109.898 Y-13.177
X110.232 Y-13.348
X110.743 Y-13.897
X111.001 Y-14.601
X111.106 Y-15.344
X111.068 Y-16.093
X110.97 Y-16.296
X110.839 Y-16.504
X110.664 Y-16.679
X110.456 Y-16.81
X110.223 Y-16.891
X109.978 Y-16.918
X109.435 Y-16.914
G2 X109.149 Y-16.589 I0.013 J0.3
G1 X109.175 Y-16.289
X109.39 Y-13.787 F1200
X109.42 Y-13.441 F100
G2 X109.711 Y-13.167 I0.299 J-0.026
G1 X110.21 Y-13.168
X110.398 Y-13.178
X110.733 Y-13.346
X111.262 Y-13.877
X111.527 Y-14.579
X111.637 Y-15.321
X111.612 Y-16.07
X111.516 Y-16.28
X111.386 Y-16.494
X111.211 Y-16.673
X111 Y-16.807
X110.764 Y-16.891
X110.515 Y-16.919
X109.978 Y-16.918
G2 X109.689 Y-16.596 I0.011 J0.3
G1 X109.712 Y-16.294
X109.896 Y-13.792 F1200
X109.921 Y-13.446 F100
G2 X110.21 Y-13.168 I0.299 J-0.022
G1 X110.6 Y-13.169
X110.975 Y-13.189
X111.304 Y-13.368
X111.81 Y-13.921
X112.067 Y-14.626
X112.172 Y-15.368
X112.135 Y-16.117
X112.041 Y-16.307
X111.909 Y-16.512
X111.736 Y-16.683
X111.529 Y-16.812
X111.299 Y-16.892
X111.057 Y-16.92
X110.515 Y-16.919
G2 X110.226 Y-16.611 I0.011 J0.3
G1 X110.234 Y-16.294
X110.301 Y-13.793 F1200
X110.31 Y-13.461 F100
G2 X110.6 Y-13.169 I0.3 J-0.008
G1 X111.151
X111.525 Y-13.188
X111.847 Y-13.38
X112.347 Y-13.94
X112.602 Y-14.645
X112.704 Y-15.388
X112.667 Y-16.137
X112.577 Y-16.315
X112.445 Y-16.518
X112.272 Y-16.686
X112.066 Y-16.813
X111.837 Y-16.892
X111.597 Y-16.919
X111.057 Y-16.92
G2 X110.767 Y-16.611 I0.01 J0.3
G1 X110.776 Y-16.296
X110.852 Y-13.794 F1200
X110.862 Y-13.46 F100
G2 X111.151 Y-13.169 I0.3 J-0.009
G1 X111.692
X112.067 Y-13.187
X112.385 Y-13.385
X112.879 Y-13.949
X113.134 Y-14.654
X113.236 Y-15.397
X113.203 Y-16.147
X113.115 Y-16.318
X112.983 Y-16.519
X112.81 Y-16.686
X112.606 Y-16.812
X112.379 Y-16.89
X112.14 Y-16.918
X111.597 Y-16.919
G2 X111.307 Y-16.61 I0.01 J0.3
G1 X111.317 Y-16.295
X111.393 Y-13.793 F1200
X111.403 Y-13.459 F100
G2 X111.692 Y-13.169 I0.3 J-0.009
G1 X112.243 Y-13.167
X112.43 Y-13.176
X112.775 Y-13.324
X113.353 Y-13.802
X113.634 Y-14.497
X113.767 Y-15.235
X113.773 Y-15.985
X113.683 Y-16.216
X113.559 Y-16.447
X113.384 Y-16.642
X113.168 Y-16.79
X112.922 Y-16.883
X112.662 Y-16.916
X112.14 Y-16.918
G2 X111.849 Y-16.608 I0.009 J0.3
G1 X111.86 Y-16.294
X111.944 Y-13.793 F1200
X111.955 Y-13.457 F100
G2 X112.243 Y-13.167 I0.3 J-0.01
G1 X112.784 Y-13.165
X113.159 Y-13.182
X113.477 Y-13.381
X113.96 Y-13.955
X114.211 Y-14.661
X114.316 Y-15.404
X114.254 Y-16.151
X114.173 Y-16.311
X114.041 Y-16.513
X113.868 Y-16.681
X113.663 Y-16.808
X113.435 Y-16.886
X113.196 Y-16.913
X112.662 Y-16.916
G2 X112.372 Y-16.604 I0.009 J0.3
G1 X112.384 Y-16.292
X112.483 Y-13.79 F1200
X112.496 Y-13.453 F100
G2 X112.784 Y-13.165 I0.3 J-0.012
G1 X113.335 Y-13.163
X113.522 Y-13.172
X113.864 Y-13.326
X114.435 Y-13.813
X114.714 Y-14.509
X114.846 Y-15.247
X114.83 Y-15.997
X114.738 Y-16.224
X114.613 Y-16.452
X114.438 Y-16.644
X114.223 Y-16.789
X113.98 Y-16.88
X113.722 Y-16.912
X113.196 Y-16.913
G2 X112.905 Y-16.6 I0.01 J0.3
G1 X112.919 Y-16.29
X113.032 Y-13.788 F1200
X113.047 Y-13.449 F100
G2 X113.335 Y-13.163 I0.3 J-0.013
G1 X113.876 Y-13.161
X114.063 Y-13.17
X114.413 Y-13.306
X114.966 Y-13.812
X115.248 Y-14.507
X115.376 Y-15.246
X115.364 Y-15.996
X115.265 Y-16.234
X115.139 Y-16.458
X114.964 Y-16.647
X114.749 Y-16.79
X114.507 Y-16.88
X114.251 Y-16.91
X113.722 Y-16.912
G2 X113.432 Y-16.597 I0.01 J0.3
G1 X113.447 Y-16.289
X113.571 Y-13.786 F1200
X113.588 Y-13.446 F100
G2 X113.876 Y-13.161 I0.3 J-0.015
G1 X114.427 Y-13.16
X114.614 Y-13.169
X114.961 Y-13.311
X115.506 Y-13.827
X115.785 Y-14.523
X115.909 Y-15.263
X115.893 Y-16.013
X115.794 Y-16.245
X115.666 Y-16.466
X115.491 Y-16.652
X115.278 Y-16.792
X115.038 Y-16.88
X114.784 Y-16.91
X114.251
G2 X113.962 Y-16.594 I0.01 J0.3
G1 X113.979 Y-16.286
X114.119 Y-13.784 F1200
X114.138 Y-13.443 F100
G2 X114.427 Y-13.16 I0.3 J-0.017
G1 X114.968
X115.155 Y-13.169
X115.5 Y-13.317
X116.042 Y-13.835
X116.319 Y-14.532
X116.442 Y-15.272
X116.425 Y-16.022
X116.326 Y-16.249
X116.198 Y-16.469
X116.023 Y-16.654
X115.81 Y-16.793
X115.571 Y-16.88
X115.318 Y-16.909
X114.784 Y-16.91
G2 X114.495 Y-16.592 I0.01 J0.3
G1 X114.513 Y-16.286
X114.659 Y-13.784 F1200
X114.679 Y-13.442 F100
G2 X114.968 Y-13.16 I0.299 J-0.018
G1 X115.519
X115.706 Y-13.17
X116.048 Y-13.325
X116.582 Y-13.852
X116.855 Y-14.55
X116.975 Y-15.291
X116.954 Y-16.041
X116.855 Y-16.262
X116.725 Y-16.48
X116.549 Y-16.662
X116.337 Y-16.799
X116.098 Y-16.883
X115.847 Y-16.911
X115.318 Y-16.909
G2 X115.029 Y-16.59 I0.01 J0.3
G1 X115.049 Y-16.286
X115.207 Y-13.783 F1200
X115.229 Y-13.441 F100
G2 X115.519 Y-13.16 I0.299 J-0.019
G1 X116.06 Y-13.162
X116.247 Y-13.172
X116.586 Y-13.333
X117.117 Y-13.862
X117.39 Y-14.561
X117.507 Y-15.302
X117.486 Y-16.052
X117.387 Y-16.269
X117.258 Y-16.485
X117.082 Y-16.666
X116.87 Y-16.802
X116.632 Y-16.886
X116.381 Y-16.914
X115.847 Y-16.911
G2 X115.559 Y-16.592 I0.012 J0.3
G1 X115.579 Y-16.286
X115.747 Y-13.785 F1200
X115.77 Y-13.442 F100
G2 X116.06 Y-13.162 I0.299 J-0.02
G1 X116.611 Y-13.164
X116.798 Y-13.174
X117.134 Y-13.342
X117.656 Y-13.88
X117.925 Y-14.58
X118.04 Y-15.321
X118.016 Y-16.071
X117.919 Y-16.28
X117.788 Y-16.493
X117.613 Y-16.671
X117.402 Y-16.805
X117.167 Y-16.888
X116.919 Y-16.915
X116.381 Y-16.914
G2 X116.094 Y-16.592 I0.012 J0.3
G1 X116.116 Y-16.289
X116.297 Y-13.787 F1200
X116.321 Y-13.443 F100
G2 X116.611 Y-13.164 I0.299 J-0.022
G1 X116.992 Y-13.166
X117.367 Y-13.185
X117.695 Y-13.366
X118.204 Y-13.917
X118.466 Y-14.62
X118.574 Y-15.362
X118.54 Y-16.111
X118.446 Y-16.303
X118.314 Y-16.509
X118.139 Y-16.681
X117.931 Y-16.81
X117.7 Y-16.89
X117.456 Y-16.917
X116.919 Y-16.915
G2 X116.63 Y-16.609 I0.011 J0.3
G1 X116.637 Y-16.29
X116.694 Y-13.789 F1200
X116.702 Y-13.459 F100
G2 X116.992 Y-13.166 I0.3 J-0.007
G1 X117.521 Y-13.167
X117.896 Y-13.184
X118.223 Y-13.369
X118.734 Y-13.918
X118.996 Y-14.62
X119.106 Y-15.362
X119.078 Y-16.112
X118.986 Y-16.298
X118.855 Y-16.505
X118.682 Y-16.677
X118.475 Y-16.807
X118.245 Y-16.887
X118.002 Y-16.915
X117.456 Y-16.917
G2 X117.167 Y-16.611 I0.011 J0.3
G1 X117.174 Y-16.292
X117.226 Y-13.792 F1200
X117.233 Y-13.461 F100
G2 X117.521 Y-13.167 I0.3 J-0.006
G1 X118.171 Y-13.165
X118.358 Y-13.173
X118.694 Y-13.339
X119.238 Y-13.856
X119.513 Y-14.554
X119.636 Y-15.293
X119.63 Y-16.043
X119.538 Y-16.254
X119.411 Y-16.473
X119.236 Y-16.657
X119.024 Y-16.796
X118.786 Y-16.883
X118.534 Y-16.914
X118.002 Y-16.915
G2 X117.712 Y-16.599 I0.009 J0.3
G1 X117.729 Y-16.292
X117.864 Y-13.79 F1200
X117.883 Y-13.448 F100
G2 X118.171 Y-13.165 I0.3 J-0.016
G1 X118.613 Y-13.163
X118.988 Y-13.18
X119.311 Y-13.37
X119.807 Y-13.933
X120.066 Y-14.637
X120.177 Y-15.379
X120.138 Y-16.128
X120.05 Y-16.303
X119.919 Y-16.506
X119.746 Y-16.676
X119.541 Y-16.803
X119.313 Y-16.883
X119.072 Y-16.911
X118.534 Y-16.914
G2 X118.244 Y-16.606 I0.009 J0.3
G1 X118.252 Y-16.29
X118.317 Y-13.789 F1200
X118.326 Y-13.455 F100
G2 X118.613 Y-13.163 I0.3 J-0.008
G1 X119.263 Y-13.16
X119.45 Y-13.168
X119.78 Y-13.345
X120.312 Y-13.875
X120.585 Y-14.573
X120.706 Y-15.313
X120.692 Y-16.063
X120.602 Y-16.261
X120.474 Y-16.476
X120.3 Y-16.656
X120.09 Y-16.793
X119.854 Y-16.878
X119.606 Y-16.908
X119.072 Y-16.911
G2 X118.782 Y-16.592 I0.009 J0.3
G1 X118.8 Y-16.288
X118.954 Y-13.785 F1200
X118.975 Y-13.441 F100
G2 X119.263 Y-13.16 I0.299 J-0.018
G1 X119.705 Y-13.157
X119.893 Y-13.165
X120.24 Y-13.307
X120.811 Y-13.794
X121.098 Y-14.486
X121.235 Y-15.224
X121.245 Y-15.974
X121.151 Y-16.211
X121.027 Y-16.44
X120.852 Y-16.633
X120.637 Y-16.78
X120.394 Y-16.872
X120.135 Y-16.905
X119.606 Y-16.908
G2 X119.315 Y-16.598 I0.009 J0.3
G1 X119.325 Y-16.285
X119.407 Y-13.783 F1200
X119.418 Y-13.447 F100
G2 X119.705 Y-13.157 I0.3 J-0.01
G1 X120.268 Y-13.154
X120.456 Y-13.162
X120.804 Y-13.299
X121.353 Y-13.811
X121.638 Y-14.505
X121.773 Y-15.242
X121.77 Y-15.992
X121.673 Y-16.225
X121.547 Y-16.449
X121.373 Y-16.637
X121.16 Y-16.78
X120.919 Y-16.87
X120.665 Y-16.901
X120.135 Y-16.905
G2 X119.844 Y-16.592 I0.009 J0.3
G1 X119.857 Y-16.282
X119.966 Y-13.78 F1200
X119.981 Y-13.441 F100
G2 X120.268 Y-13.154 I0.3 J-0.013
G1 X120.798 Y-13.151
X120.985 Y-13.159
X121.333 Y-13.299
X121.885 Y-13.806
X122.171 Y-14.499
X122.306 Y-15.237
X122.303 Y-15.987
X122.205 Y-16.222
X122.079 Y-16.447
X121.904 Y-16.635
X121.691 Y-16.779
X121.449 Y-16.868
X121.194 Y-16.899
X120.665 Y-16.901
G2 X120.374 Y-16.589 I0.009 J0.3
G1 X120.387 Y-16.279
X120.495 Y-13.776 F1200
X120.51 Y-13.437 F100
G2 X120.798 Y-13.151 I0.3 J-0.013
G1 X121.36 Y-13.148
X121.548 Y-13.157
X121.891 Y-13.307
X122.43 Y-13.828
X122.712 Y-14.523
X122.841 Y-15.262
X122.829 Y-16.012
X122.731 Y-16.237
X122.603 Y-16.456
X122.429 Y-16.64
X122.217 Y-16.78
X121.978 Y-16.867
X121.727 Y-16.897
X121.194 Y-16.899
G2 X120.904 Y-16.583 I0.009 J0.3
G1 X120.92 Y-16.276
X121.054 Y-13.773 F1200
X121.072 Y-13.432 F100
G2 X121.36 Y-13.148 I0.3 J-0.016
G1 X121.89 Y-13.146
X122.077 Y-13.156
X122.42 Y-13.307
X122.962 Y-13.825
X123.244 Y-14.52
X123.373 Y-15.259
X123.363 Y-16.009
X123.265 Y-16.234
X123.137 Y-16.454
X122.962 Y-16.639
X122.749 Y-16.779
X122.51 Y-16.866
X122.257 Y-16.896
X121.727 Y-16.897
G2 X121.436 Y-16.582 I0.009 J0.3
G1 X121.452 Y-16.274
X121.584 Y-13.772 F1200
X121.602 Y-13.431 F100
G2 X121.89 Y-13.146 I0.3 J-0.016
G1 X122.452
X122.64 Y-13.155
X122.978 Y-13.316
X123.507 Y-13.848
X123.784 Y-14.545
X123.907 Y-15.285
X123.889 Y-16.035
X123.792 Y-16.249
X123.663 Y-16.465
X123.488 Y-16.646
X123.277 Y-16.782
X123.04 Y-16.867
X122.791 Y-16.896
X122.257
G2 X121.968 Y-16.578 I0.01 J0.3
G1 X121.987 Y-16.273
X122.142 Y-13.77 F1200
X122.164 Y-13.427 F100
G2 X122.452 Y-13.146 I0.299 J-0.019
G1 X122.982 Y-13.145
X123.169 Y-13.155
X123.507 Y-13.318
X124.039 Y-13.846
X124.316 Y-14.543
X124.439 Y-15.283
X124.424 Y-16.033
X124.327 Y-16.248
X124.197 Y-16.465
X124.022 Y-16.647
X123.81 Y-16.783
X123.572 Y-16.868
X123.321 Y-16.896
X122.791
G2 X122.502 Y-16.578 I0.01 J0.3
G1 X122.52 Y-16.272
X122.672 Y-13.769 F1200
X122.693 Y-13.427 F100
G2 X122.982 Y-13.145 I0.299 J-0.018
G1 X123.544 Y-13.147
X123.732 Y-13.157
X124.064 Y-13.329
X124.583 Y-13.871
X124.855 Y-14.57
X124.973 Y-15.311
X124.95 Y-16.06
X124.854 Y-16.265
X124.724 Y-16.477
X124.548 Y-16.654
X124.338 Y-16.788
X124.103 Y-16.87
X123.856 Y-16.898
X123.321 Y-16.896
G2 X123.033 Y-16.575 I0.011 J0.3
G1 X123.054 Y-16.272
X123.23 Y-13.77 F1200
X123.255 Y-13.426 F100
G2 X123.544 Y-13.147 I0.299 J-0.021
G1 X123.907 Y-13.148
X124.282 Y-13.168
X124.612 Y-13.346
X125.125 Y-13.893
X125.392 Y-14.594
X125.506 Y-15.335
X125.479 Y-16.085
X125.385 Y-16.279
X125.253 Y-16.487
X125.079 Y-16.661
X124.87 Y-16.791
X124.637 Y-16.872
X124.392 Y-16.899
X123.856 Y-16.898
G2 X123.567 Y-16.593 I0.011 J0.3
G1 X123.572 Y-16.273
X123.612 Y-13.771 F1200
X123.617 Y-13.443 F100
G2 X123.907 Y-13.148 I0.3 J-0.005
G1 X124.634 Y-13.15
X124.822 Y-13.159
X125.147 Y-13.346
X125.658 Y-13.895
X125.924 Y-14.596
X126.038 Y-15.337
X126.015 Y-16.087
X125.922 Y-16.279
X125.79 Y-16.488
X125.616 Y-16.662
X125.407 Y-16.792
X125.174 Y-16.873
X124.929 Y-16.9
X124.392 Y-16.899
G2 X124.104 Y-16.576 I0.011 J0.3
G1 X124.128 Y-16.275
X124.319 Y-13.772 F1200
X124.345 Y-13.427 F100
G2 X124.634 Y-13.15 I0.299 J-0.023
G1 X124.999 Y-13.151
X125.373 Y-13.17
X125.696 Y-13.361
X126.199 Y-13.917
X126.461 Y-14.62
X126.572 Y-15.362
X126.544 Y-16.111
X126.452 Y-16.294
X126.32 Y-16.499
X126.145 Y-16.67
X125.937 Y-16.797
X125.706 Y-16.876
X125.463 Y-16.902
X124.929 Y-16.9
G2 X124.64 Y-16.594 I0.011 J0.3
G1 X124.647 Y-16.275
X124.702 Y-13.774 F1200
X124.709 Y-13.444 F100
G2 X124.999 Y-13.151 I0.3 J-0.007
G1 X125.726 Y-13.153
X125.914 Y-13.163
X126.233 Y-13.361
X126.732 Y-13.92
X126.994 Y-14.623
X127.104 Y-15.365
X127.079 Y-16.115
X126.989 Y-16.295
X126.856 Y-16.501
X126.682 Y-16.671
X126.474 Y-16.8
X126.243 Y-16.879
X126 Y-16.905
X125.463 Y-16.902
G2 X125.176 Y-16.578 I0.012 J0.3
G1 X125.201 Y-16.278
X125.408 Y-13.775 F1200
X125.437 Y-13.428 F100
G2 X125.726 Y-13.153 I0.299 J-0.025
G1 X126.091 Y-13.155
X126.465 Y-13.175
X126.782 Y-13.377
X127.273 Y-13.943
X127.531 Y-14.647
X127.639 Y-15.39
X127.609 Y-16.139
X127.519 Y-16.314
X127.383 Y-16.517
X127.207 Y-16.685
X126.997 Y-16.811
X126.766 Y-16.887
X126.523 Y-16.91
X126 Y-16.905
G2 X125.712 Y-16.596 I0.012 J0.3
G1 X125.721 Y-16.279
X125.791 Y-13.778 F1200
X125.8 Y-13.446 F100
G2 X126.091 Y-13.155 I0.3 J-0.008
G1 X126.818 Y-13.164
X127.006 Y-13.177
X127.632 Y-13.589
X127.972 Y-14.257
X128.148 Y-14.987
X128.187 Y-15.736
X128.017 Y-16.466
X127.993 Y-16.496
X127.815 Y-16.677
X127.6 Y-16.812
X127.36 Y-16.894
X127.108 Y-16.92
X126.523 Y-16.91
G2 X126.239 Y-16.583 I0.015 J0.3
G1 X126.267 Y-16.282
X126.494 Y-13.783 F1200
X126.525 Y-13.437 F100
G2 X126.818 Y-13.164 I0.299 J-0.027
G1 X127.183 Y-13.17
X127.557 Y-13.195
X127.875 Y-13.394
X128.383 Y-13.945
X128.634 Y-14.652
X128.735 Y-15.396
X128.658 Y-16.142
X128.606 Y-16.263
X128.475 Y-16.489
X128.294 Y-16.678
X128.074 Y-16.819
X127.827 Y-16.905
X127.567 Y-16.929
X127.108 Y-16.92
G2 X126.823 Y-16.614 I0.015 J0.3
G1 X126.83 Y-16.291
X126.882 Y-13.79 F1200
X126.889 Y-13.464 F100
G2 X127.183 Y-13.17 I0.3 J-0.006
G1 X127.91 Y-13.186
X128.097 Y-13.2
X128.418 Y-13.395
X128.915 Y-13.957
X129.167 Y-14.663
X129.259 Y-15.408
X129.198 Y-16.155
X129.104 Y-16.341
X128.968 Y-16.548
X128.789 Y-16.718
X128.577 Y-16.845
X128.341 Y-16.921
X128.095 Y-16.942
X127.567 Y-16.929
G2 X127.286 Y-16.598 I0.018 J0.299
G1 X127.318 Y-16.299
X127.579 Y-13.802 F1200
X127.615 Y-13.455 F100
G2 X127.91 Y-13.186 I0.298 J-0.031
G1 X128.275 Y-13.195
X128.649 Y-13.223
X128.967 Y-13.422
X129.456 Y-13.991
X129.701 Y-14.7
X129.787 Y-15.445
X129.729 Y-16.192
X129.632 Y-16.376
X129.493 Y-16.578
X129.313 Y-16.744
X129.1 Y-16.867
X128.866 Y-16.939
X128.621 Y-16.958
X128.095 Y-16.942
G2 X127.814 Y-16.627 I0.018 J0.299
G1 X127.83 Y-16.311
X127.961 Y-13.812 F1200
X127.979 Y-13.48 F100
G2 X128.275 Y-13.195 I0.3 J-0.016
G1 X129.003 Y-13.219
X129.189 Y-13.235
X129.504 Y-13.439
X129.99 Y-14.01
X130.232 Y-14.72
X130.318 Y-15.465
X130.265 Y-16.213
X130.167 Y-16.396
X130.028 Y-16.598
X129.848 Y-16.764
X129.636 Y-16.887
X129.402 Y-16.959
X129.157 Y-16.977
X128.621 Y-16.958
G2 X128.344 Y-16.624 I0.021 J0.299
G1 X128.379 Y-16.325
X128.665 Y-13.831 F1200
X128.705 Y-13.485 F100
G2 X129.003 Y-13.219 I0.298 J-0.034
G1 X129.367 Y-13.232
X129.741 Y-13.263
X130.053 Y-13.471
X130.53 Y-14.049
X130.767 Y-14.761
X130.85 Y-15.507
X130.794 Y-16.254
X130.697 Y-16.43
X130.556 Y-16.63
X130.374 Y-16.794
X130.16 Y-16.913
X129.925 Y-16.982
X129.681 Y-16.998
X129.157 Y-16.977
G2 X128.879 Y-16.66 I0.021 J0.299
G1 X128.898 Y-16.343
X129.048 Y-13.845 F1200
X129.068 Y-13.514 F100
G2 X129.367 Y-13.232 I0.299 J-0.018
G1 X130.095 Y-13.264
X130.281 Y-13.282
X130.59 Y-13.494
X131.065 Y-14.075
X131.3 Y-14.787
X131.382 Y-15.533
X131.328 Y-16.281
X131.231 Y-16.457
X131.089 Y-16.657
X130.907 Y-16.82
X130.694 Y-16.939
X130.459 Y-17.008
X130.215 Y-17.024
X129.681 Y-16.998
G2 X129.408 Y-16.662 I0.025 J0.299
G1 X129.445 Y-16.362
X129.751 Y-13.872 F1200
X129.793 Y-13.527 F100
G2 X130.095 Y-13.264 I0.298 J-0.037
G1 X130.459 Y-13.281
X130.832 Y-13.317
X131.139 Y-13.533
X131.606 Y-14.12
X131.836 Y-14.834
X131.915 Y-15.58
X131.855 Y-16.327
X131.76 Y-16.495
X131.617 Y-16.692
X131.435 Y-16.852
X131.222 Y-16.969
X130.989 Y-17.036
X130.747 Y-17.05
X130.215 Y-17.024
G2 X129.941 Y-16.704 I0.025 J0.299
G1 X129.962 Y-16.386
