(prop1)
(T1  D=3 CR=0 - ZMIN=-25.733 - flat end mill)
G90 G94
G17
G21
G28 G91 Z0
G90

(Adaptive1)
T1
S18000 M3
G54
G0 X263.322 Y14.479
Z3.01
Z-9.39
G1 Z-9.69 F80
X263.315 Y14.475 Z-9.757
X263.296 Y14.464 Z-9.82
X263.265 Y14.446 Z-9.877
X263.224 Y14.423 Z-9.925
X263.174 Y14.394 Z-9.96
X263.119 Y14.363 Z-9.982
X263.062 Y14.33 Z-9.99
G2 X261.472 Y13.888 I-1.657 J2.883
G1 X261.323 Y13.89
X261.136 Y13.902
X260.738 Y14.538
X260.586 Y15.273
X260.489 Y16.344
X260.48 Y16.79
X260.505 Y17.011
X260.588 Y17.218
X260.722 Y17.395
X260.899 Y17.53
X261.105 Y17.614
X261.326 Y17.641
G2 X261.611 Y17.342 I-0.015 J-0.3
G1 Y17.012
X261.616 Y14.51 F1200
X261.617 Y14.19 F80
G2 X261.323 Y13.89 I-0.3 J0
G1 X260.799 Y13.898
X260.612 Y13.91
X260.049 Y14.406
X259.769 Y15.102
X259.614 Y15.836
X259.563 Y16.584
X259.644 Y16.985
X259.72 Y17.202
X259.853 Y17.39
X260.033 Y17.535
X260.245 Y17.625
X260.473 Y17.653
G2 X260.757 Y17.385 I-0.015 J-0.3
G1 X260.795 Y17.026
X261.061 Y14.516 F1200
X261.091 Y14.229 F80
G2 X260.799 Y13.898 I-0.298 J-0.032
G1 X260.258 Y13.906
X260.071 Y13.918
X259.73 Y14.073
X259.17 Y14.572
X258.857 Y15.254
X258.696 Y15.986
X258.7 Y16.736
X258.795 Y17.064
X258.882 Y17.263
X259.017 Y17.432
X259.191 Y17.561
X259.392 Y17.641
X259.607 Y17.666
X260.473 Y17.653
G2 X260.758 Y17.334 I-0.015 J-0.3
G1 X260.737 Y17.025
X260.574 Y14.525 F1200
X260.551 Y14.186 F80
G2 X260.258 Y13.906 I-0.299 J0.02
G1 X259.559 Y13.916
X259.185 Y13.94
X258.525 Y14.297
X258.114 Y14.924
X257.879 Y15.636
X257.793 Y16.381
X257.902 Y17.124
X257.95 Y17.22
X258.082 Y17.411
X258.262 Y17.558
X258.476 Y17.65
X258.707 Y17.679
X259.607 Y17.666
G2 X259.893 Y17.362 I-0.015 J-0.3
G1 X259.888 Y17.037
X259.857 Y14.536 F1200
X259.853 Y14.212 F80
G2 X259.559 Y13.916 I-0.3 J0.004
G1 X258.616 Y13.93
X258.242 Y13.954
X257.599 Y14.34
X257.201 Y14.975
X256.98 Y15.692
X256.925 Y16.44
X257.024 Y17.183
X257.06 Y17.251
X257.194 Y17.435
X257.372 Y17.576
X257.582 Y17.664
X257.808 Y17.692
X258.707 Y17.679
G2 X258.992 Y17.371 I-0.015 J-0.3
G1 X258.983 Y17.05
X258.919 Y14.55 F1200
X258.91 Y14.222 F80
G2 X258.616 Y13.93 I-0.3 J0.008
G1 X257.706 Y13.943
X257.332 Y13.969
X256.695 Y14.364
X256.303 Y15.004
X256.099 Y15.725
X256.046 Y16.473
X256.14 Y17.217
X256.171 Y17.274
X256.306 Y17.458
X256.485 Y17.598
X256.696 Y17.685
X256.922 Y17.711
X257.808 Y17.692
G2 X258.093 Y17.383 I-0.015 J-0.3
G1 X258.083 Y17.063
X258.01 Y14.563 F1200
X258 Y14.234 F80
G2 X257.706 Y13.943 I-0.3 J0.009
G1 X256.799 Y13.961
X256.425 Y13.987
X255.793 Y14.391
X255.413 Y15.037
X255.214 Y15.76
X255.162 Y16.509
X255.257 Y17.253
X255.292 Y17.317
X255.432 Y17.504
X255.618 Y17.644
X255.836 Y17.728
X256.068 Y17.747
X256.615 Y17.718
X256.922 Y17.711
G2 X257.205 Y17.401 I-0.017 J-0.3
G1 X257.194 Y17.08
X257.106 Y14.579 F1200
X257.095 Y14.25 F80
G2 X256.799 Y13.961 I-0.3 J0.01
G1 X256.615 Y13.964
X255.866 Y14.004
X255.493 Y14.042
X254.873 Y14.464
X254.507 Y15.119
X254.319 Y15.845
X254.278 Y16.594
X254.389 Y17.335
X254.417 Y17.384
X254.558 Y17.563
X254.742 Y17.697
X254.955 Y17.777
X255.182 Y17.796
X256.068 Y17.747
G2 X256.34 Y17.433 I-0.027 J-0.299
G1 X256.323 Y17.108
X256.189 Y14.612 F1200
X256.171 Y14.287 F80
G2 X255.866 Y14.004 I-0.3 J0.016
G1 X254.963 Y14.052
X254.59 Y14.091
X253.975 Y14.521
X253.614 Y15.178
X253.431 Y15.905
X253.396 Y16.654
X253.509 Y17.396
X253.533 Y17.437
X253.674 Y17.613
X253.856 Y17.746
X254.068 Y17.825
X254.293 Y17.844
X255.182 Y17.796
G2 X255.455 Y17.479 I-0.027 J-0.299
G1 X255.436 Y17.157
X255.288 Y14.66 F1200
X255.269 Y14.334 F80
G2 X254.963 Y14.052 I-0.299 J0.018
G1 X254.099 Y14.099
X253.726 Y14.137
X253.102 Y14.553
X252.736 Y15.208
X252.552 Y15.935
X252.514 Y16.684
X252.618 Y17.426
X252.646 Y17.475
X252.786 Y17.655
X252.969 Y17.79
X253.183 Y17.87
X253.41 Y17.89
X254.293 Y17.844
G2 X254.567 Y17.529 I-0.026 J-0.299
G1 X254.55 Y17.205
X254.421 Y14.707 F1200
X254.404 Y14.383 F80
G2 X254.099 Y14.099 I-0.3 J0.015
G1 X253.103 Y14.15
X252.916 Y14.168
X252.268 Y14.545
X251.884 Y15.189
X251.684 Y15.912
X251.63 Y16.66
X251.712 Y17.406
X251.756 Y17.489
X251.894 Y17.679
X252.079 Y17.822
X252.298 Y17.909
X252.531 Y17.931
X253.41 Y17.89
G2 X253.683 Y17.564 I-0.026 J-0.299
G1 X253.655 Y17.252
X253.435 Y14.759 F1200
X253.406 Y14.424 F80
G2 X253.103 Y14.15 I-0.299 J0.026
G1 X252.383 Y14.184
X252.01 Y14.221
X251.367 Y14.608
X250.989 Y15.255
X250.794 Y15.979
X250.742 Y16.728
X250.841 Y17.471
X250.877 Y17.537
X251.014 Y17.72
X251.196 Y17.859
X251.409 Y17.943
X251.637 Y17.967
X252.531 Y17.931
G2 X252.807 Y17.62 I-0.024 J-0.299
G1 X252.794 Y17.294
X252.699 Y14.794 F1200
X252.687 Y14.473 F80
G2 X252.383 Y14.184 I-0.3 J0.011
G1 X251.501 Y14.219
X251.127 Y14.252
X250.487 Y14.642
X250.107 Y15.289
X249.91 Y16.013
X249.86 Y16.761
X249.956 Y17.505
X249.988 Y17.564
X250.124 Y17.746
X250.304 Y17.885
X250.514 Y17.97
X250.74 Y17.995
X251.637 Y17.967
G2 X251.916 Y17.656 I-0.021 J-0.299
G1 X251.904 Y17.332
X251.813 Y14.832 F1200
X251.802 Y14.508 F80
G2 X251.501 Y14.219 I-0.3 J0.011
G1 X250.598 Y14.247
X250.224 Y14.276
X249.593 Y14.682
X249.218 Y15.331
X249.024 Y16.056
X248.976 Y16.804
X249.075 Y17.548
X249.1 Y17.592
X249.236 Y17.773
X249.416 Y17.911
X249.626 Y17.995
X249.852 Y18.019
X250.74 Y17.995
G2 X251.022 Y17.684 I-0.018 J-0.299
G1 X251.009 Y17.363
X250.908 Y14.863 F1200
X250.895 Y14.535 F80
G2 X250.598 Y14.247 I-0.3 J0.012
G1 X249.734 Y14.271
X249.36 Y14.3
X248.724 Y14.697
X248.344 Y15.344
X248.146 Y16.067
X248.093 Y16.815
X248.152 Y17.31
X248.217 Y17.547
X248.349 Y17.755
X248.535 Y17.916
X248.76 Y18.015
X249.004 Y18.044
X249.852 Y18.019
G2 X250.132 Y17.71 I-0.019 J-0.299
G1 X250.122 Y17.386
X250.042 Y14.887 F1200
X250.032 Y14.561 F80
G2 X249.734 Y14.271 I-0.3 J0.01
G1 X248.794 Y14.3
X248.421 Y14.335
X247.805 Y14.764
X247.439 Y15.418
X247.251 Y16.144
X247.206 Y16.893
X247.339 Y17.631
X247.363 Y17.672
X247.502 Y17.85
X247.685 Y17.984
X247.896 Y18.064
X248.121 Y18.084
X249.004 Y18.044
G2 X249.284 Y17.727 I-0.019 J-0.299
G1 X249.266 Y17.412
X249.116 Y14.911 F1200
X249.096 Y14.582 F80
G2 X248.794 Y14.3 I-0.299 J0.018
G1 X247.884 Y14.341
X247.698 Y14.359
X247.362 Y14.527
X246.802 Y15.026
X246.485 Y15.706
X246.333 Y16.44
X246.346 Y17.19
X246.44 Y17.522
X246.53 Y17.726
X246.67 Y17.9
X246.852 Y18.029
X247.061 Y18.107
X247.284 Y18.125
X248.121 Y18.084
G2 X248.396 Y17.765 I-0.024 J-0.299
G1 X248.375 Y17.447
X248.208 Y14.951 F1200
X248.186 Y14.621 F80
G2 X247.884 Y14.341 I-0.299 J0.02
G1 X246.977 Y14.387
X246.79 Y14.406
X246.138 Y14.776
X245.734 Y15.408
X245.511 Y16.124
X245.437 Y16.87
X245.554 Y17.611
X245.611 Y17.72
X245.748 Y17.91
X245.932 Y18.055
X246.149 Y18.143
X246.383 Y18.166
X247.284 Y18.125
G2 X247.557 Y17.8 I-0.026 J-0.299
G1 X247.53 Y17.488
X247.31 Y14.995 F1200
X247.281 Y14.66 F80
G2 X246.977 Y14.387 I-0.299 J0.026
G1 X246.232 Y14.419
X245.859 Y14.453
X245.214 Y14.836
X244.823 Y15.476
X244.613 Y16.196
X244.569 Y16.945
X244.68 Y17.687
X244.724 Y17.767
X244.86 Y17.951
X245.041 Y18.09
X245.252 Y18.176
X245.479 Y18.2
X246.383 Y18.166
G2 X246.66 Y17.855 I-0.022 J-0.299
G1 X246.647 Y17.531
X246.547 Y15.031 F1200
X246.534 Y14.707 F80
G2 X246.232 Y14.419 I-0.3 J0.012
G1 X245.371 Y14.451
X244.997 Y14.482
X244.343 Y14.848
X243.946 Y15.485
X243.742 Y16.206
X243.691 Y16.954
X243.784 Y17.699
X243.828 Y17.782
X243.961 Y17.967
X244.139 Y18.109
X244.349 Y18.198
X244.575 Y18.227
X245.479 Y18.2
G2 X245.76 Y17.892 I-0.019 J-0.299
G1 X245.751 Y17.568
X245.679 Y15.066 F1200
X245.67 Y14.743 F80
G2 X245.371 Y14.451 I-0.3 J0.009
G1 X244.61 Y14.476
X244.428 Y14.478
X244.054 Y14.501
X243.421 Y14.904
X243.045 Y15.552
X242.853 Y16.277
X242.807 Y17.026
X242.912 Y17.769
X242.934 Y17.808
X243.067 Y17.987
X243.244 Y18.124
X243.45 Y18.209
X243.672 Y18.237
X244.575 Y18.227
G2 X244.861 Y17.914 I-0.014 J-0.3
G1 X244.847 Y17.599
X244.736 Y15.098 F1200
X244.721 Y14.764 F80
G2 X244.428 Y14.478 I-0.3 J0.013
G1 X243.519 Y14.488
X243.331 Y14.499
X242.992 Y14.657
X242.419 Y15.142
X242.094 Y15.817
X241.937 Y16.551
X241.93 Y17.301
X242.011 Y17.616
X242.093 Y17.82
X242.226 Y17.995
X242.4 Y18.129
X242.603 Y18.213
X242.821 Y18.241
X243.672 Y18.237
G2 X243.957 Y17.923 I-0.014 J-0.3
G1 X243.943 Y17.609
X243.825 Y15.111 F1200
X243.809 Y14.774 F80
G2 X243.519 Y14.488 I-0.3 J0.014
G1 X242.837 Y14.491
X242.462 Y14.511
X241.79 Y14.843
X241.366 Y15.462
X241.124 Y16.172
X241.026 Y16.916
X241.118 Y17.66
X241.168 Y17.766
X241.297 Y17.961
X241.475 Y18.113
X241.688 Y18.209
X241.92 Y18.242
X242.821 Y18.241
G2 X243.11 Y17.943 I-0.012 J-0.3
G1 X243.112 Y17.616
X243.126 Y15.114 F1200
X243.127 Y14.793 F80
G2 X242.837 Y14.491 I-0.3 J-0.002
G1 X241.867 Y14.492
X241.492 Y14.511
X240.847 Y14.892
X240.444 Y15.525
X240.217 Y16.24
X240.154 Y16.987
X240.248 Y17.731
X240.279 Y17.792
X240.41 Y17.977
X240.585 Y18.119
X240.792 Y18.209
X241.016 Y18.241
X241.92 Y18.242
G2 X242.21 Y17.937 I-0.01 J-0.3
G1 X242.204 Y17.618
X242.162 Y15.117 F1200
X242.156 Y14.787 F80
G2 X241.867 Y14.492 I-0.3 J0.005
G1 X241.003 Y14.491
X240.628 Y14.508
X239.975 Y14.876
X239.567 Y15.505
X239.346 Y16.222
X239.276 Y16.969
X239.35 Y17.715
X239.383 Y17.78
X239.512 Y17.968
X239.688 Y18.113
X239.897 Y18.206
X240.124 Y18.238
X241.016 Y18.241
G2 X241.306 Y17.939 I-0.01 J-0.3
G1 X241.305 Y17.617
X241.293 Y15.116 F1200
X241.291 Y14.789 F80
G2 X241.003 Y14.491 I-0.3 J0.001
G1 X240.063 Y14.487
X239.688 Y14.505
X239.053 Y14.904
X238.664 Y15.545
X238.455 Y16.265
X238.39 Y17.013
X238.475 Y17.758
X238.494 Y17.793
X238.624 Y17.975
X238.799 Y18.115
X239.004 Y18.204
X239.226 Y18.234
X240.124 Y18.238
G2 X240.414 Y17.932 I-0.009 J-0.3
G1 X240.408 Y17.614
X240.358 Y15.113 F1200
X240.351 Y14.781 F80
G2 X240.063 Y14.487 I-0.3 J0.006
G1 X239.153 Y14.484
X238.966 Y14.493
X238.624 Y14.647
X238.045 Y15.124
X237.705 Y15.792
X237.531 Y16.522
X237.505 Y17.271
X237.58 Y17.589
X237.66 Y17.797
X237.791 Y17.976
X237.965 Y18.114
X238.169 Y18.201
X238.389 Y18.231
X239.226 Y18.234
G2 X239.517 Y17.928 I-0.009 J-0.3
G1 X239.509 Y17.611
X239.449 Y15.11 F1200
X239.441 Y14.777 F80
G2 X239.153 Y14.484 I-0.3 J0.007
G1 X238.471 Y14.482
X238.097 Y14.499
X237.418 Y14.818
X236.982 Y15.429
X236.725 Y16.133
X236.612 Y16.875
X236.688 Y17.621
X236.741 Y17.738
X236.869 Y17.938
X237.048 Y18.094
X237.263 Y18.194
X237.498 Y18.228
X238.389 Y18.231
G2 X238.679 Y17.939 I-0.009 J-0.3
G1 X238.688 Y17.608
X238.751 Y15.107 F1200
X238.76 Y14.789 F80
G2 X238.471 Y14.482 I-0.3 J-0.008
G1 X237.501 Y14.478
X237.127 Y14.496
X236.471 Y14.86
X236.056 Y15.484
X235.814 Y16.194
X235.738 Y16.94
X235.82 Y17.686
X235.859 Y17.764
X235.989 Y17.953
X236.165 Y18.1
X236.375 Y18.193
X236.602 Y18.225
X237.498 Y18.228
G2 X237.788 Y17.929 I-0.009 J-0.3
G1 Y17.605
X237.79 Y15.104 F1200
Y14.778 F80
G2 X237.501 Y14.478 I-0.3 J0
G1 X236.64 Y14.475
X236.266 Y14.493
X235.599 Y14.836
X235.177 Y15.456
X234.943 Y16.169
X234.862 Y16.915
X234.925 Y17.662
X234.967 Y17.749
X235.096 Y17.943
X235.273 Y18.093
X235.485 Y18.189
X235.715 Y18.222
X236.602 Y18.225
G2 X236.892 Y17.929 I-0.009 J-0.3
G1 X236.896 Y17.602
X236.925 Y15.101 F1200
X236.929 Y14.778 F80
G2 X236.64 Y14.475 I-0.3 J-0.003
G1 X235.697 Y14.472
X235.323 Y14.489
X234.673 Y14.863
X234.27 Y15.496
X234.05 Y16.213
X233.975 Y16.959
X234.053 Y17.705
X234.083 Y17.764
X234.213 Y17.951
X234.389 Y18.095
X234.597 Y18.187
X234.822 Y18.219
X235.715 Y18.222
G2 X236.006 Y17.92 I-0.009 J-0.3
G1 X236.004 Y17.599
X235.988 Y15.097 F1200
X235.986 Y14.77 F80
G2 X235.697 Y14.472 I-0.3 J0.002
G1 X234.788 Y14.469
X234.413 Y14.486
X233.772 Y14.876
X233.378 Y15.514
X233.162 Y16.232
X233.092 Y16.979
X233.17 Y17.724
X233.193 Y17.768
X233.324 Y17.952
X233.499 Y18.094
X233.705 Y18.184
X233.929 Y18.215
X234.822 Y18.219
G2 X235.113 Y17.915 I-0.009 J-0.3
G1 X235.109 Y17.595
X235.08 Y15.094 F1200
X235.076 Y14.765 F80
G2 X234.788 Y14.469 I-0.3 J0.003
G1 X233.88 Y14.465
X233.506 Y14.483
X232.874 Y14.887
X232.486 Y15.529
X232.275 Y16.248
X232.208 Y16.995
X232.287 Y17.741
X232.303 Y17.771
X232.433 Y17.953
X232.608 Y18.093
X232.813 Y18.181
X233.035 Y18.212
X233.929 Y18.215
G2 X234.219 Y17.911 I-0.009 J-0.3
G1 X234.214 Y17.592
X234.174 Y15.091 F1200
X234.169 Y14.76 F80
G2 X233.88 Y14.465 I-0.3 J0.005
G1 X233.096 Y14.462
X232.721 Y14.48
X232.058 Y14.829
X231.645 Y15.455
X231.414 Y16.169
X231.327 Y16.914
X231.375 Y17.662
X231.41 Y17.735
X231.539 Y17.929
X231.716 Y18.08
X231.929 Y18.176
X232.159 Y18.209
X233.035 Y18.212
G2 X233.325 Y17.918 I-0.009 J-0.3
G1 X233.332 Y17.589
X233.378 Y15.088 F1200
X233.384 Y14.768 F80
G2 X233.096 Y14.462 I-0.3 J-0.006
G1 X232.044 Y14.459
X231.857 Y14.467
X231.189 Y14.808
X230.772 Y15.431
X230.536 Y16.143
X230.441 Y16.887
X230.489 Y17.636
X230.531 Y17.725
X230.659 Y17.922
X230.837 Y18.075
X231.05 Y18.172
X231.283 Y18.206
X232.159 Y18.209
G2 X232.449 Y17.898 I-0.009 J-0.3
G1 X232.438 Y17.586
X232.345 Y15.084 F1200
X232.333 Y14.747 F80
G2 X232.044 Y14.459 I-0.3 J0.011
G1 X231.332 Y14.456
X230.957 Y14.474
X230.292 Y14.82
X229.879 Y15.446
X229.644 Y16.158
X229.553 Y16.902
X229.613 Y17.65
X229.652 Y17.731
X229.781 Y17.924
X229.958 Y18.074
X230.17 Y18.17
X230.4 Y18.203
X231.283 Y18.206
G2 X231.573 Y17.911 I-0.009 J-0.3
G1 X231.578 Y17.583
X231.616 Y15.082 F1200
X231.62 Y14.76 F80
G2 X231.332 Y14.456 I-0.3 J-0.004
G1 X230.422 Y14.453
X230.048 Y14.47
X229.391 Y14.833
X228.983 Y15.462
X228.752 Y16.176
X228.669 Y16.921
X228.736 Y17.668
X228.77 Y17.736
X228.899 Y17.926
X229.076 Y18.074
X229.286 Y18.167
X229.513 Y18.2
X230.4 Y18.203
G2 X230.691 Y17.905 I-0.009 J-0.3
G1 X230.693 Y17.579
X230.709 Y15.078 F1200
X230.711 Y14.755 F80
G2 X230.422 Y14.453 I-0.3 J-0.002
G1 X229.515 Y14.45
X229.14 Y14.467
X228.491 Y14.843
X228.088 Y15.475
X227.863 Y16.191
X227.785 Y16.937
X227.856 Y17.683
X227.885 Y17.74
X228.015 Y17.927
X228.19 Y18.072
X228.399 Y18.164
X228.625 Y18.196
X229.513 Y18.2
G2 X229.804 Y17.9 I-0.009 J-0.3
G1 Y17.576
Y15.075 F1200
X229.803 Y14.749 F80
G2 X229.515 Y14.45 I-0.3 J0
G1 X228.582 Y14.446
X228.207 Y14.464
X227.575 Y14.868
X227.184 Y15.508
X226.969 Y16.226
X226.9 Y16.973
X226.98 Y17.719
X226.997 Y17.751
X227.128 Y17.933
X227.303 Y18.073
X227.508 Y18.162
X227.73 Y18.193
X228.625 Y18.196
G2 X228.915 Y17.892 I-0.009 J-0.3
G1 X228.911 Y17.573
X228.875 Y15.072 F1200
X228.87 Y14.742 F80
G2 X228.582 Y14.446 I-0.3 J0.004
G1 X227.679 Y14.443
X227.492 Y14.452
X227.15 Y14.605
X226.568 Y15.079
X226.223 Y15.745
X226.044 Y16.473
X226.014 Y17.223
X226.087 Y17.542
X226.165 Y17.751
X226.296 Y17.932
X226.47 Y18.071
X226.675 Y18.16
X226.896 Y18.19
X227.73 Y18.193
G2 X228.021 Y17.888 I-0.009 J-0.3
G1 X228.015 Y17.57
X227.973 Y15.068 F1200
X227.967 Y14.738 F80
G2 X227.679 Y14.443 I-0.3 J0.005
G1 X226.966 Y14.44
X226.592 Y14.458
X225.922 Y14.794
X225.49 Y15.408
X225.235 Y16.113
X225.123 Y16.855
X225.202 Y17.6
X225.251 Y17.706
X225.379 Y17.903
X225.557 Y18.056
X225.771 Y18.153
X226.003 Y18.187
X226.896 Y18.19
G2 X227.187 Y17.897 I-0.009 J-0.3
G1 X227.194 Y17.567
X227.248 Y15.066 F1200
X227.255 Y14.747 F80
G2 X226.966 Y14.44 I-0.3 J-0.006
G1 X226.057 Y14.437
X225.682 Y14.455
X225.014 Y14.795
X224.589 Y15.413
X224.339 Y16.12
X224.253 Y16.865
X224.32 Y17.612
X224.366 Y17.708
X224.494 Y17.903
X224.672 Y18.054
X224.885 Y18.15
X225.115 Y18.184
X226.003 Y18.187
G2 X226.294 Y17.892 I-0.009 J-0.3
G1 X226.299 Y17.564
X226.34 Y15.063 F1200
X226.345 Y14.742 F80
G2 X226.057 Y14.437 I-0.3 J-0.005
G1 X225.15 Y14.434
X224.775 Y14.451
X224.11 Y14.798
X223.689 Y15.419
X223.455 Y16.132
X223.372 Y16.877
X223.439 Y17.624
X223.481 Y17.71
X223.61 Y17.903
X223.787 Y18.053
X223.999 Y18.148
X224.229 Y18.181
X225.115 Y18.184
G2 X225.406 Y17.887 I-0.009 J-0.3
G1 X225.409 Y17.56
X225.435 Y15.059 F1200
X225.438 Y14.737 F80
G2 X225.15 Y14.434 I-0.3 J-0.003
G1 X224.216 Y14.431
X223.842 Y14.449
X223.19 Y14.82
X222.786 Y15.451
X222.563 Y16.168
X222.488 Y16.914
X222.564 Y17.66
X222.597 Y17.723
X222.727 Y17.911
X222.904 Y18.056
X223.113 Y18.148
X223.339 Y18.18
X224.229 Y18.181
G2 X224.519 Y17.88 I-0.01 J-0.3
G1 X224.518 Y17.557
X224.507 Y15.056 F1200
X224.505 Y14.729 F80
G2 X224.216 Y14.431 I-0.3 J0.001
G1 X223.314 Y14.43
X222.939 Y14.448
X222.293 Y14.829
X221.895 Y15.465
X221.677 Y16.183
X221.605 Y16.929
X221.681 Y17.675
X221.712 Y17.734
X221.845 Y17.922
X222.025 Y18.067
X222.237 Y18.157
X222.467 Y18.185
X222.783 Y18.179
X223.339 Y18.18
G2 X223.629 Y17.877 I-0.01 J-0.3
G1 X223.626 Y17.555
X223.605 Y15.054 F1200
X223.603 Y14.727 F80
G2 X223.314 Y14.43 I-0.3 J0.002
G1 X222.601 Y14.432
X222.45 Y14.435
X222.075 Y14.46
X221.421 Y14.826
X221.018 Y15.459
X220.797 Y16.175
X220.723 Y16.922
X220.792 Y17.668
X220.83 Y17.745
X220.965 Y17.937
X221.148 Y18.085
X221.365 Y18.175
X221.598 Y18.201
X222.467 Y18.185
G2 X222.751 Y17.885 I-0.016 J-0.3
G1 X222.75 Y17.555
X222.745 Y15.054 F1200
X222.744 Y14.734 F80
G2 X222.45 Y14.435 I-0.3 J0.001
G1 X221.51 Y14.453
X221.136 Y14.482
X220.498 Y14.877
X220.11 Y15.519
X219.9 Y16.239
X219.835 Y16.986
X219.924 Y17.731
X219.957 Y17.791
X220.092 Y17.976
X220.273 Y18.116
X220.486 Y18.203
X220.714 Y18.227
X221.598 Y18.201
G2 X221.879 Y17.895 I-0.019 J-0.299
G1 X221.872 Y17.568
X221.815 Y15.068 F1200
X221.808 Y14.746 F80
G2 X221.51 Y14.453 I-0.3 J0.007
G1 X220.6 Y14.479
X220.226 Y14.509
X219.595 Y14.914
X219.213 Y15.56
X219.009 Y16.281
X218.952 Y17.029
X219.045 Y17.773
X219.073 Y17.824
X219.209 Y18.006
X219.39 Y18.145
X219.601 Y18.229
X219.827 Y18.254
X220.714 Y18.227
G2 X220.995 Y17.919 I-0.019 J-0.299
G1 X220.985 Y17.595
X220.908 Y15.095 F1200
X220.898 Y14.77 F80
G2 X220.6 Y14.479 I-0.3 J0.009
G1 X219.693 Y14.506
X219.319 Y14.536
X218.694 Y14.951
X218.318 Y15.6
X218.12 Y16.323
X218.069 Y17.072
X218.165 Y17.815
X218.188 Y17.856
X218.324 Y18.036
X218.504 Y18.172
X218.714 Y18.256
X218.939 Y18.28
X219.827 Y18.254
G2 X220.108 Y17.943 I-0.019 J-0.299
G1 X220.096 Y17.621
X220.003 Y15.121 F1200
X219.991 Y14.795 F80
G2 X219.693 Y14.506 I-0.3 J0.011
G1 X218.76 Y14.534
X218.573 Y14.549
X218.238 Y14.717
X217.678 Y15.216
X217.356 Y15.893
X217.2 Y16.627
X217.19 Y17.377
X217.274 Y17.688
X217.36 Y17.893
X217.496 Y18.067
X217.674 Y18.199
X217.881 Y18.28
X218.101 Y18.304
X218.939 Y18.28
G2 X219.219 Y17.965 I-0.019 J-0.299
G1 X219.203 Y17.647
X219.075 Y15.149 F1200
X219.058 Y14.818 F80
G2 X218.76 Y14.534 I-0.3 J0.015
G1 X218.087 Y14.553
X217.713 Y14.582
X217.044 Y14.922
X216.625 Y15.543
X216.385 Y16.254
X216.287 Y16.998
X216.384 Y17.741
X216.44 Y17.857
X216.572 Y18.053
X216.753 Y18.203
X216.969 Y18.297
X217.203 Y18.327
X218.101 Y18.304
G2 X218.382 Y18.005 I-0.019 J-0.299
G1 X218.383 Y17.672
X218.384 Y15.169 F1200
X218.385 Y14.853 F80
G2 X218.087 Y14.553 I-0.3 J0
G1 X217.144 Y14.577
X216.77 Y14.602
X216.116 Y14.968
X215.71 Y15.599
X215.481 Y16.313
X215.417 Y17.06
X215.511 Y17.805
X215.554 Y17.889
X215.687 Y18.078
X215.867 Y18.222
X216.079 Y18.312
X216.308 Y18.341
X217.203 Y18.327
G2 X217.487 Y18.022 I-0.015 J-0.3
G1 X217.482 Y17.698
X217.443 Y15.196 F1200
X217.438 Y14.872 F80
G2 X217.144 Y14.577 I-0.3 J0.005
G1 X216.234 Y14.591
X215.86 Y14.613
X215.212 Y14.991
X214.811 Y15.625
X214.598 Y16.344
X214.539 Y17.092
X214.628 Y17.837
X214.662 Y17.902
X214.794 Y18.087
X214.972 Y18.23
X215.182 Y18.32
X215.408 Y18.349
X216.308 Y18.341
G2 X216.593 Y18.035 I-0.015 J-0.3
G1 X216.586 Y17.712
X216.533 Y15.213 F1200
X216.526 Y14.885 F80
G2 X216.234 Y14.591 I-0.3 J0.006
G1 X215.327 Y14.599
X214.953 Y14.622
X214.311 Y15.01
X213.921 Y15.65
X213.715 Y16.372
X213.656 Y17.119
X213.744 Y17.864
X213.77 Y17.912
X213.902 Y18.095
X214.078 Y18.236
X214.286 Y18.325
X214.509 Y18.354
X215.408 Y18.349
G2 X215.694 Y18.042 I-0.013 J-0.3
G1 X215.687 Y17.722
X215.627 Y15.221 F1200
X215.619 Y14.892 F80
G2 X215.327 Y14.599 I-0.3 J0.007
G1 X214.394 Y14.605
X214.207 Y14.615
X213.866 Y14.771
X213.292 Y15.254
X212.959 Y15.926
X212.793 Y16.657
X212.774 Y17.407
X212.854 Y17.727
X212.935 Y17.932
X213.068 Y18.108
X213.242 Y18.244
X213.446 Y18.329
X213.664 Y18.357
X214.509 Y18.354
G2 X214.797 Y18.044 I-0.012 J-0.3
G1 X214.786 Y17.729
X214.697 Y15.227 F1200
X214.685 Y14.894 F80
G2 X214.394 Y14.605 I-0.3 J0.011
G1 X213.721 Y14.607
X213.347 Y14.627
X212.668 Y14.946
X212.237 Y15.56
X211.985 Y16.266
X211.876 Y17.008
X211.959 Y17.754
X212.013 Y17.873
X212.142 Y18.073
X212.321 Y18.228
X212.538 Y18.326
X212.773 Y18.359
X213.664 Y18.357
G2 X213.953 Y18.063 I-0.011 J-0.3
G1 X213.959 Y17.732
X214.006 Y15.231 F1200
X214.012 Y14.912 F80
G2 X213.721 Y14.607 I-0.3 J-0.006
G1 X212.779 Y14.609
X212.404 Y14.629
X211.74 Y14.977
X211.322 Y15.6
X211.081 Y16.31
X211.005 Y17.056
X211.084 Y17.802
X211.13 Y17.895
X211.26 Y18.087
X211.438 Y18.236
X211.65 Y18.33
X211.88 Y18.361
X212.773 Y18.359
G2 X213.062 Y18.06 I-0.011 J-0.3
G1 Y17.734
X213.068 Y15.233 F1200
X213.069 Y14.909 F80
G2 X212.779 Y14.609 I-0.3 J0
G1 X211.869 Y14.611
X211.494 Y14.631
X210.836 Y14.99
X210.423 Y15.616
X210.198 Y16.331
X210.126 Y17.078
X210.203 Y17.824
X210.242 Y17.902
X210.372 Y18.092
X210.55 Y18.239
X210.761 Y18.332
X210.989 Y18.363
X211.88 Y18.361
G2 X212.169 Y18.061 I-0.011 J-0.3
G1 X212.168 Y17.736
X212.16 Y15.235 F1200
X212.159 Y14.91 F80
G2 X211.869 Y14.611 I-0.3 J0.001
G1 X210.962 Y14.613
X210.587 Y14.633
X209.934 Y15.001
X209.532 Y15.634
X209.313 Y16.351
X209.243 Y17.098
X209.321 Y17.844
X209.354 Y17.91
X209.485 Y18.098
X209.662 Y18.243
X209.872 Y18.334
X210.099 Y18.365
X210.989 Y18.363
G2 X211.278 Y18.061 I-0.011 J-0.3
G1 X211.275 Y17.738
X211.255 Y15.237 F1200
X211.252 Y14.911 F80
G2 X210.962 Y14.613 I-0.3 J0.003
G1 X210.029 Y14.615
X209.654 Y14.635
X209.019 Y15.033
X208.63 Y15.675
X208.421 Y16.395
X208.358 Y17.143
X208.445 Y17.888
X208.466 Y17.927
X208.598 Y18.109
X208.773 Y18.249
X208.98 Y18.338
X209.203 Y18.367
X210.099 Y18.365
G2 X210.387 Y18.059 I-0.011 J-0.3
G1 X210.381 Y17.74
X210.326 Y15.239 F1200
X210.319 Y14.909 F80
G2 X210.029 Y14.615 I-0.3 J0.007
G1 X209.126 Y14.617
X208.938 Y14.627
X208.595 Y14.779
X208.013 Y15.252
X207.672 Y15.92
X207.499 Y16.649
X207.474 Y17.399
X207.551 Y17.726
X207.631 Y17.935
X207.763 Y18.115
X207.938 Y18.253
X208.143 Y18.34
X208.365 Y18.369
X209.203 Y18.367
G2 X209.491 Y18.06 I-0.011 J-0.3
G1 X209.484 Y17.742
X209.424 Y15.241 F1200
X209.416 Y14.91 F80
G2 X209.126 Y14.617 I-0.3 J0.007
G1 X208.413 Y14.619
X208.039 Y14.639
X207.367 Y14.972
X206.938 Y15.587
X206.688 Y16.294
X206.581 Y17.037
X206.664 Y17.782
X206.715 Y17.892
X206.845 Y18.089
X207.024 Y18.242
X207.238 Y18.338
X207.472 Y18.371
X208.365 Y18.369
G2 X208.653 Y18.074 I-0.011 J-0.3
G1 X208.659 Y17.744
X208.698 Y15.243 F1200
X208.703 Y14.924 F80
G2 X208.413 Y14.619 I-0.3 J-0.005
G1 X207.503 Y14.621
X207.129 Y14.641
X206.46 Y14.979
X206.037 Y15.599
X205.793 Y16.308
X205.711 Y17.054
X205.782 Y17.8
X205.83 Y17.9
X205.96 Y18.095
X206.139 Y18.245
X206.352 Y18.341
X206.583 Y18.373
X207.472 Y18.371
G2 X207.761 Y18.074 I-0.011 J-0.3
G1 X207.764 Y17.746
X207.79 Y15.245 F1200
X207.794 Y14.924 F80
G2 X207.503 Y14.621 I-0.3 J-0.003
G1 X206.596 Y14.623
X206.222 Y14.643
X205.556 Y14.989
X205.139 Y15.612
X204.909 Y16.326
X204.83 Y17.072
X204.902 Y17.818
X204.944 Y17.904
X205.073 Y18.097
X205.251 Y18.246
X205.462 Y18.34
X205.692 Y18.372
X206.583 Y18.373
G2 X206.872 Y18.075 I-0.011 J-0.3
G1 X206.874 Y17.748
X206.885 Y15.247 F1200
X206.886 Y14.924 F80
G2 X206.596 Y14.623 I-0.3 J-0.001
G1 X205.663 Y14.622
X205.289 Y14.641
X204.638 Y15.014
X204.237 Y15.647
X204.017 Y16.364
X203.947 Y17.111
X204.026 Y17.857
X204.056 Y17.914
X204.185 Y18.1
X204.36 Y18.244
X204.567 Y18.336
X204.791 Y18.368
X205.692 Y18.372
G2 X205.982 Y18.07 I-0.01 J-0.3
G1 X205.979 Y17.748
X205.955 Y15.247 F1200
X205.952 Y14.919 F80
G2 X205.663 Y14.622 I-0.3 J0.003
G1 X204.76 Y14.618
X204.386 Y14.633
X203.743 Y15.021
X203.348 Y15.658
X203.133 Y16.377
X203.064 Y17.123
X203.141 Y17.869
X203.162 Y17.91
X203.291 Y18.093
X203.465 Y18.235
X203.669 Y18.326
X203.891 Y18.359
X204.791 Y18.368
G2 X205.083 Y18.065 I-0.008 J-0.3
G1 X205.079 Y17.746
X205.051 Y15.244 F1200
X205.047 Y14.914 F80
G2 X204.76 Y14.618 I-0.3 J0.003
G1 X203.896 Y14.609
X203.522 Y14.623
X202.875 Y15.003
X202.476 Y15.638
X202.256 Y16.355
X202.181 Y17.101
X202.246 Y17.848
X202.268 Y17.891
X202.397 Y18.077
X202.57 Y18.221
X202.776 Y18.313
X202.999 Y18.347
X203.891 Y18.359
G2 X204.184 Y18.059 I-0.007 J-0.3
G1 Y17.739
X204.182 Y15.237 F1200
Y14.908 F80
G2 X203.896 Y14.609 I-0.3 J0
G1 X202.956 Y14.596
X202.769 Y14.603
X202.427 Y14.757
X201.849 Y15.235
X201.506 Y15.902
X201.326 Y16.63
X201.289 Y17.379
X201.361 Y17.69
X201.439 Y17.896
X201.568 Y18.075
X201.74 Y18.214
X201.942 Y18.302
X202.16 Y18.335
X202.999 Y18.347
G2 X203.293 Y18.042 I-0.006 J-0.3
G1 X203.288 Y17.727
X203.247 Y15.225 F1200
X203.241 Y14.891 F80
G2 X202.956 Y14.596 I-0.3 J0.005
G1 X202.2 Y14.585
X201.825 Y14.598
X201.175 Y14.972
X200.756 Y15.594
X200.509 Y16.302
X200.4 Y17.044
X200.488 Y17.789
X200.523 Y17.859
X200.651 Y18.047
X200.825 Y18.193
X201.032 Y18.287
X201.256 Y18.321
X202.16 Y18.335
G2 X202.454 Y18.038 I-0.006 J-0.3
G1 X202.457 Y17.715
X202.482 Y15.214 F1200
X202.485 Y14.887 F80
G2 X202.2 Y14.585 I-0.3 J-0.003
G1 X201.298 Y14.571
X200.923 Y14.584
X200.274 Y14.96
X199.859 Y15.585
X199.615 Y16.294
X199.531 Y17.039
X199.6 Y17.786
X199.629 Y17.845
X199.757 Y18.033
X199.931 Y18.179
X200.138 Y18.273
X200.363 Y18.307
X201.256 Y18.321
G2 X201.55 Y18.024 I-0.006 J-0.3
G1 X201.553 Y17.701
X201.579 Y15.2 F1200
X201.583 Y14.874 F80
G2 X201.298 Y14.571 I-0.3 J-0.003
G1 X200.395 Y14.558
X200.02 Y14.571
X199.373 Y14.951
X198.962 Y15.578
X198.732 Y16.292
X198.65 Y17.037
X198.715 Y17.784
X198.74 Y17.834
X198.868 Y18.021
X199.042 Y18.166
X199.248 Y18.26
X199.472 Y18.294
X200.363 Y18.307
G2 X200.657 Y18.01 I-0.006 J-0.3
G1 X200.659 Y17.687
X200.677 Y15.186 F1200
X200.68 Y14.859 F80
G2 X200.395 Y14.558 I-0.3 J-0.002
G1 X199.531 Y14.544
X199.156 Y14.558
X198.5 Y14.921
X198.088 Y15.547
X197.855 Y16.26
X197.768 Y17.005
X197.822 Y17.753
X197.851 Y17.812
X197.979 Y18.002
X198.153 Y18.151
X198.361 Y18.246
X198.588 Y18.281
X199.472 Y18.294
G2 X199.766 Y17.999 I-0.006 J-0.3
G1 X199.771 Y17.674
X199.811 Y15.173 F1200
X199.816 Y14.849 F80
G2 X199.531 Y14.544 I-0.3 J-0.005
G1 X198.591 Y14.53
X198.216 Y14.543
X197.579 Y14.94
X197.182 Y15.576
X196.959 Y16.292
X196.879 Y17.038
X196.949 Y17.784
X196.966 Y17.816
X197.095 Y18
X197.268 Y18.142
X197.472 Y18.234
X197.694 Y18.267
X198.588 Y18.281
G2 X198.882 Y17.98 I-0.006 J-0.3
G1 X198.881 Y17.661
X198.876 Y15.159 F1200
Y14.829 F80
G2 X198.591 Y14.53 I-0.3 J0.001
G1 X197.681 Y14.517
X197.494 Y14.524
X197.151 Y14.676
X196.567 Y15.146
X196.217 Y15.809
X196.029 Y16.536
X195.99 Y17.285
X196.059 Y17.602
X196.136 Y17.811
X196.265 Y17.993
X196.438 Y18.134
X196.642 Y18.224
X196.863 Y18.256
X197.694 Y18.267
G2 X197.988 Y17.965 I-0.006 J-0.3
G1 X197.986 Y17.647
X197.968 Y15.145 F1200
X197.966 Y14.814 F80
G2 X197.681 Y14.517 I-0.3 J0.002
G1 X196.999 Y14.508
X196.624 Y14.522
X195.942 Y14.834
X195.498 Y15.438
X195.229 Y16.138
X195.103 Y16.877
X195.169 Y17.625
X195.223 Y17.75
X195.35 Y17.954
X195.529 Y18.113
X195.746 Y18.214
X195.983 Y18.25
X196.863 Y18.256
G2 X197.156 Y17.969 I-0.007 J-0.3
G1 X197.169 Y17.636
X197.272 Y15.136 F1200
X197.285 Y14.82 F80
G2 X196.999 Y14.508 I-0.3 J-0.012
G1 X196.029 Y14.5
X195.655 Y14.517
X194.992 Y14.869
X194.568 Y15.487
X194.315 Y16.193
X194.229 Y16.938
X194.302 Y17.685
X194.348 Y17.78
X194.478 Y17.975
X194.658 Y18.125
X194.872 Y18.22
X195.105 Y18.251
X195.765 Y18.249
X195.983 Y18.25
G2 X196.274 Y17.954 I-0.009 J-0.3
G1 X196.279 Y17.627
X196.313 Y15.126 F1200
X196.317 Y14.804 F80
G2 X196.029 Y14.5 I-0.3 J-0.004
G1 X195.168
X194.794 Y14.522
X194.117 Y14.846
X193.685 Y15.459
X193.442 Y16.168
X193.353 Y16.913
X193.411 Y17.661
X193.463 Y17.775
X193.593 Y17.975
X193.775 Y18.129
X193.992 Y18.226
X194.229 Y18.258
X195.105 Y18.251
G2 X195.392 Y17.957 I-0.013 J-0.3
G1 X195.399 Y17.624
X195.453 Y15.122 F1200
X195.46 Y14.807 F80
G2 X195.168 Y14.5 I-0.3 J-0.006
G1 X194.225 Y14.508
X193.851 Y14.531
X193.187 Y14.879
X192.775 Y15.506
X192.546 Y16.22
X192.467 Y16.966
X192.542 Y17.712
X192.587 Y17.804
X192.719 Y17.996
X192.898 Y18.145
X193.112 Y18.238
X193.343 Y18.268
X194.229 Y18.258
G2 X194.515 Y17.959 I-0.014 J-0.3
G1 Y17.63
X194.518 Y15.129 F1200
Y14.808 F80
G2 X194.225 Y14.508 I-0.3 J0
G1 X193.316 Y14.518
X192.941 Y14.54
X192.284 Y14.901
X191.879 Y15.532
X191.657 Y16.249
X191.585 Y16.995
X191.663 Y17.741
X191.702 Y17.818
X191.834 Y18.008
X192.012 Y18.154
X192.224 Y18.245
X192.453 Y18.275
X193.343 Y18.268
G2 X193.629 Y17.966 I-0.014 J-0.3
G1 X193.627 Y17.64
X193.61 Y15.14 F1200
X193.608 Y14.816 F80
G2 X193.316 Y14.518 I-0.3 J0.002
G1 X192.408 Y14.526
X192.034 Y14.548
X191.384 Y14.922
X190.986 Y15.558
X190.77 Y16.276
X190.702 Y17.023
X190.783 Y17.768
X190.814 Y17.829
X190.946 Y18.015
X191.122 Y18.159
X191.331 Y18.249
X191.557 Y18.279
X192.453 Y18.275
G2 X192.74 Y17.972 I-0.013 J-0.3
G1 X192.736 Y17.648
X192.705 Y15.148 F1200
X192.7 Y14.822 F80
G2 X192.408 Y14.526 I-0.3 J0.004
G1 X191.475 Y14.53
X191.101 Y14.549
X190.47 Y14.955
X190.085 Y15.599
X189.878 Y16.32
X189.818 Y17.067
X189.907 Y17.812
X189.922 Y17.841
X190.053 Y18.02
X190.226 Y18.158
X190.429 Y18.246
X190.648 Y18.277
X191.557 Y18.279
G2 X191.846 Y17.972 I-0.011 J-0.3
G1 X191.838 Y17.654
X191.774 Y15.153 F1200
X191.766 Y14.822 F80
G2 X191.475 Y14.53 I-0.3 J0.008
G1 X190.572 Y14.526
X190.385 Y14.534
X190.044 Y14.691
X189.467 Y15.17
X189.129 Y15.839
X188.957 Y16.569
X188.934 Y17.319
X189.007 Y17.628
X189.086 Y17.834
X189.216 Y18.013
X189.389 Y18.151
X189.591 Y18.238
X189.81 Y18.27
X190.648 Y18.277
G2 X190.94 Y17.969 I-0.008 J-0.3
G1 X190.932 Y17.655
X190.868 Y15.153 F1200
X190.859 Y14.818 F80
G2 X190.572 Y14.526 I-0.3 J0.008
G1 X189.86 Y14.52
X189.485 Y14.535
X188.82 Y14.882
X188.394 Y15.5
X188.145 Y16.207
X188.039 Y16.95
X188.123 Y17.695
X188.167 Y17.787
X188.295 Y17.98
X188.471 Y18.13
X188.682 Y18.226
X188.911 Y18.261
X189.81 Y18.27
G2 X190.102 Y17.974 I-0.007 J-0.3
G1 X190.107 Y17.648
X190.142 Y15.147 F1200
X190.146 Y14.824 F80
G2 X189.86 Y14.52 I-0.3 J-0.004
G1 X188.95 Y14.511
X188.575 Y14.526
X187.914 Y14.881
X187.495 Y15.503
X187.252 Y16.212
X187.169 Y16.957
X187.239 Y17.704
X187.278 Y17.783
X187.406 Y17.974
X187.581 Y18.122
X187.791 Y18.217
X188.018 Y18.252
X188.911 Y18.261
G2 X189.203 Y17.964 I-0.007 J-0.3
G1 X189.207 Y17.639
X189.233 Y15.139 F1200
X189.236 Y14.814 F80
G2 X188.95 Y14.511 I-0.3 J-0.003
G1 X188.043 Y14.502
X187.668 Y14.517
X187.012 Y14.88
X186.598 Y15.505
X186.368 Y16.219
X186.288 Y16.965
X186.356 Y17.712
X186.389 Y17.778
X186.518 Y17.967
X186.693 Y18.115
X186.901 Y18.209
X187.128 Y18.242
X188.018 Y18.252
G2 X188.311 Y17.953 I-0.007 J-0.3
G1 X188.313 Y17.63
X188.327 Y15.129 F1200
X188.329 Y14.803 F80
G2 X188.043 Y14.502 I-0.3 J-0.002
G1 X187.11 Y14.492
X186.735 Y14.507
X186.094 Y14.896
X185.696 Y15.532
X185.476 Y16.249
X185.403 Y16.995
X185.479 Y17.741
X185.501 Y17.783
X185.63 Y17.967
X185.804 Y18.109
X186.01 Y18.2
X186.232 Y18.233
X187.128 Y18.242
G2 X187.42 Y17.94 I-0.007 J-0.3
G1 X187.418 Y17.621
X187.399 Y15.119 F1200
X187.396 Y14.789 F80
G2 X187.11 Y14.492 I-0.3 J0.002
G1 X186.207 Y14.483
X186.02 Y14.49
X185.674 Y14.636
X185.085 Y15.1
X184.735 Y15.763
X184.551 Y16.49
X184.516 Y17.24
X184.589 Y17.57
X184.666 Y17.78
X184.795 Y17.962
X184.969 Y18.102
X185.173 Y18.192
X185.394 Y18.224
X186.232 Y18.233
G2 X186.525 Y17.93 I-0.007 J-0.3
G1 X186.522 Y17.612
X186.497 Y15.11 F1200
X186.493 Y14.779 F80
G2 X186.207 Y14.483 I-0.3 J0.003
G1 X185.494 Y14.475
X185.12 Y14.49
X184.443 Y14.813
X184.005 Y15.422
X183.745 Y16.125
X183.628 Y16.866
X183.7 Y17.612
X183.751 Y17.725
X183.878 Y17.924
X184.055 Y18.079
X184.269 Y18.179
X184.502 Y18.215
X185.394 Y18.224
G2 X185.686 Y17.933 I-0.007 J-0.3
G1 X185.696 Y17.603
X185.771 Y15.102 F1200
X185.781 Y14.784 F80
G2 X185.494 Y14.475 I-0.3 J-0.009
G1 X184.585 Y14.466
X184.21 Y14.48
X183.535 Y14.808
X183.104 Y15.422
X182.849 Y16.127
X182.757 Y16.872
X182.819 Y17.619
X182.866 Y17.722
X182.993 Y17.919
X183.17 Y18.072
X183.383 Y18.17
X183.614 Y18.206
X184.502 Y18.215
G2 X184.794 Y17.922 I-0.007 J-0.3
G1 X184.802 Y17.594
X184.863 Y15.093 F1200
X184.871 Y14.773 F80
G2 X184.585 Y14.466 I-0.3 J-0.007
G1 X183.677 Y14.456
X183.303 Y14.471
X182.632 Y14.806
X182.205 Y15.423
X181.965 Y16.134
X181.877 Y16.878
X181.938 Y17.626
X181.981 Y17.718
X182.109 Y17.912
X182.285 Y18.064
X182.497 Y18.162
X182.727 Y18.196
X183.614 Y18.206
G2 X183.907 Y17.911 I-0.007 J-0.3
G1 X183.913 Y17.584
X183.958 Y15.084 F1200
X183.964 Y14.761 F80
G2 X183.677 Y14.456 I-0.3 J-0.005
G1 X182.744 Y14.446
X182.37 Y14.461
X181.712 Y14.822
X181.302 Y15.45
X181.073 Y16.164
X180.993 Y16.91
X181.063 Y17.656
X181.096 Y17.723
X181.225 Y17.912
X181.4 Y18.059
X181.609 Y18.153
X181.835 Y18.187
X182.727 Y18.196
G2 X183.019 Y17.898 I-0.007 J-0.3
G1 X183.021 Y17.575
X183.03 Y15.074 F1200
X183.031 Y14.747 F80
G2 X182.744 Y14.446 I-0.3 J-0.001
G1 X181.841 Y14.437
X181.467 Y14.452
X180.816 Y14.825
X180.412 Y15.456
X180.187 Y16.172
X180.11 Y16.918
X180.18 Y17.665
X180.207 Y17.719
X180.336 Y17.906
X180.511 Y18.052
X180.718 Y18.145
X180.943 Y18.178
X181.835 Y18.187
G2 X182.127 Y17.887 I-0.007 J-0.3
G1 Y17.566
X182.128 Y15.064 F1200
Y14.737 F80
G2 X181.841 Y14.437 I-0.3 J0
G1 X180.977 Y14.428
X180.603 Y14.443
X179.946 Y14.805
X179.538 Y15.434
X179.31 Y16.149
X179.228 Y16.894
X179.288 Y17.642
X179.318 Y17.703
X179.446 Y17.893
X179.622 Y18.04
X179.83 Y18.135
X180.057 Y18.169
X180.943 Y18.178
G2 X181.236 Y17.881 I-0.007 J-0.3
G1 X181.239 Y17.556
X181.261 Y15.055 F1200
X181.264 Y14.73 F80
G2 X180.977 Y14.428 I-0.3 J-0.003
G1 X180.037 Y14.418
X179.663 Y14.433
X179.027 Y14.831
X178.633 Y15.469
X178.414 Y16.186
X178.339 Y16.933
X178.415 Y17.679
X178.432 Y17.712
X178.562 Y17.895
X178.735 Y18.036
X178.94 Y18.127
X179.162 Y18.159
X180.057 Y18.169
G2 X180.35 Y17.866 I-0.007 J-0.3
G1 X180.347 Y17.547
X180.327 Y15.046 F1200
X180.324 Y14.715 F80
G2 X180.037 Y14.418 I-0.3 J0.002
G1 X179.128 Y14.409
X178.94 Y14.416
X178.598 Y14.569
X178.016 Y15.042
X177.669 Y15.707
X177.486 Y16.435
X177.452 Y17.184
X177.523 Y17.5
X177.601 Y17.709
X177.731 Y17.89
X177.904 Y18.029
X178.107 Y18.119
X178.328 Y18.151
X179.162 Y18.159
G2 X179.455 Y17.855 I-0.007 J-0.3
G1 X179.451 Y17.538
X179.418 Y15.036 F1200
X179.414 Y14.705 F80
G2 X179.128 Y14.409 I-0.3 J0.004
G1 X178.446 Y14.402
X178.071 Y14.416
X177.39 Y14.731
X176.949 Y15.338
X176.685 Y16.04
X176.563 Y16.78
X176.632 Y17.527
X176.685 Y17.645
X176.811 Y17.846
X176.988 Y18.004
X177.203 Y18.105
X177.438 Y18.141
X178.328 Y18.151
G2 X178.62 Y17.861 I-0.007 J-0.3
G1 X178.632 Y17.529
X178.721 Y15.029 F1200
X178.732 Y14.712 F80
G2 X178.446 Y14.402 I-0.3 J-0.011
G1 X177.476 Y14.391
X177.101 Y14.406
X176.442 Y14.765
X176.022 Y15.386
X175.772 Y16.093
X175.689 Y16.838
X175.764 Y17.585
X175.803 Y17.664
X175.931 Y17.855
X176.106 Y18.003
X176.316 Y18.098
X176.543 Y18.132
X177.438 Y18.141
G2 X177.731 Y17.844 I-0.007 J-0.3
G1 X177.734 Y17.52
X177.759 Y15.019 F1200
X177.762 Y14.694 F80
G2 X177.476 Y14.391 I-0.3 J-0.003
G1 X176.615 Y14.382
X176.24 Y14.397
X175.57 Y14.735
X175.142 Y15.35
X174.901 Y16.06
X174.813 Y16.805
X174.87 Y17.553
X174.912 Y17.643
X175.039 Y17.838
X175.215 Y17.99
X175.427 Y18.088
X175.658 Y18.123
X176.543 Y18.132
G2 X176.836 Y17.838 I-0.007 J-0.3
G1 X176.842 Y17.511
X176.894 Y15.01 F1200
X176.901 Y14.688 F80
G2 X176.615 Y14.382 I-0.3 J-0.006
G1 X175.672 Y14.373
X175.297 Y14.387
X174.643 Y14.754
X174.234 Y15.383
X174.007 Y16.098
X173.926 Y16.843
X173.997 Y17.59
X174.028 Y17.652
X174.157 Y17.84
X174.332 Y17.986
X174.54 Y18.08
X174.765 Y18.113
X175.658 Y18.123
G2 X175.95 Y17.824 I-0.007 J-0.3
G1 X175.951 Y17.501
X175.958 Y15 F1200
Y14.672 F80
G2 X175.672 Y14.373 I-0.3 J0
G1 X174.762 Y14.363
X174.387 Y14.378
X173.742 Y14.76
X173.341 Y15.394
X173.119 Y16.11
X173.043 Y16.856
X173.115 Y17.603
X173.139 Y17.65
X173.268 Y17.835
X173.442 Y17.979
X173.649 Y18.071
X173.872 Y18.104
X174.765 Y18.113
G2 X175.058 Y17.813 I-0.007 J-0.3
G1 X175.057 Y17.492
X175.05 Y14.991 F1200
X175.049 Y14.662 F80
G2 X174.762 Y14.363 I-0.3 J0.001
G1 X173.855 Y14.354
X173.48 Y14.369
X172.844 Y14.765
X172.449 Y15.403
X172.232 Y16.121
X172.159 Y16.867
X172.232 Y17.614
X172.249 Y17.647
X172.378 Y17.83
X172.552 Y17.972
X172.757 Y18.062
X172.979 Y18.095
X173.872 Y18.104
G2 X174.165 Y17.802 I-0.007 J-0.3
G1 X174.163 Y17.483
X174.144 Y14.981 F1200
X174.141 Y14.651 F80
G2 X173.855 Y14.354 I-0.3 J0.002
G1 X173.071 Y14.345
X172.696 Y14.36
X172.028 Y14.701
X171.609 Y15.323
X171.371 Y16.035
X171.279 Y16.779
X171.321 Y17.528
X171.357 Y17.604
X171.484 Y17.8
X171.661 Y17.953
X171.873 Y18.05
X172.104 Y18.086
X172.979 Y18.095
G2 X173.272 Y17.803 I-0.007 J-0.3
G1 X173.281 Y17.473
X173.348 Y14.973 F1200
X173.357 Y14.653 F80
G2 X173.071 Y14.345 I-0.3 J-0.008
G1 X172.019 Y14.335
X171.832 Y14.342
X171.159 Y14.674
X170.736 Y15.293
X170.494 Y16.003
X170.393 Y16.746
X170.435 Y17.495
X170.478 Y17.589
X170.604 Y17.787
X170.782 Y17.942
X170.995 Y18.041
X171.227 Y18.076
X172.104 Y18.086
G2 X172.396 Y17.777 I-0.007 J-0.3
G1 X172.387 Y17.464
X172.315 Y14.962 F1200
X172.305 Y14.626 F80
G2 X172.019 Y14.335 I-0.3 J0.009
G1 X171.306 Y14.327
X170.932 Y14.342
X170.262 Y14.679
X169.843 Y15.301
X169.602 Y16.012
X169.506 Y16.755
X169.56 Y17.504
X169.6 Y17.589
X169.728 Y17.784
X169.905 Y17.936
X170.117 Y18.033
X170.349 Y18.067
X171.227 Y18.076
G2 X171.52 Y17.784 I-0.007 J-0.3
G1 X171.528 Y17.455
X171.585 Y14.954 F1200
X171.593 Y14.634 F80
G2 X171.306 Y14.327 I-0.3 J-0.007
G1 X170.397 Y14.318
X170.022 Y14.334
X169.361 Y14.687
X168.946 Y15.313
X168.71 Y16.025
X168.621 Y16.769
X168.683 Y17.517
X168.719 Y17.592
X168.848 Y17.784
X169.024 Y17.933
X169.235 Y18.028
X169.464 Y18.062
X170.349 Y18.067
G2 X170.64 Y17.772 I-0.009 J-0.3
G1 X170.644 Y17.445
X170.679 Y14.945 F1200
X170.683 Y14.621 F80
G2 X170.397 Y14.318 I-0.3 J-0.004
G1 X169.49 Y14.312
X169.115 Y14.328
X168.46 Y14.694
X168.051 Y15.323
X167.821 Y16.036
X167.738 Y16.782
X167.803 Y17.529
X167.84 Y17.603
X167.971 Y17.794
X168.15 Y17.942
X168.362 Y18.035
X168.592 Y18.065
X169.464 Y18.062
G2 X169.755 Y17.764 I-0.009 J-0.3
G1 X169.758 Y17.439
X169.775 Y14.938 F1200
X169.777 Y14.614 F80
G2 X169.49 Y14.312 I-0.3 J-0.002
G1 X168.557 Y14.316
X168.182 Y14.337
X167.541 Y14.726
X167.144 Y15.362
X166.925 Y16.08
X166.852 Y16.826
X166.931 Y17.572
X166.96 Y17.626
X167.092 Y17.812
X167.27 Y17.955
X167.48 Y18.044
X167.706 Y18.073
X168.592 Y18.065
G2 X168.88 Y17.763 I-0.012 J-0.3
G1 X168.876 Y17.439
X168.851 Y14.938 F1200
X168.848 Y14.612 F80
G2 X168.557 Y14.316 I-0.3 J0.003
G1 X167.654 Y14.323
X167.279 Y14.346
X166.642 Y14.742
X166.25 Y15.381
X166.036 Y16.1
X165.969 Y16.847
X166.049 Y17.593
X166.074 Y17.64
X166.207 Y17.824
X166.384 Y17.965
X166.594 Y18.053
X166.819 Y18.082
X167.706 Y18.073
G2 X167.993 Y17.769 I-0.013 J-0.3
G1 X167.988 Y17.446
X167.951 Y14.945 F1200
X167.946 Y14.619 F80
G2 X167.654 Y14.323 I-0.3 J0.004
G1 X166.79 Y14.332
X166.415 Y14.355
X165.77 Y14.737
X165.374 Y15.374
X165.157 Y16.092
X165.086 Y16.838
X165.157 Y17.585
X165.187 Y17.642
X165.319 Y17.829
X165.497 Y17.972
X165.708 Y18.062
X165.935 Y18.091
X166.819 Y18.082
G2 X167.105 Y17.78 I-0.014 J-0.3
G1 X167.103 Y17.454
X167.085 Y14.953 F1200
X167.082 Y14.63 F80
G2 X166.79 Y14.332 I-0.3 J0.002
G1 X165.85 Y14.342
X165.662 Y14.353
X165.32 Y14.506
X164.743 Y14.985
X164.404 Y15.654
X164.229 Y16.383
X164.197 Y17.133
X164.277 Y17.463
X164.359 Y17.671
X164.492 Y17.85
X164.668 Y17.987
X164.874 Y18.072
X165.095 Y18.1
X165.935 Y18.091
G2 X166.221 Y17.784 I-0.013 J-0.3
G1 X166.213 Y17.464
X166.15 Y14.964 F1200
X166.142 Y14.634 F80
G2 X165.85 Y14.342 I-0.3 J0.008
G1 X165.093 Y14.35
X164.719 Y14.372
X164.065 Y14.74
X163.649 Y15.364
X163.408 Y16.074
X163.307 Y16.817
X163.402 Y17.561
X163.444 Y17.646
X163.575 Y17.835
X163.753 Y17.982
X163.964 Y18.074
X164.192 Y18.105
X165.095 Y18.1
G2 X165.382 Y17.8 I-0.013 J-0.3
G1 Y17.472
X165.386 Y14.971 F1200
Y14.65 F80
G2 X165.093 Y14.35 I-0.3 J0
G1 X164.191 Y14.355
X163.817 Y14.375
X163.163 Y14.743
X162.751 Y15.37
X162.514 Y16.081
X162.438 Y16.827
X162.516 Y17.573
X162.551 Y17.644
X162.681 Y17.832
X162.857 Y17.978
X163.066 Y18.071
X163.292 Y18.103
X164.192 Y18.105
G2 X164.481 Y17.805 I-0.012 J-0.3
G1 Y17.479
X164.482 Y14.978 F1200
Y14.654 F80
G2 X164.191 Y14.355 I-0.3 J0
G1 X163.288 Y14.353
X162.913 Y14.37
X162.264 Y14.745
X161.856 Y15.374
X161.632 Y16.09
X161.558 Y16.836
X161.631 Y17.583
X161.66 Y17.639
X161.788 Y17.825
X161.962 Y17.97
X162.169 Y18.062
X162.393 Y18.096
X163.292 Y18.103
G2 X163.583 Y17.803 I-0.009 J-0.3
G1 X163.582 Y17.48
X163.577 Y14.979 F1200
X163.576 Y14.652 F80
G2 X163.288 Y14.353 I-0.3 J0.001
G1 X162.424 Y14.346
X162.049 Y14.36
X161.392 Y14.721
X160.983 Y15.35
X160.757 Y16.065
X160.676 Y16.811
X160.737 Y17.558
X160.767 Y17.619
X160.895 Y17.808
X161.069 Y17.955
X161.277 Y18.05
X161.502 Y18.084
X162.393 Y18.096
G2 X162.686 Y17.798 I-0.007 J-0.3
G1 X162.689 Y17.475
X162.707 Y14.974 F1200
X162.71 Y14.648 F80
G2 X162.424 Y14.346 I-0.3 J-0.002
G1 X161.484 Y14.334
X161.297 Y14.34
X160.95 Y14.484
X160.362 Y14.949
X160.011 Y15.612
X159.826 Y16.339
X159.783 Y17.087
X159.858 Y17.42
X159.934 Y17.628
X160.063 Y17.808
X160.235 Y17.948
X160.438 Y18.038
X160.658 Y18.071
X161.502 Y18.084
G2 X161.796 Y17.782 I-0.006 J-0.3
G1 X161.793 Y17.465
X161.772 Y14.963 F1200
X161.769 Y14.631 F80
G2 X161.484 Y14.334 I-0.3 J0.003
G1 X160.728 Y14.322
X160.353 Y14.335
X159.692 Y14.688
X159.264 Y15.305
X159.011 Y16.011
X158.898 Y16.752
X158.978 Y17.498
X159.019 Y17.583
X159.146 Y17.775
X159.321 Y17.925
X159.53 Y18.021
X159.758 Y18.057
X160.658 Y18.071
G2 X160.952 Y17.777 I-0.006 J-0.3
G1 X160.958 Y17.451
X161.006 Y14.951 F1200
X161.013 Y14.627 F80
G2 X160.728 Y14.322 I-0.3 J-0.006
G1 X159.826 Y14.307
X159.451 Y14.32
X158.79 Y14.675
X158.367 Y15.295
X158.117 Y16.002
X158.029 Y16.746
X158.092 Y17.494
X158.129 Y17.569
X158.256 Y17.761
X158.43 Y17.911
X158.639 Y18.007
X158.867 Y18.042
X159.758 Y18.057
G2 X160.052 Y17.762 I-0.006 J-0.3
G1 X160.058 Y17.437
X160.104 Y14.936 F1200
X160.11 Y14.612 F80
G2 X159.826 Y14.307 I-0.3 J-0.006
G1 X158.923 Y14.293
X158.548 Y14.305
X157.89 Y14.666
X157.471 Y15.287
X157.234 Y15.999
X157.148 Y16.744
X157.209 Y17.492
X157.241 Y17.558
X157.368 Y17.749
X157.543 Y17.897
X157.751 Y17.993
X157.978 Y18.028
X158.867 Y18.042
G2 X159.161 Y17.747 I-0.006 J-0.3
G1 X159.166 Y17.423
X159.202 Y14.922 F1200
X159.207 Y14.597 F80
G2 X158.923 Y14.293 I-0.3 J-0.004
G1 X158.059 Y14.279
X157.684 Y14.291
X157.017 Y14.635
X156.597 Y15.256
X156.359 Y15.967
X156.267 Y16.711
X156.318 Y17.46
X156.353 Y17.535
X156.48 Y17.729
X156.655 Y17.88
X156.865 Y17.978
X157.094 Y18.014
X157.978 Y18.028
G2 X158.272 Y17.735 I-0.006 J-0.3
G1 X158.279 Y17.408
X158.336 Y14.908 F1200
X158.343 Y14.585 F80
G2 X158.059 Y14.279 I-0.3 J-0.007
G1 X157.119 Y14.263
X156.744 Y14.276
X156.096 Y14.654
X155.691 Y15.285
X155.462 Y15.999
X155.378 Y16.745
X155.446 Y17.491
X155.47 Y17.54
X155.598 Y17.726
X155.771 Y17.872
X155.978 Y17.965
X156.201 Y17.999
X157.094 Y18.014
G2 X157.388 Y17.715 I-0.006 J-0.3
G1 X157.39 Y17.394
X157.402 Y14.893 F1200
X157.403 Y14.564 F80
G2 X157.119 Y14.263 I-0.3 J-0.001
G1 X156.209 Y14.249
X155.834 Y14.261
X155.196 Y14.655
X154.797 Y15.29
X154.573 Y16.006
X154.494 Y16.752
X154.563 Y17.499
X154.58 Y17.532
X154.709 Y17.716
X154.882 Y17.859
X155.086 Y17.951
X155.308 Y17.985
X156.201 Y17.999
G2 X156.496 Y17.699 I-0.006 J-0.3
G1 X156.495 Y17.379
X156.494 Y14.878 F1200
Y14.548 F80
G2 X156.209 Y14.249 I-0.3 J0
G1 X155.302 Y14.234
X155.114 Y14.24
X154.77 Y14.39
X154.184 Y14.858
X153.832 Y15.52
X153.645 Y16.246
X153.604 Y16.995
X153.673 Y17.314
X153.749 Y17.524
X153.878 Y17.706
X154.05 Y17.847
X154.254 Y17.938
X154.474 Y17.971
X155.308 Y17.985
G2 X155.602 Y17.683 I-0.006 J-0.3
G1 X155.601 Y17.365
X155.588 Y14.863 F1200
X155.586 Y14.532 F80
G2 X155.302 Y14.234 I-0.3 J0.002
G1 X154.557 Y14.222
X154.182 Y14.235
X153.52 Y14.586
X153.089 Y15.201
X152.833 Y15.905
X152.718 Y16.647
X152.795 Y17.393
X152.837 Y17.481
X152.964 Y17.673
X153.139 Y17.824
X153.348 Y17.921
X153.576 Y17.957
X154.474 Y17.971
G2 X154.768 Y17.678 I-0.006 J-0.3
G1 X154.776 Y17.352
X154.834 Y14.851 F1200
X154.842 Y14.529 F80
G2 X154.557 Y14.222 I-0.3 J-0.007
G1 X153.696 Y14.208
X153.321 Y14.221
X152.646 Y14.547
X152.211 Y15.158
X151.951 Y15.861
X151.851 Y16.605
X151.901 Y17.353
X151.946 Y17.453
X152.072 Y17.651
X152.248 Y17.806
X152.46 Y17.906
X152.692 Y17.942
X153.576 Y17.957
G2 X153.871 Y17.667 I-0.006 J-0.3
G1 X153.882 Y17.337
X153.969 Y14.837 F1200
X153.98 Y14.518 F80
G2 X153.696 Y14.208 I-0.3 J-0.01
G1 X152.753 Y14.193
X152.378 Y14.205
X151.718 Y14.561
X151.296 Y15.181
X151.056 Y15.892
X150.966 Y16.636
X151.029 Y17.383
X151.064 Y17.456
X151.191 Y17.647
X151.366 Y17.797
X151.575 Y17.893
X151.802 Y17.928
X152.692 Y17.942
G2 X152.986 Y17.647 I-0.006 J-0.3
G1 X152.991 Y17.323
X153.032 Y14.822 F1200
X153.038 Y14.497 F80
G2 X152.753 Y14.193 I-0.3 J-0.005
G1 X151.843 Y14.178
X151.469 Y14.191
X150.814 Y14.556
X150.402 Y15.183
X150.169 Y15.896
X150.084 Y16.641
X150.148 Y17.388
X150.177 Y17.448
X150.304 Y17.637
X150.479 Y17.784
X150.686 Y17.879
X150.911 Y17.913
X151.802 Y17.928
G2 X152.096 Y17.631 I-0.006 J-0.3
G1 X152.099 Y17.308
X152.125 Y14.807 F1200
X152.128 Y14.481 F80
G2 X151.843 Y14.178 I-0.3 J-0.003
G1 X150.936 Y14.163
X150.561 Y14.176
X149.914 Y14.555
X149.509 Y15.186
X149.281 Y15.9
X149.2 Y16.646
X149.265 Y17.393
X149.289 Y17.44
X149.417 Y17.626
X149.59 Y17.772
X149.796 Y17.865
X150.02 Y17.899
X150.911 Y17.913
G2 X151.206 Y17.615 I-0.006 J-0.3
G1 X151.207 Y17.294
X151.219 Y14.792 F1200
X151.221 Y14.464 F80
G2 X150.936 Y14.163 I-0.3 J-0.001
G1 X150.118 Y14.15
X149.743 Y14.163
X149.075 Y14.504
X148.655 Y15.125
X148.415 Y15.835
X148.32 Y16.579
X148.363 Y17.328
X148.399 Y17.403
X148.525 Y17.598
X148.7 Y17.751
X148.911 Y17.849
X149.141 Y17.885
X150.02 Y17.899
G2 X150.314 Y17.608 I-0.006 J-0.3
G1 X150.324 Y17.279
X150.394 Y14.779 F1200
X150.403 Y14.458 F80
G2 X150.118 Y14.15 I-0.3 J-0.008
G1 X149.1 Y14.134
X148.913 Y14.14
X148.572 Y14.296
X148 Y14.782
X147.656 Y15.448
X147.472 Y16.175
X147.423 Y16.924
X147.497 Y17.233
X147.576 Y17.437
X147.705 Y17.614
X147.876 Y17.751
X148.077 Y17.839
X148.294 Y17.871
X149.141 Y17.885
G2 X149.435 Y17.58 I-0.006 J-0.3
G1 X149.43 Y17.265
X149.39 Y14.763 F1200
X149.385 Y14.429 F80
G2 X149.1 Y14.134 I-0.3 J0.005
G1 X148.388 Y14.122
X148.013 Y14.135
X147.351 Y14.488
X146.921 Y15.102
X146.662 Y15.806
X146.538 Y16.546
X146.616 Y17.292
X146.657 Y17.379
X146.784 Y17.572
X146.959 Y17.724
X147.169 Y17.821
X147.397 Y17.857
X148.294 Y17.871
G2 X148.588 Y17.579 I-0.006 J-0.3
G1 X148.597 Y17.252
X148.664 Y14.751 F1200
X148.672 Y14.43 F80
G2 X148.388 Y14.122 I-0.3 J-0.008
G1 X147.478 Y14.107
X147.103 Y14.12
X146.444 Y14.477
X146.019 Y15.095
X145.763 Y15.8
X145.67 Y16.545
X145.732 Y17.292
X145.769 Y17.368
X145.896 Y17.56
X146.071 Y17.71
X146.28 Y17.807
X146.507 Y17.842
X147.397 Y17.857
G2 X147.691 Y17.563 I-0.006 J-0.3
G1 X147.699 Y17.237
X147.755 Y14.736 F1200
X147.762 Y14.414 F80
G2 X147.478 Y14.107 I-0.3 J-0.007
G1 X146.571 Y14.093
X146.196 Y14.105
X145.539 Y14.468
X145.117 Y15.088
X144.878 Y15.799
X144.79 Y16.544
X144.85 Y17.291
X144.882 Y17.358
X145.01 Y17.548
X145.184 Y17.697
X145.392 Y17.793
X145.619 Y17.828
X146.507 Y17.842
G2 X146.802 Y17.547 I-0.006 J-0.3
G1 X146.807 Y17.223
X146.85 Y14.722 F1200
X146.855 Y14.397 F80
G2 X146.571 Y14.093 I-0.3 J-0.005
G1 X145.638 Y14.078
X145.263 Y14.09
X144.619 Y14.474
X144.214 Y15.106
X143.986 Y15.82
X143.905 Y16.566
X143.973 Y17.313
X143.996 Y17.357
X144.124 Y17.542
X144.297 Y17.687
X144.503 Y17.779
X144.726 Y17.813
X145.619 Y17.828
G2 X145.913 Y17.529 I-0.006 J-0.3
G1 X145.914 Y17.208
X145.921 Y14.707 F1200
X145.922 Y14.377 F80
G2 X145.638 Y14.078 I-0.3 J0
G1 X144.735 Y14.063
X144.36 Y14.076
X143.722 Y14.47
X143.323 Y15.105
X143.099 Y15.821
X143.021 Y16.566
X143.089 Y17.313
X143.106 Y17.347
X143.234 Y17.53
X143.407 Y17.673
X143.612 Y17.765
X143.833 Y17.799
X144.726 Y17.813
G2 X145.02 Y17.513 I-0.006 J-0.3
G1 Y17.194
X145.019 Y14.692 F1200
Y14.363 F80
G2 X144.735 Y14.063 I-0.3 J0
G1 X143.871 Y14.049
X143.496 Y14.062
X142.851 Y14.444
X142.448 Y15.077
X142.221 Y15.792
X142.138 Y16.537
X142.195 Y17.285
X142.215 Y17.325
X142.343 Y17.512
X142.517 Y17.657
X142.723 Y17.75
X142.947 Y17.785
X143.833 Y17.799
G2 X144.128 Y17.502 I-0.006 J-0.3
G1 X144.13 Y17.179
X144.153 Y14.678 F1200
X144.155 Y14.351 F80
G2 X143.871 Y14.049 I-0.3 J-0.003
G1 X142.931 Y14.034
X142.743 Y14.04
X142.402 Y14.195
X141.822 Y14.671
X141.474 Y15.335
X141.288 Y16.062
X141.243 Y16.81
X141.312 Y17.121
X141.389 Y17.328
X141.518 Y17.509
X141.69 Y17.648
X141.893 Y17.738
X142.112 Y17.771
X142.947 Y17.785
G2 X143.241 Y17.482 I-0.006 J-0.3
G1 X143.238 Y17.165
X143.218 Y14.663 F1200
X143.215 Y14.331 F80
G2 X142.931 Y14.034 I-0.3 J0.002
G1 X142.175 Y14.022
X141.8 Y14.034
X141.148 Y14.405
X140.725 Y15.024
X140.472 Y15.731
X140.358 Y16.472
X140.44 Y17.217
X140.476 Y17.29
X140.604 Y17.48
X140.778 Y17.627
X140.985 Y17.722
X141.211 Y17.757
X142.112 Y17.771
G2 X142.406 Y17.476 I-0.006 J-0.3
G1 X142.412 Y17.151
X142.454 Y14.651 F1200
X142.459 Y14.326 F80
G2 X142.175 Y14.022 I-0.3 J-0.005
G1 X141.272 Y14.007
X140.897 Y14.02
X140.245 Y14.39
X139.826 Y15.012
X139.577 Y15.719
X139.489 Y16.464
X139.553 Y17.211
X139.584 Y17.275
X139.712 Y17.464
X139.886 Y17.612
X140.094 Y17.707
X140.319 Y17.742
X141.211 Y17.757
G2 X141.505 Y17.462 I-0.006 J-0.3
G1 X141.51 Y17.137
X141.551 Y14.636 F1200
X141.557 Y14.312 F80
G2 X141.272 Y14.007 I-0.3 J-0.005
G1 X140.369 Y13.992
X139.994 Y14.005
X139.344 Y14.379
X138.928 Y15.003
X138.693 Y15.715
X138.608 Y16.46
X138.669 Y17.208
X138.697 Y17.264
X138.825 Y17.452
X138.999 Y17.6
X139.207 Y17.694
X139.432 Y17.728
X140.319 Y17.742
G2 X140.614 Y17.446 I-0.006 J-0.3
G1 X140.618 Y17.122
X140.65 Y14.621 F1200
X140.654 Y14.296 F80
G2 X140.369 Y13.992 I-0.3 J-0.004
G1 X139.505 Y13.979
X139.131 Y13.992
X138.47 Y14.347
X138.053 Y14.971
X137.817 Y15.682
X137.726 Y16.427
X137.778 Y17.175
X137.81 Y17.243
X137.938 Y17.435
X138.113 Y17.585
X138.323 Y17.681
X138.551 Y17.716
X139.432 Y17.728
G2 X139.726 Y17.435 I-0.006 J-0.3
G1 X139.733 Y17.108
X139.784 Y14.608 F1200
X139.79 Y14.285 F80
G2 X139.505 Y13.979 I-0.3 J-0.006
G1 X138.565 Y13.966
X138.191 Y13.98
X137.548 Y14.367
X137.146 Y15
X136.92 Y15.715
X136.837 Y16.461
X136.906 Y17.207
X136.927 Y17.25
X137.056 Y17.435
X137.23 Y17.579
X137.436 Y17.672
X137.66 Y17.705
X138.551 Y17.716
G2 X138.844 Y17.417 I-0.007 J-0.3
G1 X138.845 Y17.095
X138.85 Y14.594 F1200
X138.851 Y14.265 F80
G2 X138.565 Y13.966 I-0.3 J0
G1 X137.656 Y13.955
X137.468 Y13.962
X137.123 Y14.108
X136.534 Y14.572
X136.18 Y15.233
X135.989 Y15.959
X135.948 Y16.708
X136.019 Y17.038
X136.095 Y17.248
X136.225 Y17.43
X136.398 Y17.572
X136.602 Y17.662
X136.824 Y17.695
X137.66 Y17.705
G2 X137.953 Y17.404 I-0.007 J-0.3
G1 X137.952 Y17.084
X137.943 Y14.583 F1200
X137.941 Y14.253 F80
G2 X137.656 Y13.955 I-0.3 J0.001
G1 X136.748 Y13.944
X136.561 Y13.951
X135.888 Y14.282
X135.449 Y14.89
X135.185 Y15.591
X135.062 Y16.331
X135.132 Y17.078
X135.182 Y17.191
X135.308 Y17.391
X135.486 Y17.548
X135.699 Y17.648
X135.933 Y17.684
X136.824 Y17.695
G2 X137.117 Y17.387 I-0.007 J-0.3
G1 X137.109 Y17.074
X137.043 Y14.571 F1200
X137.034 Y14.236 F80
G2 X136.748 Y13.944 I-0.3 J0.008
G1 X136.004 Y13.935
X135.629 Y13.949
X134.962 Y14.292
X134.535 Y14.909
X134.281 Y15.614
X134.19 Y16.359
X134.256 Y17.106
X134.299 Y17.197
X134.427 Y17.39
X134.602 Y17.542
X134.813 Y17.638
X135.042 Y17.674
X135.933 Y17.684
G2 X136.226 Y17.39 I-0.007 J-0.3
G1 X136.233 Y17.063
X136.283 Y14.563 F1200
X136.29 Y14.24 F80
G2 X136.004 Y13.935 I-0.3 J-0.006
G1 X135.143 Y13.924
X134.768 Y13.939
X134.09 Y14.26
X133.656 Y14.871
X133.409 Y15.579
X133.314 Y16.323
X133.364 Y17.072
X133.411 Y17.174
X133.537 Y17.372
X133.714 Y17.527
X133.927 Y17.627
X134.16 Y17.663
X135.042 Y17.674
G2 X135.335 Y17.382 I-0.007 J-0.3
G1 X135.345 Y17.053
X135.419 Y14.552 F1200
X135.428 Y14.233 F80
G2 X135.143 Y13.924 I-0.3 J-0.009
G1 X134.2 Y13.913
X133.825 Y13.927
X133.163 Y14.279
X132.747 Y14.903
X132.513 Y15.616
X132.427 Y16.361
X132.493 Y17.108
X132.529 Y17.183
X132.657 Y17.374
X132.833 Y17.523
X133.042 Y17.618
X133.269 Y17.652
X134.16 Y17.663
G2 X134.453 Y17.366 I-0.007 J-0.3
G1 X134.456 Y17.042
X134.482 Y14.541 F1200
X134.486 Y14.216 F80
G2 X134.2 Y13.913 I-0.3 J-0.003
G1 X133.29 Y13.902
X132.915 Y13.916
X132.261 Y14.283
X131.853 Y14.913
X131.625 Y15.627
X131.544 Y16.373
X131.612 Y17.12
X131.642 Y17.179
X131.77 Y17.368
X131.945 Y17.514
X132.153 Y17.608
X132.378 Y17.642
X133.269 Y17.652
G2 X133.562 Y17.354 I-0.007 J-0.3
G1 X133.564 Y17.031
X133.575 Y14.53 F1200
X133.576 Y14.203 F80
G2 X133.29 Y13.902 I-0.3 J-0.001
G1 X132.383 Y13.891
X132.008 Y13.906
X131.363 Y14.287
X130.961 Y14.921
X130.738 Y15.637
X130.66 Y16.383
X130.73 Y17.13
X130.753 Y17.175
X130.882 Y17.361
X131.056 Y17.505
X131.263 Y17.598
X131.486 Y17.631
X132.378 Y17.642
G2 X132.671 Y17.341 I-0.007 J-0.3
G1 Y17.021
X132.669 Y14.519 F1200
Y14.191 F80
G2 X132.383 Y13.891 I-0.3 J0
G1 X131.45 Y13.88
X131.262 Y13.887
X130.92 Y14.039
X130.338 Y14.513
X129.991 Y15.177
X129.808 Y15.905
X129.771 Y16.654
X129.844 Y16.974
X129.922 Y17.181
X130.052 Y17.361
X130.224 Y17.5
X130.427 Y17.589
X130.647 Y17.621
X131.486 Y17.631
G2 X131.779 Y17.327 I-0.007 J-0.3
G1 X131.775 Y17.01
X131.74 Y14.508 F1200
X131.736 Y14.176 F80
G2 X131.45 Y13.88 I-0.3 J0.004
G1 X130.777 Y13.872
X130.402 Y13.886
X129.719 Y14.194
X129.275 Y14.799
X129.008 Y15.5
X128.883 Y16.239
X128.95 Y16.986
X129.004 Y17.109
X129.129 Y17.312
X129.307 Y17.471
X129.522 Y17.573
X129.758 Y17.61
X130.647 Y17.621
G2 X130.94 Y17.333 I-0.007 J-0.3
G1 X130.953 Y17
X131.05 Y14.5 F1200
X131.063 Y14.184 F80
G2 X130.777 Y13.872 I-0.3 J-0.012
G1 X129.834 Y13.861
X129.46 Y13.875
X128.788 Y14.209
X128.358 Y14.824
X128.102 Y15.529
X128.011 Y16.273
X128.076 Y17.02
X128.123 Y17.119
X128.25 Y17.314
X128.426 Y17.466
X128.637 Y17.564
X128.867 Y17.599
X129.758 Y17.61
G2 X130.051 Y17.317 I-0.007 J-0.3
G1 X130.058 Y16.989
X130.113 Y14.489 F1200
X130.12 Y14.167 F80
G2 X129.834 Y13.861 I-0.3 J-0.007
G1 X128.925 Y13.85
X128.55 Y13.864
X127.883 Y14.207
X127.457 Y14.825
X127.218 Y15.535
X127.132 Y16.28
X127.195 Y17.028
X127.236 Y17.113
X127.363 Y17.306
X127.539 Y17.457
X127.749 Y17.554
X127.978 Y17.589
X128.867 Y17.599
G2 X129.161 Y17.304 I-0.007 J-0.3
G1 X129.166 Y16.979
X129.205 Y14.478 F1200
X129.21 Y14.154 F80
G2 X128.925 Y13.85 I-0.3 J-0.005
G1 X128.017 Y13.839
X127.643 Y13.853
X126.98 Y14.204
X126.565 Y14.829
X126.333 Y15.542
X126.249 Y16.287
X126.314 Y17.035
X126.349 Y17.107
X126.477 Y17.298
X126.652 Y17.447
X126.861 Y17.543
X127.088 Y17.577
X127.978 Y17.589
G2 X128.271 Y17.292 I-0.007 J-0.3
G1 X128.275 Y16.968
X128.3 Y14.467 F1200
X128.303 Y14.142 F80
G2 X128.017 Y13.839 I-0.3 J-0.003
G1 X127.084 Y13.827
X126.71 Y13.841
X126.064 Y14.222
X125.663 Y14.856
X125.44 Y15.572
X125.364 Y16.318
X125.438 Y17.065
X125.461 Y17.111
X125.59 Y17.296
X125.763 Y17.439
X125.969 Y17.531
X126.192 Y17.565
X127.088 Y17.577
G2 X127.382 Y17.276 I-0.007 J-0.3
G1 X127.38 Y16.957
X127.371 Y14.455 F1200
X127.37 Y14.125 F80
G2 X127.084 Y13.827 I-0.3 J0.001
G1 X126.181 Y13.815
X125.807 Y13.828
X125.169 Y14.223
X124.773 Y14.86
X124.554 Y15.577
X124.48 Y16.323
X124.552 Y17.07
X124.569 Y17.102
X124.698 Y17.285
X124.87 Y17.427
X125.075 Y17.518
X125.296 Y17.552
X126.192 Y17.565
G2 X126.485 Y17.263 I-0.006 J-0.3
G1 X126.484 Y16.945
X126.469 Y14.443 F1200
X126.467 Y14.112 F80
G2 X126.181 Y13.815 I-0.3 J0.002
G1 X125.317 Y13.802
X124.943 Y13.815
X124.299 Y14.2
X123.899 Y14.834
X123.676 Y15.551
X123.597 Y16.296
X123.658 Y17.044
X123.677 Y17.081
X123.805 Y17.266
X123.978 Y17.411
X124.183 Y17.503
X124.406 Y17.538
X125.296 Y17.552
G2 X125.59 Y17.253 I-0.006 J-0.3
G1 X125.591 Y16.932
X125.601 Y14.431 F1200
X125.602 Y14.103 F80
G2 X125.317 Y13.802 I-0.3 J-0.001
G1 X124.377 Y13.787
X124.19 Y13.793
X123.849 Y13.95
X123.273 Y14.429
X122.928 Y15.095
X122.745 Y15.822
X122.703 Y16.571
X122.773 Y16.876
X122.85 Y17.083
X122.979 Y17.262
X123.15 Y17.401
X123.352 Y17.49
X123.571 Y17.523
X124.406 Y17.538
G2 X124.7 Y17.234 I-0.005 J-0.3
G1 X124.697 Y16.918
X124.666 Y14.416 F1200
X124.662 Y14.082 F80
G2 X124.377 Y13.787 I-0.3 J0.004
G1 X123.621 Y13.773
X123.246 Y13.786
X122.598 Y14.162
X122.178 Y14.784
X121.928 Y15.491
X121.816 Y16.232
X121.901 Y16.978
X121.934 Y17.043
X122.061 Y17.23
X122.234 Y17.376
X122.44 Y17.47
X122.664 Y17.506
X123.571 Y17.523
G2 X123.865 Y17.227 I-0.005 J-0.3
G1 X123.869 Y16.904
X123.901 Y14.403 F1200
X123.906 Y14.077 F80
G2 X123.621 Y13.773 I-0.3 J-0.004
G1 X122.719 Y13.756
X122.344 Y13.767
X121.696 Y14.145
X121.28 Y14.769
X121.034 Y15.477
X120.947 Y16.222
X121.013 Y16.97
X121.039 Y17.022
X121.166 Y17.21
X121.338 Y17.356
X121.544 Y17.45
X121.767 Y17.486
X122.664 Y17.506
G2 X122.959 Y17.21 I-0.005 J-0.3
G1 X122.964 Y16.887
X122.998 Y14.386 F1200
X123.002 Y14.06 F80
G2 X122.719 Y13.756 I-0.3 J-0.004
G1 X121.816 Y13.736
X121.441 Y13.746
X120.796 Y14.13
X120.383 Y14.756
X120.151 Y15.469
X120.066 Y16.214
X120.127 Y16.961
X120.148 Y17.003
X120.275 Y17.189
X120.446 Y17.335
X120.651 Y17.429
X120.873 Y17.465
X121.767 Y17.486
G2 X122.064 Y17.189 I-0.004 J-0.3
G1 X122.067 Y16.868
X122.095 Y14.367 F1200
X122.099 Y14.039 F80
G2 X121.816 Y13.736 I-0.3 J-0.003
G1 X120.952 Y13.716
X120.577 Y13.725
X119.923 Y14.092
X119.51 Y14.718
X119.275 Y15.43
X119.184 Y16.175
X119.234 Y16.923
X119.257 Y16.972
X119.383 Y17.161
X119.556 Y17.309
X119.761 Y17.405
X119.986 Y17.442
X120.873 Y17.465
G2 X121.17 Y17.171 I-0.003 J-0.3
G1 X121.177 Y16.848
X121.227 Y14.347 F1200
X121.234 Y14.021 F80
G2 X120.952 Y13.716 I-0.3 J-0.006
G1 X120.012 Y13.692
X119.825 Y13.696
X119.479 Y13.842
X118.891 Y14.307
X118.534 Y14.967
X118.339 Y15.691
X118.286 Y16.439
X118.354 Y16.76
X118.429 Y16.969
X118.556 Y17.151
X118.726 Y17.293
X118.928 Y17.385
X119.147 Y17.42
X119.986 Y17.442
G2 X120.283 Y17.143 I-0.003 J-0.3
G1 X120.284 Y16.826
X120.292 Y14.324 F1200
X120.294 Y13.992 F80
G2 X120.012 Y13.692 I-0.3 J-0.001
G1 X119.256 Y13.672
X118.881 Y13.68
X118.221 Y14.037
X117.789 Y14.65
X117.528 Y15.353
X117.405 Y16.093
X117.478 Y16.839
X117.516 Y16.919
X117.641 Y17.111
X117.814 Y17.261
X118.021 Y17.359
X118.247 Y17.396
X119.147 Y17.42
G2 X119.445 Y17.129 I-0.003 J-0.3
G1 X119.454 Y16.804
X119.528 Y14.304 F1200
X119.537 Y13.98 F80
G2 X119.256 Y13.672 I-0.3 J-0.009
G1 X118.353 Y13.648
X117.978 Y13.657
X117.318 Y14.013
X116.891 Y14.629
X116.633 Y15.333
X116.536 Y16.077
X116.592 Y16.825
X116.625 Y16.895
X116.751 Y17.087
X116.924 Y17.238
X117.131 Y17.335
X117.357 Y17.373
X118.247 Y17.396
G2 X118.545 Y17.105 I-0.003 J-0.3
G1 X118.554 Y16.78
X118.626 Y14.28 F1200
X118.635 Y13.956 F80
G2 X118.353 Y13.648 I-0.3 J-0.009
G1 X117.45 Y13.624
X117.076 Y13.633
X116.418 Y13.993
X115.993 Y14.611
X115.75 Y15.321
X115.655 Y16.065
X115.709 Y16.813
X115.739 Y16.876
X115.865 Y17.067
X116.038 Y17.217
X116.246 Y17.314
X116.472 Y17.351
X117.357 Y17.373
G2 X117.655 Y17.08 I-0.003 J-0.3
G1 X117.663 Y16.756
X117.724 Y14.256 F1200
X117.732 Y13.931 F80
G2 X117.45 Y13.624 I-0.3 J-0.007
G1 X116.587 Y13.603
X116.212 Y13.613
X115.544 Y13.954
X115.119 Y14.572
X114.874 Y15.281
X114.774 Y16.024
X114.818 Y16.773
X114.853 Y16.848
X114.979 Y17.043
X115.154 Y17.196
X115.364 Y17.295
X115.594 Y17.332
X116.472 Y17.351
G2 X116.768 Y17.061 I-0.004 J-0.3
G1 X116.779 Y16.734
X116.859 Y14.234 F1200
X116.869 Y13.912 F80
G2 X116.587 Y13.603 I-0.3 J-0.01
G1 X115.647 Y13.582
X115.272 Y13.594
X114.621 Y13.967
X114.211 Y14.595
X113.976 Y15.307
X113.885 Y16.051
X113.947 Y16.799
X113.972 Y16.85
X114.1 Y17.039
X114.274 Y17.186
X114.482 Y17.28
X114.707 Y17.315
X115.594 Y17.332
G2 X115.889 Y17.036 I-0.005 J-0.3
G1 X115.893 Y16.713
X115.926 Y14.212 F1200
X115.93 Y13.885 F80
G2 X115.647 Y13.582 I-0.3 J-0.004
G1 X114.737 Y13.565
X114.362 Y13.578
X113.719 Y13.965
X113.315 Y14.597
X113.086 Y15.31
X113.002 Y16.056
X113.065 Y16.803
X113.086 Y16.844
X113.215 Y17.03
X113.388 Y17.175
X113.594 Y17.268
X113.818 Y17.302
X114.707 Y17.315
G2 X115.001 Y17.017 I-0.006 J-0.3
G1 X115.003 Y16.695
X115.019 Y14.195 F1200
X115.021 Y13.866 F80
G2 X114.737 Y13.565 I-0.3 J-0.002
G1 X113.83 Y13.551
X113.642 Y13.558
X113.296 Y13.703
X112.705 Y14.164
X112.348 Y14.824
X112.155 Y15.549
X112.11 Y16.297
X112.18 Y16.628
X112.255 Y16.839
X112.384 Y17.023
X112.557 Y17.165
X112.762 Y17.256
X112.983 Y17.289
X113.818 Y17.302
G2 X114.112 Y17.002 I-0.006 J-0.3
G1 Y16.681
X114.114 Y14.18 F1200
X114.115 Y13.851 F80
G2 X113.83 Y13.551 I-0.3 J0
G1 X113.085 Y13.541
X112.71 Y13.554
X112.042 Y13.895
X111.607 Y14.505
X111.346 Y15.208
X111.227 Y15.949
X111.299 Y16.695
X111.345 Y16.794
X111.471 Y16.99
X111.647 Y17.142
X111.859 Y17.241
X112.089 Y17.277
X112.983 Y17.289
G2 X113.277 Y16.998 I-0.006 J-0.3
G1 X113.287 Y16.669
X113.361 Y14.169 F1200
X113.37 Y13.849 F80
G2 X113.085 Y13.541 I-0.3 J-0.009
G1 X112.224 Y13.528
X111.849 Y13.542
X111.168 Y13.855
X110.727 Y14.462
X110.464 Y15.164
X110.36 Y15.907
X110.407 Y16.655
X110.456 Y16.768
X110.582 Y16.968
X110.759 Y17.126
X110.973 Y17.227
X111.206 Y17.264
X112.089 Y17.277
G2 X112.382 Y16.989 I-0.006 J-0.3
G1 X112.396 Y16.657
X112.496 Y14.156 F1200
X112.509 Y13.84 F80
G2 X112.224 Y13.528 I-0.3 J-0.012
G1 X111.281 Y13.515
X110.906 Y13.528
X110.239 Y13.87
X109.812 Y14.486
X109.568 Y15.196
X109.475 Y15.94
X109.536 Y16.687
X109.576 Y16.773
X109.703 Y16.967
X109.879 Y17.118
X110.089 Y17.216
X110.318 Y17.251
X111.206 Y17.264
G2 X111.5 Y16.97 I-0.006 J-0.3
G1 X111.507 Y16.644
X111.559 Y14.143 F1200
X111.566 Y13.821 F80
G2 X111.281 Y13.515 I-0.3 J-0.006
G1 X110.371 Y13.502
X109.996 Y13.515
X109.334 Y13.866
X108.917 Y14.49
X108.68 Y15.201
X108.593 Y15.946
X108.655 Y16.694
X108.691 Y16.767
X108.818 Y16.958
X108.993 Y17.108
X109.202 Y17.203
X109.429 Y17.238
X110.318 Y17.251
G2 X110.612 Y16.955 I-0.006 J-0.3
G1 X110.617 Y16.631
X110.652 Y14.13 F1200
X110.656 Y13.805 F80
G2 X110.371 Y13.502 I-0.3 J-0.004
G1 X109.464 Y13.488
X109.089 Y13.502
X108.434 Y13.866
X108.024 Y14.494
X107.793 Y15.208
X107.71 Y15.953
X107.774 Y16.701
X107.804 Y16.761
X107.932 Y16.95
X108.106 Y17.097
X108.314 Y17.191
X108.539 Y17.226
X109.429 Y17.238
G2 X109.723 Y16.941 I-0.006 J-0.3
G1 X109.726 Y16.618
X109.747 Y14.117 F1200
X109.749 Y13.791 F80
G2 X109.464 Y13.488 I-0.3 J-0.002
G1 X108.531 Y13.475
X108.156 Y13.488
X107.518 Y13.883
X107.121 Y14.519
X106.9 Y15.236
X106.824 Y15.982
X106.898 Y16.728
X106.916 Y16.763
X107.044 Y16.946
X107.217 Y17.088
X107.422 Y17.179
X107.644 Y17.213
X108.539 Y17.226
G2 X108.833 Y16.924 I-0.006 J-0.3
G1 X108.831 Y16.605
X108.818 Y14.104 F1200
X108.816 Y13.773 F80
G2 X108.531 Y13.475 I-0.3 J0.002
G1 X107.628 Y13.462
X107.441 Y13.469
X107.097 Y13.618
X106.509 Y14.084
X106.159 Y14.747
X105.973 Y15.474
X105.936 Y16.223
X106.006 Y16.545
X106.082 Y16.755
X106.211 Y16.936
X106.384 Y17.077
X106.588 Y17.168
X106.808 Y17.201
X107.644 Y17.213
G2 X107.938 Y16.91 I-0.006 J-0.3
G1 X107.935 Y16.592
X107.916 Y14.091 F1200
X107.913 Y13.759 F80
G2 X107.628 Y13.462 I-0.3 J0.002
G1 X106.916 Y13.452
X106.541 Y13.465
X105.866 Y13.793
X105.429 Y14.403
X105.167 Y15.105
X105.048 Y15.846
X105.12 Y16.593
X105.168 Y16.699
X105.294 Y16.897
X105.471 Y17.052
X105.683 Y17.151
X105.915 Y17.188
X106.808 Y17.201
G2 X107.102 Y16.91 I-0.006 J-0.3
G1 X107.112 Y16.581
X107.191 Y14.08 F1200
X107.201 Y13.761 F80
G2 X106.916 Y13.452 I-0.3 J-0.009
G1 X106.006 Y13.439
X105.631 Y13.452
X104.959 Y13.785
X104.528 Y14.399
X104.272 Y15.104
X104.178 Y15.848
X104.238 Y16.595
X104.283 Y16.692
X104.409 Y16.888
X104.585 Y17.041
X104.796 Y17.139
X105.027 Y17.175
X105.915 Y17.188
G2 X106.209 Y16.896 I-0.006 J-0.3
G1 X106.217 Y16.568
X106.282 Y14.067 F1200
X106.291 Y13.746 F80
G2 X106.006 Y13.439 I-0.3 J-0.008
G1 X105.099 Y13.426
X104.724 Y13.439
X104.055 Y13.779
X103.629 Y14.396
X103.388 Y15.106
X103.298 Y15.851
X103.357 Y16.598
X103.397 Y16.684
X103.524 Y16.878
X103.7 Y17.029
X103.91 Y17.127
X104.139 Y17.162
X105.027 Y17.175
G2 X105.321 Y16.881 I-0.006 J-0.3
G1 X105.327 Y16.555
X105.377 Y14.054 F1200
X105.384 Y13.731 F80
G2 X105.099 Y13.426 I-0.3 J-0.006
G1 X104.166 Y13.412
X103.791 Y13.426
X103.136 Y13.791
X102.725 Y14.419
X102.495 Y15.132
X102.413 Y15.878
X102.482 Y16.625
X102.512 Y16.686
X102.64 Y16.874
X102.814 Y17.021
X103.021 Y17.115
X103.247 Y17.15
X104.139 Y17.162
G2 X104.433 Y16.864 I-0.006 J-0.3
G1 X104.435 Y16.542
X104.449 Y14.041 F1200
X104.451 Y13.714 F80
G2 X104.166 Y13.412 I-0.3 J-0.002
G1 X103.263 Y13.399
X102.888 Y13.413
X102.239 Y13.789
X101.835 Y14.421
X101.609 Y15.136
X101.53 Y15.882
X101.598 Y16.629
X101.622 Y16.678
X101.751 Y16.865
X101.925 Y17.01
X102.131 Y17.103
X102.355 Y17.137
X103.247 Y17.15
G2 X103.541 Y16.85 I-0.006 J-0.3
G1 Y16.529
X103.547 Y14.028 F1200
X103.548 Y13.699 F80
G2 X103.263 Y13.399 I-0.3 J0
G1 X102.399 Y13.387
X102.024 Y13.4
X101.369 Y13.767
X100.961 Y14.396
X100.732 Y15.11
X100.648 Y15.855
X100.705 Y16.603
X100.733 Y16.659
X100.861 Y16.848
X101.035 Y16.995
X101.243 Y17.089
X101.469 Y17.124
X102.355 Y17.137
G2 X102.649 Y16.84 I-0.006 J-0.3
G1 X102.652 Y16.516
X102.68 Y14.015 F1200
X102.684 Y13.69 F80
G2 X102.399 Y13.387 I-0.3 J-0.003
G1 X101.459 Y13.374
X101.271 Y13.38
X100.926 Y13.526
X100.339 Y13.993
X99.987 Y14.655
X99.799 Y15.381
X99.753 Y16.13
X99.826 Y16.459
X99.903 Y16.668
X100.032 Y16.849
X100.205 Y16.989
X100.408 Y17.079
X100.628 Y17.112
X101.469 Y17.124
G2 X101.762 Y16.822 I-0.006 J-0.3
G1 X101.761 Y16.504
X101.746 Y14.002 F1200
X101.744 Y13.671 F80
G2 X101.459 Y13.374 I-0.3 J0.002
G1 X100.702 Y13.363
X100.328 Y13.376
X99.667 Y13.732
X99.239 Y14.348
X98.984 Y15.053
X98.869 Y15.794
X98.949 Y16.54
X98.99 Y16.626
X99.117 Y16.818
X99.292 Y16.968
X99.502 Y17.064
X99.729 Y17.099
X100.628 Y17.112
G2 X100.922 Y16.818 I-0.006 J-0.3
G1 X100.929 Y16.492
X100.981 Y13.991 F1200
X100.988 Y13.668 F80
G2 X100.702 Y13.363 I-0.3 J-0.006
G1 X99.8 Y13.35
X99.425 Y13.363
X98.765 Y13.718
X98.341 Y14.337
X98.09 Y15.044
X98 Y15.789
X98.063 Y16.536
X98.1 Y16.613
X98.228 Y16.805
X98.403 Y16.955
X98.612 Y17.051
X98.84 Y17.086
X99.729 Y17.099
G2 X100.023 Y16.805 I-0.006 J-0.3
G1 X100.03 Y16.479
X100.079 Y13.978 F1200
X100.085 Y13.655 F80
G2 X99.8 Y13.35 I-0.3 J-0.006
G1 X98.897 Y13.337
X98.522 Y13.35
X97.864 Y13.709
X97.444 Y14.33
X97.207 Y15.042
X97.119 Y15.787
X97.18 Y16.534
X97.214 Y16.603
X97.341 Y16.794
X97.516 Y16.943
X97.725 Y17.038
X97.952 Y17.073
X98.84 Y17.086
G2 X99.134 Y16.791 I-0.006 J-0.3
G1 X99.139 Y16.466
X99.177 Y13.965 F1200
X99.182 Y13.641 F80
G2 X98.897 Y13.337 I-0.3 J-0.005
G1 X98.033 Y13.324
X97.658 Y13.338
X96.991 Y13.679
X96.57 Y14.3
X96.331 Y15.01
X96.238 Y15.755
X96.289 Y16.503
X96.327 Y16.582
X96.453 Y16.776
X96.629 Y16.928
X96.84 Y17.025
X97.069 Y17.061
X97.952 Y17.073
G2 X98.245 Y16.78 I-0.006 J-0.3
G1 X98.253 Y16.453
X98.311 Y13.953 F1200
X98.318 Y13.631 F80
G2 X98.033 Y13.324 I-0.3 J-0.007
G1 X97.093 Y13.311
X96.718 Y13.324
X96.069 Y13.699
X95.663 Y14.33
X95.434 Y15.044
X95.35 Y15.789
X95.418 Y16.536
X95.444 Y16.588
X95.572 Y16.775
X95.746 Y16.92
X95.953 Y17.014
X96.177 Y17.048
X97.069 Y17.061
G2 X97.363 Y16.762 I-0.006 J-0.3
G1 X97.364 Y16.44
X97.377 Y13.939 F1200
X97.378 Y13.612 F80
G2 X97.093 Y13.311 I-0.3 J-0.002
G1 X96.183 Y13.298
X95.809 Y13.311
X95.168 Y13.702
X94.769 Y14.336
X94.545 Y15.052
X94.466 Y15.798
X94.536 Y16.545
X94.555 Y16.582
X94.683 Y16.766
X94.857 Y16.91
X95.062 Y17.001
X95.284 Y17.035
X96.177 Y17.048
G2 X96.471 Y16.748 I-0.006 J-0.3
G1 X96.47 Y16.428
X96.469 Y13.926 F1200
Y13.597 F80
G2 X96.183 Y13.298 I-0.3 J0
G1 X95.276 Y13.285
X95.089 Y13.291
X94.744 Y13.439
X94.157 Y13.905
X93.804 Y14.567
X93.617 Y15.293
X93.576 Y16.042
X93.647 Y16.366
X93.723 Y16.576
X93.852 Y16.758
X94.024 Y16.899
X94.228 Y16.99
X94.449 Y17.023
X95.284 Y17.035
G2 X95.578 Y16.733 I-0.006 J-0.3
G1 X95.576 Y16.415
X95.563 Y13.913 F1200
X95.561 Y13.583 F80
G2 X95.276 Y13.285 I-0.3 J0.002
G1 X94.532 Y13.274
X94.157 Y13.287
X93.493 Y13.636
X93.062 Y14.249
X92.805 Y14.954
X92.69 Y15.695
X92.767 Y16.441
X92.811 Y16.533
X92.938 Y16.726
X93.113 Y16.877
X93.323 Y16.974
X93.552 Y17.01
X94.449 Y17.023
G2 X94.743 Y16.73 I-0.006 J-0.3
G1 X94.751 Y16.403
X94.809 Y13.902 F1200
X94.817 Y13.58 F80
G2 X94.532 Y13.274 I-0.3 J-0.007
G1 X93.671 Y13.261
X93.296 Y13.275
X92.619 Y13.597
X92.183 Y14.208
X91.923 Y14.911
X91.823 Y15.655
X91.874 Y16.403
X91.92 Y16.506
X92.046 Y16.705
X92.222 Y16.86
X92.435 Y16.96
X92.667 Y16.997
X93.552 Y17.01
G2 X93.846 Y16.72 I-0.006 J-0.3
G1 X93.857 Y16.39
X93.944 Y13.89 F1200
X93.955 Y13.571 F80
G2 X93.671 Y13.261 I-0.3 J-0.01
G1 X92.728 Y13.247
X92.353 Y13.26
X91.691 Y13.613
X91.268 Y14.232
X91.029 Y14.943
X90.939 Y15.687
X91.002 Y16.435
X91.038 Y16.511
X91.166 Y16.702
X91.34 Y16.852
X91.549 Y16.948
X91.776 Y16.983
X92.667 Y16.997
G2 X92.961 Y16.702 I-0.006 J-0.3
G1 X92.966 Y16.377
X93.007 Y13.876 F1200
X93.013 Y13.552 F80
G2 X92.728 Y13.247 I-0.3 J-0.005
G1 X91.818 Y13.233
X91.443 Y13.246
X90.787 Y13.609
X90.374 Y14.235
X90.141 Y14.948
X90.057 Y15.693
X90.121 Y16.44
X90.151 Y16.502
X90.278 Y16.691
X90.452 Y16.839
X90.66 Y16.934
X90.885 Y16.969
X91.776 Y16.983
G2 X92.071 Y16.686 I-0.006 J-0.3
G1 X92.074 Y16.364
X92.099 Y13.863 F1200
X92.102 Y13.536 F80
G2 X91.818 Y13.233 I-0.3 J-0.003
G1 X90.911 Y13.219
X90.536 Y13.231
X89.887 Y13.607
X89.481 Y14.238
X89.254 Y14.953
X89.173 Y15.698
X89.238 Y16.446
X89.262 Y16.493
X89.39 Y16.68
X89.563 Y16.825
X89.769 Y16.919
X89.993 Y16.953
X90.885 Y16.969
G2 X91.18 Y16.67 I-0.006 J-0.3
G1 X91.181 Y16.349
X91.194 Y13.848 F1200
X91.195 Y13.52 F80
G2 X90.911 Y13.219 I-0.3 J-0.001
G1 X89.978 Y13.203
X89.79 Y13.209
X89.446 Y13.358
X88.861 Y13.827
X88.51 Y14.49
X88.323 Y15.216
X88.282 Y15.965
X88.354 Y16.287
X88.43 Y16.495
X88.559 Y16.675
X88.731 Y16.815
X88.933 Y16.905
X89.152 Y16.939
X89.993 Y16.953
G2 X90.288 Y16.651 I-0.005 J-0.3
G1 X90.285 Y16.334
X90.265 Y13.832 F1200
X90.262 Y13.5 F80
G2 X89.978 Y13.203 I-0.3 J0.002
G1 X89.305 Y13.191
X88.93 Y13.203
X88.244 Y13.505
X87.797 Y14.107
X87.525 Y14.806
X87.396 Y15.545
X87.459 Y16.293
X87.512 Y16.417
X87.636 Y16.621
X87.813 Y16.781
X88.028 Y16.884
X88.264 Y16.923
X89.152 Y16.939
G2 X89.447 Y16.652 I-0.005 J-0.3
G1 X89.462 Y16.32
X89.575 Y13.82 F1200
X89.589 Y13.504 F80
G2 X89.305 Y13.191 I-0.3 J-0.014
G1 X88.362 Y13.174
X87.987 Y13.186
X87.314 Y13.515
X86.88 Y14.127
X86.619 Y14.83
X86.524 Y15.574
X86.585 Y16.322
X86.631 Y16.422
X86.757 Y16.618
X86.932 Y16.771
X87.143 Y16.87
X87.373 Y16.907
X88.264 Y16.923
G2 X88.559 Y16.631 I-0.005 J-0.3
G1 X88.568 Y16.304
X88.637 Y13.803 F1200
X88.646 Y13.482 F80
G2 X88.362 Y13.174 I-0.3 J-0.008
G1 X87.452 Y13.158
X87.078 Y13.17
X86.408 Y13.508
X85.979 Y14.123
X85.735 Y14.832
X85.645 Y15.577
X85.704 Y16.324
X85.744 Y16.411
X85.871 Y16.605
X86.046 Y16.757
X86.256 Y16.855
X86.484 Y16.891
X87.373 Y16.907
G2 X87.668 Y16.613 I-0.005 J-0.3
G1 X87.675 Y16.288
X87.73 Y13.787 F1200
X87.737 Y13.464 F80
G2 X87.452 Y13.158 I-0.3 J-0.007
G1 X86.545 Y13.142
X86.17 Y13.154
X85.505 Y13.5
X85.086 Y14.122
X84.85 Y14.834
X84.762 Y15.579
X84.822 Y16.326
X84.859 Y16.402
X84.986 Y16.595
X85.16 Y16.745
X85.37 Y16.841
X85.597 Y16.877
X86.484 Y16.891
G2 X86.779 Y16.596 I-0.005 J-0.3
G1 X86.784 Y16.272
X86.824 Y13.771 F1200
X86.829 Y13.446 F80
G2 X86.545 Y13.142 I-0.3 J-0.005
G1 X85.612 Y13.127
X85.237 Y13.139
X84.589 Y13.515
X84.184 Y14.147
X83.957 Y14.862
X83.877 Y15.607
X83.947 Y16.354
X83.972 Y16.404
X84.101 Y16.591
X84.274 Y16.736
X84.481 Y16.829
X84.704 Y16.863
X85.597 Y16.877
G2 X85.892 Y16.577 I-0.006 J-0.3
G1 Y16.257
X85.896 Y13.756 F1200
X85.897 Y13.426 F80
G2 X85.612 Y13.127 I-0.3 J0
G1 X84.709 Y13.113
X84.334 Y13.126
X83.693 Y13.514
X83.293 Y14.149
X83.07 Y14.865
X82.993 Y15.611
X83.062 Y16.358
X83.082 Y16.396
X83.211 Y16.581
X83.384 Y16.724
X83.589 Y16.816
X83.812 Y16.85
X84.704 Y16.863
G2 X84.998 Y16.563 I-0.006 J-0.3
G1 Y16.243
X84.995 Y13.741 F1200
X84.994 Y13.412 F80
G2 X84.709 Y13.113 I-0.3 J0
G1 X83.845 Y13.1
X83.471 Y13.113
X82.823 Y13.491
X82.419 Y14.123
X82.193 Y14.838
X82.11 Y15.583
X82.169 Y16.331
X82.192 Y16.376
X82.32 Y16.563
X82.494 Y16.709
X82.7 Y16.802
X82.925 Y16.837
X83.812 Y16.85
G2 X84.105 Y16.552 I-0.006 J-0.3
G1 X84.108 Y16.23
X84.128 Y13.728 F1200
X84.13 Y13.402 F80
G2 X83.845 Y13.1 I-0.3 J-0.002
G1 X82.905 Y13.086
X82.718 Y13.093
X82.375 Y13.245
X81.794 Y13.719
X81.446 Y14.383
X81.26 Y15.109
X81.216 Y15.858
X81.287 Y16.174
X81.364 Y16.382
X81.493 Y16.562
X81.665 Y16.702
X81.868 Y16.791
X82.088 Y16.824
X82.925 Y16.837
G2 X83.219 Y16.534 I-0.006 J-0.3
G1 X83.216 Y16.216
X83.193 Y13.715 F1200
X83.19 Y13.383 F80
G2 X82.905 Y13.086 I-0.3 J0.003
G1 X82.149 Y13.075
X81.774 Y13.088
X81.12 Y13.455
X80.696 Y14.074
X80.444 Y14.78
X80.331 Y15.521
X80.413 Y16.267
X80.45 Y16.343
X80.578 Y16.532
X80.752 Y16.68
X80.96 Y16.775
X81.186 Y16.81
X82.088 Y16.824
G2 X82.382 Y16.529 I-0.006 J-0.3
G1 X82.387 Y16.204
X82.429 Y13.703 F1200
X82.434 Y13.379 F80
G2 X82.149 Y13.075 I-0.3 J-0.005
G1 X81.334 Y13.062
X80.959 Y13.074
X80.279 Y13.39
X79.838 Y13.997
X79.573 Y14.699
X79.467 Y15.441
X79.508 Y16.19
X79.554 Y16.297
X79.679 Y16.497
X79.856 Y16.655
X80.069 Y16.757
X80.302 Y16.795
X81.186 Y16.81
G2 X81.48 Y16.523 I-0.006 J-0.3
G1 X81.494 Y16.19
X81.604 Y13.691 F1200
X81.618 Y13.375 F80
G2 X81.334 Y13.062 I-0.3 J-0.013
G1 X80.344 Y13.045
X79.969 Y13.057
X79.32 Y13.432
X78.904 Y14.056
X78.666 Y14.767
X78.577 Y15.512
X78.647 Y16.259
X78.675 Y16.314
X78.802 Y16.502
X78.975 Y16.648
X79.181 Y16.742
X79.405 Y16.777
X80.302 Y16.795
G2 X80.597 Y16.498 I-0.005 J-0.3
G1 X80.6 Y16.175
X80.625 Y13.674 F1200
X80.628 Y13.347 F80
G2 X80.344 Y13.045 I-0.3 J-0.003
G1 X79.48 Y13.028
X79.105 Y13.039
X78.446 Y13.397
X78.028 Y14.02
X77.789 Y14.731
X77.699 Y15.475
X77.753 Y16.223
X77.783 Y16.286
X77.91 Y16.477
X78.083 Y16.626
X78.291 Y16.723
X78.517 Y16.759
X79.405 Y16.777
G2 X79.7 Y16.483 I-0.004 J-0.3
G1 X79.707 Y16.159
X79.757 Y13.658 F1200
X79.763 Y13.334 F80
G2 X79.48 Y13.028 I-0.3 J-0.006
G1 X78.54 Y13.009
X78.165 Y13.019
X77.524 Y13.409
X77.121 Y14.042
X76.894 Y14.757
X76.811 Y15.502
X76.879 Y16.249
X76.897 Y16.284
X77.024 Y16.468
X77.196 Y16.612
X77.399 Y16.704
X77.621 Y16.74
X78.517 Y16.759
G2 X78.813 Y16.46 I-0.004 J-0.3
G1 X78.814 Y16.141
X78.822 Y13.639 F1200
X78.823 Y13.308 F80
G2 X78.54 Y13.009 I-0.3 J0
G1 X77.63 Y12.989
X77.443 Y12.994
X77.098 Y13.142
X76.51 Y13.608
X76.155 Y14.268
X75.964 Y14.994
X75.921 Y15.742
X75.989 Y16.061
X76.064 Y16.27
X76.192 Y16.453
X76.363 Y16.594
X76.566 Y16.686
X76.785 Y16.721
X77.621 Y16.74
G2 X77.917 Y16.439 I-0.004 J-0.3
G1 Y16.122
X77.913 Y13.62 F1200
Y13.288 F80
G2 X77.63 Y12.989 I-0.3 J0
G1 X76.948 Y12.973
X76.573 Y12.983
X75.888 Y13.289
X75.44 Y13.89
X75.167 Y14.589
X75.037 Y15.328
X75.097 Y16.075
X75.148 Y16.194
X75.271 Y16.396
X75.447 Y16.556
X75.66 Y16.66
X75.894 Y16.699
X76.785 Y16.721
G2 X77.081 Y16.435 I-0.004 J-0.3
G1 X77.097 Y16.103
X77.215 Y13.604 F1200
X77.23 Y13.287 F80
G2 X76.948 Y12.973 I-0.3 J-0.014
G1 X75.978 Y12.95
X75.603 Y12.96
X74.94 Y13.31
X74.512 Y13.926
X74.255 Y14.63
X74.162 Y15.375
X74.228 Y16.122
X74.265 Y16.2
X74.39 Y16.391
X74.563 Y16.542
X74.771 Y16.639
X74.997 Y16.676
X75.894 Y16.699
G2 X76.191 Y16.406 I-0.003 J-0.3
G1 X76.198 Y16.082
X76.253 Y13.581 F1200
X76.26 Y13.256 F80
G2 X75.978 Y12.95 I-0.3 J-0.007
G1 X75.114 Y12.928
X74.739 Y12.937
X74.067 Y13.269
X73.632 Y13.881
X73.383 Y14.588
X73.287 Y15.332
X73.334 Y16.08
X73.373 Y16.165
X73.498 Y16.361
X73.671 Y16.515
X73.881 Y16.615
X74.109 Y16.653
X74.997 Y16.676
G2 X75.294 Y16.386 I-0.003 J-0.3
G1 X75.304 Y16.06
X75.386 Y13.56 F1200
X75.396 Y13.237 F80
G2 X75.114 Y12.928 I-0.3 J-0.01
G1 X74.174 Y12.904
X73.799 Y12.912
X73.142 Y13.274
X72.726 Y13.898
X72.49 Y14.61
X72.4 Y15.354
X72.46 Y16.102
X72.488 Y16.159
X72.614 Y16.348
X72.786 Y16.496
X72.992 Y16.592
X73.216 Y16.629
X74.109 Y16.653
G2 X74.407 Y16.358 I-0.002 J-0.3
G1 X74.412 Y16.037
X74.451 Y13.536 F1200
X74.456 Y13.208 F80
G2 X74.174 Y12.904 I-0.3 J-0.005
G1 X73.265 Y12.879
X72.89 Y12.888
X72.242 Y13.265
X71.834 Y13.895
X71.602 Y14.608
X71.516 Y15.353
X71.578 Y16.101
X71.598 Y16.142
X71.725 Y16.329
X71.896 Y16.475
X72.1 Y16.569
X72.323 Y16.605
X73.216 Y16.629
G2 X73.514 Y16.333 I-0.002 J-0.3
G1 X73.517 Y16.013
X73.543 Y13.511 F1200
X73.546 Y13.182 F80
G2 X73.265 Y12.879 I-0.3 J-0.003
G1 X72.357 Y12.855
X72.17 Y12.859
X71.823 Y13.001
X71.228 Y13.457
X70.867 Y14.115
X70.672 Y14.839
X70.624 Y15.588
X70.691 Y15.917
X70.765 Y16.127
X70.891 Y16.311
X71.062 Y16.454
X71.265 Y16.547
X71.485 Y16.583
X72.323 Y16.605
G2 X72.62 Y16.307 I-0.002 J-0.3
G1 X72.622 Y15.989
X72.637 Y13.487 F1200
X72.639 Y13.156 F80
G2 X72.357 Y12.855 I-0.3 J-0.002
G1 X71.613 Y12.835
X71.238 Y12.844
X70.568 Y13.181
X70.129 Y13.789
X69.865 Y14.491
X69.742 Y15.231
X69.81 Y15.978
X69.852 Y16.072
X69.977 Y16.267
X70.151 Y16.421
X70.36 Y16.521
X70.588 Y16.559
X71.485 Y16.583
G2 X71.783 Y16.294 I-0.002 J-0.3
G1 X71.794 Y15.967
X71.883 Y13.467 F1200
X71.894 Y13.145 F80
G2 X71.613 Y12.835 I-0.3 J-0.011
G1 X70.752 Y12.812
X70.377 Y12.821
X69.695 Y13.133
X69.251 Y13.738
X68.984 Y14.438
X68.875 Y15.18
X68.916 Y15.929
X68.962 Y16.035
X69.086 Y16.235
X69.26 Y16.393
X69.472 Y16.496
X69.704 Y16.535
X70.588 Y16.559
G2 X70.886 Y16.273 I-0.002 J-0.3
G1 X70.901 Y15.943
X71.018 Y13.444 F1200
X71.033 Y13.125 F80
G2 X70.752 Y12.812 I-0.3 J-0.014
G1 X69.809 Y12.787
X69.434 Y12.796
X68.767 Y13.138
X68.337 Y13.752
X68.088 Y14.46
X67.99 Y15.203
X68.045 Y15.951
X68.081 Y16.03
X68.206 Y16.223
X68.379 Y16.375
X68.587 Y16.474
X68.815 Y16.512
X69.704 Y16.535
G2 X70.002 Y16.244 I-0.002 J-0.3
G1 X70.011 Y15.919
X70.081 Y13.419 F1200
X70.09 Y13.095 F80
G2 X69.809 Y12.787 I-0.3 J-0.008
G1 X68.899 Y12.762
X68.524 Y12.771
X67.863 Y13.124
X67.442 Y13.746
X67.201 Y14.456
X67.108 Y15.2
X67.163 Y15.948
X67.194 Y16.012
X67.319 Y16.203
X67.492 Y16.353
X67.699 Y16.451
X67.925 Y16.488
X68.815 Y16.512
G2 X69.112 Y16.218 I-0.003 J-0.3
G1 X69.119 Y15.895
X69.173 Y13.394 F1200
X69.181 Y13.068 F80
G2 X68.899 Y12.762 I-0.3 J-0.007
G1 X67.992 Y12.738
X67.617 Y12.747
X66.963 Y13.114
X66.549 Y13.74
X66.314 Y14.452
X66.224 Y15.196
X66.281 Y15.944
X66.307 Y15.997
X66.433 Y16.185
X66.605 Y16.333
X66.811 Y16.429
X67.035 Y16.465
X67.925 Y16.488
G2 X68.222 Y16.193 I-0.003 J-0.3
G1 X68.227 Y15.871
X68.268 Y13.37 F1200
X68.274 Y13.043 F80
G2 X67.992 Y12.738 I-0.3 J-0.005
G1 X67.059 Y12.715
X66.871 Y12.72
X66.525 Y12.863
X65.934 Y13.324
X65.575 Y13.983
X65.38 Y14.707
X65.331 Y15.455
X65.401 Y15.786
X65.476 Y15.996
X65.604 Y16.179
X65.775 Y16.321
X65.978 Y16.412
X66.198 Y16.446
X67.035 Y16.465
G2 X67.333 Y16.166 I-0.003 J-0.3
G1 Y15.848
X67.34 Y13.346 F1200
X67.341 Y13.014 F80
G2 X67.059 Y12.715 I-0.3 J0
G1 X66.156 Y12.695
X65.969 Y12.7
X65.292 Y13.025
X64.848 Y13.629
X64.578 Y14.329
X64.449 Y15.068
X64.512 Y15.815
X64.562 Y15.93
X64.687 Y16.131
X64.864 Y16.29
X65.078 Y16.392
X65.312 Y16.429
X66.198 Y16.446
G2 X66.494 Y16.141 I-0.004 J-0.3
G1 X66.489 Y15.828
X66.445 Y13.325 F1200
X66.439 Y12.989 F80
G2 X66.156 Y12.695 I-0.3 J0.005
G1 X65.443 Y12.681
X65.069 Y12.694
X64.388 Y13.01
X63.948 Y13.617
X63.682 Y14.318
X63.579 Y15.061
X63.63 Y15.809
X63.68 Y15.92
X63.805 Y16.12
X63.982 Y16.277
X64.195 Y16.378
X64.428 Y16.415
X65.312 Y16.429
G2 X65.606 Y16.141 I-0.006 J-0.3
G1 X65.619 Y15.81
X65.716 Y13.31 F1200
X65.728 Y12.992 F80
G2 X65.443 Y12.681 I-0.3 J-0.012
G1 X64.534 Y12.666
X64.159 Y12.679
X63.482 Y13.002
X63.046 Y13.612
X62.796 Y14.319
X62.699 Y15.063
X62.752 Y15.811
X62.798 Y15.912
X62.924 Y16.11
X63.1 Y16.265
X63.312 Y16.364
X63.543 Y16.401
X64.428 Y16.415
G2 X64.722 Y16.124 I-0.006 J-0.3
G1 X64.732 Y15.795
X64.808 Y13.295 F1200
X64.818 Y12.975 F80
G2 X64.534 Y12.666 I-0.3 J-0.009
G1 X63.626 Y12.652
X63.252 Y12.665
X62.578 Y12.994
X62.152 Y13.612
X61.91 Y14.322
X61.816 Y15.066
X61.872 Y15.814
X61.914 Y15.904
X62.041 Y16.1
X62.216 Y16.253
X62.427 Y16.351
X62.657 Y16.387
X63.543 Y16.401
G2 X63.838 Y16.108 I-0.006 J-0.3
G1 X63.845 Y15.781
X63.904 Y13.281 F1200
X63.911 Y12.958 F80
G2 X63.626 Y12.652 I-0.3 J-0.007
G1 X62.693 Y12.637
X62.319 Y12.65
X61.66 Y13.01
X61.248 Y13.636
X61.016 Y14.349
X60.931 Y15.094
X60.998 Y15.841
X61.03 Y15.906
X61.157 Y16.096
X61.332 Y16.243
X61.539 Y16.338
X61.765 Y16.373
X62.657 Y16.387
G2 X62.951 Y16.09 I-0.006 J-0.3
G1 X62.954 Y15.767
X62.975 Y13.266 F1200
X62.978 Y12.939 F80
G2 X62.693 Y12.637 I-0.3 J-0.003
G1 X61.79 Y12.623
X61.416 Y12.636
X60.764 Y13.008
X60.358 Y13.638
X60.13 Y14.352
X60.049 Y15.098
X60.115 Y15.845
X60.141 Y15.897
X60.269 Y16.085
X60.443 Y16.231
X60.649 Y16.324
X60.874 Y16.359
X61.765 Y16.373
G2 X62.059 Y16.075 I-0.006 J-0.3
G1 X62.061 Y15.753
X62.074 Y13.252 F1200
X62.075 Y12.924 F80
G2 X61.79 Y12.623 I-0.3 J-0.002
G1 X60.927 Y12.609
X60.552 Y12.622
X59.895 Y12.984
X59.484 Y13.611
X59.252 Y14.324
X59.166 Y15.07
X59.223 Y15.817
X59.251 Y15.877
X59.379 Y16.067
X59.553 Y16.215
X59.761 Y16.31
X59.987 Y16.345
X60.874 Y16.359
G2 X61.168 Y16.063 I-0.006 J-0.3
G1 X61.172 Y15.739
X61.207 Y13.238 F1200
X61.211 Y12.913 F80
G2 X60.927 Y12.609 I-0.3 J-0.004
G1 X59.987 Y12.594
X59.612 Y12.607
X58.975 Y13.004
X58.578 Y13.64
X58.357 Y14.357
X58.278 Y15.103
X58.349 Y15.849
X58.366 Y15.88
X58.494 Y16.064
X58.667 Y16.206
X58.871 Y16.297
X59.093 Y16.331
X59.987 Y16.345
G2 X60.282 Y16.044 I-0.006 J-0.3
G1 X60.281 Y15.725
X60.272 Y13.223 F1200
X60.271 Y12.893 F80
G2 X59.987 Y12.594 I-0.3 J0.001
G1 X59.077 Y12.58
X58.889 Y12.587
X58.547 Y12.739
X57.963 Y13.21
X57.614 Y13.874
X57.427 Y14.6
X57.389 Y15.349
X57.458 Y15.664
X57.535 Y15.873
X57.664 Y16.054
X57.836 Y16.194
X58.039 Y16.285
X58.259 Y16.318
X59.093 Y16.331
G2 X59.387 Y16.028 I-0.006 J-0.3
G1 X59.384 Y15.711
X59.364 Y13.209 F1200
X59.362 Y12.877 F80
G2 X59.077 Y12.58 I-0.3 J0.002
G1 X58.395 Y12.569
X58.02 Y12.582
X57.339 Y12.896
X56.895 Y13.501
X56.627 Y14.201
X56.502 Y14.941
X56.568 Y15.688
X56.619 Y15.805
X56.744 Y16.006
X56.921 Y16.164
X57.135 Y16.266
X57.369 Y16.304
X58.259 Y16.318
G2 X58.553 Y16.03 I-0.006 J-0.3
G1 X58.566 Y15.698
X58.667 Y13.198 F1200
X58.679 Y12.881 F80
G2 X58.395 Y12.569 I-0.3 J-0.012
G1 X57.425 Y12.554
X57.05 Y12.567
X56.391 Y12.924
X55.967 Y13.543
X55.715 Y14.249
X55.628 Y14.994
X55.699 Y15.741
X55.737 Y15.819
X55.864 Y16.01
X56.039 Y16.159
X56.247 Y16.254
X56.474 Y16.29
X57.369 Y16.304
G2 X57.663 Y16.008 I-0.006 J-0.3
G1 X57.668 Y15.684
X57.705 Y13.183 F1200
X57.71 Y12.858 F80
G2 X57.425 Y12.554 I-0.3 J-0.004
G1 X56.561 Y12.54
X56.186 Y12.553
X55.517 Y12.891
X55.086 Y13.505
X54.843 Y14.215
X54.752 Y14.959
X54.805 Y15.707
X54.846 Y15.794
X54.972 Y15.989
X55.148 Y16.141
X55.358 Y16.24
X55.588 Y16.276
X56.474 Y16.29
G2 X56.768 Y15.997 I-0.006 J-0.3
G1 X56.776 Y15.67
X56.838 Y13.169 F1200
X56.846 Y12.847 F80
G2 X56.561 Y12.54 I-0.3 J-0.007
G1 X55.621 Y12.526
X55.246 Y12.538
X54.591 Y12.904
X54.18 Y13.531
X53.949 Y14.245
X53.865 Y14.99
X53.932 Y15.737
X53.962 Y15.797
X54.089 Y15.986
X54.263 Y16.133
X54.471 Y16.227
X54.696 Y16.262
X55.588 Y16.276
G2 X55.882 Y15.978 I-0.006 J-0.3
G1 X55.885 Y15.656
X55.903 Y13.155 F1200
X55.906 Y12.827 F80
G2 X55.621 Y12.526 I-0.3 J-0.002
G1 X54.711 Y12.511
X54.336 Y12.524
X53.69 Y12.905
X53.287 Y13.537
X53.061 Y14.252
X52.982 Y14.998
X53.05 Y15.745
X53.073 Y15.79
X53.201 Y15.976
X53.374 Y16.121
X53.58 Y16.213
X53.803 Y16.247
X54.696 Y16.262
G2 X54.99 Y15.962 I-0.006 J-0.3
G1 X54.991 Y15.642
X54.995 Y13.14 F1200
X54.996 Y12.811 F80
G2 X54.711 Y12.511 I-0.3 J0
G1 X53.804 Y12.497
X53.429 Y12.51
X52.792 Y12.905
X52.395 Y13.541
X52.174 Y14.258
X52.097 Y15.004
X52.166 Y15.751
X52.183 Y15.782
X52.311 Y15.966
X52.484 Y16.108
X52.688 Y16.2
X52.91 Y16.233
X53.803 Y16.247
G2 X54.097 Y15.947 I-0.006 J-0.3
G1 Y15.628
X54.09 Y13.126 F1200
X54.089 Y12.796 F80
G2 X53.804 Y12.497 I-0.3 J0.001
G1 X53.02 Y12.485
X52.645 Y12.497
X51.976 Y12.837
X51.555 Y13.457
X51.314 Y14.167
X51.218 Y14.911
X51.256 Y15.66
X51.291 Y15.735
X51.417 Y15.931
X51.593 Y16.085
X51.804 Y16.183
X52.034 Y16.22
X52.91 Y16.233
G2 X53.204 Y15.943 I-0.006 J-0.3
G1 X53.214 Y15.614
X53.294 Y13.113 F1200
X53.304 Y12.794 F80
G2 X53.02 Y12.485 I-0.3 J-0.01
G1 X51.968 Y12.468
X51.781 Y12.474
X51.108 Y12.805
X50.682 Y13.423
X50.436 Y14.131
X50.332 Y14.874
X50.37 Y15.623
X50.412 Y15.715
X50.537 Y15.913
X50.714 Y16.069
X50.926 Y16.169
X51.158 Y16.206
X52.034 Y16.22
G2 X52.329 Y15.912 I-0.006 J-0.3
G1 X52.321 Y15.6
X52.261 Y13.097 F1200
X52.253 Y12.76 F80
G2 X51.968 Y12.468 I-0.3 J0.007
G1 X51.256 Y12.457
X50.881 Y12.47
X50.21 Y12.806
X49.788 Y13.426
X49.544 Y14.135
X49.444 Y14.878
X49.495 Y15.627
X49.533 Y15.71
X49.66 Y15.905
X49.835 Y16.058
X50.046 Y16.156
X50.276 Y16.192
X51.158 Y16.206
G2 X51.452 Y15.914 I-0.006 J-0.3
G1 X51.461 Y15.586
X51.531 Y13.086 F1200
X51.54 Y12.765 F80
G2 X51.256 Y12.457 I-0.3 J-0.008
G1 X50.346 Y12.442
X49.971 Y12.455
X49.309 Y12.808
X48.892 Y13.431
X48.653 Y14.142
X48.56 Y14.886
X48.617 Y15.634
X48.651 Y15.705
X48.778 Y15.897
X48.953 Y16.046
X49.162 Y16.143
X49.39 Y16.178
X50.276 Y16.192
G2 X50.57 Y15.898 I-0.006 J-0.3
G1 X50.576 Y15.572
X50.624 Y13.071 F1200
X50.631 Y12.748 F80
G2 X50.346 Y12.442 I-0.3 J-0.006
G1 X49.439 Y12.428
X49.064 Y12.441
X48.409 Y12.807
X47.997 Y13.434
X47.764 Y14.146
X47.676 Y14.891
X47.737 Y15.639
X47.766 Y15.698
X47.894 Y15.887
X48.068 Y16.034
X48.276 Y16.129
X48.501 Y16.164
X49.39 Y16.178
G2 X49.684 Y15.882 I-0.006 J-0.3
G1 X49.688 Y15.558
X49.719 Y13.057 F1200
X49.723 Y12.732 F80
G2 X49.439 Y12.428 I-0.3 J-0.004
G1 X48.506 Y12.413
X48.131 Y12.426
X47.493 Y12.821
X47.093 Y13.456
X46.869 Y14.171
X46.79 Y14.917
X46.861 Y15.664
X46.879 Y15.698
X47.007 Y15.882
X47.18 Y16.025
X47.385 Y16.116
X47.607 Y16.15
X48.501 Y16.164
G2 X48.795 Y15.863 I-0.006 J-0.3
G1 Y15.544
X48.791 Y13.042 F1200
X48.79 Y12.713 F80
G2 X48.506 Y12.413 I-0.3 J0
G1 X47.603 Y12.399
X47.415 Y12.406
X47.071 Y12.554
X46.483 Y13.02
X46.13 Y13.681
X45.941 Y14.407
X45.901 Y15.156
X45.971 Y15.479
X46.046 Y15.689
X46.175 Y15.871
X46.348 Y16.013
X46.552 Y16.103
X46.772 Y16.137
X47.607 Y16.15
G2 X47.901 Y15.849 I-0.006 J-0.3
G1 X47.9 Y15.53
X47.889 Y13.028 F1200
X47.887 Y12.698 F80
G2 X47.603 Y12.399 I-0.3 J0.001
G1 X46.89 Y12.388
X46.515 Y12.401
X45.84 Y12.727
X45.4 Y13.335
X45.137 Y14.037
X45.015 Y14.777
X45.084 Y15.524
X45.133 Y15.632
X45.259 Y15.83
X45.435 Y15.986
X45.648 Y16.086
X45.88 Y16.123
X46.772 Y16.137
G2 X47.066 Y15.847 I-0.006 J-0.3
G1 X47.078 Y15.517
X47.164 Y13.017 F1200
X47.175 Y12.698 F80
G2 X46.89 Y12.388 I-0.3 J-0.01
G1 X45.98 Y12.374
X45.606 Y12.387
X44.932 Y12.717
X44.499 Y13.329
X44.241 Y14.033
X44.145 Y14.777
X44.203 Y15.525
X44.248 Y15.623
X44.374 Y15.82
X44.55 Y15.973
X44.761 Y16.072
X44.992 Y16.109
X45.88 Y16.123
G2 X46.174 Y15.831 I-0.006 J-0.3
G1 X46.183 Y15.503
X46.256 Y13.003 F1200
X46.265 Y12.682 F80
G2 X45.98 Y12.374 I-0.3 J-0.009
G1 X45.073 Y12.359
X44.698 Y12.372
X44.028 Y12.709
X43.6 Y13.325
X43.357 Y14.034
X43.264 Y14.779
X43.322 Y15.526
X43.363 Y15.614
X43.49 Y15.809
X43.665 Y15.961
X43.875 Y16.059
X44.105 Y16.095
X44.992 Y16.109
G2 X45.286 Y15.815 I-0.006 J-0.3
G1 X45.294 Y15.489
X45.351 Y12.988 F1200
X45.358 Y12.666 F80
G2 X45.073 Y12.359 I-0.3 J-0.007
G1 X44.14 Y12.345
X43.765 Y12.358
X43.108 Y12.719
X42.696 Y13.346
X42.464 Y14.059
X42.38 Y14.804
X42.447 Y15.551
X42.478 Y15.615
X42.605 Y15.804
X42.78 Y15.951
X42.987 Y16.046
X43.213 Y16.08
X44.105 Y16.095
G2 X44.399 Y15.797 I-0.006 J-0.3
G1 X44.402 Y15.475
X44.422 Y12.974 F1200
X44.425 Y12.647 F80
G2 X44.14 Y12.345 I-0.3 J-0.002
G1 X43.237 Y12.33
X42.862 Y12.343
X42.212 Y12.717
X41.806 Y13.347
X41.578 Y14.062
X41.497 Y14.807
X41.563 Y15.554
X41.589 Y15.605
X41.717 Y15.793
X41.89 Y15.938
X42.097 Y16.032
X42.321 Y16.066
X43.213 Y16.08
G2 X43.507 Y15.782 I-0.006 J-0.3
G1 X43.508 Y15.461
X43.52 Y12.959 F1200
X43.522 Y12.631 F80
G2 X43.237 Y12.33 I-0.3 J-0.001
G1 X42.373 Y12.317
X41.998 Y12.329
X41.342 Y12.692
X40.932 Y13.32
X40.701 Y14.034
X40.615 Y14.779
X40.671 Y15.527
X40.699 Y15.584
X40.827 Y15.774
X41.001 Y15.922
X41.208 Y16.017
X41.434 Y16.052
X42.321 Y16.066
G2 X42.615 Y15.77 I-0.006 J-0.3
G1 X42.62 Y15.447
X42.653 Y12.946 F1200
X42.658 Y12.62 F80
G2 X42.373 Y12.317 I-0.3 J-0.004
G1 X41.433 Y12.301
X41.246 Y12.308
X40.9 Y12.452
X40.311 Y12.916
X39.957 Y13.578
X39.767 Y14.303
X39.72 Y15.052
X39.793 Y15.383
X39.869 Y15.592
X39.998 Y15.773
X40.17 Y15.914
X40.373 Y16.005
X40.593 Y16.038
X41.434 Y16.052
G2 X41.729 Y15.751 I-0.005 J-0.3
G1 X41.728 Y15.432
X41.719 Y12.931 F1200
X41.718 Y12.6 F80
G2 X41.433 Y12.301 I-0.3 J0.001
G1 X40.677 Y12.289
X40.302 Y12.302
X39.64 Y12.654
X39.21 Y13.269
X38.954 Y13.973
X38.837 Y14.714
X38.914 Y15.46
X38.955 Y15.546
X39.082 Y15.738
X39.256 Y15.889
X39.465 Y15.986
X39.693 Y16.022
X40.593 Y16.038
G2 X40.887 Y15.745 I-0.005 J-0.3
G1 X40.895 Y15.418
X40.954 Y12.918 F1200
X40.962 Y12.596 F80
G2 X40.677 Y12.289 I-0.3 J-0.007
G1 X39.775 Y12.272
X39.4 Y12.284
X38.738 Y12.637
X38.313 Y13.255
X38.06 Y13.961
X37.968 Y14.705
X38.029 Y15.453
X38.064 Y15.529
X38.191 Y15.72
X38.365 Y15.871
X38.573 Y15.968
X38.8 Y16.004
X39.693 Y16.022
G2 X39.988 Y15.728 I-0.005 J-0.3
G1 X39.995 Y15.403
X40.051 Y12.902 F1200
X40.058 Y12.579 F80
G2 X39.775 Y12.272 I-0.3 J-0.007
G1 X38.872 Y12.254
X38.497 Y12.266
X37.838 Y12.624
X37.416 Y13.244
X37.177 Y13.955
X37.087 Y14.699
X37.145 Y15.447
X37.176 Y15.513
X37.303 Y15.703
X37.476 Y15.852
X37.684 Y15.949
X37.91 Y15.985
X38.8 Y16.004
G2 X39.096 Y15.71 I-0.004 J-0.3
G1 X39.102 Y15.386
X39.149 Y12.885 F1200
X39.155 Y12.56 F80
G2 X38.872 Y12.254 I-0.3 J-0.006
G1 X38.008 Y12.236
X37.633 Y12.247
X36.965 Y12.588
X36.543 Y13.208
X36.301 Y13.918
X36.206 Y14.662
X36.254 Y15.41
X36.288 Y15.484
X36.414 Y15.678
X36.588 Y15.83
X36.797 Y15.928
X37.024 Y15.965
X37.91 Y15.985
G2 X38.206 Y15.693 I-0.004 J-0.3
G1 X38.214 Y15.367
X38.282 Y12.867 F1200
X38.291 Y12.544 F80
G2 X38.008 Y12.236 I-0.3 J-0.008
G1 X37.068 Y12.215
X36.693 Y12.226
X36.044 Y12.602
X35.636 Y13.232
X35.405 Y13.945
X35.317 Y14.69
X35.381 Y15.437
X35.404 Y15.482
X35.531 Y15.669
X35.703 Y15.815
X35.908 Y15.909
X36.131 Y15.945
X37.024 Y15.965
G2 X37.321 Y15.668 I-0.004 J-0.3
G1 X37.324 Y15.348
X37.347 Y12.847 F1200
X37.35 Y12.518 F80
G2 X37.068 Y12.215 I-0.3 J-0.003
G1 X36.158 Y12.194
X35.971 Y12.199
X35.623 Y12.341
X35.029 Y12.798
X34.669 Y13.456
X34.473 Y14.18
X34.427 Y14.929
X34.496 Y15.261
X34.57 Y15.472
X34.697 Y15.655
X34.869 Y15.798
X35.072 Y15.89
X35.292 Y15.925
X36.131 Y15.945
G2 X36.427 Y15.646 I-0.003 J-0.3
G1 X36.429 Y15.327
X36.439 Y12.826 F1200
X36.44 Y12.495 F80
G2 X36.158 Y12.194 I-0.3 J-0.001
G1 X35.251 Y12.173
X35.063 Y12.178
X34.387 Y12.501
X33.942 Y13.105
X33.672 Y13.805
X33.544 Y14.544
X33.607 Y15.292
X33.656 Y15.404
X33.78 Y15.605
X33.955 Y15.763
X34.168 Y15.866
X34.4 Y15.905
X35.292 Y15.925
G2 X35.589 Y15.62 I-0.003 J-0.3
G1 X35.583 Y15.308
X35.539 Y12.804 F1200
X35.533 Y12.468 F80
G2 X35.251 Y12.173 I-0.3 J0.005
G1 X34.506 Y12.156
X34.131 Y12.166
X33.461 Y12.503
X33.028 Y13.115
X32.769 Y13.819
X32.672 Y14.563
X32.731 Y15.31
X32.772 Y15.4
X32.897 Y15.595
X33.071 Y15.747
X33.281 Y15.846
X33.509 Y15.884
X34.4 Y15.905
G2 X34.697 Y15.613 I-0.003 J-0.3
G1 X34.706 Y15.287
X34.779 Y12.787 F1200
X34.789 Y12.464 F80
G2 X34.506 Y12.156 I-0.3 J-0.009
G1 X33.645 Y12.136
X33.27 Y12.146
X32.59 Y12.462
X32.15 Y13.07
X31.897 Y13.776
X31.796 Y14.519
X31.839 Y15.267
X31.883 Y15.368
X32.008 Y15.567
X32.183 Y15.723
X32.394 Y15.825
X32.626 Y15.863
X33.509 Y15.884
G2 X33.806 Y15.595 I-0.003 J-0.3
G1 X33.818 Y15.266
X33.915 Y12.767 F1200
X33.927 Y12.447 F80
G2 X33.645 Y12.136 I-0.3 J-0.012
G1 X32.702 Y12.114
X32.327 Y12.124
X31.663 Y12.471
X31.242 Y13.092
X31.002 Y13.803
X30.908 Y14.547
X30.967 Y15.294
X31.001 Y15.366
X31.127 Y15.558
X31.301 Y15.708
X31.509 Y15.805
X31.735 Y15.842
X32.626 Y15.863
G2 X32.922 Y15.569 I-0.003 J-0.3
G1 X32.929 Y15.246
X32.978 Y12.745 F1200
X32.985 Y12.419 F80
G2 X32.702 Y12.114 I-0.3 J-0.006
G1 X31.792 Y12.093
X31.418 Y12.103
X30.761 Y12.466
X30.348 Y13.092
X30.113 Y13.804
X30.025 Y14.549
X30.086 Y15.297
X30.114 Y15.353
X30.24 Y15.542
X30.413 Y15.69
X30.619 Y15.785
X30.843 Y15.822
X31.735 Y15.842
G2 X32.031 Y15.547 I-0.003 J-0.3
G1 X32.036 Y15.225
X32.07 Y12.724 F1200
X32.075 Y12.396 F80
G2 X31.792 Y12.093 I-0.3 J-0.004
G1 X30.885 Y12.072
X30.51 Y12.082
X29.863 Y12.46
X29.456 Y13.09
X29.226 Y13.804
X29.141 Y14.549
X29.203 Y15.296
X29.225 Y15.339
X29.351 Y15.525
X29.524 Y15.671
X29.729 Y15.765
X29.951 Y15.801
X30.843 Y15.822
G2 X31.14 Y15.524 I-0.003 J-0.3
G1 X31.143 Y15.204
X31.165 Y12.703 F1200
X31.168 Y12.374 F80
G2 X30.885 Y12.072 I-0.3 J-0.003
G1 X29.952 Y12.05
X29.765 Y12.055
X29.421 Y12.205
X28.836 Y12.675
X28.483 Y13.336
X28.293 Y14.062
X28.249 Y14.811
X28.318 Y15.127
X28.394 Y15.335
X28.522 Y15.515
X28.693 Y15.656
X28.894 Y15.747
X29.113 Y15.781
X29.951 Y15.801
G2 X30.248 Y15.5 I-0.003 J-0.3
G1 X30.246 Y15.183
X30.236 Y12.681 F1200
X30.235 Y12.348 F80
G2 X29.952 Y12.05 I-0.3 J0.001
G1 X29.28 Y12.034
X28.905 Y12.044
X28.22 Y12.349
X27.771 Y12.95
X27.497 Y13.649
X27.365 Y14.387
X27.425 Y15.134
X27.476 Y15.254
X27.6 Y15.457
X27.775 Y15.617
X27.989 Y15.721
X28.224 Y15.76
X29.113 Y15.781
G2 X29.409 Y15.496 I-0.003 J-0.3
G1 X29.425 Y15.164
X29.546 Y12.665 F1200
X29.562 Y12.348 F80
G2 X29.28 Y12.034 I-0.3 J-0.015
G1 X28.337 Y12.012
X27.962 Y12.022
X27.289 Y12.354
X26.854 Y12.965
X26.591 Y13.667
X26.493 Y14.411
X26.551 Y15.158
X26.594 Y15.253
X26.719 Y15.449
X26.894 Y15.602
X27.104 Y15.702
X27.333 Y15.74
X28.224 Y15.76
G2 X28.52 Y15.47 I-0.003 J-0.3
G1 X28.53 Y15.143
X28.609 Y12.643 F1200
X28.619 Y12.321 F80
G2 X28.337 Y12.012 I-0.3 J-0.009
G1 X27.427 Y11.991
X27.052 Y12.001
X26.384 Y12.341
X25.953 Y12.955
X25.707 Y13.664
X25.613 Y14.408
X25.669 Y15.156
X25.707 Y15.237
X25.833 Y15.431
X26.007 Y15.583
X26.216 Y15.682
X26.444 Y15.719
X27.333 Y15.74
G2 X27.629 Y15.447 I-0.003 J-0.3
G1 X27.637 Y15.122
X27.701 Y12.622 F1200
X27.709 Y12.298 F80
G2 X27.427 Y11.991 I-0.3 J-0.008
G1 X26.473 Y11.969
X26.098 Y11.979
X25.45 Y12.356
X25.041 Y12.985
X24.811 Y13.699
X24.728 Y14.444
X24.797 Y15.191
X24.82 Y15.237
X24.947 Y15.423
X25.119 Y15.569
X25.324 Y15.662
X25.546 Y15.698
X26.444 Y15.719
G2 X26.74 Y15.42 I-0.003 J-0.3
G1 X26.742 Y15.101
X26.754 Y12.6 F1200
X26.755 Y12.27 F80
G2 X26.473 Y11.969 I-0.3 J-0.001
G1 X25.587 Y11.948
X25.212 Y11.958
X24.565 Y12.337
X24.158 Y12.967
X23.929 Y13.681
X23.846 Y14.427
X23.907 Y15.174
X23.928 Y15.216
X24.055 Y15.402
X24.227 Y15.548
X24.432 Y15.642
X24.655 Y15.677
X25.546 Y15.698
G2 X25.843 Y15.401 I-0.003 J-0.3
G1 X25.846 Y15.08
X25.867 Y12.579 F1200
X25.869 Y12.25 F80
G2 X25.587 Y11.948 I-0.3 J-0.003
G1 X24.684 Y11.927
X24.309 Y11.937
X23.669 Y12.328
X23.268 Y12.962
X23.043 Y13.677
X22.96 Y14.423
X23.023 Y15.17
X23.038 Y15.2
X23.165 Y15.385
X23.337 Y15.528
X23.541 Y15.621
X23.762 Y15.656
X24.655 Y15.677
G2 X24.951 Y15.379 I-0.003 J-0.3
G1 X24.953 Y15.06
X24.965 Y12.558 F1200
X24.966 Y12.228 F80
G2 X24.684 Y11.927 I-0.3 J-0.001
G1 X23.82 Y11.907
X23.445 Y11.917
X22.799 Y12.298
X22.394 Y12.929
X22.164 Y13.643
X22.077 Y14.388
X22.13 Y15.136
X22.148 Y15.173
X22.275 Y15.36
X22.447 Y15.506
X22.652 Y15.6
X22.875 Y15.636
X23.762 Y15.656
G2 X24.058 Y15.361 I-0.003 J-0.3
G1 X24.063 Y15.039
X24.098 Y12.538 F1200
X24.102 Y12.21 F80
G2 X23.82 Y11.907 I-0.3 J-0.004
G1 X22.88 Y11.885
X22.692 Y11.89
X22.009 Y12.199
X21.571 Y12.808
X21.314 Y13.512
X21.2 Y14.253
X21.216 Y15.003
X21.259 Y15.104
X21.381 Y15.309
X21.557 Y15.471
X21.772 Y15.576
X22.008 Y15.616
X22.875 Y15.636
G2 X23.172 Y15.335 I-0.003 J-0.3
G1 X23.171 Y15.018
X23.163 Y12.516 F1200
X23.162 Y12.184 F80
G2 X22.88 Y11.885 I-0.3 J0.001
G1 X22.124 Y11.867
X21.749 Y11.877
X21.081 Y12.219
X20.658 Y12.838
X20.411 Y13.546
X20.303 Y14.288
X20.352 Y15.037
X20.387 Y15.112
X20.513 Y15.307
X20.686 Y15.459
X20.896 Y15.558
X21.124 Y15.595
X22.008 Y15.616
G2 X22.304 Y15.325 I-0.003 J-0.3
G1 X22.315 Y14.998
X22.396 Y12.498 F1200
X22.406 Y12.176 F80
G2 X22.124 Y11.867 I-0.3 J-0.01
G1 X21.221 Y11.846
X20.846 Y11.856
X20.185 Y12.209
X19.765 Y12.831
X19.519 Y13.539
X19.421 Y14.283
X19.472 Y15.031
X19.504 Y15.098
X19.63 Y15.29
X19.803 Y15.441
X20.012 Y15.538
X20.238 Y15.575
X21.124 Y15.595
G2 X21.42 Y15.303 I-0.004 J-0.3
G1 X21.429 Y14.978
X21.495 Y12.477 F1200
X21.504 Y12.154 F80
G2 X21.221 Y11.846 I-0.3 J-0.008
G1 X20.318 Y11.826
X19.943 Y11.836
X19.287 Y12.199
X18.87 Y12.822
X18.631 Y13.533
X18.537 Y14.277
X18.591 Y15.025
X18.619 Y15.083
X18.745 Y15.273
X18.919 Y15.422
X19.126 Y15.518
X19.351 Y15.555
X20.238 Y15.575
G2 X20.535 Y15.281 I-0.004 J-0.3
G1 X20.541 Y14.957
X20.594 Y12.456 F1200
X20.601 Y12.131 F80
G2 X20.318 Y11.826 I-0.3 J-0.006
G1 X19.454 Y11.806
X19.08 Y11.816
X18.416 Y12.166
X17.995 Y12.786
X17.753 Y13.496
X17.655 Y14.24
X17.701 Y14.988
X17.733 Y15.055
X17.858 Y15.248
X18.032 Y15.4
X18.24 Y15.497
X18.468 Y15.534
X19.351 Y15.555
G2 X19.647 Y15.263 I-0.004 J-0.3
G1 X19.657 Y14.937
X19.728 Y12.437 F1200
X19.737 Y12.114 F80
G2 X19.454 Y11.806 I-0.3 J-0.009
G1 X18.514 Y11.785
X18.14 Y11.795
X17.495 Y12.178
X17.088 Y12.808
X16.855 Y13.521
X16.766 Y14.265
X16.829 Y15.013
X16.849 Y15.053
X16.976 Y15.239
X17.149 Y15.385
X17.354 Y15.478
X17.576 Y15.514
X18.468 Y15.534
G2 X18.764 Y15.238 I-0.004 J-0.3
G1 X18.768 Y14.917
X18.794 Y12.416 F1200
X18.797 Y12.087 F80
G2 X18.514 Y11.785 I-0.3 J-0.003
G1 X17.605 Y11.764
X17.417 Y11.769
X17.071 Y11.913
X16.479 Y12.373
X16.119 Y13.032
X15.923 Y13.755
X15.875 Y14.504
X15.943 Y14.832
X16.017 Y15.042
X16.145 Y15.226
X16.317 Y15.369
X16.52 Y15.461
X16.741 Y15.496
X17.576 Y15.514
G2 X17.872 Y15.215 I-0.004 J-0.3
G1 X17.874 Y14.896
X17.886 Y12.395 F1200
X17.887 Y12.064 F80
G2 X17.605 Y11.764 I-0.3 J-0.001
G1 X16.923 Y11.749
X16.548 Y11.759
X15.859 Y12.055
X15.406 Y12.653
X15.128 Y13.35
X14.994 Y14.088
X15.05 Y14.836
X15.104 Y14.966
X15.227 Y15.172
X15.404 Y15.334
X15.62 Y15.439
X15.857 Y15.478
X16.741 Y15.496
G2 X17.036 Y15.212 I-0.004 J-0.3
G1 X17.054 Y14.878
X17.188 Y12.379 F1200
X17.205 Y12.064 F80
G2 X16.923 Y11.749 I-0.3 J-0.016
G1 X15.953 Y11.729
X15.578 Y11.74
X14.909 Y12.079
X14.476 Y12.691
X14.214 Y13.394
X14.118 Y14.138
X14.182 Y14.885
X14.225 Y14.978
X14.351 Y15.173
X14.526 Y15.325
X14.736 Y15.424
X14.965 Y15.46
X15.857 Y15.478
G2 X16.152 Y15.186 I-0.005 J-0.3
G1 X16.161 Y14.859
X16.228 Y12.359 F1200
X16.236 Y12.036 F80
G2 X15.953 Y11.729 I-0.3 J-0.008
G1 X15.092 Y11.712
X14.717 Y11.724
X14.037 Y12.039
X13.596 Y12.646
X13.343 Y13.352
X13.243 Y14.096
X13.289 Y14.844
X13.335 Y14.948
X13.46 Y15.146
X13.635 Y15.303
X13.846 Y15.404
X14.078 Y15.442
X14.965 Y15.46
G2 X15.26 Y15.171 I-0.005 J-0.3
G1 X15.272 Y14.842
X15.364 Y12.342 F1200
X15.375 Y12.023 F80
G2 X15.092 Y11.712 I-0.3 J-0.011
G1 X14.33 Y11.697
X14.149 Y11.684
X13.774 Y11.676
X13.113 Y12.032
X12.693 Y12.652
X12.452 Y13.363
X12.358 Y14.107
X12.413 Y14.855
X12.451 Y14.938
X12.574 Y15.129
X12.744 Y15.28
X12.948 Y15.379
X13.171 Y15.42
X14.078 Y15.442
G2 X14.374 Y15.146 I-0.004 J-0.3
G1 X14.379 Y14.825
X14.412 Y12.329 F1200
X14.417 Y11.987 F80
G2 X14.149 Y11.684 I-0.3 J-0.004
G1 X13.239 Y11.619
X13.052 Y11.606
X12.703 Y11.744
X12.1 Y12.189
X11.728 Y12.841
X11.522 Y13.562
X11.464 Y14.309
X11.534 Y14.709
X11.601 Y14.922
X11.723 Y15.109
X11.889 Y15.257
X12.089 Y15.356
G2 X12.465 Y15.146 I0.086 J-0.288
G1 X12.544 Y14.851
X13.218 Y12.357 F1200
X13.334 Y11.926 F80
G2 X13.239 Y11.619 I-0.29 J-0.078
G1 X13.086 Y11.498
X12.934 Y11.389
X12.563 Y11.335
X12.193 Y11.399
X11.527 Y11.743
G2 X10.623 Y14.358 I2.049 J2.172
G1 X10.695 Y14.545
X10.809 Y14.709
G2 X11.275 Y14.669 I0.217 J-0.207
G1 X11.414 Y14.462
X12.947 Y12.183 F1200
X13.141 Y11.894 F80
G2 X13.086 Y11.498 I-0.249 J-0.167
G1 X12.631 Y11.138
X12.488 Y11.036
X12.125 Y10.944
X11.75 Y10.957
X11.04 Y11.198
X10.487 Y11.705
X10.084 Y12.338
X9.82 Y13.04
X9.797 Y13.187
X9.794 Y13.412
X9.851 Y13.63
X9.964 Y13.825
G2 X10.407 Y13.844 I0.23 J-0.193
G1 X10.609 Y13.64
X12.445 Y11.785 F1200
X12.65 Y11.578 F80
G2 X12.631 Y11.138 I-0.213 J-0.211
G1 X12.148 Y10.758
X11.423 Y10.564
X10.674 Y10.597
X10.037 Y10.994
X9.536 Y11.552
X9.368 Y11.85
X9.296 Y12.02
X9.263 Y12.202
X9.27 Y12.386
G2 X9.712 Y12.592 I0.295 J-0.056
G1 X9.901 Y12.486
X11.924 Y11.351 F1200
X12.103 Y11.25 F80
G2 X12.148 Y10.758 I-0.147 J-0.262
G1 X11.056 Y10.406
X9.965 Y10.758
X9.808 Y10.892
X9.208 Y11.981
X9.375 Y13.07
X9.965 Y13.827
X10.319 Y14.159
X11.056 Y14.985
X11.77 Y15.248
X12.148 Y15.375
X13.171 Y15.42
X13.163 Y15.608
X13.712 Y16.119
X14.437 Y16.309
X15.373 Y16.423
G2 X29.784 Y16.792 I25.854 J-727.684
G1 X33.787 Y16.893
X37.791 Y16.982
X41.795 Y17.059
X63.418 Y17.399
X71.825 Y17.59
X80.233 Y17.795
X87.44 Y17.907
X89.843 Y17.952
X94.648 Y18.026
X113.869 Y18.302
X117.472 Y18.389
X121.075 Y18.466
X124.679 Y18.535
X128.283 Y18.594
X137.893 Y18.708
X140.296 Y18.74
X142.698 Y18.782
X161.919 Y19.091
X164.321 Y19.112
G3 X178.738 Y19.156 I5.789 J460.362
G1 X190.751 Y19.279
X193.154 Y19.276
X195.557 Y19.24
X197.959 Y19.27
X205.167 Y19.377
X214.778 Y19.355
