(gearboxmotorconnection)
(Machine)
(  vendor: Autodesk)
(  description: Generic 3-axis)
(T1  D=3 CR=0 - ZMIN=-18 - flat end mill)
G90 G94
G17
G21
G28 G91 Z0
G90

(Adaptive1)
T1
S18000 M3
G54
G0 X27.814 Y6.448
Z2
Z0.2
G2 X21.224 Y3.774 Z-0.19 I-3.295 J-1.337 F333.3
X27.814 Y6.448 Z-0.58 I3.295 J1.337
X21.224 Y3.774 Z-0.97 I-3.295 J-1.337
X27.814 Y6.448 Z-1.36 I3.295 J1.337
X21.224 Y3.774 Z-1.75 I-3.295 J-1.337
X27.814 Y6.448 Z-2.14 I3.295 J1.337
X21.224 Y3.774 Z-2.531 I-3.295 J-1.337
X27.814 Y6.448 Z-2.921 I3.295 J1.337
X21.224 Y3.774 Z-3.311 I-3.295 J-1.337
X27.814 Y6.448 Z-3.701 I3.295 J1.337
X21.224 Y3.774 Z-4.091 I-3.295 J-1.337
X27.814 Y6.448 Z-4.481 I3.295 J1.337
X21.224 Y3.774 Z-4.871 I-3.295 J-1.337
X27.814 Y6.448 Z-5.261 I3.295 J1.337
X21.224 Y3.774 Z-5.651 I-3.295 J-1.337
X27.814 Y6.448 Z-6.041 I3.295 J1.337
X21.224 Y3.774 Z-6.431 I-3.295 J-1.337
X27.814 Y6.448 Z-6.821 I3.295 J1.337
X21.224 Y3.774 Z-7.212 I-3.295 J-1.337
X27.814 Y6.448 Z-7.602 I3.295 J1.337
X21.224 Y3.774 Z-7.992 I-3.295 J-1.337
X27.814 Y6.448 Z-8.382 I3.295 J1.337
X21.224 Y3.774 Z-8.772 I-3.295 J-1.337
X27.814 Y6.448 Z-9.162 I3.295 J1.337
X21.224 Y3.774 Z-9.552 I-3.295 J-1.337
X27.814 Y6.448 Z-9.942 I3.295 J1.337
X28.075 Y5.111 Z-9.99 I-3.295 J-1.337
X20.963 Y5.111 I-3.556 J0
X28.075 Y5.111 I3.556 J0
X24.519 Y5.111 I-1.778 J0
G1 X24.506 Y5.298 F80
G3 X25.807 Y4.851 I5.572 J14.082
G1 X25.879 Y4.821
X25.944 Y4.779
X26 Y4.725
X26.045 Y4.661
X26.077 Y4.59
X26.095 Y4.514
X26.098 Y4.436
X26.086 Y4.358
X26.06 Y4.285
X26.021 Y4.217
G2 X25.523 Y4.08 I-0.335 J0.243 F1200
X25.248 Y4.29 I0.28 J0.653
X25.158 Y5.03 I0.556 J0.443 F80
G1 X25.327 Y5.365
X25.406 Y5.514 F72
X25.454 Y5.675
X25.468 Y5.843
X25.449 Y6.01
X25.396 Y6.17
X25.312 Y6.316
X25.089 Y6.569
X24.802 Y6.744
X24.479 Y6.841
X24.143 Y6.86
X23.811 Y6.805 F80
X23.497 Y6.681
X23.215 Y6.498
X22.973 Y6.263
X22.78 Y5.988
X22.64 Y5.681
X22.558 Y5.355
X22.535 Y5.019
X22.607 Y4.349
G2 X22.059 Y4.159 I-0.299 J-0.022
X22.265 Y4.624 I0.248 J0.168 F1200
G1 X27.453 Y5.358
X27.733 Y5.398 F80
G2 X28.075 Y5.111 I0.042 J-0.297
G1 Y3.764
X28.137 Y3.433
X28.057 Y2.687
G2 X22.866 Y0.991 I-3.517 J1.971
X20.727 Y2.871 I1.138 J3.452
G1 X20.602 Y3.825
X20.547 Y4.131
X20.358 Y5.049
G2 X22.132 Y8.851 I3.423 J0.718
X27.863 Y8.014 I2.403 J-3.586
G1 X28.443 Y6.273
G2 X28.751 Y3.213 I-13.185 J-2.876
X27.473 Y0.673 I-2.636 J-0.265
X21.172 Y0.933 I-2.98 J4.264
G1 X21.059 Y1.133
X20.995 Y1.349
X20.752 Y2.883
G2 X21.039 Y3.219 I0.298 J0.037
G1 X21.327 Y3.23
X28.109 Y3.47 F1200
X28.443 Y3.482 F80
G2 X28.752 Y3.213 I0.011 J-0.3
G1 X28.847 Y1.821
X28.854 Y1.446
X28.636 Y0.728
G2 X23.249 Y-1.026 I-4.034 J3.239
G1 X22.516 Y-0.862
X21.82 Y-0.584
X21.493 Y-0.4
X21.308 Y-0.258
X21.17 Y-0.071
X21.088 Y0.148
X21.071 Y0.38
G3 X20.995 Y1.349 I-3.517 J0.213
G2 X21.276 Y1.684 I0.298 J0.035
G1 X21.571 Y1.701
X28.204 Y2.071 F1200
X28.532 Y2.089 F80
G2 X28.847 Y1.821 I0.017 J-0.3
G1 X28.92 Y0.765
X28.927 Y0.39
X28.707 Y-0.327
G2 X24.733 Y-2.089 I-3.801 J3.212
X21.24 Y-1.281 I-0.435 J6.079
G1 X21.102 Y-1.072
X21.016 Y-0.846
X20.999 Y-0.605
X21.071 Y0.38
G2 X21.353 Y0.65 I0.299 J-0.03
G1 X21.712 Y0.669
X28.277 Y1.016 F1200
X28.605 Y1.034 F80
G2 X28.92 Y0.765 I0.016 J-0.3
G1 X28.994 Y-0.321
X29.001 Y-0.696
X28.73 Y-1.396
G2 X23.938 Y-3.002 I-3.972 J3.898
X21.004 Y-2.095 I-0.167 J4.659
G1 X20.944 Y-1.826
X20.926 Y-1.581
X20.999 Y-0.605
G2 X21.286 Y-0.338 I0.298 J-0.033
G1 X21.644 Y-0.324
X28.351 Y-0.065 F1200
X28.684 Y-0.052 F80
G2 X28.994 Y-0.321 I0.012 J-0.3
G1 X29.041 Y-1.071
X29.052 Y-1.377
X29.045 Y-1.752
X28.74 Y-2.437
G2 X23.898 Y-3.943 I-3.983 J4.267
X20.946 Y-3.107 I-0.159 J5.071
G1 X20.868 Y-2.887
X20.819 Y-2.681
X20.824 Y-2.469
X20.89 Y-1.989
X20.926 Y-1.581
G2 X21.216 Y-1.314 I0.298 J-0.033
G1 X21.571 Y-1.304
X28.417 Y-1.109 F1200
X28.745 Y-1.099 F80
G2 X29.052 Y-1.377 I0.009 J-0.3
X28.972 Y-2.601 I-2.981 J-0.418
G1 X28.883 Y-2.965
X28.512 Y-3.617
G2 X23.574 Y-4.87 I-3.887 J4.959
X20.881 Y-4.104 I-0.044 J4.963
G1 X20.753 Y-3.878
X20.68 Y-3.639
X20.681 Y-3.389
X20.824 Y-2.469
G2 X21.12 Y-2.224 I0.295 J-0.055
G1 X21.488 Y-2.225
X28.407 Y-2.254 F1200
X28.677 Y-2.255 F80
G2 X28.972 Y-2.601 I-0.001 J-0.3
G1 X28.79 Y-3.519
X28.727 Y-3.825
X28.632 Y-4.188
X28.189 Y-4.793
G2 X23.17 Y-5.787 I-3.737 J5.701
X20.682 Y-4.999 I0.03 J4.417
G1 X20.585 Y-4.778
X20.528 Y-4.558
X20.532 Y-4.331
X20.681 Y-3.389
G2 X20.989 Y-3.147 I0.295 J-0.057
G1 X21.347 Y-3.162
X28.168 Y-3.462 F1200
X28.444 Y-3.474 F80
G2 X28.727 Y-3.825 I-0.013 J-0.3
G1 X28.501 Y-4.911
X28.406 Y-5.274
X27.937 Y-5.859
G2 X22.882 Y-6.716 I-3.632 J6.097
G1 X22.138 Y-6.613
X21.417 Y-6.408
X20.729 Y-6.108
X20.672 Y-6.06
X20.525 Y-5.903
X20.424 Y-5.713
X20.375 Y-5.504
X20.381 Y-5.288
X20.532 Y-4.331
G2 X20.846 Y-4.089 I0.294 J-0.057
G1 X21.198 Y-4.111
X27.942 Y-4.543 F1200
X28.224 Y-4.561 F80
G2 X28.501 Y-4.911 I-0.019 J-0.299
G1 X28.305 Y-5.853
X28.21 Y-6.216
X27.779 Y-6.83
G2 X23.467 Y-7.739 I-3.407 J5.483
X20.278 Y-6.831 I-0.061 J5.846
G1 X20.201 Y-6.613
X20.149 Y-6.413
X20.148 Y-6.206
X20.198 Y-6.005
G3 X20.381 Y-5.288 I-3.227 J1.207
G2 X20.694 Y-5.046 I0.294 J-0.057
G1 X21.046 Y-5.068
X27.746 Y-5.486 F1200
X28.028 Y-5.503 F80
G2 X28.305 Y-5.853 I-0.019 J-0.299
G1 X28.09 Y-6.885
X27.995 Y-7.248
X27.542 Y-7.845
G2 X23.212 Y-8.678 I-3.33 J5.638
X19.952 Y-7.642 I-0.02 J5.584
G1 X19.878 Y-7.427
X19.827 Y-7.227
X19.828 Y-7.021
X19.879 Y-6.821
X20.198 Y-6.005
G2 X20.503 Y-5.824 I0.276 J-0.118
G1 X20.907 Y-5.863
X27.532 Y-6.507 F1200
X27.823 Y-6.535 F80
G2 X28.09 Y-6.885 I-0.029 J-0.299
G1 X27.899 Y-7.803
X27.804 Y-8.166
X27.391 Y-8.792
G2 X23.068 Y-9.622 I-3.282 J5.419
X19.662 Y-8.504 I-0.073 J5.521
G1 X19.56 Y-8.303
X19.5 Y-8.094
X19.495 Y-7.876
X19.548 Y-7.665
X19.879 Y-6.821
G2 X20.187 Y-6.643 I0.275 J-0.119
G1 X20.588 Y-6.686
X27.342 Y-7.422 F1200
X27.636 Y-7.454 F80
G2 X27.899 Y-7.803 I-0.032 J-0.298
G1 X27.693 Y-8.794
X27.596 Y-9.157
X27.174 Y-9.777
G2 X22.842 Y-10.56 I-3.223 J5.451
X19.284 Y-9.349 I0.177 J6.354
G1 X19.182 Y-9.138
X19.127 Y-8.918
X19.133 Y-8.691
X19.2 Y-8.474
X19.367 Y-8.109
X19.548 Y-7.665
G2 X19.861 Y-7.486 I0.275 J-0.119
G1 X20.257 Y-7.536
X27.136 Y-8.408 F1200
X27.435 Y-8.446 F80
G2 X27.693 Y-8.794 I-0.038 J-0.298
X27.305 Y-10.115 I-5.397 J0.867
G1 X27.125 Y-10.444
G2 X24.423 Y-11.545 I-2.654 J2.648
X19.006 Y-10.293 I-0.869 J8.582
G1 X18.88 Y-10.088
X18.779 Y-9.889
X18.734 Y-9.67
X18.749 Y-9.447
X18.823 Y-9.236
X19.085 Y-8.721
X19.2 Y-8.474
G2 X19.521 Y-8.316 I0.267 J-0.136
G1 X19.916 Y-8.388
X26.837 Y-9.655 F1200
X27.08 Y-9.7 F80
G2 X27.302 Y-10.113 I-0.054 J-0.295
G1 X27.237 Y-10.251
X26.775 Y-11.151
X26.586 Y-11.475
X26.041 Y-11.99
G2 X20.903 Y-12.144 I-2.78 J6.987
X18.325 Y-10.682 I0.462 J3.821
G1 X18.324 Y-10.447
X18.343 Y-10.237
X18.415 Y-10.038
X18.823 Y-9.236
G2 X19.15 Y-9.089 I0.262 J-0.145
G1 X19.542 Y-9.176
X26.328 Y-10.676 F1200
X26.568 Y-10.729 F80
G2 X26.775 Y-11.151 I-0.065 J-0.293
G1 X26.22 Y-12.221
X26.031 Y-12.545
X25.451 Y-13.021
G2 X18.091 Y-11.819 I-2.539 J7.586
G1 X17.982 Y-11.577
X17.915 Y-11.338
X17.92 Y-11.09
X17.999 Y-10.854
X18.415 Y-10.038
G2 X18.753 Y-9.893 I0.262 J-0.145
G1 X19.129 Y-9.992
X25.775 Y-11.737 F1200
X26.025 Y-11.803 F80
G2 X26.22 Y-12.221 I-0.076 J-0.29
G1 X25.726 Y-13.173
X25.537 Y-13.497
X24.963 Y-13.979
G2 X19.825 Y-13.816 I-2.342 J7.192
G1 X19.116 Y-13.567
X18.452 Y-13.219
X17.843 Y-12.781
X17.666 Y-12.571
X17.55 Y-12.39
X17.484 Y-12.186
X17.473 Y-11.971
X17.517 Y-11.76
X17.613 Y-11.568
X17.676 Y-11.475
X17.999 Y-10.854
G2 X18.343 Y-10.711 I0.262 J-0.145
G1 X18.711 Y-10.816
X25.283 Y-12.684 F1200
X25.537 Y-12.756 F80
G2 X25.726 Y-13.173 I-0.082 J-0.289
G1 X25.245 Y-14.102
X25.056 Y-14.426
X24.488 Y-14.917
G2 X19.359 Y-14.662 I-2.221 J7.058
G1 X18.657 Y-14.395
X18.001 Y-14.033
X17.398 Y-13.586
X17.134 Y-13.267
X17.014 Y-13.075
X16.951 Y-12.857
X16.949 Y-12.63
X17.008 Y-12.412
X17.124 Y-12.217
X17.464 Y-11.781
X17.613 Y-11.568
G2 X17.945 Y-11.458 I0.243 J-0.176
G1 X18.338 Y-11.581
X24.803 Y-13.606 F1200
X25.063 Y-13.687 F80
G2 X25.245 Y-14.102 I-0.09 J-0.286
G1 X24.775 Y-15.009
X24.586 Y-15.333
X24.03 Y-15.837
G2 X19.618 Y-15.755 I-2.089 J6.383
G1 X18.9 Y-15.533
X18.215 Y-15.229
X17.563 Y-14.858
X16.963 Y-14.408
X16.462 Y-13.85
X16.433 Y-13.782
X16.375 Y-13.567
Y-13.344
X16.435 Y-13.129
X16.549 Y-12.938
X17.124 Y-12.217
G2 X17.45 Y-12.128 I0.228 J-0.195
G1 X17.853 Y-12.268
X24.336 Y-14.505 F1200
X24.601 Y-14.597 F80
G2 X24.775 Y-15.009 I-0.098 J-0.284
G1 X24.227 Y-16.065
X24.038 Y-16.389
X23.42 Y-16.813
G2 X15.855 Y-14.544 I-1.867 J7.52
G1 X15.814 Y-14.285
X15.81 Y-14.044
X15.875 Y-13.812
X16.005 Y-13.608
X16.371 Y-13.162
X16.549 Y-12.938
G2 X16.886 Y-12.854 I0.228 J-0.195
G1 X17.273 Y-13.005
X23.793 Y-15.55 F1200
X24.065 Y-15.657 F80
G2 X24.227 Y-16.065 I-0.109 J-0.279
X23.527 Y-17.145 I-3.477 J1.488
G1 X23 Y-17.679
G2 X18.6 Y-17.427 I-1.851 J6.229
X15.194 Y-15.034 I1.521 J5.788
G1 X15.204 Y-14.795
X15.233 Y-14.582
X15.314 Y-14.384
X15.444 Y-14.212
X15.759 Y-13.88
X16.005 Y-13.608
G2 X16.347 Y-13.538 I0.22 J-0.204
G1 X16.724 Y-13.705
X23.206 Y-16.585 F1200
X23.418 Y-16.679 F80
G2 X23.527 Y-17.145 I-0.122 J-0.274
G1 X23.103 Y-17.61
X22.659 Y-18.086
X22.389 Y-18.347
X21.727 Y-18.699
G2 X14.667 Y-15.895 I-1.002 J7.767
G1 X14.608 Y-15.665
X14.574 Y-15.445
X14.599 Y-15.223
X14.683 Y-15.016
X14.818 Y-14.839
X15.444 Y-14.212
G2 X15.786 Y-14.163 I0.206 J-0.218
G1 X16.157 Y-14.352
X22.354 Y-17.512 F1200
X22.569 Y-17.622 F80
G2 X22.659 Y-18.086 I-0.136 J-0.267
G1 X21.879 Y-18.921
X21.609 Y-19.182
X20.948 Y-19.536
G2 X15.968 Y-18.286 I-0.818 J7.29
G1 X15.333 Y-17.885
X14.758 Y-17.404
X14.257 Y-16.846
X14.047 Y-16.478
X13.965 Y-16.278
X13.937 Y-16.063
X13.966 Y-15.848
X14.049 Y-15.648
X14.181 Y-15.476
X14.818 Y-14.839
G2 X15.167 Y-14.796 I0.205 J-0.219
G1 X15.525 Y-14.994
X21.578 Y-18.34 F1200
X21.798 Y-18.461 F80
G2 X21.879 Y-18.921 I-0.145 J-0.263
G1 X21.117 Y-19.737
X20.847 Y-19.998
X20.186 Y-20.351
G2 X15.249 Y-18.954 I-0.63 J7.195
G1 X14.625 Y-18.536
X14.069 Y-18.034
X13.585 Y-17.46
X13.392 Y-17.102
X13.316 Y-16.901
X13.293 Y-16.686
X13.326 Y-16.474
X13.413 Y-16.276
X13.547 Y-16.108
X14.181 Y-15.476
G2 X14.538 Y-15.437 I0.205 J-0.219
G1 X14.883 Y-15.64
X20.82 Y-19.149 F1200
X21.043 Y-19.281 F80
G2 X21.117 Y-19.737 I-0.153 J-0.258
G1 X20.349 Y-20.559
X20.079 Y-20.82
X19.407 Y-21.153
G2 X14.515 Y-19.607 I-0.412 J7.21
G1 X13.906 Y-19.168
X13.365 Y-18.648
X12.898 Y-18.062
X12.692 Y-17.648
X12.618 Y-17.423
X12.61 Y-17.185
X12.669 Y-16.955
X12.792 Y-16.751
X12.967 Y-16.589
X13.269 Y-16.371
X13.311 Y-16.336
X13.547 Y-16.108
G2 X13.908 Y-16.077 I0.201 J-0.223
G1 X14.243 Y-16.289
X20.056 Y-19.965 F1200
X20.283 Y-20.108 F80
G2 X20.349 Y-20.559 I-0.16 J-0.254
G1 X19.546 Y-21.418
X19.277 Y-21.679
X18.577 Y-21.948
G2 X11.817 Y-17.963 I-0.04 J7.659
G1 X11.852 Y-17.879
X11.859 Y-17.656
X11.925 Y-17.442
X12.046 Y-17.254
X12.212 Y-17.105
X12.967 Y-16.589
G2 X13.301 Y-16.598 I0.161 J-0.253
G1 X13.653 Y-16.846
X19.262 Y-20.812 F1200
X19.493 Y-20.976 F80
G2 X19.546 Y-21.418 I-0.173 J-0.245
G1 X18.824 Y-22.185
X18.617 Y-22.381
X17.94 Y-22.703
G2 X13.124 Y-20.944 I-0.132 J7.111
G1 X12.535 Y-20.478
X12.014 Y-19.939
X11.558 Y-19.343
X11.184 Y-18.693
X11.135 Y-18.483
X11.116 Y-18.234
X11.171 Y-17.991
X11.295 Y-17.775
X11.478 Y-17.605
X12.212 Y-17.105
G2 X12.551 Y-17.117 I0.16 J-0.254
G1 X12.892 Y-17.371
X18.546 Y-21.573 F1200
X18.778 Y-21.745 F80
G2 X18.824 Y-22.185 I-0.179 J-0.241
G1 X18.513 Y-22.498
X18.207 Y-22.737
X17.753 Y-23.026
X17.099 Y-23.393
G2 X13.559 Y-22.392 I-0.327 J5.605
X10.367 Y-18.962 I2.901 J5.899
G1 X10.361 Y-18.739
X10.396 Y-18.524
X10.487 Y-18.325
X10.625 Y-18.157
X10.803 Y-18.03
X11.027 Y-17.901
X11.169 Y-17.816
X11.478 Y-17.605
G2 X11.829 Y-17.628 I0.16 J-0.254
G1 X12.144 Y-17.888
X17.599 Y-22.401 F1200
X17.775 Y-22.547 F80
G2 X17.753 Y-23.026 I-0.191 J-0.231
G1 X16.983 Y-23.5
X16.677 Y-23.686
X16.017 Y-24.043
G2 X12.536 Y-22.865 I-0.081 J5.494
X9.598 Y-19.548 I3.75 J6.281
G1 X9.581 Y-19.285
X9.579 Y-19.08
X9.627 Y-18.88
X9.722 Y-18.698
X9.858 Y-18.545
X10.028 Y-18.43
X10.692 Y-18.089
X10.803 Y-18.03
G2 X11.138 Y-18.079 I0.131 J-0.27
G1 X11.451 Y-18.368
X16.538 Y-23.052 F1200
X16.715 Y-23.215 F80
G2 X16.677 Y-23.686 I-0.203 J-0.221
G1 X15.624 Y-24.327
X15.294 Y-24.505
X14.559 Y-24.654
G2 X8.749 Y-19.781 I1.439 J7.617
G1 X8.769 Y-19.547
X8.808 Y-19.331
X8.901 Y-19.132
X9.043 Y-18.965
X9.224 Y-18.84
X10.028 Y-18.43
G2 X10.369 Y-18.492 I0.127 J-0.272
G1 X10.662 Y-18.788
X15.494 Y-23.684 F1200
X15.673 Y-23.865 F80
X15.709 Y-23.91
X15.737 Y-23.962
X15.753 Y-24.017
X15.759 Y-24.075
Y-24.076
G2 X15.624 Y-24.327 I-0.3 J0
G1 X14.718 Y-24.878
X14.388 Y-25.056
X13.659 Y-25.229
G2 X9.291 Y-22.54 I1.329 J7.048
G1 X8.809 Y-21.965
X8.407 Y-21.331
X8.094 Y-20.65
X7.983 Y-20.189
X7.961 Y-19.969
X7.997 Y-19.75
X8.09 Y-19.548
X8.233 Y-19.378
X8.415 Y-19.252
X9.224 Y-18.84
G2 X9.569 Y-18.906 I0.127 J-0.272
G1 X9.85 Y-19.205
X14.592 Y-24.231 F1200
X14.772 Y-24.421 F80
G2 X14.718 Y-24.878 I-0.218 J-0.206
G1 X13.754 Y-25.464
X13.425 Y-25.642
X12.689 Y-25.786
G2 X8.407 Y-22.963 I1.539 J6.993
G1 X7.94 Y-22.376
X7.56 Y-21.729
X7.266 Y-21.039
X7.162 Y-20.565
X7.144 Y-20.329
X7.194 Y-20.098
X7.306 Y-19.89
X7.473 Y-19.722
X7.68 Y-19.607
X7.803 Y-19.56
X8.415 Y-19.252
G2 X8.766 Y-19.325 I0.127 J-0.272
G1 X9.033 Y-19.625
X13.634 Y-24.811 F1200
X13.814 Y-25.014 F80
G2 X13.754 Y-25.464 I-0.224 J-0.199
G1 X12.836 Y-26.022
X12.507 Y-26.201
X11.769 Y-26.336
G2 X8.031 Y-23.994 I1.453 J6.472
G1 X7.531 Y-23.434
X7.101 Y-22.82
X6.734 Y-22.166
X6.448 Y-21.473
X6.283 Y-20.741
X6.299 Y-20.581
X6.359 Y-20.346
X6.484 Y-20.137
X6.664 Y-19.974
X6.883 Y-19.869
X7.497 Y-19.677
X7.68 Y-19.607
G2 X8.007 Y-19.699 I0.097 J-0.284
G1 X8.278 Y-20.025
X12.723 Y-25.364 F1200
X12.902 Y-25.579 F80
G2 X12.836 Y-26.022 I-0.231 J-0.192
G1 X12.087 Y-26.478
X11.919 Y-26.573
X11.781 Y-26.651
X11.626 Y-26.719
X11.293 Y-26.844
X11.269 Y-26.831
G2 X11.21 Y-26.349 I0.145 J0.263
G1 X11.35 Y-26.218
X11.779 Y-25.82 F1200
G2 X12.227 Y-26.214 I0.204 J-0.22
G1 X12.222 Y-26.221
G2 X11.626 Y-26.719 I-1.282 J0.928 F80
G1 X11.475 Y-26.785
X11.169 Y-26.885
G2 X8.929 Y-26.067 I0.002 J3.479
X5.438 Y-21.333 I4.803 J7.197
G1 X5.446 Y-20.949
X5.468 Y-20.735
X5.545 Y-20.533
X5.671 Y-20.357
X5.838 Y-20.22
X6.034 Y-20.131
X6.883 Y-19.869
G2 X7.215 Y-19.999 I0.078 J-0.29
G1 X7.43 Y-20.34
X11.152 Y-26.251 F1200
X11.28 Y-26.454 F80
G2 X11.119 Y-26.899 I-0.254 J-0.16
G1 X10.251 Y-27.145
G2 X7.845 Y-26.381 I-0.462 J2.716
X4.554 Y-21.513 I4.91 J6.865
G1 X4.587 Y-21.166
X4.619 Y-20.956
X4.703 Y-20.761
X4.833 Y-20.593
X5.002 Y-20.464
X5.198 Y-20.382
X5.661 Y-20.245
X6.034 Y-20.131
G2 X6.366 Y-20.261 I0.078 J-0.29
G1 X6.581 Y-20.602
X10.287 Y-26.497 F1200
X10.414 Y-26.699 F80
G2 X10.251 Y-27.145 I-0.254 J-0.16
G1 X9.165 Y-27.449
G2 X6.772 Y-26.683 I-0.512 J2.52
X3.67 Y-21.695 I5.12 J6.641
G1 X3.723 Y-21.303
X3.767 Y-21.084
X3.868 Y-20.885
X4.018 Y-20.72
X4.207 Y-20.601
X4.421 Y-20.536
X4.743 Y-20.483
X5.049 Y-20.423
X5.198 Y-20.382
G2 X5.527 Y-20.522 I0.07 J-0.292
G1 X5.731 Y-20.87
X9.207 Y-26.798 F1200
X9.332 Y-27.012 F80
G2 X9.165 Y-27.449 I-0.259 J-0.152
G1 X8.109 Y-27.745
X7.743 Y-27.828
X6.997 Y-27.757
G2 X3.46 Y-24.028 I3.34 J6.708
X2.949 Y-21.014 I3.256 J2.103
G1 X3.141 Y-20.86
X3.33 Y-20.741
X3.544 Y-20.676
X4.421 Y-20.536
G2 X4.723 Y-20.691 I0.038 J-0.298
G1 X4.923 Y-21.065
X8.16 Y-27.09 F1200
X8.282 Y-27.317 F80
G2 X8.109 Y-27.745 I-0.264 J-0.142
G1 X7.023 Y-28.05
X6.657 Y-28.133
X5.912 Y-28.044
G2 X1.909 Y-21.58 I3.624 J6.716
G1 X1.998 Y-21.361
X2.1 Y-21.163
X2.251 Y-20.999
X2.439 Y-20.881
X2.652 Y-20.818
X3.544 Y-20.676
G2 X3.85 Y-20.841 I0.037 J-0.298
G1 X4.033 Y-21.214
X7.082 Y-27.39 F1200
X7.201 Y-27.631 F80
G2 X7.023 Y-28.05 I-0.269 J-0.133
G1 X5.967 Y-28.346
X5.601 Y-28.429
X4.858 Y-28.326
G2 X1.046 Y-21.451 I3.727 J6.561
G1 X1.19 Y-21.26
X1.348 Y-21.105
X1.541 Y-20.997
X1.757 Y-20.943
X1.989 Y-20.918
X2.652 Y-20.818
G2 X2.962 Y-20.99 I0.037 J-0.298
G1 X3.131 Y-21.36
X6.033 Y-27.682 F1200
X6.149 Y-27.935 F80
G2 X5.967 Y-28.346 I-0.273 J-0.125
G1 X5.017 Y-28.611
X4.651 Y-28.691
X3.903 Y-28.637
G2 X0.938 Y-25.373 I3.132 J5.824
G1 X0.614 Y-24.695
X0.371 Y-23.986
X0.198 Y-23.256
X0.108 Y-22.511
X0.113 Y-21.761
X0.169 Y-21.587
X0.255 Y-21.402
X0.383 Y-21.243
X0.545 Y-21.121
X0.733 Y-21.041
X0.934 Y-21.009
X1.071 Y-21.005
X1.586 Y-20.961
X1.757 Y-20.943
G2 X2.053 Y-21.121 I0.022 J-0.299
G1 X2.223 Y-21.502
X5.088 Y-27.947 F1200
X5.202 Y-28.202 F80
G2 X5.017 Y-28.611 I-0.274 J-0.122
G1 X4.437 Y-28.769
X4.131 Y-28.846
X3.657 Y-28.874
X2.907 Y-28.876
G2 X-0.011 Y-25.586 I2.874 J5.489
X-0.75 Y-21.624 I5.816 J3.134
G1 X-0.636 Y-21.429
X-0.504 Y-21.258
X-0.332 Y-21.127
X-0.132 Y-21.045
X0.083 Y-21.017
X0.765 Y-21.015
X0.934 Y-21.009
G2 X1.215 Y-21.205 I0 J-0.3
G1 X1.362 Y-21.6
X3.83 Y-28.252 F1200
X3.912 Y-28.471 F80
G2 X3.657 Y-28.874 I-0.281 J-0.104
G1 X3.213 Y-28.895
X2.907 Y-28.903
X2.295 Y-28.904
X1.546 Y-28.867
G2 X-1.133 Y-25.375 I3.357 J5.349
X-1.619 Y-21.52 I5.676 J2.672
G1 X-1.458 Y-21.311
X-1.27 Y-21.146
X-1.041 Y-21.043
X-0.792 Y-21.014
X0.083 Y-21.017
G2 X0.359 Y-21.229 I-0.01 J-0.3
G1 X0.479 Y-21.624
X2.503 Y-28.291 F1200
X2.572 Y-28.517 F80
G2 X2.295 Y-28.904 I-0.287 J-0.087
G1 X1.071
X0.696 Y-28.886
X-0.01 Y-28.633
G2 X-2.542 Y-21.514 I5.169 J5.849
G1 X-2.401 Y-21.321
X-2.253 Y-21.154
X-2.065 Y-21.033
X-1.853 Y-20.965
X-1.63 Y-20.957
X-1.071 Y-21.005
X-0.792 Y-21.014
G2 X-0.522 Y-21.239 I-0.021 J-0.299
G1 X-0.42 Y-21.636
X1.289 Y-28.289 F1200
X1.351 Y-28.53 F80
G2 X1.071 Y-28.904 I-0.291 J-0.075
G1 X-0.015
X-0.39 Y-28.886
X-1.101 Y-28.648
G2 X-3.47 Y-24.097 I4.813 J5.396
G1 X-3.594 Y-23.356
X-3.616 Y-22.607
X-3.533 Y-21.861
X-3.291 Y-21.148
X-3.133 Y-20.995
X-2.94 Y-20.888
X-2.726 Y-20.835
X-2.506 Y-20.841
X-1.989 Y-20.918
X-1.63 Y-20.957
G2 X-1.376 Y-21.189 I-0.039 J-0.297
G1 X-1.285 Y-21.598
X0.211 Y-28.287 F1200
X0.267 Y-28.539 F80
G2 X-0.015 Y-28.904 I-0.293 J-0.065
G1 X-1.239
X-1.614 Y-28.886
X-2.295 Y-28.573
G2 X-4.31 Y-21.251 I5.543 J5.463
G1 X-4.172 Y-21.052
X-4.013 Y-20.882
X-3.814 Y-20.762
X-3.59 Y-20.702
X-3.358 Y-20.706
X-2.506 Y-20.841
G2 X-2.268 Y-21.083 I-0.057 J-0.295
G1 X-2.194 Y-21.501
X-1.001 Y-28.284 F1200
X-0.954 Y-28.553 F80
G2 X-1.239 Y-28.904 I-0.295 J-0.052
G1 X-2.295
X-2.669 Y-28.886
X-3.354 Y-28.579
G2 X-5.427 Y-23.88 I5.277 J5.135
X-5.073 Y-20.87 I5.138 J0.922
G1 X-4.903 Y-20.717
X-4.708 Y-20.608
X-4.492 Y-20.555
X-4.269 Y-20.56
X-3.358 Y-20.706
G2 X-3.118 Y-20.957 I-0.057 J-0.294
G1 X-3.058 Y-21.368
X-2.049 Y-28.283 F1200
X-2.009 Y-28.561 F80
G2 X-2.295 Y-28.904 I-0.297 J-0.043
G1 X-2.907 Y-28.903
X-3.381 Y-28.888
X-3.755 Y-28.853
X-4.434 Y-28.536
G2 X-6.393 Y-23.79 I5.36 J4.989
X-5.87 Y-20.563 I5.071 J0.835
G1 X-5.663 Y-20.472
X-5.473 Y-20.406
X-5.272 Y-20.387
X-5.073 Y-20.416
X-4.743 Y-20.483
X-4.269 Y-20.56
G2 X-4.029 Y-20.818 I-0.058 J-0.294
G1 X-3.979 Y-21.225
X-3.114 Y-28.278 F1200
X-3.081 Y-28.551 F80
G2 X-3.381 Y-28.888 I-0.298 J-0.037
X-4.741 Y-28.68 I-0.16 J3.501
G1 X-5.455 Y-28.452
G2 X-7.142 Y-25.181 I3.936 J4.1
X-6.855 Y-20.49 I6.869 J1.934
G1 X-6.681 Y-20.346
X-6.506 Y-20.228
X-6.307 Y-20.158
X-6.097 Y-20.14
X-5.889 Y-20.175
X-5.318 Y-20.349
X-5.073 Y-20.416
G2 X-4.863 Y-20.684 I-0.09 J-0.286
G1 X-4.837 Y-21.107
X-4.389 Y-28.149 F1200
X-4.375 Y-28.375 F80
G2 X-4.743 Y-28.686 I-0.299 J-0.019
G1 X-5.967 Y-28.346
X-6.678 Y-28.107
G2 X-8.19 Y-24.753 I4.094 J3.863
X-7.79 Y-20.338 I7.291 J1.565
G1 X-7.637 Y-20.181
X-7.455 Y-20.016
X-7.232 Y-19.91
X-6.989 Y-19.875
X-6.745 Y-19.912
X-5.889 Y-20.175
G2 X-5.686 Y-20.455 I-0.097 J-0.284
G1 X-5.681 Y-20.872
X-5.599 Y-27.811 F1200
X-5.596 Y-28.051 F80
G2 X-5.967 Y-28.346 I-0.3 J-0.004
G1 X-7.191 Y-28.003
X-7.546 Y-27.883
X-8.138 Y-27.422
G2 X-8.567 Y-19.93 I6.667 J4.141
G1 X-8.379 Y-19.789
X-8.194 Y-19.674
X-7.985 Y-19.611
X-7.767 Y-19.604
X-7.555 Y-19.655
X-7.31 Y-19.737
X-6.745 Y-19.912
G2 X-6.544 Y-20.206 I-0.098 J-0.283
G1 X-6.559 Y-20.609
X-6.811 Y-27.469 F1200
X-6.82 Y-27.722 F80
G2 X-7.191 Y-28.003 I-0.3 J0.011
G1 X-8.297 Y-27.693
X-8.652 Y-27.573
X-9.227 Y-27.091
G2 X-9.565 Y-19.881 I6.901 J3.937
G1 X-9.304 Y-19.557
X-9.14 Y-19.397
X-8.938 Y-19.289
X-8.714 Y-19.239
X-8.485 Y-19.252
X-8.269 Y-19.327
X-7.803 Y-19.56
X-7.555 Y-19.655
G2 X-7.372 Y-19.953 I-0.116 J-0.277
G1 X-7.402 Y-20.364
X-7.907 Y-27.159 F1200
X-7.927 Y-27.423 F80
G2 X-8.297 Y-27.693 I-0.299 J0.022
G1 X-9.333 Y-27.402
X-9.688 Y-27.283
X-10.265 Y-26.804
G2 X-11.081 Y-21.732 I6.462 J3.641
X-9.943 Y-18.953 I4.71 J-0.306
G1 X-9.737 Y-18.862
X-9.52 Y-18.819
X-9.299 Y-18.835
X-9.09 Y-18.908
X-8.269 Y-19.327
G2 X-8.116 Y-19.623 I-0.145 J-0.262
G1 X-8.164 Y-20.053
X-8.933 Y-26.87 F1200
X-8.964 Y-27.144 F80
G2 X-9.333 Y-27.402 I-0.298 J0.034
G1 X-10.251 Y-27.145
X-10.606 Y-27.025
X-11.227 Y-26.604
G2 X-12.1 Y-22.282 I5.643 J3.39
X-10.832 Y-18.608 I6.227 J-0.095
G1 X-10.604 Y-18.488
X-10.365 Y-18.421
X-10.117 Y-18.427
X-9.882 Y-18.505
X-9.09 Y-18.908
G2 X-8.938 Y-19.207 I-0.145 J-0.262
G1 X-8.99 Y-19.633
X-9.848 Y-26.613 F1200
X-9.882 Y-26.89 F80
G2 X-10.251 Y-27.145 I-0.298 J0.037
G1 X-11.169 Y-26.885
X-11.337 Y-26.83
X-11.475 Y-26.785
X-11.499 Y-26.775
X-12.059 Y-26.494
G2 X-11.895 Y-25.938 I0.157 J0.256
G1 X-11.83 Y-25.947 F1200
X-11.768 Y-25.97
X-11.255 Y-26.227
X-11.201 Y-26.262
X-11.156 Y-26.307
G2 X-11.499 Y-26.775 I-0.234 J-0.188 F80
G1 X-11.781 Y-26.651
X-12.087 Y-26.478
X-12.242 Y-26.373
G2 X-12.936 Y-21.291 I6.281 J3.445
X-11.513 Y-18.097 I5.476 J-0.526
G1 X-11.293 Y-18.035
X-11.083 Y-18.003
X-10.871 Y-18.025
X-10.672 Y-18.1
X-9.882 Y-18.505
G2 X-9.737 Y-18.842 I-0.145 J-0.262
G1 X-9.834 Y-19.22
X-11.596 Y-26.049 F1200
X-11.658 Y-26.287 F80
G2 X-12.087 Y-26.478 I-0.29 J0.075
G1 X-12.699 Y-26.106
X-13.319 Y-25.685
G2 X-13.993 Y-22.071 I4.778 J2.76
X-12.38 Y-17.699 I7.116 J-0.141
G1 X-12.168 Y-17.614
X-11.966 Y-17.553
X-11.754 Y-17.545
X-11.547 Y-17.59
X-11.359 Y-17.686
X-11.169 Y-17.816
X-10.863 Y-17.998
X-10.672 Y-18.1
G2 X-10.529 Y-18.427 I-0.15 J-0.26
G1 X-10.62 Y-18.82
X-12.208 Y-25.689 F1200
X-12.26 Y-25.912 F80
G2 X-12.699 Y-26.106 I-0.292 J0.068
G1 X-13.785 Y-25.445
X-14.095 Y-25.234
X-14.575 Y-24.658
G2 X-13.153 Y-17.221 I7.439 J2.432
G1 X-12.936 Y-17.126
X-12.728 Y-17.055
X-12.508 Y-17.041
X-12.292 Y-17.085
X-12.096 Y-17.184
X-11.359 Y-17.686
G2 X-11.248 Y-18.011 I-0.178 J-0.242
G1 X-11.365 Y-18.414
X-13.282 Y-25.031 F1200
X-13.35 Y-25.267 F80
G2 X-13.785 Y-25.445 I-0.288 J0.083
G1 X-14.74 Y-24.864
X-15.051 Y-24.653
X-15.535 Y-24.08
G2 X-15.253 Y-18.954 I6.974 J2.188
G1 X-14.984 Y-18.254
X-14.62 Y-17.598
X-14.166 Y-17.001
X-13.848 Y-16.731
X-13.666 Y-16.613
X-13.46 Y-16.546
X-13.244 Y-16.535
X-13.032 Y-16.579
X-12.839 Y-16.677
X-12.096 Y-17.184
G2 X-11.988 Y-17.518 I-0.178 J-0.242
G1 X-12.114 Y-17.908
X-14.23 Y-24.453 F1200
X-14.308 Y-24.695 F80
G2 X-14.74 Y-24.864 I-0.285 J0.092
G1 X-15.759 Y-24.245
X-16.069 Y-24.034
X-16.509 Y-23.427
G2 X-14.551 Y-16.122 I7.455 J1.916
G1 X-14.312 Y-16.04
X-14.082 Y-15.987
X-13.846 Y-16.001
X-13.624 Y-16.08
X-13.433 Y-16.218
G3 X-12.839 Y-16.677 I2.026 J2.01
G2 X-12.735 Y-17.022 I-0.178 J-0.242
G1 X-12.872 Y-17.396
X-15.238 Y-23.837 F1200
X-15.33 Y-24.086 F80
G2 X-15.759 Y-24.245 I-0.282 J0.103
G1 X-16.63 Y-23.715
X-16.94 Y-23.504
X-17.409 Y-22.918
G2 X-17.123 Y-18.514 I6.468 J1.792
G1 X-16.87 Y-17.807
X-16.534 Y-17.137
X-16.13 Y-16.505
X-15.649 Y-15.929
X-15.068 Y-15.455
X-14.938 Y-15.407
X-14.706 Y-15.357
X-14.47 Y-15.374
X-14.248 Y-15.457
X-14.058 Y-15.599
X-13.592 Y-16.065
X-13.433 Y-16.218
G2 X-13.37 Y-16.539 I-0.216 J-0.208
G1 X-13.535 Y-16.947
X-16.102 Y-23.31 F1200
X-16.205 Y-23.565 F80
G2 X-16.63 Y-23.715 I-0.278 J0.112
G1 X-17.595 Y-23.126
X-17.902 Y-22.911
X-18.333 Y-22.297
G2 X-17.617 Y-17.216 I7.083 J1.592
G1 X-17.283 Y-16.543
X-16.863 Y-15.922
X-16.368 Y-15.359
X-15.798 Y-14.871
X-15.606 Y-14.789
X-15.367 Y-14.727
X-15.121 Y-14.738
X-14.888 Y-14.82
X-14.69 Y-14.967
X-14.058 Y-15.599
G2 X-14.004 Y-15.926 I-0.219 J-0.205
G1 X-14.182 Y-16.322
X-17.056 Y-22.727 F1200
X-17.173 Y-22.988 F80
G2 X-17.595 Y-23.126 I-0.274 J0.123
G1 X-18.207 Y-22.737
X-18.521 Y-22.491
X-18.685 Y-22.325
X-19.185 Y-21.767
G2 X-18.733 Y-17.386 I6.192 J1.575
X-16.127 Y-14.072 I5.779 J-1.862
G1 X-15.895 Y-14.086
X-15.687 Y-14.118
X-15.493 Y-14.201
X-15.326 Y-14.33
X-14.69 Y-14.967
G2 X-14.643 Y-15.309 I-0.219 J-0.205
G1 X-14.834 Y-15.68
X-18.107 Y-22.04 F1200
X-18.212 Y-22.244 F80
G2 X-18.685 Y-22.325 I-0.267 J0.137
G1 X-18.824 Y-22.185
X-19.572 Y-21.39
X-20.056 Y-20.817
G2 X-19.666 Y-17.16 I5.429 J1.271
X-17.077 Y-13.561 I7.101 J-2.377
G1 X-16.847 Y-13.488
X-16.652 Y-13.436
X-16.45 Y-13.433
X-16.253 Y-13.478
X-16.073 Y-13.57
X-15.92 Y-13.702
X-15.72 Y-13.923
X-15.428 Y-14.229
X-15.326 Y-14.33
G2 X-15.286 Y-14.684 I-0.22 J-0.204
G1 X-15.487 Y-15.035
X-18.983 Y-21.123 F1200
X-19.1 Y-21.327 F80
G2 X-19.572 Y-21.39 I-0.26 J0.149
G1 X-20.457 Y-20.443
X-20.699 Y-20.157
X-20.971 Y-19.458
G2 X-17.473 Y-12.776 I7.793 J0.177
G1 X-17.238 Y-12.752
X-17.019 Y-12.746
X-16.806 Y-12.798
X-16.614 Y-12.903
X-16.456 Y-13.055
X-16.065 Y-13.539
X-15.92 Y-13.702
G2 X-15.898 Y-14.058 I-0.229 J-0.194
G1 X-16.116 Y-14.397
X-19.856 Y-20.183 F1200
X-19.993 Y-20.394 F80
G2 X-20.457 Y-20.443 I-0.252 J0.163
G1 X-21.267 Y-19.576
X-21.509 Y-19.289
G2 X-21.387 Y-16.37 I3.614 J1.312
X-18.323 Y-12.212 I7.983 J-2.674
G1 X-17.97 Y-12.098
X-17.765 Y-12.046
X-17.554 Y-12.048
X-17.35 Y-12.103
X-17.166 Y-12.207
X-17.015 Y-12.354
X-16.456 Y-13.055
G2 X-16.452 Y-13.408 I-0.241 J-0.179
G1 X-16.689 Y-13.741
X-20.657 Y-19.322 F1200
X-20.81 Y-19.538 F80
G2 X-21.267 Y-19.576 I-0.245 J0.174
G1 X-21.974 Y-18.819
X-22.216 Y-18.532
X-22.479 Y-17.83
G2 X-20.59 Y-13.056 I7.337 J-0.142
G1 X-20.109 Y-12.479
X-19.553 Y-11.976
X-18.935 Y-11.55
X-18.538 Y-11.386
X-18.321 Y-11.329
X-18.097 Y-11.331
X-17.882 Y-11.394
X-17.691 Y-11.511
X-17.539 Y-11.675
X-17.464 Y-11.781
X-17.111 Y-12.234
X-17.015 Y-12.354
G2 X-17.015 Y-12.712 I-0.241 J-0.179
G1 X-17.255 Y-13.035
X-21.36 Y-18.568 F1200
X-21.521 Y-18.785 F80
G2 X-21.974 Y-18.819 I-0.241 J0.179
G1 X-22.684 Y-18.059
X-22.926 Y-17.772
X-23.205 Y-17.076
G2 X-21.233 Y-12.341 I7.178 J-0.211
G1 X-20.74 Y-11.775
X-20.176 Y-11.281
X-19.556 Y-10.859
X-18.868 Y-10.559
X-18.736 Y-10.548
X-18.492 Y-10.564
X-18.262 Y-10.65
X-18.068 Y-10.798
X-17.925 Y-10.997
X-17.676 Y-11.475
X-17.539 Y-11.675
G2 X-17.553 Y-12.024 I-0.251 J-0.165
G1 X-17.807 Y-12.349
X-22.065 Y-17.812 F1200
X-22.235 Y-18.031 F80
G2 X-22.684 Y-18.059 I-0.237 J0.184
G1 X-23.398 Y-17.289
X-23.614 Y-17.028
X-23.918 Y-16.342
G2 X-22.357 Y-12.22 I6.527 J-0.114
X-19.225 Y-9.748 I5.236 J-3.413
G1 X-19.002 Y-9.765
X-18.794 Y-9.809
X-18.603 Y-9.903
X-18.443 Y-10.042
X-18.323 Y-10.218
X-17.925 Y-10.997
G2 X-17.967 Y-11.318 I-0.271 J-0.128
G1 X-18.252 Y-11.658
X-22.771 Y-17.052 F1200
X-22.955 Y-17.271 F80
G2 X-23.398 Y-17.289 I-0.23 J0.193
X-24.227 Y-16.065 I2.837 J2.814
G1 X-24.539 Y-15.382
G2 X-23.308 Y-11.918 I5.519 J-0.01
X-19.612 Y-8.966 I5.579 J-3.195
G1 X-19.397 Y-8.973
X-19.192 Y-9.018
X-19.004 Y-9.112
X-18.845 Y-9.251
X-18.727 Y-9.425
X-18.323 Y-10.218
G2 X-18.379 Y-10.553 I-0.272 J-0.127
G1 X-18.673 Y-10.859
X-23.592 Y-15.962 F1200
X-23.75 Y-16.125 F80
G2 X-24.227 Y-16.065 I-0.216 J0.208
G1 X-24.862 Y-14.841
G2 X-24.629 Y-12.336 I2.383 J1.042
X-20.428 Y-8.232 I7.537 J-3.512
G1 X-20.03 Y-8.178
X-19.811 Y-8.166
X-19.597 Y-8.211
X-19.402 Y-8.311
X-19.24 Y-8.459
X-19.121 Y-8.643
X-18.727 Y-9.425
G2 X-18.796 Y-9.773 I-0.272 J-0.127
G1 X-19.095 Y-10.047
X-24.217 Y-14.749 F1200
X-24.398 Y-14.914 F80
G2 X-24.862 Y-14.841 I-0.203 J0.221
G1 X-25.425 Y-13.754
G2 X-25.082 Y-11.271 I2.356 J0.941
X-20.698 Y-7.366 I7.334 J-3.822
G1 X-20.335 Y-7.349
X-20.12 Y-7.352
X-19.913 Y-7.411
X-19.727 Y-7.521
X-19.576 Y-7.674
X-19.47 Y-7.861
X-19.367 Y-8.109
X-19.121 Y-8.643
G2 X-19.204 Y-8.99 I-0.276 J-0.118
G1 X-19.513 Y-9.25
X-24.773 Y-13.671 F1200
X-24.971 Y-13.837 F80
G2 X-25.425 Y-13.754 I-0.193 J0.23
G1 X-25.92 Y-12.799
X-26.076 Y-12.458
X-26.124 Y-11.71
G2 X-20.675 Y-6.47 I7.356 J-2.197
G1 X-20.446 Y-6.518
X-20.237 Y-6.578
X-20.05 Y-6.69
X-19.899 Y-6.847
X-19.794 Y-7.037
X-19.47 Y-7.861
G2 X-19.565 Y-8.2 I-0.281 J-0.104
G1 X-19.885 Y-8.454
X-25.263 Y-12.721 F1200
X-25.472 Y-12.887 F80
G2 X-25.92 Y-12.799 I-0.186 J0.235
G1 X-26.377 Y-11.919
X-26.532 Y-11.577
X-26.636 Y-10.835
G2 X-23.539 Y-6.747 I6.866 J-1.986
G1 X-22.918 Y-6.326
X-22.246 Y-5.992
X-21.539 Y-5.743
X-20.797 Y-5.63
X-20.774 Y-5.634
X-20.57 Y-5.698
X-20.388 Y-5.811
X-20.242 Y-5.967
X-20.14 Y-6.155
X-19.794 Y-7.037
G2 X-19.894 Y-7.375 I-0.283 J-0.1
G1 X-20.219 Y-7.624
X-25.717 Y-11.844 F1200
X-25.933 Y-12.009 F80
G2 X-26.377 Y-11.919 I-0.183 J0.238
G1 X-26.924 Y-10.863
X-27.08 Y-10.522
X-27.102 Y-9.772
G2 X-23.842 Y-5.805 I6.922 J-2.365
G1 X-23.207 Y-5.404
X-22.525 Y-5.092
X-21.809 Y-4.869
X-21.068 Y-4.756
X-21.011 Y-4.767
X-20.777 Y-4.853
X-20.579 Y-5.003
X-20.434 Y-5.205
X-20.355 Y-5.441
X-20.306 Y-5.661
X-20.212 Y-5.967
X-20.14 Y-6.155
G2 X-20.248 Y-6.497 I-0.283 J-0.098
G1 X-20.574 Y-6.73
X-26.259 Y-10.796 F1200
X-26.488 Y-10.96 F80
G2 X-26.924 Y-10.863 I-0.175 J0.244
G1 X-27.237 Y-10.251
X-27.381 Y-9.945
X-27.387 Y-9.932
X-27.599 Y-9.213
G2 X-26.261 Y-6.592 I4.429 J-0.608
X-21.838 Y-3.91 I6.522 J-5.77
G1 X-21.085 Y-3.901
X-21.051 Y-3.913
X-20.848 Y-4.013
X-20.681 Y-4.165
X-20.56 Y-4.355
X-20.494 Y-4.572
X-20.355 Y-5.441
G2 X-20.486 Y-5.732 I-0.297 J-0.041
G1 X-20.86 Y-5.981
X-26.745 Y-9.902 F1200
X-26.952 Y-10.04 F80
G2 X-27.398 Y-9.9 I-0.166 J0.25
X-27.768 Y-8.414 I8.4 J2.882
G1 X-27.887 Y-7.674
G2 X-25.035 Y-4.316 I6.062 J-2.258
G1 X-24.407 Y-3.903
X-23.738 Y-3.563
X-23.042 Y-3.285
X-22.319 Y-3.084
X-21.576 Y-2.986
X-21.323 Y-3.026
X-21.122 Y-3.084
X-20.942 Y-3.191
X-20.794 Y-3.339
X-20.688 Y-3.518
X-20.629 Y-3.719
X-20.494 Y-4.572
G2 X-20.646 Y-4.87 I-0.298 J-0.037
G1 X-21.021 Y-5.08
X-27.13 Y-8.492 F1200
X-27.334 Y-8.605 F80
G2 X-27.771 Y-8.415 I-0.146 J0.262
G1 X-28.026 Y-7.191
X-28.084 Y-6.82
X-27.966 Y-6.08
G2 X-21.516 Y-2.095 I6.869 J-3.905
G1 X-21.299 Y-2.185
X-21.105 Y-2.289
X-20.944 Y-2.44
X-20.829 Y-2.628
X-20.767 Y-2.84
X-20.629 Y-3.719
G2 X-20.794 Y-4.025 I-0.298 J-0.037
G1 X-21.166 Y-4.209
X-27.379 Y-7.278 F1200
X-27.602 Y-7.389 F80
G2 X-28.026 Y-7.191 I-0.133 J0.269
G1 X-28.252 Y-6.105
X-28.31 Y-5.734
X-28.198 Y-4.993
G2 X-24.23 Y-1.732 I6.373 J-3.711
G1 X-23.531 Y-1.458
X-22.803 Y-1.278
X-22.057 Y-1.201
X-21.615 Y-1.25
X-21.398 Y-1.305
X-21.205 Y-1.416
X-21.048 Y-1.576
X-20.941 Y-1.771
X-20.89 Y-1.989
X-20.85 Y-2.295
X-20.767 Y-2.84
G2 X-20.94 Y-3.148 I-0.298 J-0.035
G1 X-21.311 Y-3.318
X-27.602 Y-6.199 F1200
X-27.836 Y-6.306 F80
G2 X-28.252 Y-6.105 I-0.125 J0.273
G1 X-28.472 Y-5.049
X-28.53 Y-4.678
X-28.429 Y-3.935
G2 X-24.388 Y-0.773 I6.188 J-3.744
G1 X-23.683 Y-0.514
X-22.95 Y-0.357
X-22.202 Y-0.297
X-21.457 Y-0.38
X-21.436 Y-0.39
X-21.253 Y-0.509
X-21.107 Y-0.672
X-21.008 Y-0.866
X-20.964 Y-1.08
X-20.903 Y-1.851
X-20.89 Y-1.989
G2 X-21.072 Y-2.282 I-0.3 J-0.017
G1 X-21.457 Y-2.445
X-27.819 Y-5.15 F1200
X-28.063 Y-5.254 F80
G2 X-28.472 Y-5.049 I-0.117 J0.276
G1 X-28.698 Y-3.963
X-28.756 Y-3.592
X-28.632 Y-2.853
G2 X-24.506 Y0.197 I6.082 J-3.912
G1 X-23.794 Y0.435
X-23.056 Y0.572
X-22.307 Y0.616
X-21.56 Y0.552
X-21.515 Y0.531
X-21.328 Y0.413
X-21.179 Y0.25
X-21.078 Y0.053
X-21.032 Y-0.163
X-20.964 Y-1.08
G2 X-21.154 Y-1.371 I-0.3 J-0.012
G1 X-21.54 Y-1.522
X-28.042 Y-4.071 F1200
X-28.297 Y-4.171 F80
G2 X-28.698 Y-3.963 I-0.109 J0.279
G1 X-28.913 Y-2.907
X-28.966 Y-2.536
X-28.831 Y-1.798
G2 X-24.639 Y1.157 I5.97 J-4.018
X-21.576 Y1.456 I2.082 J-5.506
G1 X-21.371 Y1.314
X-21.209 Y1.131
X-21.107 Y0.91
X-21.074 Y0.668
X-21.076 Y0.459
X-21.032 Y-0.163
G2 X-21.229 Y-0.457 I-0.3 J-0.012
G1 X-21.612 Y-0.597
X-28.257 Y-3.025 F1200
X-28.518 Y-3.121 F80
G2 X-28.913 Y-2.907 I-0.103 J0.282
X-29.057 Y-1.515 I3.251 J1.038
G1 X-28.996 Y-0.767
G2 X-25.472 Y1.877 I5.39 J-3.513
X-21.499 Y2.335 I2.702 J-5.971
G1 X-21.309 Y2.193
X-21.15 Y2.035
X-21.038 Y1.84
X-20.982 Y1.622
X-20.987 Y1.397
X-21.038 Y1.071
X-21.073 Y0.765
X-21.074 Y0.668
G2 X-21.288 Y0.394 I-0.3 J0.013
G1 X-21.685 Y0.276
X-28.452 Y-1.736 F1200
X-28.671 Y-1.801 F80
G2 X-29.057 Y-1.515 I-0.085 J0.288
G1 X-29.041 Y-1.071
X-28.992 Y-0.291
X-28.982 Y-0.153
X-28.938 Y0.219
X-28.627 Y0.902
G2 X-21.818 Y3.335 I5.843 J-5.605
G1 X-21.39 Y3.175
X-21.187 Y3.068
X-21.021 Y2.91
X-20.905 Y2.712
X-20.846 Y2.49
X-20.851 Y2.261
X-20.987 Y1.397
G2 X-21.218 Y1.161 I-0.294 J0.057
G1 X-21.644 Y1.068
X-28.384 Y-0.405 F1200
X-28.619 Y-0.456 F80
G2 X-28.982 Y-0.153 I-0.064 J0.293
G1 X-28.907 Y0.954
X-28.818 Y1.699
G2 X-25.795 Y3.785 I4.405 J-3.15
X-21.379 Y4.154 I2.794 J-6.814
G1 X-21.141 Y4.004
X-20.973 Y3.886
X-20.839 Y3.73
X-20.748 Y3.546
X-20.705 Y3.345
X-20.711 Y3.139
X-20.851 Y2.261
G2 X-21.091 Y2.023 I-0.294 J0.057
G1 X-21.51 Y1.946
X-28.307 Y0.694 F1200
X-28.553 Y0.649 F80
G2 X-28.907 Y0.954 I-0.054 J0.295
G1 X-28.824 Y2.157
X-28.78 Y2.53
X-28.469 Y3.212
G2 X-22.994 Y5.26 I5.24 J-5.665
G1 X-22.244 Y5.251
X-21.505 Y5.122
X-21.063 Y4.936
X-20.871 Y4.822
X-20.715 Y4.661
X-20.608 Y4.464
X-20.557 Y4.246
X-20.567 Y4.022
X-20.655 Y3.497
X-20.711 Y3.139
G2 X-20.964 Y2.9 I-0.294 J0.057
G1 X-21.374 Y2.842
X-28.223 Y1.886 F1200
X-28.483 Y1.85 F80
G2 X-28.824 Y2.157 I-0.041 J0.297
G1 X-28.752 Y3.213
X-28.708 Y3.585
X-28.409 Y4.273
G2 X-23.649 Y6.183 I4.879 J-5.274
X-20.66 Y5.725 I0.762 J-5.004
G1 X-20.515 Y5.548
X-20.415 Y5.348
X-20.372 Y5.129
X-20.388 Y4.906
X-20.547 Y4.131
X-20.567 Y4.022
G2 X-20.825 Y3.787 I-0.293 J0.063
G1 X-21.235 Y3.739
X-28.15 Y2.936 F1200
X-28.418 Y2.905 F80
G2 X-28.752 Y3.213 I-0.035 J0.298
G1 X-28.678 Y4.299
X-28.634 Y4.672
X-28.321 Y5.353
G2 X-24.261 Y7.081 I4.489 J-4.915
X-20.477 Y6.633 I1.191 J-6.153
G1 X-20.325 Y6.446
X-20.218 Y6.239
X-20.173 Y6.01
X-20.193 Y5.778
X-20.388 Y4.906
G2 X-20.653 Y4.679 I-0.291 J0.072
G1 X-21.065 Y4.642
X-28.075 Y4.015 F1200
X-28.351 Y3.99 F80
G2 X-28.678 Y4.299 I-0.027 J0.299
G1 X-28.602 Y5.355
X-28.548 Y5.715
X-28.243 Y6.4
G2 X-24.155 Y8.054 I4.363 J-4.906
X-20.298 Y7.539 I1.086 J-6.573
G1 X-20.133 Y7.346
X-20.016 Y7.132
X-19.966 Y6.892
X-19.988 Y6.649
X-20.193 Y5.778
G2 X-20.463 Y5.556 I-0.29 J0.077
G1 X-20.874 Y5.529
X-28.003 Y5.06 F1200
X-28.283 Y5.042 F80
G2 X-28.602 Y5.355 I-0.02 J0.299
X-28.228 Y6.885 I4.498 J-0.291
G1 X-27.943 Y7.579
G2 X-23.782 Y9.04 I4.145 J-5.15
X-19.946 Y8.337 I0.833 J-6.274
G1 X-19.816 Y8.147
X-19.718 Y7.951
X-19.675 Y7.737
X-19.689 Y7.519
X-19.758 Y7.312
X-19.893 Y7.038
X-19.988 Y6.649
G2 X-20.28 Y6.429 I-0.289 J0.08
G1 X-20.673 Y6.433
X-27.718 Y6.493 F1200
X-27.944 Y6.495 F80
G2 X-28.228 Y6.885 I0.003 J0.3
G1 X-27.794 Y8.109
X-27.651 Y8.455
X-27.155 Y9.018
G2 X-19.932 Y9.379 I3.974 J-7.08
G1 X-19.607 Y9.114
X-19.449 Y8.951
X-19.341 Y8.751
X-19.292 Y8.529
X-19.303 Y8.303
X-19.376 Y8.087
X-19.758 Y7.312
G2 X-20.045 Y7.155 I-0.264 J0.142
G1 X-20.483 Y7.188
X-27.286 Y7.701 F1200
X-27.53 Y7.719 F80
G2 X-27.794 Y8.109 I0.023 J0.299
G1 X-27.387 Y9.254
G2 X-25.336 Y10.697 I2.292 J-1.079
X-19.486 Y10.176 I2.231 J-8.063
G1 X-19.179 Y9.876
X-19.032 Y9.711
X-18.933 Y9.513
X-18.89 Y9.295
X-18.906 Y9.075
X-18.98 Y8.866
X-19.376 Y8.087
G2 X-19.677 Y7.933 I-0.264 J0.143
G1 X-20.099 Y7.985
X-26.88 Y8.834 F1200
X-27.138 Y8.866 F80
G2 X-27.387 Y9.254 I0.037 J0.298
G1 X-27.032 Y10.251
X-26.889 Y10.597
X-26.382 Y11.15
G2 X-20.549 Y11.588 I3.459 J-7.008
G1 X-19.836 Y11.356
X-19.172 Y11.008
X-18.59 Y10.535
X-18.496 Y10.331
X-18.46 Y10.121
X-18.479 Y9.909
X-18.55 Y9.708
X-18.98 Y8.866
G2 X-19.287 Y8.715 I-0.262 J0.145
G1 X-19.703 Y8.778
X-26.527 Y9.823 F1200
X-26.792 Y9.864 F80
G2 X-27.032 Y10.251 I0.045 J0.297
G1 X-26.646 Y11.337
X-26.503 Y11.684
G2 X-23.819 Y12.83 I2.706 J-2.622
X-18.143 Y11.394 I1.061 J-7.745
G1 X-18.064 Y11.148
X-18.028 Y10.932
X-18.05 Y10.714
X-18.128 Y10.509
X-18.43 Y9.945
X-18.55 Y9.708
G2 X-18.867 Y9.559 I-0.262 J0.146
G1 X-19.272 Y9.634
X-26.142 Y10.901 F1200
X-26.415 Y10.952 F80
G2 X-26.646 Y11.337 I0.054 J0.295
G1 X-26.319 Y12.255
X-26.174 Y12.601
X-25.675 Y13.162
G2 X-20.559 Y13.547 I3.066 J-6.545
X-17.604 Y11.998 I-0.828 J-5.172
G1 X-17.589 Y11.726
X-17.61 Y11.483
X-17.699 Y11.256
X-18.128 Y10.509
G2 X-18.445 Y10.366 I-0.259 J0.152
G1 X-18.852 Y10.447
X-25.818 Y11.815 F1200
X-26.091 Y11.869 F80
G2 X-26.319 Y12.255 I0.058 J0.294
G1 X-25.971 Y13.173
X-25.917 Y13.311
X-25.857 Y13.444
X-25.758 Y13.617
G2 X-23.466 Y14.697 I2.24 J-1.781
X-17.37 Y13.085 I1.043 J-8.387
G1 X-17.257 Y12.879
X-17.17 Y12.676
X-17.139 Y12.458
X-17.166 Y12.238
X-17.25 Y12.034
X-17.699 Y11.256
G2 X-18.044 Y11.129 I-0.254 J0.159
G1 X-18.416 Y11.246
X-25.182 Y13.373 F1200
X-25.408 Y13.444 F80
G2 X-25.571 Y13.891 I0.09 J0.286
G1 X-25.02 Y14.676
G2 X-22.695 Y15.656 I2.091 J-1.714
X-17.045 Y14.008 I0.506 J-8.775
G1 X-16.859 Y13.751
X-16.738 Y13.554
X-16.676 Y13.331
X-16.677 Y13.099
X-16.742 Y12.877
X-16.866 Y12.681
X-17.042 Y12.393
X-17.25 Y12.034
G2 X-17.596 Y11.907 I-0.254 J0.159
G1 X-17.966 Y12.025
X-24.639 Y14.155 F1200
X-24.861 Y14.226 F80
G2 X-25.02 Y14.676 I0.091 J0.286
G1 X-24.392 Y15.566
X-23.93 Y16.157
G2 X-20.265 Y16.397 I2.164 J-4.925
X-16.271 Y14.48 I-1.046 J-7.3
G1 X-16.176 Y14.25
X-16.1 Y14.052
X-16.077 Y13.842
X-16.108 Y13.633
X-16.19 Y13.439
X-16.318 Y13.271
X-16.577 Y13.005
X-16.866 Y12.681
G2 X-17.189 Y12.601 I-0.222 J0.202
G1 X-17.597 Y12.746
X-24.013 Y15.038 F1200
X-24.242 Y15.119 F80
G2 X-24.392 Y15.566 I0.101 J0.283
G1 X-23.715 Y16.526
X-23.483 Y16.821
X-22.88 Y17.267
G2 X-17.787 Y16.601 I1.647 J-7.21
G1 X-17.106 Y16.285
X-16.476 Y15.878
X-15.905 Y15.392
X-15.47 Y14.781
X-15.458 Y14.736
X-15.426 Y14.518
X-15.453 Y14.299
X-15.536 Y14.094
X-15.67 Y13.919
X-16.318 Y13.271
G2 X-16.638 Y13.212 I-0.206 J0.218
G1 X-17.046 Y13.38
X-23.34 Y15.986 F1200
X-23.578 Y16.085 F80
G2 X-23.715 Y16.526 I0.115 J0.277
G1 X-22.96 Y17.595
X-22.729 Y17.89
G2 X-19.825 Y18.236 I1.887 J-3.471
X-14.918 Y15.622 I-0.994 J-7.779
G1 X-14.854 Y15.384
X-14.812 Y15.158
X-14.834 Y14.93
X-14.917 Y14.716
X-15.056 Y14.533
X-15.67 Y13.919
G2 X-16.005 Y13.868 I-0.205 J0.219
G1 X-16.388 Y14.053
X-22.592 Y17.041 F1200
X-22.84 Y17.16 F80
G2 X-22.96 Y17.595 I0.13 J0.27
G1 X-22.393 Y18.399
X-22.161 Y18.694
X-21.514 Y19.074
G2 X-14.164 Y16.054 I1.156 J-7.641
G1 X-14.162 Y15.799
X-14.186 Y15.569
X-14.272 Y15.355
X-14.414 Y15.173
X-15.056 Y14.533
G2 X-15.396 Y14.485 I-0.205 J0.219
G1 X-15.77 Y14.675
X-22.027 Y17.84 F1200
X-22.277 Y17.967 F80
G2 X-22.393 Y18.399 I0.135 J0.268
G1 X-21.759 Y19.293
X-21.528 Y19.587
X-20.867 Y19.94
G2 X-15.851 Y18.822 I0.979 J-7.413
G1 X-15.205 Y18.44
X-14.615 Y17.978
X-14.082 Y17.45
X-13.624 Y16.856
X-13.56 Y16.681
X-13.51 Y16.442
X-13.531 Y16.198
X-13.622 Y15.972
X-13.775 Y15.781
X-14.33 Y15.254
X-14.414 Y15.173
G2 X-14.758 Y15.131 I-0.202 J0.222
G1 X-15.123 Y15.329
X-21.398 Y18.727 F1200
X-21.652 Y18.864 F80
G2 X-21.759 Y19.293 I0.143 J0.264
X-20.786 Y20.348 I3.699 J-2.434
X-18.289 Y20.749 I1.64 J-2.238
X-12.912 Y17.438 I-1.38 J-8.264
G1 X-12.869 Y17.205
X-12.845 Y16.985
X-12.88 Y16.768
X-12.971 Y16.567
X-13.112 Y16.396
X-13.775 Y15.781
G2 X-14.129 Y15.753 I-0.196 J0.227
G1 X-14.473 Y15.967
X-20.552 Y19.749 F1200
X-20.746 Y19.87 F80
G2 X-20.787 Y20.349 I0.158 J0.255
G1 X-19.872 Y21.095
X-19.267 Y21.539
G2 X-15.649 Y20.865 I0.831 J-5.588
X-12.196 Y17.883 I-2.408 J-6.28
G1 X-12.168 Y17.645
X-12.198 Y17.411
X-12.292 Y17.195
X-12.444 Y17.013
X-13.112 Y16.396
G2 X-13.474 Y16.374 I-0.196 J0.227
G1 X-13.803 Y16.593
X-19.645 Y20.489 F1200
X-19.841 Y20.619 F80
G2 X-19.872 Y21.095 I0.166 J0.25
G1 X-18.908 Y21.879
X-18.606 Y22.1
X-17.896 Y22.342
G2 X-11.462 Y18.442 I-0.38 J-7.884
G1 X-11.45 Y18.187
X-11.47 Y17.95
X-11.556 Y17.728
X-11.701 Y17.54
X-11.893 Y17.4
X-12.099 Y17.289
X-12.393 Y17.059
X-12.444 Y17.013
G2 X-12.813 Y17 I-0.193 J0.23
G1 X-13.126 Y17.228
X-18.688 Y21.265 F1200
X-18.887 Y21.41 F80
G2 X-18.908 Y21.879 I0.176 J0.243
G1 X-18.016 Y22.605
X-17.713 Y22.827
X-16.995 Y23.044
G2 X-12.304 Y20.948 I-0.508 J-7.433
G1 X-11.745 Y20.447
X-11.258 Y19.876
X-10.864 Y19.238
X-10.636 Y18.519
X-10.674 Y18.304
X-10.767 Y18.106
X-10.909 Y17.939
X-11.089 Y17.814
X-11.893 Y17.4
G2 X-12.213 Y17.437 I-0.131 J0.27
G1 X-12.559 Y17.718
X-17.803 Y21.98 F1200
X-18.007 Y22.146 F80
G2 X-18.016 Y22.605 I0.189 J0.233
G1 X-17.145 Y23.313
X-16.843 Y23.535
X-16.119 Y23.731
G2 X-9.805 Y19.056 I-0.81 J-7.694
G1 X-9.842 Y18.966
X-9.872 Y18.738
X-9.963 Y18.528
X-10.108 Y18.35
X-10.297 Y18.218
X-11.089 Y17.814
G2 X-11.414 Y17.86 I-0.127 J0.272
G1 X-11.744 Y18.149
X-16.939 Y22.681 F1200
X-17.145 Y22.861 F80
G2 X-17.145 Y23.313 I0.197 J0.226
G1 X-16.371 Y23.943
X-16.068 Y24.165
X-15.357 Y24.403
G2 X-11.321 Y22.618 I-0.551 J-6.699
X-9.038 Y19.46 I-3.684 J-5.068
G1 X-9.071 Y19.202
X-9.156 Y18.965
X-9.307 Y18.765
X-9.511 Y18.619
X-10.297 Y18.218
G2 X-10.625 Y18.268 I-0.127 J0.272
G1 X-10.946 Y18.56
X-16.168 Y23.307 F1200
X-16.375 Y23.495 F80
G2 X-16.371 Y23.943 I0.202 J0.222
G1 X-15.523 Y24.633
X-15.453 Y24.685
X-15.128 Y24.873
X-14.399 Y25.049
G2 X-9.891 Y22.592 I-1.035 J-7.264
G1 X-9.376 Y22.046
X-8.937 Y21.437
X-8.562 Y20.788
X-8.285 Y20.091
X-8.26 Y19.845
X-8.264 Y19.643
X-8.317 Y19.448
X-8.415 Y19.272
X-8.553 Y19.124
X-8.722 Y19.014
X-9.333 Y18.709
X-9.511 Y18.619
G2 X-9.854 Y18.682 I-0.127 J0.272
G1 X-10.141 Y18.98
X-15.136 Y24.153 F1200
X-15.321 Y24.345 F80
G2 X-15.277 Y24.799 I0.216 J0.208
G1 X-15.147 Y24.883
X-14.841 Y25.062
X-14.06 Y25.405
G2 X-11.56 Y25.046 I0.902 J-2.605
X-7.41 Y20.334 I-3.659 J-7.406
G1 X-7.439 Y20.1
X-7.483 Y19.886
X-7.581 Y19.69
X-7.726 Y19.527
X-7.909 Y19.407
X-8.722 Y19.014
G2 X-9.071 Y19.091 I-0.123 J0.274
G1 X-9.336 Y19.395
X-14.005 Y24.762 F1200
X-14.158 Y24.937 F80
G2 X-14.06 Y25.405 I0.226 J0.197
G1 X-13.021 Y25.857
X-12.67 Y25.989
X-11.922 Y26.041
G2 X-6.593 Y20.684 I-2.27 J-7.587
G1 X-6.625 Y20.461
X-6.675 Y20.254
X-6.775 Y20.067
X-6.919 Y19.911
X-7.097 Y19.797
X-7.909 Y19.407
G2 X-8.262 Y19.491 I-0.121 J0.275
G1 X-8.514 Y19.797
X-12.97 Y25.209 F1200
X-13.123 Y25.395 F80
G2 X-13.021 Y25.857 I0.232 J0.191
G1 X-11.919 Y26.335
X-11.567 Y26.467
X-10.818 Y26.488
G2 X-5.747 Y20.967 I-2.553 J-7.435
G1 X-5.806 Y20.727
X-5.886 Y20.512
X-6.023 Y20.327
X-6.207 Y20.189
X-6.421 Y20.107
X-6.885 Y19.897
X-7.097 Y19.797
G2 X-7.455 Y19.89 I-0.119 J0.276
G1 X-7.69 Y20.199
X-11.875 Y25.682 F1200
X-12.028 Y25.882 F80
G2 X-11.919 Y26.335 I0.238 J0.182
G1 X-10.906 Y26.775
X-10.555 Y26.907
X-9.806 Y26.93
G2 X-5.868 Y23.63 I-2.519 J-7.005
G1 X-5.466 Y22.996
X-5.162 Y22.311
X-4.957 Y21.589
X-4.928 Y20.84
X-5.032 Y20.623
X-5.184 Y20.453
X-5.376 Y20.331
X-5.594 Y20.264
X-5.967 Y20.204
X-6.421 Y20.107
G2 X-6.722 Y20.229 I-0.056 J0.295
G1 X-6.977 Y20.591
X-10.871 Y26.116 F1200
X-11.023 Y26.331 F80
G2 X-10.906 Y26.775 I0.245 J0.173
G1 X-9.945 Y27.192
X-9.594 Y27.324
X-8.845 Y27.368
G2 X-5.39 Y24.621 I-2.261 J-6.39
G1 X-4.951 Y24.011
X-4.59 Y23.354
X-4.301 Y22.662
X-4.105 Y21.938
X-4.021 Y21.193
X-4.056 Y21.038
X-4.146 Y20.808
X-4.3 Y20.614
X-4.503 Y20.474
X-4.738 Y20.4
X-5.594 Y20.264
G2 X-5.881 Y20.397 I-0.037 J0.298
G1 X-6.129 Y20.775
X-9.916 Y26.528 F1200
X-10.066 Y26.756 F80
G2 X-9.945 Y27.192 I0.251 J0.165
G1 X-8.898 Y27.647
X-8.547 Y27.779
X-7.797 Y27.77
G2 X-4.033 Y24.278 I-2.808 J-6.801
G1 X-3.67 Y23.62
X-3.402 Y22.92
X-3.215 Y22.194
X-3.133 Y21.448
X-3.179 Y21.206
X-3.241 Y21.011
X-3.348 Y20.838
X-3.495 Y20.696
X-3.671 Y20.594
X-3.867 Y20.538
X-4.738 Y20.4
G2 X-5.032 Y20.544 I-0.037 J0.298
G1 X-5.258 Y20.921
X-8.879 Y26.977 F1200
X-9.026 Y27.222 F80
G2 X-8.898 Y27.647 I0.257 J0.154
G1 X-8.415 Y27.856
X-8.062 Y27.999
X-7.803 Y28.073
X-7.062 Y28.19
G2 X-4.564 Y26.626 I-1.102 J-4.535
X-2.228 Y21.259 I-5.535 J-5.6
G1 X-2.294 Y21.213
X-2.398 Y21.019
X-2.548 Y20.86
X-2.735 Y20.745
X-2.946 Y20.683
X-3.867 Y20.538
G2 X-4.167 Y20.692 I-0.037 J0.298
G1 X-4.372 Y21.067
X-7.85 Y27.417 F1200
X-7.974 Y27.643 F80
G2 X-7.803 Y28.073 I0.263 J0.144
G1 X-7.497 Y28.137
X-7.191 Y28.186
X-6.338 Y28.305
X-5.591 Y28.369
G2 X-2.433 Y25.302 I-2.562 J-5.797
X-1.394 Y21.289 I-5.134 J-3.47
G1 X-1.547 Y21.118
X-1.695 Y20.975
X-1.873 Y20.873
X-2.071 Y20.817
X-2.946 Y20.683
G2 X-3.253 Y20.853 I-0.036 J0.298
G1 X-3.428 Y21.225
X-6.459 Y27.67 F1200
X-6.558 Y27.881 F80
G2 X-6.338 Y28.305 I0.271 J0.128
G1 X-5.049 Y28.482
G2 X-2.79 Y27.389 I0.17 J-2.532
X-0.431 Y21.647 I-5.916 J-5.786
G1 X-0.536 Y21.445
X-0.643 Y21.263
X-0.792 Y21.115
X-0.974 Y21.009
X-1.177 Y20.952
X-2.071 Y20.817
G2 X-2.384 Y21.001 I-0.035 J0.298
G1 X-2.534 Y21.368
X-5.181 Y27.842 F1200
X-5.275 Y28.073 F80
G2 X-5.049 Y28.482 I0.278 J0.114
G1 X-3.955 Y28.632
X-3.581 Y28.665
X-2.853 Y28.483
G2 X0.307 Y23.561 I-4.528 J-6.383
G1 X0.46 Y22.827
X0.485 Y22.077
X0.419 Y21.742
X0.354 Y21.545
X0.242 Y21.37
X0.091 Y21.228
X-0.091 Y21.128
X-0.293 Y21.076
X-1.177 Y20.952
G2 X-1.491 Y21.143 I-0.034 J0.298
G1 X-1.63 Y21.507
X-4.093 Y27.99 F1200
X-4.184 Y28.23 F80
G2 X-3.955 Y28.632 I0.28 J0.107
G1 X-2.907 Y28.776
X-2.533 Y28.809
X-1.801 Y28.649
G2 X1.069 Y24.393 I-4.232 J-5.949
X1.106 Y21.272 I-3.561 J-1.603
G1 X0.858 Y21.148
X0.624 Y21.071
X0.377 Y21.066
X0 Y21.111
X-0.293 Y21.076
G2 X-0.603 Y21.274 I-0.028 J0.299
G1 X-0.734 Y21.641
X-3.05 Y28.132 F1200
X-3.138 Y28.38 F80
G2 X-2.907 Y28.776 I0.283 J0.101
G1 X-1.683 Y28.945
X-1.309 Y28.977
G2 X0.912 Y27.081 I-1.18 J-3.631
X2.32 Y22.107 I-7.177 J-4.719
G1 X2.111 Y21.381
X2.056 Y21.299
X1.899 Y21.126
X1.7 Y21.003
X1.476 Y20.94
X1.242 Y20.942
X0.377 Y21.066
G2 X0.136 Y21.28 I0.048 J0.296
G1 X0.015 Y21.709
X-1.844 Y28.295 F1200
X-1.92 Y28.568 F80
G2 X-1.683 Y28.945 I0.289 J0.081
G1 X-1.071 Y29.027
X-0.765 Y29.064
X-0.391 Y29.087
X0.34 Y28.919
G2 X2.798 Y25.255 I-4.006 J-5.344
X3.014 Y21.273 I-5.599 J-2.299
G1 X2.869 Y21.101
X2.713 Y20.957
X2.525 Y20.856
X2.317 Y20.807
X2.104 Y20.812
X1.242 Y20.942
G2 X1.007 Y21.159 I0.055 J0.295
G1 X0.891 Y21.592
X-0.936 Y28.417 F1200
X-1.009 Y28.69 F80
G2 X-0.765 Y29.064 I0.29 J0.078
G1 X0 Y29.146
X0.765 Y29.064
X1.504 Y28.938
G2 X3.997 Y24.451 I-4.714 J-5.555
X3.778 Y20.955 I-4.762 J-1.456
G1 X3.593 Y20.822
X3.404 Y20.721
X3.195 Y20.672
X2.981 Y20.678
X2.104 Y20.812
G2 X1.865 Y21.052 I0.056 J0.295
G1 X1.787 Y21.47
X0.49 Y28.478 F1200
X0.447 Y28.71 F80
G2 X0.765 Y29.064 I0.295 J0.055
G1 X1.377 Y28.987
X1.989 Y28.903
X2.726 Y28.763
G2 X4.673 Y25.636 I-3.71 J-4.48
X4.89 Y21.211 I-6.854 J-2.555
G1 X4.731 Y20.957
X4.612 Y20.792
X4.456 Y20.661
X4.274 Y20.572
X4.075 Y20.53
X3.872 Y20.537
X2.981 Y20.678
G2 X2.74 Y20.93 I0.056 J0.295
G1 X2.683 Y21.339
X1.695 Y28.323 F1200
X1.661 Y28.562 F80
G2 X1.989 Y28.903 I0.297 J0.042
G1 X3.213 Y28.734
X3.581 Y28.665
X4.236 Y28.298
G2 X5.703 Y20.852 I-6.022 J-5.054
G1 X5.549 Y20.683
X5.392 Y20.537
X5.202 Y20.437
X4.993 Y20.388
X4.778 Y20.394
X3.872 Y20.537
G2 X3.63 Y20.802 I0.057 J0.294
G1 X3.591 Y21.202
X2.909 Y28.154 F1200
X2.884 Y28.407 F80
G2 X3.213 Y28.734 I0.299 J0.029
G1 X4.299 Y28.585
X4.668 Y28.515
X5.324 Y28.152
G2 X7.005 Y23.299 I-5.702 J-4.693
X6.322 Y20.365 I-4.147 J-0.58
G1 X6.098 Y20.291
X5.891 Y20.244
X5.678 Y20.251
X4.778 Y20.394
G2 X4.537 Y20.666 I0.057 J0.294
G1 X4.507 Y21.059
X3.989 Y28.004 F1200
X3.97 Y28.264 F80
G2 X4.299 Y28.585 I0.299 J0.022
G1 X5.355 Y28.44
X5.723 Y28.37
X6.385 Y28.018
G2 X7.958 Y23.134 I-5.632 J-4.508
X7.142 Y20.109 I-4.158 J-0.501
G1 X6.883 Y20.058
X6.648 Y20.047
X6.421 Y20.107
X5.967 Y20.204
X5.678 Y20.251
G2 X5.437 Y20.529 I0.059 J0.294
G1 X5.416 Y20.918
X5.039 Y27.858 F1200
X5.025 Y28.125 F80
G2 X5.355 Y28.44 I0.3 J0.016
G1 X6.579 Y28.271
X6.947 Y28.202
G2 X8.558 Y25.765 I-2.134 J-3.161
X8.521 Y20.594 I-8.266 J-2.527
G1 X8.135 Y19.947
X8.064 Y19.887
X7.863 Y19.758
X7.633 Y19.692
X7.393 Y19.695
X7.165 Y19.765
X6.57 Y20.043
X6.421 Y20.107
G2 X6.25 Y20.378 I0.129 J0.271
G1 Y20.826
X6.248 Y27.689 F1200
Y27.973 F80
G2 X6.579 Y28.271 I0.3 J0
G1 X7.191 Y28.186
X7.497 Y28.137
X7.665 Y28.102
X7.803 Y28.073
X8.306 Y27.9
G2 X8.214 Y27.328 I-0.122 J-0.274
G1 X8.148 F1200
X8.084 Y27.343
X7.652 Y27.494
X7.603 Y27.516
X7.559 Y27.547
G2 X7.803 Y28.073 I0.192 J0.23 F80
G1 X8.062 Y27.999
X8.415 Y27.856
X8.583 Y27.773
G2 X9.188 Y19.88 I-7.051 J-4.51
G1 X8.94 Y19.61
X8.778 Y19.461
X8.582 Y19.36
X8.367 Y19.313
X8.147 Y19.324
X7.938 Y19.393
X7.165 Y19.765
G2 X7.005 Y20.071 I0.138 J0.267
G1 X7.06 Y20.485
X7.981 Y27.367 F1200
X8.014 Y27.614 F80
G2 X8.415 Y27.856 I0.297 J-0.04
G1 X9.027 Y27.591
X9.699 Y27.258
G2 X10.81 Y22.991 I-5.453 J-3.697
X9.573 Y19.016 I-5.623 J-0.43
G1 X9.345 Y18.961
X9.139 Y18.925
X8.931 Y18.941
X8.733 Y19.009
X7.938 Y19.393
G2 X7.78 Y19.691 I0.14 J0.266
G1 X7.826 Y20.115
X8.593 Y27.111 F1200
X8.619 Y27.344 F80
G2 X9.027 Y27.591 I0.298 J-0.033
G1 X10.202 Y27.081
X10.538 Y26.914
X11.061 Y26.377
G2 X10.84 Y19.149 I-7.366 J-3.393
G1 X10.541 Y18.811
X10.375 Y18.663
X10.177 Y18.564
X9.959 Y18.521
X9.738 Y18.536
X9.528 Y18.61
X8.865 Y18.944
X8.733 Y19.009
G2 X8.578 Y19.321 I0.141 J0.265
G1 X8.644 Y19.729
X9.756 Y26.603 F1200
X9.796 Y26.849 F80
G2 X10.202 Y27.081 I0.296 J-0.048
G1 X11.169 Y26.661
X11.505 Y26.494
X12.056 Y25.986
G2 X11.223 Y18.18 I-6.982 J-3.202
G1 X10.995 Y18.121
X10.787 Y18.087
X10.577 Y18.106
X10.378 Y18.177
X9.528 Y18.61
G2 X9.379 Y18.927 I0.145 J0.262
G1 X9.453 Y19.331
X10.717 Y26.184 F1200
X10.764 Y26.436 F80
G2 X11.169 Y26.661 I0.295 J-0.054
G1 X12.316 Y26.163
X12.652 Y25.996
G2 X13.654 Y23.252 I-2.841 J-2.592
X12.19 Y17.944 I-8.016 J-0.645
G1 X11.994 Y17.824
X11.797 Y17.729
X11.582 Y17.689
X11.365 Y17.706
X11.159 Y17.779
X10.378 Y18.177
G2 X10.231 Y18.505 I0.145 J0.262
G1 X10.319 Y18.895
X11.854 Y25.688 F1200
X11.914 Y25.95 F80
G2 X12.316 Y26.163 I0.293 J-0.066
G1 X13.18 Y25.787
X13.516 Y25.621
X14.065 Y25.11
G2 X14.214 Y19.984 I-6.602 J-2.757
G1 X14 Y19.264
X13.693 Y18.58
X13.312 Y17.934
X12.816 Y17.363
X12.621 Y17.279
X12.412 Y17.247
X12.2 Y17.268
X12.002 Y17.343
X11.159 Y17.779
G2 X11.013 Y18.11 I0.146 J0.262
G1 X11.104 Y18.496
X12.716 Y25.313 F1200
X12.779 Y25.577 F80
G2 X13.18 Y25.787 I0.292 J-0.069
G1 X14.229 Y25.332
X14.564 Y25.165
X15.072 Y24.613
G2 X15.057 Y19.482 I-6.778 J-2.546
G1 X14.824 Y18.768
X14.5 Y18.091
X14.099 Y17.458
X13.611 Y16.889
X13.497 Y16.825
X13.304 Y16.747
X13.097 Y16.719
X12.89 Y16.743
X12.696 Y16.818
X12.526 Y16.938
X12.393 Y17.059
X12.087 Y17.298
X12.002 Y17.343
G2 X11.861 Y17.68 I0.149 J0.26
G1 X11.961 Y18.059
X13.758 Y24.86 F1200
X13.829 Y25.13 F80
G2 X14.229 Y25.332 I0.29 J-0.077
G1 X14.841 Y25.062
X15.147 Y24.883
X15.315 Y24.774
X15.453 Y24.685
X16.028 Y24.204
G2 X15.927 Y19.075 I-6.773 J-2.432
X14.19 Y16.269 I-5.036 J1.176
G1 X13.984 Y16.179
X13.765 Y16.137
X13.543 Y16.155
X13.334 Y16.23
X13.152 Y16.359
X12.526 Y16.938
G2 X12.456 Y17.258 I0.211 J0.214
G1 X12.611 Y17.669
X15.084 Y24.201 F1200
X15.165 Y24.415 F80
G2 X15.626 Y24.548 I0.281 J-0.106
G1 X16.525 Y23.817
G2 X17.323 Y21.427 I-1.823 J-1.936
X15.23 Y15.934 I-8.511 J0.096
G1 X14.847 Y15.688
X14.646 Y15.584
X14.424 Y15.538
X14.198 Y15.553
X13.984 Y15.629
X13.799 Y15.759
X13.152 Y16.359
G2 X13.088 Y16.689 I0.212 J0.213
G1 X13.256 Y17.083
X15.974 Y23.475 F1200
X16.068 Y23.696 F80
G2 X16.525 Y23.817 I0.276 J-0.117
G1 X17.404 Y23.103
X17.683 Y22.852
X18.058 Y22.202
G2 X15.51 Y15.024 I-7.666 J-1.32
G1 X15.274 Y14.962
X15.051 Y14.921
X14.825 Y14.941
X14.613 Y15.021
X14.431 Y15.156
X13.923 Y15.643
X13.799 Y15.759
G2 X13.739 Y16.097 I0.212 J0.212
G1 X13.916 Y16.477
X16.845 Y22.763 F1200
X16.951 Y22.99 F80
G2 X17.404 Y23.103 I0.272 J-0.127
G1 X18.375 Y22.313
G2 X19.006 Y19.89 I-1.781 J-1.757
X16.454 Y14.599 I-8.338 J0.76
G1 X16.067 Y14.402
X15.866 Y14.317
X15.649 Y14.288
X15.432 Y14.316
X15.23 Y14.399
X15.057 Y14.532
X14.431 Y15.156
G2 X14.382 Y15.504 I0.217 J0.207
G1 X14.574 Y15.866
X17.805 Y21.979 F1200
X17.929 Y22.214 F80
G2 X18.375 Y22.313 I0.265 J-0.14
G1 X19.125 Y21.703
X19.403 Y21.452
X19.783 Y20.805
G2 X18.616 Y15.806 I-7.246 J-0.943
G1 X18.224 Y15.166
X17.748 Y14.586
X17.204 Y14.069
X16.576 Y13.66
X16.527 Y13.647
X16.312 Y13.62
X16.097 Y13.649
X15.897 Y13.732
X15.725 Y13.864
X15.057 Y14.532
G2 X15.013 Y14.88 I0.219 J0.205
G1 X15.21 Y15.241
X18.551 Y21.37 F1200
X18.68 Y21.607 F80
G2 X19.125 Y21.703 I0.263 J-0.144
G1 X20.037 Y20.961
X20.315 Y20.71
X20.636 Y20.032
G2 X18.851 Y14.465 I-7.719 J-0.595
G1 X18.375 Y13.884
X17.815 Y13.386
X17.187 Y12.977
X16.964 Y12.951
X16.751 Y12.984
X16.553 Y13.07
X16.384 Y13.203
X15.725 Y13.864
G2 X15.686 Y14.221 I0.219 J0.205
G1 X15.889 Y14.566
X19.455 Y20.633 F1200
X19.597 Y20.874 F80
G2 X20.037 Y20.961 I0.259 J-0.152
G1 X20.787 Y20.349
X21.042 Y20.114
X21.43 Y19.473
G2 X20.449 Y15.173 I-6.531 J-0.77
G1 X20.082 Y14.518
X19.644 Y13.909
X19.152 Y13.344
X18.603 Y12.833
X17.999 Y12.388
X17.826 Y12.329
X17.612 Y12.287
X17.395 Y12.303
X17.189 Y12.378
X17.011 Y12.504
X16.873 Y12.673
X16.577 Y13.005
X16.384 Y13.203
G2 X16.349 Y13.558 I0.222 J0.202
G1 X16.555 Y13.905
X20.203 Y20.025 F1200
X20.346 Y20.264 F80
G2 X20.787 Y20.349 I0.258 J-0.154
X21.78 Y19.262 I-2.74 J-3.502
G1 X22.184 Y18.63
G2 X21.443 Y15.027 I-5.54 J-0.739
X18.548 Y11.662 I-7.06 J3.147
G1 X18.236 Y11.587
X18.019 Y11.555
X17.8 Y11.581
X17.596 Y11.664
X17.421 Y11.797
X17.286 Y11.971
X16.92 Y12.595
X16.873 Y12.673
G2 X16.889 Y12.993 I0.261 J0.148
G1 X17.147 Y13.359
X21.169 Y19.071 F1200
X21.297 Y19.253 F80
G2 X21.781 Y19.263 I0.245 J-0.173
G1 X22.528 Y18.207
X22.93 Y17.573
G2 X21.978 Y14.019 I-5.64 J-0.394
X18.891 Y10.84 I-6.577 J3.3
G1 X18.61 Y10.808
X18.404 Y10.793
X18.201 Y10.829
X18.013 Y10.915
X17.851 Y11.044
X17.727 Y11.208
X17.286 Y11.971
G2 X17.317 Y12.3 I0.265 J0.141
G1 X17.59 Y12.64
X21.905 Y18.025 F1200
X22.055 Y18.213 F80
G2 X22.528 Y18.207 I0.234 J-0.188
G1 X23.295 Y17.12
G2 X23.288 Y14.614 I-2.198 J-1.247
X19.502 Y10.121 I-7.909 J2.823
G1 X19.103 Y10.041
X18.884 Y10.014
X18.665 Y10.046
X18.462 Y10.134
X18.29 Y10.272
X18.159 Y10.451
X17.901 Y10.907
X17.727 Y11.208
G2 X17.769 Y11.551 I0.265 J0.141
G1 X18.05 Y11.86
X22.66 Y16.949 F1200
X22.834 Y17.14 F80
G2 X23.295 Y17.12 I0.222 J-0.201
G1 X23.932 Y16.218
X24.133 Y15.901
G2 X23.591 Y13.031 I-3.759 J-0.777
G1 X23.215 Y12.382
X22.833 Y11.827
G2 X22.294 Y12.04 I-0.241 J0.179
G1 X22.303 Y12.084 F1200
X23.373 Y16.002
X23.404 Y16.115 F80
G2 X23.932 Y16.218 I0.289 J-0.079
G1 X24.472 Y15.453
X24.673 Y15.136
G2 X24.626 Y13.039 I-2.534 J-0.992
X24.324 Y12.521 I-2.486 J1.105 F72
G1 X24.294 Y12.347
X24.281 Y12.18
X24.301 Y12.012
X24.355 Y11.853
G3 X26.947 Y9.963 I4.312 J3.19 F80
G1 X27.092 Y9.828
X27.212 Y9.681
X27.296 Y9.51
G2 X27.01 Y9.12 I-0.286 J-0.091
G1 X26.787 Y9.122
X24.939 Y9.141 F1200
X24.253 Y9.415
X23.409 Y10.11
X23.076 Y10.557
X21.878 Y13.923
G2 X21.877 Y15.147 I1.387 J0.613
G1 X21.879 Y15.149
G2 X23.86 Y15.93 I1.386 J-0.614
X24.327 Y15.618 I-0.595 J-1.395 F80
G1 X24.472 Y15.453
X25.12 Y14.535
X25.32 Y14.218
X25.499 Y13.489
G3 X26.595 Y11.448 I3.072 J0.335
G1 X26.65 Y11.326
G2 X26.162 Y11.014 I-0.286 J-0.091
G1 X26.123 Y11.057 F1200
X26.093 Y11.106
X24.61 Y14.225
X24.598 Y14.254
X24.589 Y14.284
X24.584 Y14.316
G2 X25.12 Y14.535 I0.298 J0.038 F80
X26.271 Y12.394 I-4.6 J-3.853
G1 X27.836 Y7.991
G2 X27.662 Y7.622 I-0.286 J-0.091
G1 X27.349 Y7.496
X21.014 Y4.946 F1200
X20.761 Y4.844 F80
G2 X20.358 Y5.049 I-0.112 J0.278
G1 X20.043 Y6.422
X20.005 Y6.579
G3 X19.182 Y8.431 I-2.727 J-0.103
G1 X19.16 Y8.496
X19.153 Y8.565
X19.16 Y8.633
X19.183 Y8.698
X19.219 Y8.756
X19.266 Y8.805
X19.323 Y8.842
X19.386 Y8.865
X19.452 Y8.874
X19.518 Y8.869
X19.582 Y8.849
X19.639 Y8.816
X19.681 Y8.781 F1200
X19.716 Y8.738
X19.742 Y8.69
X20.569 Y6.779
X20.589 Y6.716
X20.594 Y6.65
X20.584 Y6.585
G2 X20.005 Y6.579 I-0.291 J0.075 F80
G1 X19.893 Y7.038
X19.365 Y8.109
X18.43 Y9.945
X18.159 Y10.451
G2 X18.307 Y10.859 I0.269 J0.134
G1 X18.369 Y10.872 Z-9.983
X18.428 Y10.884 Z-9.963
X18.475 Y10.872 Z-9.935
X18.516 Y10.861 Z-9.898
X18.55 Y10.853 Z-9.853
X18.575 Y10.846 Z-9.803
X18.589 Y10.837 Z-9.748
X18.594 Y10.834 Z-9.69
G0 Z2
X0.606 Y-0.423
Z0.2
G2 X-0.605 Y0.423 Z0.119 I-0.605 J0.423 F333.3
X0.606 Y-0.423 Z0.038 I0.605 J-0.423
X-0.605 Y0.423 Z-0.043 I-0.605 J0.423
X0.606 Y-0.423 Z-0.124 I0.605 J-0.423
X-0.605 Y0.423 Z-0.205 I-0.605 J0.423
X0.606 Y-0.423 Z-0.286 I0.605 J-0.423
X-0.605 Y0.423 Z-0.367 I-0.605 J0.423
X0.606 Y-0.423 Z-0.448 I0.605 J-0.423
X-0.605 Y0.423 Z-0.529 I-0.605 J0.423
X0.606 Y-0.423 Z-0.61 I0.605 J-0.423
X-0.605 Y0.423 Z-0.691 I-0.605 J0.423
X0.606 Y-0.423 Z-0.772 I0.605 J-0.423
X-0.605 Y0.423 Z-0.853 I-0.605 J0.423
X0.606 Y-0.423 Z-0.934 I0.605 J-0.423
X-0.605 Y0.423 Z-1.015 I-0.605 J0.423
X0.606 Y-0.423 Z-1.096 I0.605 J-0.423
X-0.605 Y0.423 Z-1.177 I-0.605 J0.423
X0.606 Y-0.423 Z-1.258 I0.605 J-0.423
X-0.605 Y0.423 Z-1.339 I-0.605 J0.423
X0.606 Y-0.423 Z-1.42 I0.605 J-0.423
X-0.605 Y0.423 Z-1.501 I-0.605 J0.423
X0.606 Y-0.423 Z-1.582 I0.605 J-0.423
X-0.605 Y0.423 Z-1.663 I-0.605 J0.423
X0.606 Y-0.423 Z-1.744 I0.605 J-0.423
X-0.605 Y0.423 Z-1.825 I-0.605 J0.423
X0.606 Y-0.423 Z-1.906 I0.605 J-0.423
X-0.605 Y0.423 Z-1.987 I-0.605 J0.423
X0.606 Y-0.423 Z-2.068 I0.605 J-0.423
X-0.605 Y0.423 Z-2.149 I-0.605 J0.423
X0.606 Y-0.423 Z-2.23 I0.605 J-0.423
X-0.605 Y0.423 Z-2.311 I-0.605 J0.423
X0.606 Y-0.423 Z-2.392 I0.605 J-0.423
X-0.605 Y0.423 Z-2.473 I-0.605 J0.423
X0.606 Y-0.423 Z-2.554 I0.605 J-0.423
X-0.605 Y0.423 Z-2.635 I-0.605 J0.423
X0.606 Y-0.423 Z-2.716 I0.605 J-0.423
X-0.605 Y0.423 Z-2.797 I-0.605 J0.423
X0.606 Y-0.423 Z-2.878 I0.605 J-0.423
X-0.605 Y0.423 Z-2.959 I-0.605 J0.423
X0.606 Y-0.423 Z-3.04 I0.605 J-0.423
X-0.605 Y0.423 Z-3.121 I-0.605 J0.423
X0.606 Y-0.423 Z-3.202 I0.605 J-0.423
X-0.605 Y0.423 Z-3.283 I-0.605 J0.423
X0.606 Y-0.423 Z-3.364 I0.605 J-0.423
X-0.605 Y0.423 Z-3.445 I-0.605 J0.423
X0.606 Y-0.423 Z-3.526 I0.605 J-0.423
X-0.605 Y0.423 Z-3.607 I-0.605 J0.423
X0.606 Y-0.423 Z-3.688 I0.605 J-0.423
X-0.605 Y0.423 Z-3.769 I-0.605 J0.423
X0.606 Y-0.423 Z-3.85 I0.605 J-0.423
X-0.605 Y0.423 Z-3.931 I-0.605 J0.423
X0.606 Y-0.423 Z-4.012 I0.605 J-0.423
X-0.605 Y0.423 Z-4.093 I-0.605 J0.423
X0.606 Y-0.423 Z-4.174 I0.605 J-0.423
X-0.605 Y0.423 Z-4.255 I-0.605 J0.423
X0.606 Y-0.423 Z-4.336 I0.605 J-0.423
X-0.605 Y0.423 Z-4.417 I-0.605 J0.423
X0.606 Y-0.423 Z-4.498 I0.605 J-0.423
X-0.605 Y0.423 Z-4.579 I-0.605 J0.423
X0.606 Y-0.423 Z-4.66 I0.605 J-0.423
X-0.605 Y0.423 Z-4.741 I-0.605 J0.423
X0.606 Y-0.423 Z-4.822 I0.605 J-0.423
X-0.605 Y0.423 Z-4.903 I-0.605 J0.423
X0.606 Y-0.423 Z-4.984 I0.605 J-0.423
X-0.605 Y0.423 Z-5.065 I-0.605 J0.423
X0.606 Y-0.423 Z-5.146 I0.605 J-0.423
X-0.605 Y0.423 Z-5.227 I-0.605 J0.423
X0.606 Y-0.423 Z-5.308 I0.605 J-0.423
X-0.605 Y0.423 Z-5.389 I-0.605 J0.423
X0.606 Y-0.423 Z-5.47 I0.605 J-0.423
X-0.605 Y0.423 Z-5.551 I-0.605 J0.423
X0.606 Y-0.423 Z-5.632 I0.605 J-0.423
X-0.605 Y0.423 Z-5.713 I-0.605 J0.423
X0.606 Y-0.423 Z-5.794 I0.605 J-0.423
X-0.605 Y0.423 Z-5.875 I-0.605 J0.423
X0.606 Y-0.423 Z-5.956 I0.605 J-0.423
X-0.605 Y0.423 Z-6.037 I-0.605 J0.423
X0.606 Y-0.423 Z-6.118 I0.605 J-0.423
X-0.605 Y0.423 Z-6.199 I-0.605 J0.423
X0.606 Y-0.423 Z-6.28 I0.605 J-0.423
X-0.605 Y0.423 Z-6.361 I-0.605 J0.423
X0.606 Y-0.423 Z-6.442 I0.605 J-0.423
X-0.605 Y0.423 Z-6.523 I-0.605 J0.423
X0.606 Y-0.423 Z-6.604 I0.605 J-0.423
X-0.605 Y0.423 Z-6.685 I-0.605 J0.423
X0.606 Y-0.423 Z-6.766 I0.605 J-0.423
X-0.605 Y0.423 Z-6.847 I-0.605 J0.423
X0.606 Y-0.423 Z-6.928 I0.605 J-0.423
X-0.605 Y0.423 Z-7.009 I-0.605 J0.423
X0.606 Y-0.423 Z-7.09 I0.605 J-0.423
X-0.605 Y0.423 Z-7.171 I-0.605 J0.423
X0.606 Y-0.423 Z-7.252 I0.605 J-0.423
X-0.605 Y0.423 Z-7.333 I-0.605 J0.423
X0.606 Y-0.423 Z-7.414 I0.605 J-0.423
X-0.605 Y0.423 Z-7.495 I-0.605 J0.423
X0.606 Y-0.423 Z-7.576 I0.605 J-0.423
X-0.605 Y0.423 Z-7.657 I-0.605 J0.423
X0.606 Y-0.423 Z-7.738 I0.605 J-0.423
X-0.605 Y0.423 Z-7.819 I-0.605 J0.423
X0.606 Y-0.423 Z-7.9 I0.605 J-0.423
X-0.605 Y0.423 Z-7.981 I-0.605 J0.423
X0.606 Y-0.423 Z-8.062 I0.605 J-0.423
X-0.605 Y0.423 Z-8.143 I-0.605 J0.423
X0.606 Y-0.423 Z-8.224 I0.605 J-0.423
X-0.605 Y0.423 Z-8.305 I-0.605 J0.423
X0.606 Y-0.423 Z-8.386 I0.605 J-0.423
X-0.605 Y0.423 Z-8.467 I-0.605 J0.423
X0.606 Y-0.423 Z-8.548 I0.605 J-0.423
X-0.605 Y0.423 Z-8.629 I-0.605 J0.423
X0.606 Y-0.423 Z-8.71 I0.605 J-0.423
X-0.605 Y0.423 Z-8.791 I-0.605 J0.423
X0.606 Y-0.423 Z-8.872 I0.605 J-0.423
X-0.605 Y0.423 Z-8.953 I-0.605 J0.423
X0.606 Y-0.423 Z-9.034 I0.605 J-0.423
X-0.605 Y0.423 Z-9.115 I-0.605 J0.423
X0.606 Y-0.423 Z-9.196 I0.605 J-0.423
X-0.605 Y0.423 Z-9.277 I-0.605 J0.423
X0.606 Y-0.423 Z-9.358 I0.605 J-0.423
X-0.605 Y0.423 Z-9.439 I-0.605 J0.423
X0.606 Y-0.423 Z-9.52 I0.605 J-0.423
X-0.605 Y0.423 Z-9.601 I-0.605 J0.423
X0.606 Y-0.423 Z-9.682 I0.605 J-0.423
X-0.605 Y0.423 Z-9.763 I-0.605 J0.423
X0.606 Y-0.423 Z-9.844 I0.605 J-0.423
X-0.605 Y0.423 Z-9.925 I-0.605 J0.423
X0.739 Y0 Z-9.99 I0.605 J-0.423
X-0.738 Y0 I-0.738 J0
X0.739 Y0 I0.738 J0
X0 Y0 I-0.369 J0
G1 X-0.047 Y0.375 F80
X-0.037 Y0.511
X0.024 Y0.631
X0.128 Y0.718
X0.258 Y0.758
X0.392 Y0.744
X0.511 Y0.679
X0.679 Y0.538
X0.719 Y0.499
X0.765 Y0.439
X0.783 Y0.403
X0.795 Y0.367
X0.862 Y0
X0.872 Y-0.076
X0.867 Y-0.153
X0.842 Y-0.236
X0.633 Y-0.598
X0.598 Y-0.644
X0.546 Y-0.691
X0.503 Y-0.717
X0.381 Y-0.765
X0.076 Y-0.874
X0 Y-0.884
X-0.076 Y-0.874
X-0.459 Y-0.736
X-0.503 Y-0.717
X-0.546 Y-0.691
X-0.598 Y-0.644
X-0.633 Y-0.598
X-0.842 Y-0.236
X-0.867 Y-0.153
X-0.872 Y-0.076
X-0.81 Y0.296
X-0.795 Y0.367
X-0.783 Y0.403
X-0.752 Y0.459
X-0.719 Y0.499
X-0.679 Y0.538
X-0.377 Y0.789
X-0.345 Y0.808
X-0.281 Y0.834
X-0.217 Y0.847
X0.217
X0.281 Y0.834
X0.345 Y0.808
X0.409 Y0.765
X0.511 Y0.679
X0.553 Y0.633
X0.584 Y0.579
X0.603 Y0.52
X0.61 Y0.458
Y0.457
X0.604 Y0.399
X0.587 Y0.342
X0.56 Y0.291
X0.523 Y0.245
X0.477 Y0.219 Z-9.985
X0.433 Y0.193 Z-9.971
X0.392 Y0.168 Z-9.948
X0.347 Y0.162 Z-9.915
X0.31 Y0.157 Z-9.875
X0.275 Y0.161 Z-9.818
X0.254 Y0.163 Z-9.756
X0.247 Y0.164 Z-9.69
G0 X0.635 Y-0.176
Z-9.79
G2 X-0.635 Y0.159 Z-9.862 I-0.635 J0.167 F333.3
X0.635 Y-0.176 Z-9.934 I0.635 J-0.167
X-0.635 Y0.159 Z-10.006 I-0.635 J0.167
X0.635 Y-0.176 Z-10.078 I0.635 J-0.167
X-0.635 Y0.159 Z-10.15 I-0.635 J0.167
X0.635 Y-0.176 Z-10.222 I0.635 J-0.167
X-0.635 Y0.159 Z-10.294 I-0.635 J0.167
X0.635 Y-0.176 Z-10.366 I0.635 J-0.167
X-0.635 Y0.159 Z-10.439 I-0.635 J0.167
X0.635 Y-0.176 Z-10.511 I0.635 J-0.167
X-0.635 Y0.159 Z-10.583 I-0.635 J0.167
X0.635 Y-0.176 Z-10.655 I0.635 J-0.167
X-0.635 Y0.159 Z-10.727 I-0.635 J0.167
X0.635 Y-0.176 Z-10.799 I0.635 J-0.167
X-0.635 Y0.159 Z-10.871 I-0.635 J0.167
X0.635 Y-0.176 Z-10.943 I0.635 J-0.167
X-0.635 Y0.159 Z-11.015 I-0.635 J0.167
X0.635 Y-0.176 Z-11.087 I0.635 J-0.167
X-0.635 Y0.159 Z-11.159 I-0.635 J0.167
X0.635 Y-0.176 Z-11.231 I0.635 J-0.167
X-0.635 Y0.159 Z-11.303 I-0.635 J0.167
X0.635 Y-0.176 Z-11.375 I0.635 J-0.167
X-0.635 Y0.159 Z-11.447 I-0.635 J0.167
X0.635 Y-0.176 Z-11.519 I0.635 J-0.167
X-0.635 Y0.159 Z-11.591 I-0.635 J0.167
X0.635 Y-0.176 Z-11.664 I0.635 J-0.167
X-0.635 Y0.159 Z-11.736 I-0.635 J0.167
X0.635 Y-0.176 Z-11.808 I0.635 J-0.167
X-0.635 Y0.159 Z-11.88 I-0.635 J0.167
X0.635 Y-0.176 Z-11.952 I0.635 J-0.167
X-0.635 Y0.159 Z-12.024 I-0.635 J0.167
X0.635 Y-0.176 Z-12.096 I0.635 J-0.167
X-0.635 Y0.159 Z-12.168 I-0.635 J0.167
X0.635 Y-0.176 Z-12.24 I0.635 J-0.167
X-0.635 Y0.159 Z-12.312 I-0.635 J0.167
X0.635 Y-0.176 Z-12.384 I0.635 J-0.167
X-0.635 Y0.159 Z-12.456 I-0.635 J0.167
X0.635 Y-0.176 Z-12.528 I0.635 J-0.167
X-0.635 Y0.159 Z-12.6 I-0.635 J0.167
X0.635 Y-0.176 Z-12.672 I0.635 J-0.167
X-0.635 Y0.159 Z-12.744 I-0.635 J0.167
X0.635 Y-0.176 Z-12.816 I0.635 J-0.167
X-0.635 Y0.159 Z-12.889 I-0.635 J0.167
X0.635 Y-0.176 Z-12.961 I0.635 J-0.167
X-0.635 Y0.159 Z-13.033 I-0.635 J0.167
X0.635 Y-0.176 Z-13.105 I0.635 J-0.167
X-0.635 Y0.159 Z-13.177 I-0.635 J0.167
X0.635 Y-0.176 Z-13.249 I0.635 J-0.167
X-0.635 Y0.159 Z-13.321 I-0.635 J0.167
X0.635 Y-0.176 Z-13.393 I0.635 J-0.167
X-0.635 Y0.159 Z-13.465 I-0.635 J0.167
X0.635 Y-0.176 Z-13.537 I0.635 J-0.167
X-0.635 Y0.159 Z-13.609 I-0.635 J0.167
X0.635 Y-0.176 Z-13.681 I0.635 J-0.167
X-0.635 Y0.159 Z-13.753 I-0.635 J0.167
X0.635 Y-0.176 Z-13.825 I0.635 J-0.167
X-0.635 Y0.159 Z-13.897 I-0.635 J0.167
X0.635 Y-0.176 Z-13.969 I0.635 J-0.167
X-0.635 Y0.159 Z-14.041 I-0.635 J0.167
X0.635 Y-0.176 Z-14.114 I0.635 J-0.167
X-0.635 Y0.159 Z-14.186 I-0.635 J0.167
X0.635 Y-0.176 Z-14.258 I0.635 J-0.167
X-0.635 Y0.159 Z-14.33 I-0.635 J0.167
X0.635 Y-0.176 Z-14.402 I0.635 J-0.167
X-0.635 Y0.159 Z-14.474 I-0.635 J0.167
X0.635 Y-0.176 Z-14.546 I0.635 J-0.167
X-0.635 Y0.159 Z-14.618 I-0.635 J0.167
X0.635 Y-0.176 Z-14.69 I0.635 J-0.167
X-0.635 Y0.159 Z-14.762 I-0.635 J0.167
X0.635 Y-0.176 Z-14.834 I0.635 J-0.167
X-0.635 Y0.159 Z-14.906 I-0.635 J0.167
X0.635 Y-0.176 Z-14.978 I0.635 J-0.167
X-0.635 Y0.159 Z-15.05 I-0.635 J0.167
X0.635 Y-0.176 Z-15.122 I0.635 J-0.167
X-0.635 Y0.159 Z-15.194 I-0.635 J0.167
X0.635 Y-0.176 Z-15.266 I0.635 J-0.167
X-0.635 Y0.159 Z-15.339 I-0.635 J0.167
X0.635 Y-0.176 Z-15.411 I0.635 J-0.167
X-0.635 Y0.159 Z-15.483 I-0.635 J0.167
X0.635 Y-0.176 Z-15.555 I0.635 J-0.167
X-0.635 Y0.159 Z-15.627 I-0.635 J0.167
X0.635 Y-0.176 Z-15.699 I0.635 J-0.167
X-0.635 Y0.159 Z-15.771 I-0.635 J0.167
X0.635 Y-0.176 Z-15.843 I0.635 J-0.167
X-0.635 Y0.159 Z-15.915 I-0.635 J0.167
X0.635 Y-0.176 Z-15.987 I0.635 J-0.167
X-0.635 Y0.159 Z-16.059 I-0.635 J0.167
X0.635 Y-0.176 Z-16.131 I0.635 J-0.167
X-0.635 Y0.159 Z-16.203 I-0.635 J0.167
X0.635 Y-0.176 Z-16.275 I0.635 J-0.167
X-0.635 Y0.159 Z-16.347 I-0.635 J0.167
X0.635 Y-0.176 Z-16.419 I0.635 J-0.167
X-0.635 Y0.159 Z-16.491 I-0.635 J0.167
X0.635 Y-0.176 Z-16.564 I0.635 J-0.167
X-0.635 Y0.159 Z-16.636 I-0.635 J0.167
X0.635 Y-0.176 Z-16.708 I0.635 J-0.167
X-0.635 Y0.159 Z-16.78 I-0.635 J0.167
X0.635 Y-0.176 Z-16.852 I0.635 J-0.167
X-0.635 Y0.159 Z-16.924 I-0.635 J0.167
X0.657 Y-0.009 Z-16.99 I0.635 J-0.167
X-0.657 Y-0.009 I-0.657 J0
X0.657 Y-0.009 I0.657 J0
X0 Y-0.009 I-0.328 J0
G1 X-0.065 Y0.361 F80
X-0.055 Y0.502
X0.02 Y0.623
X0.143 Y0.695
X0.285 Y0.7
X0.413 Y0.639
X0.629 Y0.459
X0.663 Y0.421
X0.688 Y0.382
X0.705 Y0.344
X0.716 Y0.306
X0.779 Y-0.06
X0.772 Y-0.153
X0.752 Y-0.217
X0.737 Y-0.251
X0.554 Y-0.55
X0.506 Y-0.605
X0.459 Y-0.642
X0.421 Y-0.664
X0.133 Y-0.765
X0.063 Y-0.787
X-0.007 Y-0.793
X-0.078 Y-0.787
X-0.153 Y-0.763
X-0.382 Y-0.676
X-0.459 Y-0.634
X-0.506 Y-0.6
X-0.553 Y-0.547
X-0.702 Y-0.311
X-0.736 Y-0.236
X-0.768 Y-0.153
X-0.776 Y-0.108
X-0.777 Y-0.063
X-0.765 Y0.028
X-0.699 Y0.344
X-0.683 Y0.382
X-0.66 Y0.421
X-0.61 Y0.482
X-0.382 Y0.666
X-0.306 Y0.715
X-0.268 Y0.73
X-0.229 Y0.741
X-0.153 Y0.746
X0.191
X0.229 Y0.741
X0.268 Y0.731
X0.306 Y0.715
X0.382 Y0.664
X0.413 Y0.639
G2 X0.429 Y0.205 I-0.199 J-0.224
G1 X0.384 Y0.178 Z-16.985
X0.34 Y0.151 Z-16.971
X0.299 Y0.127 Z-16.948
X0.253 Y0.12 Z-16.913
X0.214 Y0.114 Z-16.871
X0.181 Y0.118 Z-16.815
X0.161 Y0.12 Z-16.754
X0.154 Z-16.69
G0 Z2
X27.874 Y2.9
Z-9.79
G2 X28.002 Y4.138 Z-9.858 I0.064 J0.619 F333.3
X27.874 Y2.9 Z-9.927 I-0.064 J-0.619
X28.002 Y4.138 Z-9.995 I0.064 J0.619
X27.874 Y2.9 Z-10.063 I-0.064 J-0.619
X28.002 Y4.138 Z-10.131 I0.064 J0.619
X27.874 Y2.9 Z-10.2 I-0.064 J-0.619
X28.002 Y4.138 Z-10.268 I0.064 J0.619
X27.874 Y2.9 Z-10.336 I-0.064 J-0.619
X28.002 Y4.138 Z-10.404 I0.064 J0.619
X27.874 Y2.9 Z-10.473 I-0.064 J-0.619
X28.002 Y4.138 Z-10.541 I0.064 J0.619
X27.874 Y2.9 Z-10.609 I-0.064 J-0.619
X28.002 Y4.138 Z-10.677 I0.064 J0.619
X27.874 Y2.9 Z-10.746 I-0.064 J-0.619
X28.002 Y4.138 Z-10.814 I0.064 J0.619
X27.874 Y2.9 Z-10.882 I-0.064 J-0.619
X28.002 Y4.138 Z-10.951 I0.064 J0.619
X27.874 Y2.9 Z-11.019 I-0.064 J-0.619
X28.002 Y4.138 Z-11.087 I0.064 J0.619
X27.874 Y2.9 Z-11.155 I-0.064 J-0.619
X28.002 Y4.138 Z-11.224 I0.064 J0.619
X27.874 Y2.9 Z-11.292 I-0.064 J-0.619
X28.002 Y4.138 Z-11.36 I0.064 J0.619
X27.874 Y2.9 Z-11.428 I-0.064 J-0.619
X28.002 Y4.138 Z-11.497 I0.064 J0.619
X27.874 Y2.9 Z-11.565 I-0.064 J-0.619
X28.002 Y4.138 Z-11.633 I0.064 J0.619
X27.874 Y2.9 Z-11.701 I-0.064 J-0.619
X28.002 Y4.138 Z-11.77 I0.064 J0.619
X27.874 Y2.9 Z-11.838 I-0.064 J-0.619
X28.002 Y4.138 Z-11.906 I0.064 J0.619
X27.874 Y2.9 Z-11.975 I-0.064 J-0.619
X28.002 Y4.138 Z-12.043 I0.064 J0.619
X27.874 Y2.9 Z-12.111 I-0.064 J-0.619
X28.002 Y4.138 Z-12.179 I0.064 J0.619
X27.874 Y2.9 Z-12.248 I-0.064 J-0.619
X28.002 Y4.138 Z-12.316 I0.064 J0.619
X27.874 Y2.9 Z-12.384 I-0.064 J-0.619
X28.002 Y4.138 Z-12.452 I0.064 J0.619
X27.874 Y2.9 Z-12.521 I-0.064 J-0.619
X28.002 Y4.138 Z-12.589 I0.064 J0.619
X27.874 Y2.9 Z-12.657 I-0.064 J-0.619
X28.002 Y4.138 Z-12.726 I0.064 J0.619
X27.874 Y2.9 Z-12.794 I-0.064 J-0.619
X28.002 Y4.138 Z-12.862 I0.064 J0.619
X27.874 Y2.9 Z-12.93 I-0.064 J-0.619
X28.002 Y4.138 Z-12.999 I0.064 J0.619
X27.874 Y2.9 Z-13.067 I-0.064 J-0.619
X28.002 Y4.138 Z-13.135 I0.064 J0.619
X27.874 Y2.9 Z-13.203 I-0.064 J-0.619
X28.002 Y4.138 Z-13.272 I0.064 J0.619
X27.874 Y2.9 Z-13.34 I-0.064 J-0.619
X28.002 Y4.138 Z-13.408 I0.064 J0.619
X27.874 Y2.9 Z-13.476 I-0.064 J-0.619
X28.002 Y4.138 Z-13.545 I0.064 J0.619
X27.874 Y2.9 Z-13.613 I-0.064 J-0.619
X28.002 Y4.138 Z-13.681 I0.064 J0.619
X27.874 Y2.9 Z-13.75 I-0.064 J-0.619
X28.002 Y4.138 Z-13.818 I0.064 J0.619
X27.874 Y2.9 Z-13.886 I-0.064 J-0.619
X28.002 Y4.138 Z-13.954 I0.064 J0.619
X27.874 Y2.9 Z-14.023 I-0.064 J-0.619
X28.002 Y4.138 Z-14.091 I0.064 J0.619
X27.874 Y2.9 Z-14.159 I-0.064 J-0.619
X28.002 Y4.138 Z-14.227 I0.064 J0.619
X27.874 Y2.9 Z-14.296 I-0.064 J-0.619
X28.002 Y4.138 Z-14.364 I0.064 J0.619
X27.874 Y2.9 Z-14.432 I-0.064 J-0.619
X28.002 Y4.138 Z-14.5 I0.064 J0.619
X27.874 Y2.9 Z-14.569 I-0.064 J-0.619
X28.002 Y4.138 Z-14.637 I0.064 J0.619
X27.874 Y2.9 Z-14.705 I-0.064 J-0.619
X28.002 Y4.138 Z-14.774 I0.064 J0.619
X27.874 Y2.9 Z-14.842 I-0.064 J-0.619
X28.002 Y4.138 Z-14.91 I0.064 J0.619
X27.874 Y2.9 Z-14.978 I-0.064 J-0.619
X28.002 Y4.138 Z-15.047 I0.064 J0.619
X27.874 Y2.9 Z-15.115 I-0.064 J-0.619
X28.002 Y4.138 Z-15.183 I0.064 J0.619
X27.874 Y2.9 Z-15.251 I-0.064 J-0.619
X28.002 Y4.138 Z-15.32 I0.064 J0.619
X27.874 Y2.9 Z-15.388 I-0.064 J-0.619
X28.002 Y4.138 Z-15.456 I0.064 J0.619
X27.874 Y2.9 Z-15.524 I-0.064 J-0.619
X28.002 Y4.138 Z-15.593 I0.064 J0.619
X27.874 Y2.9 Z-15.661 I-0.064 J-0.619
X28.002 Y4.138 Z-15.729 I0.064 J0.619
X27.874 Y2.9 Z-15.798 I-0.064 J-0.619
X28.002 Y4.138 Z-15.866 I0.064 J0.619
X27.874 Y2.9 Z-15.934 I-0.064 J-0.619
X28.002 Y4.138 Z-16.002 I0.064 J0.619
X27.874 Y2.9 Z-16.071 I-0.064 J-0.619
X28.002 Y4.138 Z-16.139 I0.064 J0.619
X27.874 Y2.9 Z-16.207 I-0.064 J-0.619
X28.002 Y4.138 Z-16.275 I0.064 J0.619
X27.874 Y2.9 Z-16.344 I-0.064 J-0.619
X28.002 Y4.138 Z-16.412 I0.064 J0.619
X27.874 Y2.9 Z-16.48 I-0.064 J-0.619
X28.002 Y4.138 Z-16.548 I0.064 J0.619
X27.874 Y2.9 Z-16.617 I-0.064 J-0.619
X28.002 Y4.138 Z-16.685 I0.064 J0.619
X27.874 Y2.9 Z-16.753 I-0.064 J-0.619
X28.002 Y4.138 Z-16.822 I0.064 J0.619
X27.874 Y2.9 Z-16.89 I-0.064 J-0.619
X28.002 Y4.138 Z-16.958 I0.064 J0.619
X28.56 Y3.519 Z-16.99 I-0.064 J-0.619
X27.315 Y3.519 I-0.622 J0
X28.56 Y3.519 I0.622 J0
X27.938 Y3.519 I-0.311 J0
G1 X27.82 Y4.26 F80
X27.968 Y4.376
X28.151 Y4.391
X28.329 Y4.342
X28.479 Y4.235
X28.583 Y4.083
X28.628 Y3.904
X28.675 Y3.213
X28.679 Y3.025
X28.615 Y2.849
X28.394 Y2.546
X28.181 Y2.478
X27.957 Y2.472
X27.74 Y2.527
X27.547 Y2.64
X27.392 Y2.801
X27.288 Y2.999
X27.241 Y3.218
X27.2 Y3.825
X27.193 Y4.2
X27.334 Y4.548
X27.508 Y4.672
X27.71 Y4.743
X27.924 Y4.754
X28.132 Y4.706
X28.319 Y4.602
X28.47 Y4.449
X28.572 Y4.261
X28.617 Y4.052
X28.628 Y3.904
G2 X28.081 Y3.714 I-0.299 J-0.022
X28.577 Y4.051 I0.248 J0.169 F1200
X28.611 Y3.78 I-0.248 J-0.169
G1 X28.507 Y3.493
G2 X27.943 Y3.697 I-0.282 J0.102
X28.323 Y3.879 I0.282 J-0.102
G1 X28.38 Y3.852 F80
X28.43 Y3.814
X28.472 Y3.766
G2 X28.675 Y3.213 I-0.977 J-0.674
G1 X28.717 Y2.601
X28.721 Y2.413
X28.496 Y2.113
X28.457 Y2.095
X28.237 Y2.026
X28.006 Y2.021
X27.783 Y2.079
X27.584 Y2.195
X27.425 Y2.362
X27.318 Y2.566
X27.271 Y2.792
X27.241 Y3.218
G2 X27.721 Y3.468 I0.3 J0.01
G1 X27.81 Y3.402
X28.168 Y3.133 F1200
X28.599 Y2.81 F80
X28.644 Y2.768
X28.68 Y2.718
X28.705 Y2.661
X28.717 Y2.601
X28.749 Y2.127
X28.753 Y1.939
X28.516 Y1.648
X28.468 Y1.627
X28.249 Y1.565
X28.022 Y1.564
X27.803 Y1.625
X27.608 Y1.743
X27.453 Y1.909
X27.348 Y2.111
X27.302 Y2.333
X27.271 Y2.792
G2 X27.758 Y3.036 I0.3 J0.01
G1 X27.837 Y2.972
X28.211 Y2.672 F1200
X28.639 Y2.33 F80
X28.681 Y2.288
X28.714 Y2.239
X28.738 Y2.185
X28.749 Y2.127
X28.78 Y1.683
X28.783 Y1.496
X28.556 Y1.197
X28.507 Y1.174
X28.288 Y1.11
X28.059 Y1.108
X27.838 Y1.167
X27.642 Y1.285
X27.486 Y1.451
X27.38 Y1.654
X27.333 Y1.877
X27.302 Y2.333
G2 X27.787 Y2.579 I0.3 J0.01
G1 X27.869 Y2.515
X28.238 Y2.225 F1200
X28.667 Y1.888 F80
X28.71 Y1.846
X28.744 Y1.797
X28.768 Y1.742
X28.78 Y1.683
X28.812 Y1.209
X28.815 Y1.021
X28.578 Y0.731
X28.527 Y0.709
X28.308 Y0.648
X28.081
X27.863 Y0.71
X27.67 Y0.828
X27.515 Y0.994
X27.411 Y1.195
X27.365 Y1.417
X27.333 Y1.877
G2 X27.821 Y2.121 I0.3 J0.01
G1 X27.9 Y2.058
X28.275 Y1.756 F1200
X28.702 Y1.411 F80
X28.744 Y1.37
X28.777 Y1.321
X28.8 Y1.267
X28.812 Y1.209
X28.842 Y0.765
X28.845 Y0.578
X28.618 Y0.279
X28.568 Y0.257
X28.349 Y0.193
X28.121 Y0.191
X27.9 Y0.251
X27.704 Y0.369
X27.548 Y0.535
X27.442 Y0.737
X27.396 Y0.961
X27.365 Y1.417
G2 X27.85 Y1.663 I0.3 J0.01
G1 X27.932 Y1.598
X28.301 Y1.307 F1200
X28.729 Y0.97 F80
X28.772 Y0.928
X28.806 Y0.879
X28.83 Y0.824
X28.842 Y0.765
X28.874 Y0.291
X28.878 Y0.103
X28.64 Y-0.186
X28.588 Y-0.209
X28.37 Y-0.269
X28.143 Y-0.268
X27.925 Y-0.207
X27.732 Y-0.089
X27.577 Y0.077
X27.473 Y0.278
X27.427 Y0.5
X27.396 Y0.961
G2 X27.884 Y1.204 I0.3 J0.01
G1 X27.962 Y1.141
X28.337 Y0.838 F1200
X28.764 Y0.493 F80
X28.806 Y0.452
X28.84 Y0.403
X28.863 Y0.349
X28.874 Y0.291
X28.903 Y-0.153
X28.904 Y-0.34
X28.676 Y-0.638
X28.629 Y-0.659
X28.41 Y-0.723
X28.182 Y-0.724
X27.962 Y-0.664
X27.766 Y-0.547
X27.61 Y-0.38
X27.505 Y-0.178
X27.458 Y0.045
X27.427 Y0.5
G2 X27.913 Y0.746 I0.3 J0.01
G1 X27.994 Y0.681
X28.363 Y0.39 F1200
X28.79 Y0.053 F80
X28.833 Y0.011
X28.868 Y-0.038
X28.891 Y-0.094
X28.903 Y-0.153
X28.93 Y-0.627
X28.931 Y-0.815
X28.692 Y-1.104
X28.647 Y-1.123
X28.429 Y-1.182
X28.203 Y-1.181
X27.985 Y-1.118
X27.793 Y-1
X27.639 Y-0.835
X27.536 Y-0.634
X27.49 Y-0.413
X27.458 Y0.045
G2 X27.948 Y0.288 I0.3 J0.01
G1 X28.025 Y0.225
X28.397 Y-0.077 F1200
X28.821 Y-0.422 F80
X28.863 Y-0.464
X28.896 Y-0.514
X28.919 Y-0.569
X28.93 Y-0.627
X28.953 Y-1.071
X28.95 Y-1.258
X28.719 Y-1.554
X28.681 Y-1.571
X28.461 Y-1.632
X28.233 Y-1.631
X28.013 Y-1.568
X27.819 Y-1.448
X27.665 Y-1.28
X27.562 Y-1.076
X27.518 Y-0.853
X27.49 Y-0.413
G2 X27.977 Y-0.169 I0.3 J0.01
G1 X28.056 Y-0.232
X28.419 Y-0.523 F1200
X28.841 Y-0.862 F80
X28.885 Y-0.904
X28.918 Y-0.955
X28.941 Y-1.011
X28.953 Y-1.071
X28.968 Y-1.545
X28.965 Y-1.705
X28.736 Y-2.002
X28.7 Y-2.018
X28.478 Y-2.079
X28.248 Y-2.076
X28.027 Y-2.011
X27.833 Y-1.888
X27.68 Y-1.717
X27.579 Y-1.51
X27.539 Y-1.283
X27.518 Y-0.853
G2 X28.012 Y-0.617 I0.3 J0.006
G1 X28.086 Y-0.68
X28.447 Y-0.984 F1200
X28.862 Y-1.335 F80
X28.904 Y-1.379
X28.937 Y-1.43
X28.958 Y-1.486
X28.968 Y-1.545
X28.981 Y-1.989
X28.977 Y-2.065
X28.934 Y-2.248
X28.659 Y-2.503
X28.631 Y-2.512
X28.416 Y-2.548
X28.198 Y-2.527
X27.993 Y-2.451
X27.816 Y-2.323
X27.677 Y-2.154
X27.587 Y-1.955
X27.553 Y-1.739
X27.539 Y-1.283
G2 X28.042 Y-1.063 I0.3 J0
G1 X28.108 Y-1.123
X28.491 Y-1.477 F1200
X28.881 Y-1.838 F80
X28.922 Y-1.886
X28.953 Y-1.941
X28.972 Y-2.002
X28.977 Y-2.065
X28.877 Y-2.601
X28.833 Y-2.783
X28.528 Y-3.001
X28.285 Y-3.011
X28.063 Y-2.956
X27.865 Y-2.843
X27.704 Y-2.679
X27.595 Y-2.479
X27.545 Y-2.256
X27.557 Y-2.027
G2 X28.026 Y-1.809 I0.299 J-0.029
G1 X28.16 Y-1.901
X28.38 Y-2.054 F1200
X28.751 Y-2.309 F80
G2 X28.877 Y-2.601 I-0.17 J-0.247
G1 X28.787 Y-3.075
X28.742 Y-3.257
X28.426 Y-3.46
X28.381 Y-3.465
X28.157 Y-3.461
X27.942 Y-3.397
X27.752 Y-3.279
X27.6 Y-3.114
X27.498 Y-2.914
X27.452 Y-2.695
X27.467 Y-2.471
X27.557 Y-2.027
G2 X28.097 Y-1.925 I0.292 J-0.068
G1 X28.149 Y-2.001
X28.422 Y-2.399 F1200
X28.738 Y-2.858 F80
X28.766 Y-2.908
X28.783 Y-2.962
X28.791 Y-3.019
X28.787 Y-3.075
X28.698 Y-3.519
X28.651 Y-3.701
X28.341 Y-3.911
X28.29 Y-3.917
X28.066 Y-3.913
X27.85 Y-3.85
X27.659 Y-3.731
X27.507 Y-3.565
X27.405 Y-3.365
X27.36 Y-3.145
X27.375 Y-2.921
X27.467 Y-2.471
G2 X28.006 Y-2.37 I0.292 J-0.07
G1 X28.06 Y-2.449
X28.333 Y-2.843 F1200
X28.649 Y-3.298 F80
X28.677 Y-3.349
X28.695 Y-3.404
X28.702 Y-3.461
X28.698 Y-3.519
X28.611 Y-3.947
X28.564 Y-4.129
X28.263 Y-4.353
X28.216 Y-4.36
X27.989
X27.769 Y-4.3
X27.575 Y-4.182
X27.419 Y-4.016
X27.315 Y-3.814
X27.268 Y-3.592
X27.284 Y-3.365
X27.375 Y-2.921
G2 X27.911 Y-2.817 I0.292 J-0.071
G1 X27.969 Y-2.899
X28.239 Y-3.276 F1200
X28.559 Y-3.723 F80
X28.588 Y-3.774
X28.607 Y-3.83
X28.615 Y-3.888
X28.611 Y-3.947
X28.539 Y-4.299
X28.492 Y-4.481
X28.365 Y-4.618
X28.038 Y-4.802
X27.789 Y-4.774
X27.56 Y-4.674
X27.372 Y-4.51
X27.241 Y-4.297
X27.179 Y-4.054
X27.192 Y-3.805
X27.284 Y-3.365
G2 X27.807 Y-3.246 I0.291 J-0.071
G1 X27.884 Y-3.339
X28.139 Y-3.65 F1200
X28.475 Y-4.059 F80
X28.51 Y-4.113
X28.533 Y-4.172
X28.543 Y-4.235
X28.539 Y-4.299
X28.448 Y-4.743
X28.402 Y-4.925
X28.269 Y-5.058
X27.938 Y-5.241
X27.691 Y-5.21
X27.464 Y-5.107
X27.278 Y-4.942
X27.149 Y-4.729
X27.088 Y-4.487
X27.102 Y-4.239
X27.192 Y-3.805
G2 X27.716 Y-3.686 I0.291 J-0.071
G1 X27.792 Y-3.779
X28.049 Y-4.093 F1200
X28.385 Y-4.503 F80
X28.419 Y-4.557
X28.442 Y-4.616
X28.452 Y-4.679
X28.448 Y-4.743
X28.351 Y-5.217
X28.305 Y-5.399
X28.023 Y-5.646
X27.996 Y-5.651
X27.762 Y-5.665
X27.533 Y-5.614
X27.328 Y-5.5
X27.162 Y-5.334
X27.049 Y-5.128
X26.999 Y-4.899
X27.013 Y-4.665
X27.102 Y-4.239
G2 X27.631 Y-4.126 I0.291 J-0.071
G1 X27.699 Y-4.215
X27.964 Y-4.558 F1200
X28.293 Y-4.984 F80
X28.326 Y-5.037
X28.347 Y-5.095
X28.355 Y-5.156
X28.351 Y-5.217
X28.261 Y-5.661
X28.214 Y-5.842
X27.926 Y-6.083
X27.886 Y-6.09
X27.654 Y-6.099
X27.429 Y-6.043
X27.228 Y-5.928
X27.067 Y-5.762
X26.957 Y-5.558
X26.908 Y-5.331
X26.923 Y-5.1
X27.013 Y-4.665
G2 X27.544 Y-4.556 I0.291 J-0.071
G1 X27.61 Y-4.643
X27.878 Y-4.998 F1200
X28.205 Y-5.431 F80
X28.236 Y-5.483
X28.256 Y-5.54
X28.265 Y-5.6
X28.261 Y-5.661
X28.163 Y-6.135
X28.116 Y-6.317
X27.811 Y-6.535
X27.764 Y-6.541
X27.536 Y-6.542
X27.317 Y-6.482
X27.122 Y-6.364
X26.966 Y-6.198
X26.861 Y-5.996
X26.815 Y-5.774
X26.83 Y-5.547
X26.923 Y-5.1
G2 X27.458 Y-4.997 I0.291 J-0.071
G1 X27.517 Y-5.079
X27.793 Y-5.464 F1200
X28.112 Y-5.91 F80
X28.141 Y-5.961
X28.16 Y-6.017
X28.168 Y-6.076
X28.163 Y-6.135
X28.069 Y-6.579
X28.021 Y-6.76
X27.718 Y-6.981
X27.669 Y-6.988
X27.442 Y-6.989
X27.223 Y-6.928
X27.028 Y-6.81
X26.873 Y-6.644
X26.768 Y-6.443
X26.722 Y-6.22
X26.737 Y-5.993
X26.83 Y-5.547
G2 X27.365 Y-5.443 I0.291 J-0.071
G1 X27.425 Y-5.526
X27.699 Y-5.908 F1200
X28.018 Y-6.352 F80
X28.048 Y-6.403
X28.067 Y-6.46
X28.074 Y-6.519
X28.069 Y-6.579
X27.966 Y-7.065
X27.917 Y-7.246
X27.599 Y-7.444
X27.545 Y-7.45
X27.322 Y-7.443
X27.109 Y-7.378
X26.92 Y-7.258
X26.771 Y-7.092
X26.67 Y-6.893
X26.626 Y-6.674
X26.642 Y-6.452
X26.737 Y-5.993
G2 X27.277 Y-5.896 I0.291 J-0.071
G1 X27.33 Y-5.974
X27.608 Y-6.386 F1200
X27.919 Y-6.845 F80
X27.946 Y-6.895
X27.964 Y-6.95
X27.97 Y-7.008
X27.966 Y-7.065
X27.873 Y-7.497
X27.825 Y-7.678
X27.517 Y-7.892
X27.466 Y-7.898
X27.241 Y-7.895
X27.025 Y-7.832
X26.833 Y-7.713
X26.681 Y-7.548
X26.578 Y-7.347
X26.533 Y-7.126
X26.549 Y-6.902
X26.642 Y-6.452
G2 X27.18 Y-6.351 I0.291 J-0.071
G1 X27.236 Y-6.431
X27.509 Y-6.822 F1200
X27.824 Y-7.272 F80
X27.853 Y-7.324
X27.871 Y-7.38
X27.878 Y-7.438
X27.873 Y-7.497
X27.771 Y-7.971
X27.723 Y-8.152
X27.405 Y-8.351
X27.354 Y-8.356
X27.131 Y-8.349
X26.919 Y-8.283
X26.731 Y-8.163
X26.582 Y-7.997
X26.482 Y-7.798
X26.438 Y-7.58
X26.454 Y-7.358
X26.549 Y-6.902
G2 X27.089 Y-6.806 I0.291 J-0.071
G1 X27.141 Y-6.882
X27.415 Y-7.291 F1200
X27.725 Y-7.751 F80
X27.752 Y-7.802
X27.769 Y-7.857
X27.776 Y-7.914
X27.771 Y-7.971
X27.693 Y-8.336
X27.644 Y-8.518
X27.505 Y-8.643
X27.167 Y-8.806
X26.926 Y-8.768
X26.707 Y-8.663
X26.527 Y-8.498
X26.404 Y-8.288
X26.346 Y-8.051
X26.36 Y-7.808
X26.454 Y-7.358
G2 X26.984 Y-7.247 I0.291 J-0.071
G1 X27.051 Y-7.335
X27.31 Y-7.675 F1200
X27.636 Y-8.102 F80
X27.668 Y-8.155
X27.689 Y-8.213
X27.697 Y-8.275
X27.693 Y-8.336
X27.61 Y-8.721
X27.561 Y-8.902
X27.438 Y-9.044
X27.117 Y-9.237
X26.869 Y-9.21
X26.639 Y-9.11
X26.45 Y-8.946
X26.319 Y-8.733
X26.257 Y-8.491
X26.27 Y-8.241
X26.36 Y-7.808
G2 X26.881 Y-7.687 I0.291 J-0.071
G1 X26.962 Y-7.782
X27.208 Y-8.075 F1200
X27.544 Y-8.475 F80
G2 X27.61 Y-8.721 I-0.23 J-0.193
G1 X27.544 Y-9.027
X27.502 Y-9.195
X27.458 Y-9.339
X27.331 Y-9.477
X27.007 Y-9.666
X26.763 Y-9.635
X26.538 Y-9.533
X26.354 Y-9.369
X26.226 Y-9.158
X26.166 Y-8.918
X26.18 Y-8.672
X26.27 Y-8.241
G2 X26.797 Y-8.126 I0.291 J-0.071
G1 X26.869 Y-8.217
X27.121 Y-8.537 F1200
X27.444 Y-8.946 F80
G2 X27.502 Y-9.195 I-0.236 J-0.186
G1 X27.467 Y-9.333
X27.358 Y-9.639
X27.286 Y-9.812
X27.145 Y-9.936
X26.801 Y-10.085
X26.569 Y-10.034
X26.362 Y-9.916
X26.199 Y-9.743
X26.095 Y-9.529
X26.058 Y-9.294
X26.092 Y-9.059
X26.18 Y-8.672
G2 X26.712 Y-8.564 I0.291 J-0.072
G1 X26.776 Y-8.65
X27.013 Y-8.967 F1200
X27.312 Y-9.369 F80
G2 X27.358 Y-9.639 I-0.24 J-0.179
G1 X27.249 Y-9.945
X27.184 Y-10.113
X27.119 Y-10.257
X26.97 Y-10.37
X26.619 Y-10.501
X26.41 Y-10.446
X26.224 Y-10.336
X26.073 Y-10.181
X25.97 Y-9.991
X25.921 Y-9.781
X25.93 Y-9.565
X25.997 Y-9.359
G2 X26.451 Y-9.265 I0.266 J-0.139
G1 X26.649 Y-9.425
X26.764 Y-9.519 F1200
X27.089 Y-9.781 F80
G2 X27.184 Y-10.113 I-0.189 J-0.233
G1 X27.13 Y-10.251
X26.977 Y-10.557
X26.885 Y-10.72
X26.723 Y-10.814
X26.358 Y-10.901
X26.128 Y-10.81
X25.936 Y-10.655
X25.799 Y-10.449
X25.731 Y-10.212
X25.736 Y-9.965
X25.815 Y-9.731
X25.997 Y-9.359
G2 X26.533 Y-9.37 I0.266 J-0.139
G1 X26.585 Y-9.479
X26.751 Y-9.83 F1200
X26.976 Y-10.304 F80
G2 X26.977 Y-10.557 I-0.271 J-0.128
G1 X26.775 Y-10.962
X26.682 Y-11.125
X26.518 Y-11.216
X26.154 Y-11.304
X25.924 Y-11.208
X25.733 Y-11.048
X25.597 Y-10.839
X25.53 Y-10.599
X25.537 Y-10.349
X25.617 Y-10.113
X25.815 Y-9.731
G2 X26.351 Y-9.756 I0.261 J-0.147
G1 X26.4 Y-9.868
X26.561 Y-10.229 F1200
X26.776 Y-10.715 F80
X26.795 Y-10.776
X26.802 Y-10.839
X26.795 Y-10.902
X26.775 Y-10.962
X26.584 Y-11.337
X26.49 Y-11.499
X26.332 Y-11.601
X25.968 Y-11.702
X25.733 Y-11.609
X25.537 Y-11.451
X25.397 Y-11.24
X25.327 Y-10.998
X25.332 Y-10.745
X25.413 Y-10.506
X25.617 Y-10.113
G2 X26.151 Y-10.136 I0.261 J-0.147
G1 X26.203 Y-10.25
X26.367 Y-10.607 F1200
X26.585 Y-11.084 F80
G2 X26.584 Y-11.337 I-0.273 J-0.125
G1 X26.354 Y-11.781
X26.26 Y-11.943
X26.092 Y-12.026
X25.723 Y-12.095
X25.493 Y-11.992
X25.309 Y-11.831
X25.18 Y-11.622
X25.117 Y-11.385
X25.125 Y-11.14
X25.205 Y-10.909
X25.413 Y-10.506
G2 X25.952 Y-10.54 I0.261 J-0.147
G1 X25.995 Y-10.645
X26.158 Y-11.043 F1200
X26.361 Y-11.539 F80
X26.379 Y-11.598
X26.383 Y-11.66
X26.375 Y-11.722
X26.354 Y-11.781
X26.196 Y-12.087
X26.101 Y-12.249
X25.959 Y-12.371
X25.607 Y-12.499
X25.393 Y-12.432
X25.205 Y-12.312
X25.056 Y-12.146
X24.956 Y-11.946
X24.913 Y-11.727
X24.93 Y-11.504
X25.005 Y-11.294
X25.205 Y-10.909
G2 X25.734 Y-10.92 I0.261 J-0.147
G1 X25.796 Y-11.043
X25.961 Y-11.366 F1200
X26.192 Y-11.822 F80
G2 X26.196 Y-12.087 I-0.267 J-0.136
G1 X25.95 Y-12.561
X25.856 Y-12.723
X25.69 Y-12.811
X25.322 Y-12.884
X25.095 Y-12.786
X24.907 Y-12.626
X24.774 Y-12.417
X24.709 Y-12.178
X24.716 Y-11.931
X24.796 Y-11.697
X25.005 Y-11.294
G2 X25.544 Y-11.326 I0.261 J-0.147
G1 X25.588 Y-11.432
X25.751 Y-11.824 F1200
X25.956 Y-12.317 F80
X25.974 Y-12.377
X25.979 Y-12.44
X25.971 Y-12.502
X25.95 Y-12.561
X25.782 Y-12.886
X25.687 Y-13.048
X25.541 Y-13.166
X25.185 Y-13.287
X24.974 Y-13.218
X24.789 Y-13.096
X24.643 Y-12.93
X24.545 Y-12.731
X24.504 Y-12.513
X24.521 Y-12.292
X24.596 Y-12.084
X24.796 Y-11.697
G2 X25.326 Y-11.711 I0.261 J-0.147
G1 X25.386 Y-11.832
X25.551 Y-12.164 F1200
X25.779 Y-12.625 F80
G2 X25.782 Y-12.886 I-0.269 J-0.133
G1 X25.562 Y-13.311
X25.467 Y-13.473
X25.309 Y-13.574
X24.947 Y-13.669
X24.712 Y-13.578
X24.516 Y-13.42
X24.376 Y-13.211
X24.306 Y-12.969
X24.311 Y-12.717
X24.391 Y-12.479
X24.596 Y-12.084
G2 X25.13 Y-12.106 I0.261 J-0.147
G1 X25.182 Y-12.22
X25.346 Y-12.581 F1200
X25.564 Y-13.058 F80
G2 X25.562 Y-13.311 I-0.273 J-0.124
G1 X25.316 Y-13.785
X25.222 Y-13.947
X24.875 Y-14.091
X24.839 Y-14.087
X24.615 Y-14.031
X24.415 Y-13.916
X24.254 Y-13.751
X24.145 Y-13.548
X24.095 Y-13.323
X24.109 Y-13.092
X24.186 Y-12.875
X24.391 Y-12.479
G2 X24.933 Y-12.519 I0.261 J-0.147
G1 X24.971 Y-12.618
X25.132 Y-13.042 F1200
X25.326 Y-13.55 F80
X25.341 Y-13.608
X25.345 Y-13.668
X25.336 Y-13.728
X25.316 Y-13.785
X25.086 Y-14.229
X24.992 Y-14.391
X24.634 Y-14.501
X24.583 Y-14.494
X24.368 Y-14.429
X24.178 Y-14.309
X24.026 Y-14.143
X23.925 Y-13.943
X23.881 Y-13.723
X23.897 Y-13.499
X23.972 Y-13.287
X24.186 Y-12.875
G2 X24.731 Y-12.925 I0.261 J-0.147
G1 X24.762 Y-13.015
X24.92 Y-13.479 F1200
X25.099 Y-14.003 F80
X25.113 Y-14.06
X25.115 Y-14.117
X25.106 Y-14.174
X25.086 Y-14.229
X24.939 Y-14.514
X24.844 Y-14.676
X24.687 Y-14.778
X24.324 Y-14.873
X24.089 Y-14.782
X23.893 Y-14.624
X23.753 Y-14.415
X23.682 Y-14.173
X23.687 Y-13.921
X23.768 Y-13.682
X23.972 Y-13.287
G2 X24.507 Y-13.31 I0.261 J-0.147
G1 X24.559 Y-13.424
X24.723 Y-13.784 F1200
X24.941 Y-14.261 F80
G2 X24.939 Y-14.514 I-0.273 J-0.124
G1 X24.694 Y-14.986
X24.6 Y-15.148
X24.254 Y-15.293
X24.219 Y-15.29
X23.994 Y-15.235
X23.794 Y-15.12
X23.632 Y-14.955
X23.522 Y-14.752
X23.472 Y-14.526
X23.486 Y-14.295
X23.563 Y-14.077
X23.768 Y-13.682
G2 X24.309 Y-13.722 I0.261 J-0.147
G1 X24.347 Y-13.822
X24.509 Y-14.243 F1200
X24.703 Y-14.75 F80
X24.719 Y-14.808
X24.723 Y-14.869
X24.714 Y-14.929
X24.694 Y-14.986
X24.524 Y-15.315
X24.429 Y-15.477
X24.27 Y-15.576
X23.906 Y-15.667
X23.673 Y-15.574
X23.478 Y-15.415
X23.34 Y-15.205
X23.271 Y-14.964
X23.276 Y-14.713
X23.357 Y-14.475
X23.563 Y-14.077
G2 X24.098 Y-14.102 I0.261 J-0.147
G1 X24.148 Y-14.214
X24.312 Y-14.583 F1200
X24.527 Y-15.064 F80
G2 X24.524 Y-15.315 I-0.274 J-0.122
G1 X24.327 Y-15.685
X24.229 Y-15.846
X24.075 Y-15.952
X23.716 Y-16.06
X23.511 Y-15.985
X23.333 Y-15.861
X23.193 Y-15.694
X23.101 Y-15.497
X23.063 Y-15.283
X23.082 Y-15.067
X23.156 Y-14.863
X23.357 Y-14.475
G2 X23.89 Y-14.494 I0.261 J-0.147
G1 X23.945 Y-14.611
X24.109 Y-14.958 F1200
X24.329 Y-15.424 F80
G2 X24.327 Y-15.685 I-0.271 J-0.128
G1 X24.021 Y-16.245
X23.921 Y-16.404
X23.557 Y-16.493
X23.505 Y-16.482
X23.299 Y-16.409
X23.12 Y-16.285
X22.978 Y-16.119
X22.885 Y-15.921
X22.846 Y-15.706
X22.864 Y-15.489
X22.938 Y-15.283
X23.156 Y-14.863
G2 X23.704 Y-14.922 I0.261 J-0.147
G1 X23.729 Y-15.004
X23.878 Y-15.49 F1200
X24.04 Y-16.021 F80
X24.052 Y-16.077
Y-16.135
X24.042 Y-16.191
X24.021 Y-16.245
X23.851 Y-16.539
X23.718 Y-16.738
X23.545 Y-16.809
X23.172 Y-16.852
X22.964 Y-16.743
X22.796 Y-16.581
X22.68 Y-16.377
X22.627 Y-16.148
X22.642 Y-15.914
X22.721 Y-15.694
X22.938 Y-15.283
G2 X23.478 Y-15.318 I0.261 J-0.147
G1 X23.52 Y-15.422
X23.672 Y-15.8 F1200
X23.866 Y-16.283 F80
G2 X23.851 Y-16.539 I-0.278 J-0.112
G1 X23.715 Y-16.768
X23.641 Y-16.875
X23.545 Y-16.983
X23.413 Y-17.116
X23.237 Y-17.179
X22.862 Y-17.199
X22.663 Y-17.076
X22.508 Y-16.9
X22.41 Y-16.687
X22.378 Y-16.455
X22.415 Y-16.223
X22.517 Y-16.012
X22.687 Y-15.759
X22.721 Y-15.694
G2 X23.264 Y-15.745 I0.259 J-0.151
G1 X23.298 Y-15.842
X23.439 Y-16.243 F1200
X23.598 Y-16.691 F80
G2 X23.545 Y-16.983 I-0.283 J-0.1
G1 X23.178 Y-17.39
X23.045 Y-17.523
X22.676 Y-17.586
X22.456 Y-17.474
X22.286 Y-17.313
X22.168 Y-17.111
X22.11 Y-16.884
X22.119 Y-16.65
X22.192 Y-16.427
X22.324 Y-16.234
X22.491 Y-16.05
X22.517 Y-16.012
G2 X23.053 Y-16.133 I0.242 J-0.177
G1 X23.07 Y-16.221
X23.148 Y-16.631 F1200
X23.244 Y-17.141 F80
G2 X23.178 Y-17.39 I-0.295 J-0.056
G1 X22.884 Y-17.712
X22.751 Y-17.844
X22.567 Y-17.877
X22.191 Y-17.842
X22.003 Y-17.684
X21.87 Y-17.479
X21.802 Y-17.244
X21.805 Y-16.999
X21.88 Y-16.766
X22.018 Y-16.564
X22.324 Y-16.234
G2 X22.836 Y-16.411 I0.214 J-0.21
G1 X22.848 Y-16.518
X22.895 Y-16.947 F1200
X22.954 Y-17.485 F80
X22.955 Y-17.546
X22.943 Y-17.606
X22.919 Y-17.662
X22.884 Y-17.712
X22.59 Y-18.033
X22.457 Y-18.165
X22.273 Y-18.205
X21.899 Y-18.183
X21.702 Y-18.023
X21.565 Y-17.818
X21.494 Y-17.581
X21.496 Y-17.334
X21.57 Y-17.098
X21.71 Y-16.894
X22.018 Y-16.564
G2 X22.528 Y-16.739 I0.212 J-0.212
G1 X22.542 Y-16.854
X22.594 Y-17.269 F1200
X22.66 Y-17.802 F80
X22.661 Y-17.864
X22.649 Y-17.925
X22.625 Y-17.982
X22.59 Y-18.033
X22.296 Y-18.352
X22.161 Y-18.483
X21.979 Y-18.529
X21.605 Y-18.517
X21.404 Y-18.36
X21.263 Y-18.154
X21.189 Y-17.916
Y-17.666
X21.263 Y-17.428
X21.404 Y-17.222
X21.71 Y-16.894
G2 X22.219 Y-17.065 I0.212 J-0.212
G1 X22.236 Y-17.184
X22.293 Y-17.59 F1200
X22.366 Y-18.114 F80
X22.368 Y-18.178
X22.357 Y-18.241
X22.332 Y-18.3
X22.296 Y-18.352
X21.999 Y-18.67
X21.864 Y-18.801
X21.684 Y-18.852
X21.309 Y-18.847
X21.106 Y-18.691
X20.962 Y-18.485
X20.886 Y-18.246
X20.885 Y-17.995
X20.958 Y-17.755
X21.1 Y-17.547
X21.404 Y-17.222
G2 X21.913 Y-17.39 I0.212 J-0.212
G1 X21.931 Y-17.512
X21.991 Y-17.909 F1200
X22.07 Y-18.428 F80
G2 X21.999 Y-18.67 I-0.297 J-0.045
G1 X21.703 Y-18.987
X21.568 Y-19.117
X21.389 Y-19.173
X21.01 Y-19.172
X20.809 Y-19.02
X20.662 Y-18.814
X20.584 Y-18.574
X20.582 Y-18.321
X20.655 Y-18.08
X20.798 Y-17.871
X21.1 Y-17.547
G2 X21.608 Y-17.712 I0.212 J-0.212
G1 X21.628 Y-17.837
X21.69 Y-18.226 F1200
X21.773 Y-18.743 F80
G2 X21.703 Y-18.987 I-0.296 J-0.047
G1 X21.416 Y-19.294
X21.282 Y-19.424
X21.106 Y-19.49
X20.727 Y-19.502
X20.547 Y-19.377
X20.405 Y-19.21
X20.312 Y-19.011
X20.275 Y-18.795
X20.295 Y-18.576
X20.371 Y-18.37
X20.498 Y-18.192
X20.798 Y-17.871
G2 X21.305 Y-18.031 I0.212 J-0.212
G1 X21.328 Y-18.16
X21.395 Y-18.535 F1200
X21.485 Y-19.044 F80
G2 X21.416 Y-19.294 I-0.295 J-0.053
G1 X21.002 Y-19.737
X20.868 Y-19.867
X20.493 Y-19.883
X20.439 Y-19.858
X20.25 Y-19.738
X20.1 Y-19.571
X20 Y-19.371
X19.957 Y-19.151
X19.974 Y-18.927
X20.05 Y-18.716
X20.179 Y-18.533
X20.498 Y-18.192
G2 X21.01 Y-18.387 I0.212 J-0.212
G1 X21.015 Y-18.483
X21.044 Y-18.97 F1200
X21.076 Y-19.522 F80
X21.073 Y-19.58
X21.06 Y-19.637
X21.036 Y-19.689
X21.002 Y-19.737
X20.716 Y-20.043
X20.582 Y-20.173
X20.21 Y-20.221
X20.165 Y-20.203
X19.967 Y-20.087
X19.807 Y-19.922
X19.699 Y-19.72
X19.65 Y-19.496
X19.664 Y-19.267
X19.74 Y-19.05
X19.872 Y-18.863
X20.179 Y-18.533
G2 X20.69 Y-18.719 I0.212 J-0.212
G1 X20.7 Y-18.824
X20.74 Y-19.277 F1200
X20.789 Y-19.819 F80
X20.788 Y-19.879
X20.775 Y-19.938
X20.751 Y-19.993
X20.716 Y-20.043
X20.43 Y-20.349
X20.296 Y-20.479
X20.111 Y-20.514
X19.735 Y-20.479
X19.546 Y-20.322
X19.411 Y-20.117
X19.342 Y-19.881
X19.345 Y-19.635
X19.419 Y-19.4
X19.559 Y-19.198
X19.872 Y-18.863
G2 X20.382 Y-19.042 I0.212 J-0.212
G1 X20.394 Y-19.153
X20.443 Y-19.585 F1200
X20.502 Y-20.118 F80
X20.503 Y-20.18
X20.49 Y-20.241
X20.466 Y-20.298
X20.43 Y-20.349
X20.144 Y-20.655
X20.01 Y-20.785
X19.828 Y-20.832
X19.449 Y-20.819
X19.253 Y-20.664
X19.112 Y-20.458
X19.038 Y-20.22
Y-19.97
X19.111 Y-19.731
X19.253 Y-19.526
X19.559 Y-19.198
G2 X20.068 Y-19.368 I0.212 J-0.212
G1 X20.084 Y-19.488
X20.141 Y-19.893 F1200
X20.215 Y-20.416 F80
X20.217 Y-20.48
X20.206 Y-20.543
X20.181 Y-20.602
X20.144 Y-20.655
X19.858 Y-20.961
X19.724 Y-21.091
X19.546 Y-21.15
X19.167 Y-21.152
X18.99 Y-21.026
X18.852 Y-20.858
X18.763 Y-20.66
X18.727 Y-20.445
X18.748 Y-20.229
X18.825 Y-20.025
X18.951 Y-19.849
X19.253 Y-19.526
G2 X19.761 Y-19.689 I0.212 J-0.212
G1 X19.781 Y-19.815
X19.844 Y-20.2 F1200
X19.928 Y-20.715 F80
G2 X19.858 Y-20.961 I-0.296 J-0.048
G1 X19.572 Y-21.267
X19.437 Y-21.397
X19.263 Y-21.465
X18.886 Y-21.48
X18.704 Y-21.355
X18.562 Y-21.188
X18.468 Y-20.989
X18.43 Y-20.772
X18.449 Y-20.553
X18.526 Y-20.347
X18.653 Y-20.167
X18.951 Y-19.849
G2 X19.458 Y-20.007 I0.212 J-0.212
G1 X19.482 Y-20.138
X19.549 Y-20.508 F1200
X19.641 Y-21.016 F80
G2 X19.572 Y-21.267 I-0.295 J-0.054
G1 X19.125 Y-21.739
X18.988 Y-21.868
X18.613 Y-21.856
X18.558 Y-21.828
X18.377 Y-21.703
X18.235 Y-21.536
X18.142 Y-21.337
X18.103 Y-21.12
X18.123 Y-20.902
X18.2 Y-20.696
X18.327 Y-20.517
X18.653 Y-20.167
G2 X19.165 Y-20.37 I0.212 J-0.212
G1 X19.168 Y-20.458
X19.183 Y-20.973 F1200
X19.201 Y-21.53 F80
X19.197 Y-21.587
X19.183 Y-21.642
X19.158 Y-21.693
X19.125 Y-21.739
X18.819 Y-22.058
X18.695 Y-22.174
X18.321 Y-22.198
X18.278 Y-22.178
X18.087 Y-22.058
X17.936 Y-21.892
X17.835 Y-21.691
X17.791 Y-21.47
X17.808 Y-21.246
X17.885 Y-21.034
X18.015 Y-20.851
X18.327 Y-20.517
G2 X18.839 Y-20.714 I0.212 J-0.212
G1 X18.843 Y-20.808
X18.867 Y-21.292 F1200
X18.895 Y-21.843 F80
X18.892 Y-21.901
X18.878 Y-21.958
X18.853 Y-22.011
X18.819 Y-22.058
X18.513 Y-22.368
X18.377 Y-22.474
X18.004 Y-22.511
X17.98 Y-22.5
X17.786 Y-22.38
X17.633 Y-22.212
X17.53 Y-22.009
X17.487 Y-21.785
X17.506 Y-21.558
X17.585 Y-21.345
X17.719 Y-21.161
X18.015 Y-20.851
G2 X18.526 Y-21.045 I0.212 J-0.212
G1 X18.532 Y-21.142
X18.56 Y-21.604 F1200
X18.593 Y-22.145 F80
X18.591 Y-22.206
X18.576 Y-22.265
X18.55 Y-22.32
X18.513 Y-22.368
X18.371 Y-22.491
X18.045 Y-22.71
X17.884 Y-22.805
X17.671 Y-22.74
X17.484 Y-22.62
X17.337 Y-22.453
X17.241 Y-22.253
X17.204 Y-22.033
X17.228 Y-21.812
X17.311 Y-21.606
X17.448 Y-21.431
X17.617 Y-21.267
X17.719 Y-21.161
G2 X18.227 Y-21.392 I0.209 J-0.216
G1 X18.224 Y-21.46
X18.198 Y-21.967 F1200
X18.172 Y-22.48 F80
G2 X18.045 Y-22.71 I-0.3 J0.015
G1 X17.732 Y-22.915
X17.571 Y-23.01
X17.2 Y-22.956
X17.027 Y-22.789
X16.913 Y-22.589
X16.857 Y-22.365
X16.866 Y-22.135
X16.937 Y-21.915
X17.065 Y-21.724
X17.241 Y-21.575
G2 X17.687 Y-21.775 I0.151 J-0.259
G1 X17.729 Y-21.986
X17.767 Y-22.181 F1200
X17.854 Y-22.612 F80
G2 X17.732 Y-22.915 I-0.294 J-0.059
G1 X17.289 Y-23.206
X17.126 Y-23.299
X16.768 Y-23.189
X16.727 Y-23.154
X16.583 Y-22.985
X16.488 Y-22.785
X16.45 Y-22.567
X16.47 Y-22.346
X16.547 Y-22.139
X16.677 Y-21.959
X16.849 Y-21.82
X17.241 Y-21.575
G2 X17.684 Y-21.906 I0.151 J-0.259
G1 X17.664 Y-21.987
X17.543 Y-22.478 F1200
X17.407 Y-23.032 F80
X17.39 Y-23.083
X17.364 Y-23.13
X17.33 Y-23.171
X17.289 Y-23.206
X16.983 Y-23.402
X16.818 Y-23.493
X16.632 Y-23.475
X16.282 Y-23.338
X16.143 Y-23.136
X16.068 Y-22.902
X16.065 Y-22.656
X16.134 Y-22.42
X16.269 Y-22.215
X16.458 Y-22.058
X16.849 Y-21.82
G2 X17.292 Y-22.132 I0.147 J-0.262
G1 X17.273 Y-22.24
X17.2 Y-22.667 F1200
X17.108 Y-23.206 F80
X17.092 Y-23.264
X17.065 Y-23.317
X17.028 Y-23.364
X16.983 Y-23.402
X16.677 Y-23.591
X16.512 Y-23.68
X16.326 Y-23.702
X15.959 Y-23.617
X15.816 Y-23.448
X15.722 Y-23.248
X15.684 Y-23.03
X15.705 Y-22.81
X15.782 Y-22.603
X15.912 Y-22.424
X16.084 Y-22.285
X16.458 Y-22.058
G2 X16.904 Y-22.347 I0.147 J-0.262
G1 X16.891 Y-22.479
X16.857 Y-22.853 F1200
X16.81 Y-23.368 F80
G2 X16.677 Y-23.591 I-0.299 J0.027
G1 X16.202 Y-23.88
X16.038 Y-23.97
X15.666 Y-23.922
X15.629 Y-23.894
X15.466 Y-23.73
X15.355 Y-23.528
X15.303 Y-23.303
X15.315 Y-23.073
X15.39 Y-22.854
X15.521 Y-22.665
X15.7 Y-22.518
X16.084 Y-22.285
G2 X16.526 Y-22.6 I0.147 J-0.262
G1 X16.507 Y-22.706
X16.428 Y-23.149 F1200
X16.333 Y-23.683 F80
X16.316 Y-23.741
X16.288 Y-23.795
X16.249 Y-23.842
X16.202 Y-23.88
X15.855 Y-24.092
X15.69 Y-24.182
X15.503 Y-24.173
X15.147 Y-24.047
X15.002 Y-23.845
X14.924 Y-23.61
X14.918 Y-23.361
X14.986 Y-23.122
X15.121 Y-22.914
X15.312 Y-22.755
X15.7 Y-22.518
G2 X16.144 Y-22.824 I0.147 J-0.262
G1 X16.127 Y-22.939
X16.065 Y-23.358 F1200
X15.987 Y-23.886 F80
X15.971 Y-23.947
X15.943 Y-24.003
X15.904 Y-24.052
X15.855 Y-24.092
X15.472 Y-24.327
X15.307 Y-24.416
X15.12 Y-24.406
X14.764 Y-24.286
X14.615 Y-24.077
X14.537 Y-23.842
X14.532 Y-23.594
X14.6 Y-23.356
X14.735 Y-23.148
X14.926 Y-22.989
X15.312 Y-22.755
G2 X15.756 Y-23.059 I0.147 J-0.262
G1 X15.739 Y-23.176
X15.679 Y-23.592 F1200
X15.603 Y-24.119 F80
X15.588 Y-24.18
X15.56 Y-24.237
X15.52 Y-24.286
X15.472 Y-24.327
X15.147 Y-24.525
X14.982 Y-24.615
X14.796 Y-24.636
X14.427 Y-24.55
X14.283 Y-24.381
X14.189 Y-24.181
X14.151 Y-23.963
X14.171 Y-23.743
X14.249 Y-23.536
X14.378 Y-23.357
X14.55 Y-23.218
X14.926 Y-22.989
G2 X15.371 Y-23.278 I0.147 J-0.262
G1 X15.359 Y-23.411
X15.326 Y-23.787 F1200
X15.28 Y-24.301 F80
G2 X15.147 Y-24.525 I-0.299 J0.027
G1 X14.672 Y-24.815
X14.508 Y-24.904
X14.136 Y-24.858
X13.836 Y-24.632
X13.747 Y-24.433
X13.713 Y-24.217
X13.736 Y-24
X13.815 Y-23.796
X13.943 Y-23.62
X14.113 Y-23.483
X14.55 Y-23.218
G2 X14.993 Y-23.531 I0.147 J-0.262
G1 X14.974 Y-23.638
X14.896 Y-24.083 F1200
X14.803 Y-24.616 F80
X14.786 Y-24.675
X14.758 Y-24.729
X14.72 Y-24.776
X14.672 Y-24.815
X14.337 Y-25.019
X14.172 Y-25.109
X13.986 Y-25.124
X13.617 Y-25.04
X13.474 Y-24.872
X13.38 Y-24.672
X13.342 Y-24.454
X13.363 Y-24.234
X13.44 Y-24.027
X13.57 Y-23.848
X13.742 Y-23.709
X14.113 Y-23.483
G2 X14.559 Y-23.771 I0.147 J-0.262
G1 X14.547 Y-23.905
X14.515 Y-24.282 F1200
X14.471 Y-24.795 F80
G2 X14.337 Y-25.019 I-0.299 J0.026
G1 X13.923 Y-25.273
X13.758 Y-25.362
X13.571 Y-25.361
X13.213 Y-25.249
X13.061 Y-25.048
X12.976 Y-24.81
X12.967 Y-24.558
X13.033 Y-24.315
X13.168 Y-24.103
X13.362 Y-23.941
X13.742 Y-23.709
G2 X14.186 Y-24.008 I0.147 J-0.262
G1 X14.171 Y-24.131
X14.12 Y-24.537 F1200
X14.055 Y-25.059 F80
G2 X13.923 Y-25.273 I-0.298 J0.037
G1 X13.468 Y-25.551
X13.303 Y-25.64
X12.933 Y-25.578
X12.897 Y-25.55
X12.736 Y-25.386
X12.625 Y-25.184
X12.575 Y-24.96
X12.587 Y-24.73
X12.662 Y-24.512
X12.794 Y-24.323
X12.972 Y-24.177
X13.362 Y-23.941
G2 X13.803 Y-24.258 I0.147 J-0.262
G1 X13.784 Y-24.361
X13.698 Y-24.82 F1200
X13.597 Y-25.355 F80
X13.58 Y-25.413
X13.552 Y-25.466
X13.514 Y-25.513
X13.468 Y-25.551
X13.142 Y-25.746
X12.976 Y-25.833
X12.789 Y-25.83
X12.432 Y-25.713
X12.283 Y-25.511
X12.201 Y-25.275
X12.193 Y-25.024
X12.26 Y-24.783
X12.396 Y-24.572
X12.588 Y-24.411
X12.972 Y-24.177
G2 X13.416 Y-24.478 I0.147 J-0.262
G1 X13.401 Y-24.599
X13.346 Y-25.013 F1200
X13.278 Y-25.532 F80
G2 X13.142 Y-25.746 I-0.297 J0.039
G1 X12.699 Y-26.006
X12.532 Y-26.092
X12.161 Y-26.037
X12.136 Y-26.018
X11.973 Y-25.855
X11.862 Y-25.652
X11.81 Y-25.427
X11.822 Y-25.197
X11.897 Y-24.978
X12.028 Y-24.789
X12.207 Y-24.643
X12.588 Y-24.411
G2 X13.03 Y-24.726 I0.147 J-0.262
G1 X13.011 Y-24.831
X12.93 Y-25.278 F1200
X12.834 Y-25.806 F80
X12.816 Y-25.866
X12.787 Y-25.92
X12.747 Y-25.968
X12.699 Y-26.006
X12.225 Y-26.283
X12.058 Y-26.368
X11.702 Y-26.249
X11.663 Y-26.213
X11.524 Y-26.044
X11.433 Y-25.844
X11.398 Y-25.628
X11.42 Y-25.41
X11.499 Y-25.206
X11.628 Y-25.029
X11.798 Y-24.891
X12.207 Y-24.643
G2 X12.645 Y-24.979 I0.147 J-0.262
G1 X12.623 Y-25.061
X12.494 Y-25.563 F1200
X12.356 Y-26.103 F80
X12.336 Y-26.157
X12.307 Y-26.205
X12.27 Y-26.248
X12.225 Y-26.283
X11.902 Y-26.469
X11.724 Y-26.559
X11.539 Y-26.53
X11.197 Y-26.377
X11.07 Y-26.175
X11.006 Y-25.945
X11.01 Y-25.707
X11.082 Y-25.479
X11.216 Y-25.282
X11.402 Y-25.132
X11.798 Y-24.891
G2 X12.24 Y-25.209 I0.147 J-0.262
G1 X12.22 Y-25.311
X12.138 Y-25.742 F1200
X12.038 Y-26.27 F80
X12.02 Y-26.329
X11.991 Y-26.383
X11.951 Y-26.431
X11.902 Y-26.469
X11.628 Y-26.623
X11.475 Y-26.673
X11.293 Y-26.72
X11.108 Y-26.693
X10.769 Y-26.533
X10.651 Y-26.322
X10.603 Y-26.085
X10.626 Y-25.844
X10.72 Y-25.622
X10.876 Y-25.437
X11.08 Y-25.307
G2 X11.485 Y-25.52 I0.112 J-0.278
G1 X11.543 Y-25.779
X11.588 Y-25.981 F1200
X11.664 Y-26.326 F80
G2 X11.475 Y-26.673 I-0.293 J-0.065
G1 X10.994 Y-26.825
X10.812 Y-26.872
X10.63 Y-26.826
X10.309 Y-26.632
X10.212 Y-26.407
X10.187 Y-26.162
X10.237 Y-25.921
X10.358 Y-25.707
X10.538 Y-25.54
X10.76 Y-25.434
G2 X11.135 Y-25.703 I0.076 J-0.29
G1 X11.153 Y-25.961
X11.165 Y-26.127 F1200
X11.193 Y-26.521 F80
G2 X10.994 Y-26.825 I-0.299 J-0.021
G1 X10.557 Y-26.962
X10.375 Y-27.01
X10.195 Y-26.958
X9.876 Y-26.761
X9.785 Y-26.528
X9.767 Y-26.278
X9.824 Y-26.034
X9.952 Y-25.819
X10.139 Y-25.652
X10.367 Y-25.548
X10.76 Y-25.434
G2 X11.114 Y-25.835 I0.076 J-0.29
G1 X11.069 Y-25.951
X10.931 Y-26.298 F1200
X10.736 Y-26.79 F80
X10.706 Y-26.847
X10.665 Y-26.896
X10.614 Y-26.935
X10.557 Y-26.962
X10.181 Y-27.081
X9.998 Y-27.122
X9.813 Y-27.096
X9.479 Y-26.92
X9.384 Y-26.719
X9.345 Y-26.5
X9.366 Y-26.279
X9.445 Y-26.071
X9.575 Y-25.891
X9.749 Y-25.752
X9.953 Y-25.664
X10.367 Y-25.548
G2 X10.719 Y-25.944 I0.071 J-0.291
G1 X10.672 Y-26.071
X10.545 Y-26.413 F1200
X10.363 Y-26.902 F80
G2 X10.181 Y-27.081 I-0.281 J0.105
G1 X9.639 Y-27.232
X9.456 Y-27.274
X9.283 Y-27.201
X8.986 Y-26.965
X8.91 Y-26.734
X8.904 Y-26.49
X8.969 Y-26.255
X9.099 Y-26.048
X9.283 Y-25.889
X9.506 Y-25.789
X9.953 Y-25.664
G2 X10.294 Y-26.086 I0.071 J-0.292
G1 X10.248 Y-26.183
X10.053 Y-26.589 F1200
X9.818 Y-27.076 F80
X9.787 Y-27.128
X9.745 Y-27.173
X9.695 Y-27.208
X9.639 Y-27.232
X9.198 Y-27.356
X9.015 Y-27.397
X8.67 Y-27.25
X8.65 Y-27.224
X8.533 Y-27.023
X8.477 Y-26.797
X8.486 Y-26.564
X8.558 Y-26.343
X8.689 Y-26.151
X8.868 Y-26.002
X9.081 Y-25.908
X9.506 Y-25.789
G2 X9.848 Y-26.21 I0.071 J-0.292
G1 X9.801 Y-26.309
X9.609 Y-26.711 F1200
X9.378 Y-27.199 F80
X9.346 Y-27.251
X9.304 Y-27.296
X9.254 Y-27.331
X9.198 Y-27.356
X8.721 Y-27.489
X8.538 Y-27.53
X8.208 Y-27.352
X8.18 Y-27.312
X8.077 Y-27.111
X8.032 Y-26.889
X8.048 Y-26.663
X8.124 Y-26.45
