(wingfuselageconnection)
(T1  D=3 CR=0 - ZMIN=-6 - flat end mill)
G90 G94
G17
G21
G28 G91 Z0
G90

(Adaptive1)
T1
S18000 M3
G54
G0 X-43.51 Y13.396
Z2
Z-5.39
G1 Z-5.69 F200
X-43.504 Y13.392 Z-5.757
X-43.485 Y13.38 Z-5.82
X-43.455 Y13.361 Z-5.877
X-43.415 Y13.336 Z-5.925
X-43.367 Y13.305 Z-5.96
X-43.313 Y13.271 Z-5.982
X-43.257 Y13.236 Z-5.99
G2 X-41.965 Y12.209 I-4.091 J-6.475
G1 X-41.911 Y12.153
G2 X-41.882 Y9.033 I-101.528 J-2.522
G1 Y1.546
X-41.884 Y-9.997
X-41.82 Y-10.302
X-41.683 Y-10.583
X-41.302 Y-11.077
X-40.781 Y-11.42
X-40.195 Y-11.634
G3 X-37.716 Y-11.865 I2.232 J10.503
G1 X-37.092 Y-11.878
X-36.468 Y-11.881
X-35.22 Y-11.884
X-28.98 Y-11.885
X-14.63
X35.91
X39.966
X40.273 Y-11.829
X40.556 Y-11.698
X41.057 Y-11.327
X41.407 Y-10.81
X41.626 Y-10.226
X41.751 Y-9.615
G3 X41.876 Y-6.5 I-24.093 J2.528
G1 X41.884 Y-5.252
X41.885 Y0.364
Y10.035
X41.81 Y10.338
X41.666 Y10.614
X41.275 Y11.1
X40.748 Y11.435
X40.16 Y11.643
G3 X37.679 Y11.866 I-2.23 J-10.874
G1 X37.055 Y11.878
X36.431 Y11.882
X35.183 Y11.885
X28.32 Y11.886
X18.961
X-31.579 Y11.889
X-39.378
X-39.684 Y11.831
X-39.966 Y11.697
X-40.465 Y11.322
X-40.812 Y10.803
X-41.027 Y10.218
X-41.15 Y9.606
G3 X-41.273 Y6.491 I24.623 J-2.529
G1 X-41.281 Y5.243
X-41.282 Y2.254
X-41.283 Y2.208
X-41.286 Y2.162
X-41.291 Y2.116
G3 X-41.498 Y-0.071 I29.7 J-3.911
G1 X-41.471 Y-0.354
X-41.458 Y-0.495
X-41.389 Y-1.203
G2 X-41.287 Y-4.945 I-49.26 J-3.209
G1 X-41.284 Y-6.816
Y-8.688
X-41.265 Y-9.312
X-41.041 Y-9.895
X-40.637 Y-10.37
X-40.12 Y-10.719
X-39.541 Y-10.952
X-38.934 Y-11.098
G3 X-36.447 Y-11.268 I2.319 J15.664
X-32.197 Y-11.286 I3.247 J266.473
G1 X-32.158 Y-11.291
X-31.745 Y-11.335
X-30.328 Y-11.474
X-29.903 Y-11.499
X-29.619 Y-11.5
X29.761
X29.903 Y-11.499
X30.328 Y-11.474
X31.126 Y-11.396
G2 X34.867 Y-11.288 I3.253 J-47.772
G1 X36.739 Y-11.285
X39.235 Y-11.284
X39.827 Y-11.087
X40.318 Y-10.702
X40.682 Y-10.195
X40.929 Y-9.622
X41.084 Y-9.018
G3 X41.266 Y-6.532 I-14.605 J2.321
X41.286 Y-2.142 I-260.782 J3.368
G1 X41.294 Y-2.096
G3 X41.498 Y0.071 I-29.465 J3.869
G1 X41.471 Y0.354
X41.458 Y0.495
X41.389 Y1.203
G2 X41.288 Y4.945 I49.902 J3.21
G1 X41.285 Y6.817
Y8.688
X41.265 Y9.312
X41.042 Y9.895
X40.638 Y10.37
X40.12 Y10.719
X39.542 Y10.952
X38.935 Y11.098
G3 X36.448 Y11.268 I-2.318 J-15.658
X32.193 Y11.286 I-3.266 J-266.553
G1 X32.154 Y11.292
X31.745 Y11.335
X30.328 Y11.474
X29.903 Y11.499
X29.619 Y11.5
X-29.761
X-29.903 Y11.499
X-30.328 Y11.474
X-31.126 Y11.396
G2 X-34.868 Y11.293 I-3.226 J48.871
G1 X-36.74 Y11.289
X-38.611
X-39.206 Y11.101
X-39.701 Y10.721
X-40.069 Y10.217
X-40.32 Y9.646
X-40.477 Y9.042
G3 X-40.662 Y6.556 I14.403 J-2.324
X-40.683 Y4.294 I143.579 J-2.444
G1 X-40.702 Y4.186
X-40.729 Y4.081
X-41.13 Y2.761
X-41.254 Y2.336
X-41.281 Y2.194
X-41.291 Y2.116
G2 X-41.426 Y1.901 I-0.298 J0.038
G3 X-41.563 Y1.676 I0.162 J-0.252
G1 X-41.586 Y1.426
X-41.74 Y-0.27
Y-0.324
X-41.73 Y-0.378
X-41.711 Y-0.429
X-41.683 Y-0.475
X-41.678 Y-0.482
G2 X-41.389 Y-1.203 I-1.279 J-0.932
G3 X-41.256 Y-2.336 I13.795 J1.04
G1 X-41.13 Y-2.761
X-40.958 Y-3.327
G2 X-40.714 Y-5.35 I-8.404 J-2.039
X-40.679 Y-8.47 I-154.9 J-3.328
G1 X-40.492 Y-9.066
X-40.131 Y-9.575
X-39.645 Y-9.966
X-39.085 Y-10.242
X-38.488 Y-10.423
G3 X-36.007 Y-10.657 I2.409 J12.268
G1 X-34.277 Y-10.685
X-34.16 Y-10.706
X-34.046 Y-10.738
G3 X-32.159 Y-11.293 I8.634 J25.918
G1 X-31.97 Y-11.396
X-31.915 Y-11.679
X-32.133 Y-11.857
X-32.17 Y-11.887
X-36.989 Y-12.905
X-39.115 Y-12.648
X-39.823 Y-12.42
G2 X-40.247 Y-12.246 I0.737 J2.389
G1 X-40.957 Y-11.842
G2 X-41.38 Y-11.538 I1.241 J2.171
G1 X-41.665 Y-11.28
G2 X-41.948 Y-10.972 I1.695 J1.838
G1 X-42.589 Y-9.981
X-43.803 Y-5.026
X-44.002 Y-4.176
G2 X-41.014 Y-3.185 I1.546 J0.337
G1 X-40.958 Y-3.327
G3 X-40.597 Y-4.46 I10.686 J2.781
G1 X-40.532 Y-4.59
G2 X-40.212 Y-5.838 I-3.495 J-1.562
G1 X-40.152 Y-6.383
X-40.117 Y-7.006
X-40.097 Y-7.629
X-39.958 Y-8.238
X-39.644 Y-8.776
X-39.193 Y-9.208
X-38.655 Y-9.524
X-38.07 Y-9.741
G3 X-35.734 Y-10.037 I2.391 J9.481
G1 X-35.573 Y-10.06
X-35.417 Y-10.103
X-35.268 Y-10.169
G0 Z2
X-41.339 Y-3.875
Z-5.39
G1 Z-5.69 F200
X-41.332 Y-3.878 Z-5.757
X-41.313 Y-3.89 Z-5.82
X-41.283 Y-3.908 Z-5.877
X-41.242 Y-3.933 Z-5.925
X-41.194 Y-3.962 Z-5.96
X-41.139 Y-3.995 Z-5.982
X-41.082 Y-4.03 Z-5.99
G2 X-40.532 Y-4.59 I-0.818 J-1.355
G1 X-39.996 Y-5.592
G2 X-39.659 Y-6.66 I-3.717 J-1.762
G1 X-39.541 Y-7.273
X-39.298 Y-7.847
X-38.909 Y-8.335
X-38.414 Y-8.715
G3 X-36.829 Y-9.27 I2.326 J4.102
G1 X-36.676 Y-9.348
X-36.534 Y-9.442
X-36.427 Y-9.697
X-36.564 Y-9.924
X-36.801 Y-9.976
X-38.548 Y-10.353
X-39.115 Y-10.177
X-39.681 Y-9.803
X-39.754 Y-9.754
X-39.823 Y-9.699
X-39.825 Y-9.697
X-39.898 Y-9.63
X-39.964 Y-9.556
X-41.907 Y-6.866
G2 X-40.093 Y-5.45 I0.916 J0.697
G1 X-39.996 Y-5.592
G3 X-39.525 Y-6.443 I16.286 J8.463
G1 X-39.156 Y-6.946
G3 X-38.457 Y-7.746 I3.324 J2.196
G1 X-38.426 Y-7.784
G2 X-38.896 Y-8.157 I-0.238 J-0.183
G1 X-39.982 Y-6.828
G2 X-39.523 Y-6.441 I0.232 J0.19
G3 X-38.122 Y-8.142 I51.633 J41.126
X-36.282 Y-9.629 I19.615 J22.384
G1 X-35.855 Y-9.856
X-34.58 Y-10.537
G3 X-34.046 Y-10.737 I1.257 J2.536
G1 X-33.857 Y-10.972
X-33.968 Y-11.255
X-34.147 Y-11.276
X-34.296 Y-11.294
X-38.217 Y-10.598
G2 X-39.54 Y-9.972 I0.36 J2.474
G1 X-39.681 Y-9.838
X-39.823 Y-9.699
X-41.331 Y-7.857
G2 X-41.524 Y-7.576 I1.962 J1.549
G1 X-42.846 Y-5.026
X-43.552 Y-2.619
X-43.809 Y0.212
X-42.727 Y9.414
X-42.211 Y10.972
G2 X-41.632 Y11.963 I2.39 J-0.733
G1 X-40.673 Y12.866
X-39.823 Y13.331
X-36.564 Y13.841
X-31.603 Y14.525
G2 X-29.761 Y12.814 I0.267 J-1.56
G1 Y12.812
G2 X-31.037 Y11.411 I-1.575 J0.153
G1 X-31.126 Y11.396
X-31.745 Y11.335
G3 X-32.814 Y11.111 I0.235 J-3.771
G1 X-33.282 Y10.972
G2 X-35.339 Y10.72 I-2.067 J8.354
X-37.834 Y10.688 I-2.41 J92.264
G1 X-38.434 Y10.516
X-38.949 Y10.162
X-39.345 Y9.681
X-39.627 Y9.124
X-39.812 Y8.528
G3 X-40.057 Y5.723 I13.038 J-2.55
G1 X-40.079 Y5.551
X-40.123 Y5.384
X-40.192 Y5.226
X-40.532 Y4.59
G3 X-40.729 Y4.081 I2.021 J-1.076
G1 X-40.957 Y3.884
X-41.24 Y3.984
X-41.297 Y4.159
X-42.078 Y6.583
G2 X-42.141 Y7.716 I2.147 J0.688
G1 X-41.722 Y9.697
X-40.625 Y11.538
X-39.527 Y12.387
X-34.296 Y13.97
G2 X-33.162 Y11.018 I0.502 J-1.501
G1 X-33.282 Y10.972
G3 X-34.58 Y10.539 I2.314 J-9.102
G2 X-35.827 Y10.217 I-1.545 J3.416
G1 X-36.392 Y10.155
X-37.015 Y10.12
X-37.623 Y9.981
X-38.163 Y9.668
X-38.597 Y9.219
X-38.915 Y8.683
X-39.134 Y8.099
X-39.274 Y7.491
X-39.361 Y6.873
G2 X-39.54 Y6.421 I-0.81 J0.058
G1 X-39.842 Y6.3
X-40.107 Y6.569
X-40.143 Y6.643
X-40.673 Y7.693
G2 X-40.703 Y8.99 I1.262 J0.677
G1 X-40.098 Y10.122
X-39.333 Y10.972
X-35.997 Y13.026
X-35.928 Y13.063
X-35.857 Y13.095
X-35.855 Y13.096
G2 X-34.562 Y10.547 I0.56 J-1.318
G1 X-34.58 Y10.537
X-35.572 Y10.007
G2 X-36.765 Y9.597 I-2.6 J5.624
G1 X-37.321 Y9.314
X-37.79 Y8.901
X-38.152 Y8.394
X-38.386 Y7.89
X-38.428 Y7.807
X-38.478 Y7.728
X-38.534 Y7.653
X-38.581 Y7.61
X-38.635 Y7.578
X-38.696 Y7.558
X-38.759 Y7.552
X-39.026 Y7.716
X-39.037 Y7.932
X-39.115 Y9.472
X-38.804 Y9.981
X-36.495 Y11.538
G2 X-35.147 Y10.972 I0.475 J-0.757
G1 X-35.182 Y10.65
X-35.209 Y10.405
X-35.572 Y10.007
X-35.997 Y9.779
X-36.28 Y9.626
G3 X-38.123 Y8.139 I18.755 J-25.123
X-39.616 Y6.305 I24.912 J-21.805
G1 X-39.768 Y6.017
X-39.845 Y5.875
X-40.192 Y5.226
G0 Z2
X30.157 Y-11.868
Z-5.39
G1 Z-5.69 F200
X30.163 Y-11.864 Z-5.757
X30.181 Y-11.851 Z-5.82
X30.209 Y-11.829 Z-5.877
X30.248 Y-11.801 Z-5.925
X30.293 Y-11.768 Z-5.96
X30.344 Y-11.73 Z-5.982
X30.398 Y-11.69 Z-5.99
G2 X31.126 Y-11.396 I0.938 J-1.274
G1 X31.745 Y-11.335
G3 X32.814 Y-11.111 I-0.235 J3.771
G1 X33.282 Y-10.972
G2 X35.357 Y-10.715 I2.084 J-8.342
X38.477 Y-10.68 I3.179 J-143.272
G1 X39.073 Y-10.494
X39.58 Y-10.13
X39.969 Y-9.642
X40.244 Y-9.082
X40.425 Y-8.485
G3 X40.657 Y-6.004 I-12.288 J2.403
G1 X40.672 Y-5.38
G2 X40.698 Y-4.186 I10.995 J0.352
G1 X40.729 Y-4.082
X41.13 Y-2.761
X41.254 Y-2.336
X41.281 Y-2.194
X41.294 Y-2.096
G2 X41.429 Y-1.881 I0.298 J-0.038
G3 X41.565 Y-1.656 I-0.162 J0.252
G1 X41.588 Y-1.406
X41.74 Y0.27
Y0.324
X41.73 Y0.378
X41.711 Y0.429
X41.683 Y0.475
X41.678 Y0.482
G2 X41.389 Y1.203 I1.279 J0.932
G3 X41.256 Y2.336 I-13.795 J-1.04
G1 X41.13 Y2.761
X40.958 Y3.327
G2 X40.715 Y5.347 I8.423 J2.037
X40.68 Y8.467 I150.068 J3.273
G1 X40.494 Y9.063
X40.134 Y9.573
X39.648 Y9.965
X39.089 Y10.241
X38.492 Y10.422
G3 X36.011 Y10.657 I-2.41 J-12.239
G1 X34.276 Y10.686
X34.159 Y10.707
X34.045 Y10.739
G3 X32.154 Y11.293 I-8.486 J-25.432
G1 X31.966 Y11.396
X31.91 Y11.679
X32.029 Y11.838
X32.11 Y11.857
X36.564 Y12.932
X38.548 Y12.769
X40.248 Y12.239
X41.099 Y11.732
X41.512 Y11.396
G2 X41.952 Y10.975 I-1.497 J-2.002
G1 X42.589 Y9.981
X43.791 Y5.077
X44.002 Y4.176
G2 X40.958 Y3.327 I-1.546 J-0.337
G3 X40.597 Y4.46 I-10.686 J-2.781
G1 X40.532 Y4.59
G2 X40.211 Y5.844 I3.51 J1.564
G1 X40.151 Y6.394
X40.117 Y7.017
X40.098 Y7.641
X39.955 Y8.248
X39.638 Y8.785
X39.185 Y9.215
X38.647 Y9.53
X38.061 Y9.744
G3 X35.734 Y10.038 I-2.385 J-9.533
G1 X35.573 Y10.061
X35.416 Y10.104
X35.267 Y10.17
G0 Z2
X41.339 Y3.875
Z-5.39
G1 Z-5.69 F200
X41.332 Y3.878 Z-5.757
X41.313 Y3.89 Z-5.82
X41.283 Y3.908 Z-5.877
X41.242 Y3.933 Z-5.925
X41.194 Y3.962 Z-5.96
X41.139 Y3.995 Z-5.982
X41.082 Y4.03 Z-5.99
G2 X40.532 Y4.59 I0.818 J1.355
G1 X39.996 Y5.592
G2 X39.768 Y6.205 I2.74 J1.369
G1 X39.622 Y6.811
X39.487 Y7.421
X39.206 Y7.978
X38.788 Y8.441
X38.275 Y8.795
G3 X36.838 Y9.271 I-2.286 J-4.491
G1 X36.677 Y9.349
X36.528 Y9.447
X36.422 Y9.712
X36.564 Y9.933
X36.795 Y9.983
X38.548 Y10.364
X39.115 Y10.179
X39.965 Y9.524
X41.911 Y6.866
G2 X41.631 Y5.211 I-0.919 J-0.696
X39.996 Y5.592 I-0.638 J0.959
G3 X39.525 Y6.443 I-16.286 J-8.463
G1 X39.156 Y6.946
G3 X38.466 Y7.735 I-3.161 J-2.066
G1 X38.434 Y7.774
G2 X38.904 Y8.147 I0.238 J0.183
G1 X39.982 Y6.828
G2 X39.523 Y6.441 I-0.232 J-0.19
G3 X38.122 Y8.142 I-52.499 J-41.838
X36.282 Y9.629 I-19.644 J-22.422
G1 X35.855 Y9.856
X34.58 Y10.537
G3 X34.045 Y10.737 I-1.26 J-2.544
G1 X33.856 Y10.972
X33.966 Y11.255
X34.146 Y11.276
X34.296 Y11.294
X38.689 Y10.481
X39.54 Y9.972
X39.681 Y9.838
X39.823 Y9.699
X41.211 Y7.999
G2 X41.524 Y7.576 I-1.842 J-1.69
G1 X42.846 Y5.026
X43.552 Y2.619
X43.809 Y-0.212
X42.758 Y-8.565
X42.367 Y-9.981
X41.645 Y-11.255
X41.399 Y-11.538
X41.274 Y-11.677
X40.248 Y-12.459
X39.256 Y-12.821
X34.154 Y-14.01
G2 X33.162 Y-11.018 I-0.361 J1.541
G1 X33.282 Y-10.972
G3 X34.58 Y-10.539 I-2.314 J9.102
G2 X35.806 Y-10.217 I1.539 J-3.367
G1 X36.331 Y-10.157
X36.954 Y-10.12
X37.578 Y-10.1
X38.19 Y-9.977
X38.736 Y-9.676
X39.177 Y-9.234
X39.502 Y-8.702
X39.726 Y-8.119
G3 X40.038 Y-5.731 I-9.295 J2.428
G1 X40.061 Y-5.57
X40.104 Y-5.415
X40.17 Y-5.267
G0 Z2
X33.862 Y-11.342
Z-5.39
G1 Z-5.69 F200
X33.866 Y-11.335 Z-5.757
X33.877 Y-11.317 Z-5.82
X33.896 Y-11.286 Z-5.877
X33.92 Y-11.245 Z-5.925
X33.95 Y-11.197 Z-5.96
X33.983 Y-11.143 Z-5.982
X34.018 Y-11.086 Z-5.99
G2 X34.58 Y-10.537 I1.352 J-0.822
G1 X35.572 Y-10.007
G2 X36.557 Y-9.684 I1.666 J-3.416
G1 X37.17 Y-9.565
X37.755 Y-9.349
X38.26 Y-8.983
X38.659 Y-8.503
X38.952 Y-7.952
X39.153 Y-7.361
X39.234 Y-6.987
X39.283 Y-6.823
X39.356 Y-6.669
X39.453 Y-6.528
X39.5 Y-6.484
X39.555 Y-6.452
X39.616 Y-6.431
X39.68 Y-6.425
X39.944 Y-6.583
X39.992 Y-6.798
X40.384 Y-8.565
X40.195 Y-9.131
X39.54 Y-10.034
X36.847 Y-12.066
G2 X35.15 Y-11.693 I-0.668 J1.011
X35.572 Y-10.007 I1.03 J0.638
G3 X36.423 Y-9.531 I-3.405 J7.085
G1 X36.933 Y-9.171
X37.432 Y-8.796
G2 X37.801 Y-8.411 I2.879 J-2.395
G1 X37.857 Y-8.378
X37.919 Y-8.357
X37.984 Y-8.35
X38.049 Y-8.357
X38.111 Y-8.378
X38.167 Y-8.412
X38.214 Y-8.457
X38.25 Y-8.512
X38.274 Y-8.573
X38.284 Y-8.637
X38.279 Y-8.703
X38.261 Y-8.765
X38.238 Y-8.809
X38.208 Y-8.849
X38.173 Y-8.883
X36.803 Y-9.992
G2 X36.314 Y-9.76 I-0.189 J0.233
G1 Y-9.759
G2 X36.422 Y-9.529 I0.3 J0
G3 X38.122 Y-8.138 I-37.36 J47.434
X39.616 Y-6.304 I-24.384 J21.382
X40.596 Y-4.461 I-682.368 J364.076
G1 X40.655 Y-4.318
X40.716 Y-4.125
X40.729 Y-4.082
G2 X41.307 Y-4.124 I0.283 J-0.098
G1 X41.319 Y-4.189 Z-5.982
X41.331 Y-4.252 Z-5.96
X41.342 Y-4.308 Z-5.925
X41.351 Y-4.354 Z-5.877
X41.358 Y-4.389 Z-5.82
X41.362 Y-4.411 Z-5.757
X41.363 Y-4.419 Z-5.69
G0 Z2

(Drill2)
X-35 Y0
Z2
G1 Z-6 F30
G0 Z2
X35
G1 Z-6 F30
G0 Z2
G28 G91 Z0
G90
G28 G91 X0 Y0
G90
M5
M30
