(fullairfoil2)
(T2  D=1 CR=0.5 - ZMIN=-2.5 - ball end mill)
G90 G94
G17
G21
G28 G91 Z0
G90

(Contour1)
T2
S18000 M3
G54
M8
G0 X78.091 Y-1.226
Z2
Z1.598
G1 Z-2.4 F600
X78.092 Y-1.219 Z-2.438
X78.095 Y-1.197 Z-2.471
X78.1 Y-1.165 Z-2.492
X78.105 Y-1.127 Z-2.5
X78.549 Y2.123
X78.547 Y2.162
X78.53 Y2.197
X78.501 Y2.223
X78.464 Y2.235
X78.456 Y2.236
X78.179 Y2.277
X78.099 Y2.289
X77.939 Y2.314
X77.86 Y2.327
X77.82 Y2.336
X77.78 Y2.349
X77.74 Y2.365
X77.72 Y2.375
X77.7 Y2.386
X77.689 Y2.393
X77.655 Y2.416
X77.637 Y2.43
X77.62 Y2.444
X77.591 Y2.473
X77.564 Y2.504
X77.54 Y2.535
X77.529 Y2.553
X77.517 Y2.573
X77.506 Y2.592
X77.497 Y2.612
X77.488 Y2.632
X77.474 Y2.672
X77.464 Y2.712
X77.461 Y2.728
X77.456 Y2.76
X77.453 Y2.792
X77.451 Y2.872
X77.345 Y6.914
X77.344 Y6.916
X73.348 Y6.811
X73.346 Y6.809
X73.425 Y3.828
Y3.749
X73.421 Y3.709
X73.414 Y3.669
X73.404 Y3.632
X73.391 Y3.595
X73.389 Y3.589
X73.38 Y3.569
X73.37 Y3.549
X73.36 Y3.529
X73.348 Y3.51
X73.331 Y3.485
X73.311 Y3.46
X73.285 Y3.43
X73.258 Y3.404
X73.232 Y3.382
X73.208 Y3.365
X73.184 Y3.35
X73.152 Y3.332
X73.132 Y3.322
X73.112 Y3.314
X73.072 Y3.3
X73.032 Y3.289
X72.992 Y3.282
X72.952 Y3.279
X72.912 Y3.278
X72.872 Y3.281
X72.833 Y3.287
X72.753 Y3.304
X71.875 Y3.496
X71.816 Y3.51
X70.917 Y3.713
X70.838 Y3.732
X69.88 Y3.957
X69.752 Y3.988
X68.923 Y4.19
X68.843 Y4.209
X67.885 Y4.451
X67.823 Y4.466
X66.848 Y4.721
X66.768 Y4.742
X64.853 Y5.269
X64.773 Y5.291
X63.816 Y5.569
X63.769 Y5.583
X62.778 Y5.881
X62.699 Y5.906
X61.821 Y6.179
X61.741 Y6.205
X60.863 Y6.489
X60.783 Y6.515
X59.906 Y6.809
X59.826 Y6.835
X58.948 Y7.14
X58.868 Y7.168
X57.951 Y7.497
X57.911 Y7.512
X57.033 Y7.837
X56.953 Y7.867
X56.155 Y8.173
X56.076 Y8.204
X55.198 Y8.55
X55.118 Y8.582
X54.32 Y8.906
X54.256 Y8.932
X53.442 Y9.272
X53.363 Y9.306
X52.561 Y9.65
X52.485 Y9.683
X51.656 Y10.048
X51.607 Y10.07
X50.777 Y10.447
X50.729 Y10.469
X49.922 Y10.846
X49.852 Y10.879
X49.054 Y11.263
X48.974 Y11.302
X48.256 Y11.657
X48.176 Y11.696
X47.341 Y12.122
X47.298 Y12.144
X46.58 Y12.522
X46.5 Y12.564
X45.697 Y12.999
X45.622 Y13.04
X44.904 Y13.441
X44.84 Y13.477
X44.106 Y13.9
X44.026 Y13.946
X43.308 Y14.372
X43.229 Y14.42
X42.55 Y14.833
X42.51 Y14.857
X42.422 Y14.913
X41.785 Y15.312
X41.712 Y15.358
X40.994 Y15.819
X40.914 Y15.871
X40.276 Y16.292
X40.196 Y16.346
X39.558 Y16.777
X39.486 Y16.827
X38.84 Y17.275
X38.797 Y17.305
X38.122 Y17.787
X38.042 Y17.845
X37.475 Y18.262
X37.403 Y18.315
X36.739 Y18.82
X36.685 Y18.862
X36.127 Y19.303
X36.047 Y19.366
X35.449 Y19.857
X35.409 Y19.891
X34.797 Y20.415
X34.77 Y20.438
X34.173 Y20.973
X34.132 Y21.011
X33.573 Y21.535
X33.494 Y21.611
X33.006 Y22.09
X32.935 Y22.159
X32.376 Y22.729
X32.302 Y22.807
X31.818 Y23.32
X31.776 Y23.366
X31.259 Y23.93
X31.194 Y24.004
X30.767 Y24.482
X30.701 Y24.557
X30.279 Y25.04
X30.222 Y25.106
X29.743 Y25.667
X29.733 Y25.678
X29.336 Y26.157
X29.27 Y26.236
X28.865 Y26.741
X28.823 Y26.795
X28.459 Y27.273
X28.399 Y27.353
X28.003 Y27.911
X27.988 Y27.935
X27.643 Y28.469
X27.593 Y28.549
X27.429 Y28.824
X27.404 Y28.868
X27.269 Y29.107
X27.225 Y29.187
X27.057 Y29.506
X27.03 Y29.559
X26.898 Y29.825
X26.871 Y29.881
X26.568 Y30.543
X26.551 Y30.578
X26.533 Y30.622
X26.271 Y31.26
X26.24 Y31.34
X25.993 Y32.005
X25.974 Y32.058
X25.863 Y32.377
X25.837 Y32.456
X25.753 Y32.709
X25.733 Y32.775
X25.725 Y32.815
X25.72 Y32.855
X25.718 Y32.895
X25.72 Y32.935
X25.724 Y32.975
X25.732 Y33.015
X25.742 Y33.048
X25.753 Y33.081
X25.759 Y33.094
X25.768 Y33.114
X25.778 Y33.134
X25.79 Y33.154
X25.802 Y33.174
X25.817 Y33.195
X25.833 Y33.215
X25.85 Y33.235
X25.869 Y33.254
X25.891 Y33.274
X25.913 Y33.292
X25.944 Y33.315
X25.976 Y33.334
X25.993 Y33.343
X26.013 Y33.352
X26.033 Y33.361
X26.073 Y33.375
X26.112 Y33.385
X26.152 Y33.392
X26.192 Y33.396
X26.232 Y33.397
X30.128 Y33.499
X30.131 Y33.501
X30.026 Y37.495
X30.025 Y37.498
X26.312 Y37.4
X26.232 Y37.399
X26.197 Y37.401
X26.175 Y37.403
X26.152 Y37.406
X26.112 Y37.415
X26.073 Y37.428
X26.033 Y37.444
X26.013 Y37.454
X25.993 Y37.464
X25.967 Y37.48
X25.94 Y37.499
X25.913 Y37.521
X25.893 Y37.539
X25.873 Y37.56
X25.852 Y37.584
X25.833 Y37.609
X25.813 Y37.64
X25.801 Y37.66
X25.791 Y37.68
X25.774 Y37.719
X25.762 Y37.753
X25.753 Y37.786
X25.75 Y37.799
X25.744 Y37.839
X25.741 Y37.879
Y37.919
X25.744 Y37.959
X25.748 Y37.985
X25.753 Y38.011
X25.76 Y38.038
X25.774 Y38.078
X25.791 Y38.118
X25.81 Y38.153
X25.833 Y38.189
X25.84 Y38.198
X25.856 Y38.218
X25.873 Y38.238
X26.054 Y38.437
X26.073 Y38.457
X26.135 Y38.517
X26.232 Y38.609
X26.304 Y38.676
X26.312 Y38.684
X26.397 Y38.756
X26.472 Y38.818
X26.551 Y38.881
X26.595 Y38.916
X26.711 Y39.003
X26.791 Y39.061
X26.871 Y39.118
X26.922 Y39.155
X27.19 Y39.336
X27.269 Y39.39
X27.589 Y39.593
X27.655 Y39.633
X27.988 Y39.829
X28.067 Y39.873
X28.147 Y39.916
X28.215 Y39.952
X28.387 Y40.041
X28.466 Y40.08
X28.546 Y40.119
X28.626 Y40.157
X28.786 Y40.231
X28.865 Y40.268
X29.105 Y40.374
X29.185 Y40.408
X29.424 Y40.511
X29.504 Y40.544
X29.743 Y40.643
X29.808 Y40.67
X30.142 Y40.805
X30.203 Y40.829
X30.541 Y40.964
X30.606 Y40.989
X31.016 Y41.148
X31.434 Y41.308
X31.499 Y41.332
X31.977 Y41.511
X32.057 Y41.54
X32.456 Y41.686
X32.514 Y41.707
X33.015 Y41.885
X33.095 Y41.912
X34.052 Y42.237
X34.132 Y42.263
X35.089 Y42.567
X35.143 Y42.584
X35.648 Y42.735
X35.678 Y42.743
X36.127 Y42.871
X36.207 Y42.893
X36.606 Y43.002
X36.685 Y43.023
X37.147 Y43.142
X37.164 Y43.146
X37.244 Y43.166
X38.122 Y43.376
X38.146 Y43.381
X39.079 Y43.585
X39.159 Y43.602
X40.037 Y43.78
X40.117 Y43.796
X40.994 Y43.967
X41.074 Y43.982
X42.032 Y44.163
X42.111 Y44.178
X43.149 Y44.37
X43.229 Y44.385
X44.186 Y44.56
X44.266 Y44.575
X45.383 Y44.777
X45.463 Y44.791
X46.511 Y44.976
X46.58 Y44.988
X47.697 Y45.18
X47.777 Y45.193
X48.894 Y45.377
X48.974 Y45.39
X50.171 Y45.577
X50.25 Y45.589
X51.368 Y45.753
X51.447 Y45.765
X52.565 Y45.919
X52.644 Y45.93
X53.841 Y46.084
X53.907 Y46.093
X55.038 Y46.229
X55.118 Y46.238
X56.315 Y46.373
X56.395 Y46.381
X57.592 Y46.508
X57.671 Y46.516
X58.789 Y46.628
X58.868 Y46.636
X60.065 Y46.75
X60.145 Y46.757
X61.342 Y46.867
X61.422 Y46.874
X62.699 Y46.986
X62.778 Y46.993
X63.975 Y47.095
X64.055 Y47.102
X65.351 Y47.209
X65.491 Y47.22
X66.688 Y47.316
X66.768 Y47.322
X68.045 Y47.421
X68.204 Y47.433
X69.401 Y47.523
X69.481 Y47.529
X70.758 Y47.621
X70.838 Y47.627
X73.551 Y47.811
X73.63 Y47.817
X76.344 Y47.986
X76.423 Y47.991
X79.136 Y48.147
X79.216 Y48.152
X82.009 Y48.299
X82.089 Y48.303
X84.961 Y48.444
X85.041 Y48.447
X87.834 Y48.575
X87.914 Y48.579
X90.786 Y48.702
X90.866 Y48.706
X93.819 Y48.825
X93.898 Y48.828
X96.771 Y48.938
X96.851 Y48.941
X99.883 Y49.05
X102.915 Y49.152
X102.995 Y49.154
X105.948 Y49.247
X106.027 Y49.249
X109.06 Y49.338
X109.139 Y49.34
X112.251 Y49.425
X115.363 Y49.504
X115.443 Y49.506
X118.555 Y49.579
X121.667 Y49.648
X121.747 Y49.65
X124.859 Y49.714
X124.939 Y49.716
X128.131 Y49.778
X128.21 Y49.779
X131.322 Y49.835
X131.402 Y49.836
X134.594 Y49.89
X134.674 Y49.891
X137.866 Y49.94
X137.945 Y49.942
X141.137 Y49.987
X141.217 Y49.988
X144.409 Y50.03
X144.489 Y50.031
X147.68 Y50.069
X147.76 Y50.07
X151.032 Y50.106
X151.112 Y50.107
X154.303 Y50.139
X154.383
X161.006 Y50.196
X161.086 Y50.197
X167.709 Y50.242
X167.789
X174.412 Y50.276
X174.492
X181.194 Y50.3
X181.274
X187.977 Y50.314
X188.057
X194.76 Y50.318
X194.839
X201.542 Y50.313
X201.622
X215.187 Y50.277
X215.267
X221.97 Y50.246
X222.049
X228.752 Y50.207
X228.832
X235.535 Y50.16
X235.59 Y50.159
X242.317 Y50.105
X242.397 Y50.104
X249.02 Y50.042
X249.1 Y50.041
X250.499 Y50.026
X250.538 Y50.034
X250.57 Y50.055
X250.592 Y50.088
X250.6 Y50.127
X250.593 Y56.353
X250.586 Y56.389
X250.566 Y56.421
X250.535 Y56.443
X250.499 Y56.452
X250.137 Y56.475
X250.058 Y56.48
X236.572 Y57.34
X236.492 Y57.346
X229.79 Y57.786
X229.71 Y57.791
X223.007 Y58.24
X222.927 Y58.246
X216.224 Y58.702
X216.145 Y58.708
X209.442 Y59.173
X202.739 Y59.645
X202.69 Y59.649
X196.029 Y60.127
X195.797 Y60.144
X189.413 Y60.611
X189.333 Y60.617
X186.062 Y60.86
X185.982 Y60.866
X182.79 Y61.104
X182.71 Y61.11
X179.439 Y61.358
X176.167 Y61.607
X176.008 Y61.619
X172.896 Y61.859
X172.736 Y61.871
X169.624 Y62.113
X166.432 Y62.364
X166.352 Y62.371
X163.161 Y62.624
X163.081 Y62.631
X159.969 Y62.881
X159.889 Y62.888
X156.777 Y63.142
X156.697 Y63.148
X153.585 Y63.406
X153.505 Y63.413
X150.393 Y63.674
X150.314 Y63.681
X147.281 Y63.939
X147.202 Y63.946
X144.169 Y64.209
X144.09 Y64.216
X141.057 Y64.484
X140.978 Y64.491
X137.945 Y64.764
X137.866 Y64.771
X134.913 Y65.041
X134.833 Y65.049
X131.801 Y65.331
X131.721 Y65.339
X128.769 Y65.619
X125.817 Y65.904
X125.737 Y65.912
X122.864 Y66.194
X122.784 Y66.202
X119.912 Y66.489
X119.832 Y66.497
X116.959 Y66.788
X116.879 Y66.796
X114.087 Y67.083
X114.007 Y67.091
X111.183 Y67.384
X111.134 Y67.389
X108.341 Y67.682
X108.262 Y67.691
X105.549 Y67.978
X105.469 Y67.987
X102.756 Y68.277
X102.676 Y68.286
X99.963 Y68.578
X97.33 Y68.864
X97.25 Y68.873
X94.617 Y69.16
X91.983 Y69.447
X89.43 Y69.726
X89.35 Y69.734
X86.876 Y70.003
X86.797 Y70.011
X85.6 Y70.141
X85.52 Y70.149
X84.323 Y70.278
X84.243 Y70.286
X83.046 Y70.415
X81.849 Y70.543
X81.77 Y70.551
X80.652 Y70.67
X80.573 Y70.678
X79.456 Y70.797
X79.376 Y70.805
X78.259 Y70.923
X78.179 Y70.932
X77.062 Y71.05
X75.945 Y71.167
X75.865 Y71.175
X74.827 Y71.283
X74.746 Y71.292
X73.71 Y71.398
X73.63 Y71.406
X72.673 Y71.504
X72.593 Y71.512
X70.518 Y71.718
X70.439 Y71.726
X68.364 Y71.922
X68.282 Y71.929
X67.327 Y72.017
X67.247 Y72.024
X66.289 Y72.109
X66.21 Y72.116
X65.332 Y72.193
X65.252 Y72.2
X64.773 Y72.241
X64.294 Y72.282
X63.895 Y72.316
X63.816 Y72.323
X63.417 Y72.357
X63.018 Y72.391
X62.938 Y72.398
X62.539 Y72.432
X62.14 Y72.465
X61.821 Y72.492
X61.741 Y72.499
X61.023 Y72.557
X60.983 Y72.561
X60.943 Y72.567
X60.939
X60.901 Y72.576
X60.863 Y72.589
X60.823 Y72.605
X60.803 Y72.615
X60.783 Y72.626
X60.75 Y72.647
X60.727 Y72.664
X60.704 Y72.684
X60.681 Y72.705
X60.661 Y72.727
X60.641 Y72.75
X60.624 Y72.774
X60.603 Y72.807
X60.592 Y72.827
X60.582 Y72.847
X60.566 Y72.886
X60.553 Y72.925
X60.544 Y72.964
Y72.966
X60.538 Y73.006
X60.535 Y73.046
X60.537 Y73.126
X60.56 Y73.764
X60.561 Y73.803
X60.566 Y73.843
X60.573 Y73.883
X60.585 Y73.923
X60.599 Y73.963
X60.608 Y73.983
X60.618 Y74.003
X60.624 Y74.013
X60.645 Y74.048
X60.671 Y74.083
X60.686 Y74.101
X60.704 Y74.119
X60.728 Y74.142
X60.752 Y74.162
X60.783 Y74.185
X60.803 Y74.198
X60.823 Y74.209
X60.843 Y74.219
X60.863 Y74.228
X60.899 Y74.242
X60.921 Y74.249
X60.943 Y74.255
X60.983 Y74.263
X61.023 Y74.267
X215.905 Y90.122
X215.985 Y90.128
X250.499 Y91.603
X250.538 Y91.612
X250.569 Y91.636
X250.589 Y91.67
X250.594 Y91.71
X250.359 Y94.981
X250.356 Y95.02 Z-2.492
X250.354 Y95.052 Z-2.471
X250.352 Y95.073 Z-2.438
Y95.081 Z-2.4
G0 Z4
X250.614 Y20.829
Z3.96
G1 Z-2.5 F600
X250.6 Y20.866
X250.574 Y20.895
X250.538 Y20.911
X250.499 Y20.912
X237.769 Y18.817
X237.689 Y18.807
X78.578 Y2.234
X78.54 Y2.222
X78.51 Y2.196
X78.492 Y2.161
X78.489 Y2.121
X78.924 Y-1.13
X78.929 Y-1.168 Z-2.492
X78.933 Y-1.2 Z-2.471
X78.936 Y-1.222 Z-2.438
X78.937 Y-1.229 Z-2.4
G0 Z4
X91.213 Y17.889
Z1.594
G1 Z-2.4 F600
X91.209 Y17.883 Z-2.438
X91.195 Y17.866 Z-2.471
X91.174 Y17.841 Z-2.492
X91.15 Y17.811 Z-2.5
X89.075 Y15.266
X89.057 Y15.232
X89.053 Y15.193
X89.065 Y15.156
X89.09 Y15.126
X89.449 Y14.833
X89.51 Y14.785
X90.096 Y14.355
X90.148 Y14.32
X90.707 Y13.952
X90.786 Y13.903
X91.374 Y13.557
X91.425 Y13.53
X91.983 Y13.238
X92.063 Y13.196
X92.702 Y12.903
X92.781 Y12.868
X93.452 Y12.6
X93.499 Y12.584
X94.151 Y12.361
X94.218 Y12.34
X94.856 Y12.158
X94.936 Y12.136
X95.574 Y11.988
X95.654 Y11.97
X96.372 Y11.841
X96.452 Y11.83
X97.09 Y11.749
X97.17 Y11.739
X97.888 Y11.685
X97.968 Y11.682
X98.606 Y11.666
X98.686 Y11.664
X99.404 Y11.683
X99.484 Y11.688
X100.122 Y11.736
X100.202 Y11.743
X100.92 Y11.835
X101 Y11.848
X101.639 Y11.962
X101.718 Y11.978
X102.357 Y12.126
X102.437 Y12.145
X103.155 Y12.351
X103.185 Y12.361
X103.873 Y12.596
X103.884 Y12.6
X104.511 Y12.851
X104.591 Y12.883
X105.229 Y13.177
X105.309 Y13.215
X105.868 Y13.507
X105.948 Y13.549
X106.586 Y13.925
X106.635 Y13.956
X107.224 Y14.344
X107.24 Y14.355
X107.783 Y14.754
X107.863 Y14.813
X108.421 Y15.269
X108.47 Y15.312
X109 Y15.79
X109.06 Y15.849
X109.538 Y16.328
X109.557 Y16.348
X110.017 Y16.858
X110.06 Y16.906
X110.515 Y17.465
X110.575 Y17.544
X110.975 Y18.089
X110.984 Y18.103
X111.374 Y18.693
X111.404 Y18.741
X111.779 Y19.378
X111.821 Y19.458
X112.113 Y20.016
X112.152 Y20.096
X112.445 Y20.734
X112.478 Y20.814
X112.733 Y21.452
X112.76 Y21.532
X112.978 Y22.17
X113.001 Y22.249
X113.184 Y22.887
X113.203 Y22.967
X113.351 Y23.605
X113.368 Y23.685
X113.482 Y24.323
X113.496 Y24.402
X113.587 Y25.12
X113.595 Y25.2
X113.643 Y25.838
X113.649 Y25.917
X113.667 Y26.635
X113.666 Y26.715
X113.65 Y27.353
X113.648 Y27.433
X113.593 Y28.15
X113.584 Y28.23
X113.503 Y28.868
X113.492 Y28.948
X113.364 Y29.665
X113.346 Y29.745
X113.198 Y30.383
X113.178 Y30.463
X112.995 Y31.101
X112.971 Y31.181
X112.753 Y31.818
X112.73 Y31.883
X112.469 Y32.536
X112.435 Y32.616
X112.142 Y33.254
X112.101 Y33.334
X111.81 Y33.892
X111.773 Y33.961
X111.438 Y34.53
X111.39 Y34.609
X111.022 Y35.168
X110.975 Y35.239
X110.558 Y35.806
X110.497 Y35.885
X110.097 Y36.376
X110.041 Y36.444
X109.608 Y36.922
X109.538 Y36.999
X109.058 Y37.48
X108.98 Y37.556
X108.446 Y38.038
X108.421 Y38.059
X107.86 Y38.517
X107.783 Y38.574
X107.304 Y38.926
X107.224 Y38.983
X106.666 Y39.351
X106.601 Y39.394
X105.948 Y39.779
X105.921 Y39.793
X105.309 Y40.112
X105.229 Y40.151
X104.591 Y40.444
X104.511 Y40.477
X103.953 Y40.7
X103.873 Y40.731
X103.234 Y40.95
X103.155 Y40.977
X102.437 Y41.182
X102.357 Y41.201
X101.718 Y41.349
X101.639 Y41.365
X101 Y41.48
X100.92 Y41.493
X100.202 Y41.585
X100.122 Y41.591
X99.484 Y41.64
X99.404 Y41.645
X98.686 Y41.663
X98.606 Y41.662
X97.968 Y41.646
X97.888 Y41.643
X97.17 Y41.588
X97.09 Y41.579
X96.452 Y41.498
X96.372 Y41.486
X95.654 Y41.358
X95.574 Y41.339
X94.936 Y41.191
X94.856 Y41.17
X94.218 Y40.987
X94.138 Y40.962
X93.499 Y40.744
X93.42 Y40.715
X92.781 Y40.46
X92.715 Y40.431
X92.063 Y40.131
X92.026 Y40.112
X91.415 Y39.793
X91.345 Y39.753
X90.735 Y39.394
X90.707 Y39.376
X90.13 Y38.995
X90.068 Y38.953
X89.51 Y38.543
X89.476 Y38.517
X88.951 Y38.089
X88.89 Y38.038
X88.36 Y37.56
X88.313 Y37.515
X87.8 Y37.002
X87.754 Y36.952
X87.295 Y36.444
X87.275 Y36.421
X86.839 Y35.885
X86.797 Y35.832
X86.367 Y35.247
X86.318 Y35.174
X85.946 Y34.609
X85.919 Y34.565
X85.569 Y33.972
X85.526 Y33.892
X85.234 Y33.334
X85.201 Y33.27
X84.9 Y32.616
X84.882 Y32.574
X84.612 Y31.898
X84.583 Y31.818
X84.365 Y31.181
X84.341 Y31.101
X84.158 Y30.463
X84.137 Y30.383
X83.989 Y29.745
X83.972 Y29.665
X83.843 Y28.948
X83.832 Y28.868
X83.751 Y28.23
X83.743 Y28.15
X83.688 Y27.433
X83.685 Y27.353
X83.669 Y26.715
Y26.635
X83.685 Y26.004
X83.687 Y25.917
X83.692 Y25.838
X83.741 Y25.2
X83.748 Y25.12
X83.84 Y24.402
X83.844 Y24.374
X83.968 Y23.685
X83.984 Y23.605
X84.132 Y22.967
X84.152 Y22.887
X84.334 Y22.249
X84.357 Y22.17
X84.575 Y21.532
X84.603 Y21.452
X84.882 Y20.753
X84.89 Y20.734
X85.201 Y20.058
X85.223 Y20.016
X85.52 Y19.447
X85.556 Y19.378
X85.932 Y18.741
X85.984 Y18.661
X86.351 Y18.103
X86.398 Y18.039
X86.797 Y17.495
X86.821 Y17.465
X87.276 Y16.906
X87.347 Y16.827
X87.779 Y16.348
X87.834 Y16.291
X88.313 Y15.813
X88.336 Y15.79
X88.871 Y15.306
X88.951 Y15.239
X89.09 Y15.126
X89.125 Y15.107
X89.164 Y15.104
X89.202 Y15.116
X89.232 Y15.142
X91.23 Y17.744
X91.253 Y17.774 Z-2.492
X91.273 Y17.8 Z-2.471
X91.286 Y17.817 Z-2.438
X91.291 Y17.823 Z-2.4
G0 Z4
X-0.604 Y62.019
Z3.96
G1 Z-2.5 F600
X-0.594 Y61.981
X-0.571 Y61.949
X-0.538 Y61.929
X-0.499 Y61.923
X1.496 Y62.014
X1.575 Y62.017
X4.767 Y62.16
X4.847 Y62.163
X8.039 Y62.303
X8.119 Y62.306
X11.31 Y62.443
X12.827 Y62.506
X14.502 Y62.576
X14.582 Y62.58
X17.694 Y62.707
X17.774 Y62.71
X20.886 Y62.833
X20.966 Y62.836
X24.078 Y62.956
X24.157 Y62.959
X27.269 Y63.074
X30.382 Y63.185
X30.461 Y63.188
X33.494 Y63.291
X33.573 Y63.294
X36.606 Y63.393
X36.685 Y63.395
X39.638 Y63.486
X39.718 Y63.489
X42.75 Y63.577
X42.83 Y63.58
X45.782 Y63.661
X45.862 Y63.663
X48.814 Y63.739
X51.767 Y63.811
X51.846 Y63.813
X54.719 Y63.878
X54.799 Y63.88
X57.671 Y63.941
X57.751 Y63.943
X60.624 Y64
X63.496 Y64.053
X63.576 Y64.055
X66.369 Y64.104
X69.162 Y64.15
X69.242 Y64.151
X71.995 Y64.194
X74.748 Y64.235
X77.461 Y64.273
X78.418 Y64.286
X80.174 Y64.31
X82.807 Y64.345
X85.36 Y64.38
X85.44 Y64.381
X87.994 Y64.417
X89.27 Y64.436
X90.467 Y64.454
X90.547 Y64.455
X91.744 Y64.473
X91.824 Y64.475
X93.021 Y64.494
X94.238 Y64.513
X95.415 Y64.533
X95.654 Y64.537
X96.611 Y64.553
X97.729 Y64.572
X97.808 Y64.573
X98.926 Y64.593
X99.165 Y64.598
X100.043 Y64.614
X100.122 Y64.615
X101.16 Y64.635
X101.24 Y64.637
X102.197 Y64.657
X102.277 Y64.659
X104.352 Y64.707
X104.431 Y64.709
X106.506 Y64.767
X106.586 Y64.769
X107.543 Y64.799
X107.623 Y64.802
X108.581 Y64.834
X108.661 Y64.836
X109.618 Y64.87
X109.698 Y64.873
X110.097 Y64.887
X110.177 Y64.89
X110.576 Y64.904
X110.895 Y64.916
X111.054 Y64.922
X111.453 Y64.937
X111.533 Y64.94
X111.932 Y64.955
X112.331 Y64.97
X112.411 Y64.973
X112.73 Y64.985
X112.81 Y64.988
X113.129 Y65
X113.209 Y65.003
X113.847 Y65.029
X113.927 Y65.033
X113.967 Y65.032
X114.007 Y65.028
X114.047 Y65.021
X114.087 Y65.01
X114.112 Y65.002
X114.137 Y64.992
X114.166 Y64.978
X114.186 Y64.967
X114.206 Y64.955
X114.226 Y64.942
X114.246 Y64.927
X114.265 Y64.912
X114.281 Y64.897
X114.298 Y64.881
X114.326 Y64.849
X114.339 Y64.832
X114.354 Y64.812
X114.366 Y64.792
X114.378 Y64.772
X114.388 Y64.753
X114.397 Y64.732
X114.406 Y64.712
X114.419 Y64.673
X114.429 Y64.633
X114.435 Y64.593
X114.443 Y64.513
X114.498 Y63.875
X114.501 Y63.836
X114.5 Y63.796
X114.496 Y63.756
X114.489 Y63.716
X114.486 Y63.702
X114.476 Y63.669
X114.464 Y63.636
X114.456 Y63.616
X114.446 Y63.596
X114.435 Y63.576
X114.423 Y63.556
X114.406 Y63.531
X114.385 Y63.504
X114.36 Y63.477
X114.343 Y63.46
X114.326 Y63.445
X114.293 Y63.419
X114.26 Y63.397
X114.246 Y63.389
X114.226 Y63.378
X114.206 Y63.369
X114.166 Y63.353
X114.127 Y63.341
X114.087 Y63.331
X-0.499 Y37.204
X-0.535 Y37.187
X-0.562 Y37.158
X-0.576 Y37.121
X-0.574 Y37.081
X0.248 Y33.906
X0.258 Y33.869 Z-2.492
X0.266 Y33.837 Z-2.471
X0.271 Y33.816 Z-2.438
X0.273 Y33.809 Z-2.4
G0 Z4
X-0.456 Y97.345
Z1.594
G1 Z-2.4 F600
Y97.338 Z-2.438
X-0.457 Y97.316 Z-2.471
X-0.458 Y97.284 Z-2.492
X-0.46 Y97.245 Z-2.5
X-0.595 Y93.965
X-0.589 Y93.926
X-0.569 Y93.893
X-0.537 Y93.87
X-0.499 Y93.861
X1.655 Y93.772
X1.735 Y93.769
X4.927 Y93.635
X5.007 Y93.631
X8.198 Y93.495
X8.278 Y93.492
X11.47 Y93.352
X11.709 Y93.342
X14.662 Y93.21
X14.742 Y93.207
X17.935 Y93.062
X21.125 Y92.913
X21.205 Y92.909
X24.317 Y92.761
X24.397 Y92.757
X27.509 Y92.605
X30.621 Y92.448
X30.701 Y92.444
X33.733 Y92.288
X33.813 Y92.283
X36.845 Y92.122
X36.925 Y92.118
X39.957 Y91.952
X40.037 Y91.947
X43.069 Y91.776
X43.149 Y91.771
X46.101 Y91.6
X46.181 Y91.595
X49.133 Y91.419
X49.213 Y91.414
X52.166 Y91.232
X52.245 Y91.227
X55.118 Y91.046
X55.198 Y91.041
X58.07 Y90.855
X58.15 Y90.85
X61.023 Y90.66
X61.103 Y90.655
X63.895 Y90.466
X63.975 Y90.461
X66.848 Y90.264
X69.641 Y90.069
X69.721 Y90.063
X72.513 Y89.865
X72.593 Y89.859
X75.306 Y89.665
X75.785 Y89.63
X78.019 Y89.468
X78.099 Y89.462
X80.732 Y89.269
X80.812 Y89.263
X83.445 Y89.068
X86.079 Y88.874
X88.632 Y88.685
X88.712 Y88.679
X91.265 Y88.492
X92.542 Y88.399
X93.739 Y88.313
X93.819 Y88.307
X95.016 Y88.221
X95.095 Y88.215
X96.292 Y88.129
X97.489 Y88.044
X98.705 Y87.958
X99.883 Y87.875
X101 Y87.796
X101.08 Y87.791
X102.117 Y87.719
X102.197 Y87.713
X103.314 Y87.636
X104.352 Y87.565
X104.431 Y87.56
X105.469 Y87.491
X105.549 Y87.486
X107.623 Y87.353
X107.703 Y87.348
X109.778 Y87.224
X109.857 Y87.22
X110.815 Y87.166
X110.895 Y87.162
X111.852 Y87.11
X111.932 Y87.106
X112.81 Y87.06
X112.89 Y87.056
X113.368 Y87.031
X113.847 Y87.007
X114.246 Y86.987
X114.326 Y86.983
X114.725 Y86.963
X115.124 Y86.943
X115.204 Y86.939
X115.603 Y86.919
X116.002 Y86.899
X116.321 Y86.884
X116.401 Y86.88
X117.119 Y86.847
X117.193 Y86.842
X117.199 Y86.841
X117.239 Y86.834
X117.278 Y86.823
X117.318 Y86.809
X117.338 Y86.8
X117.358 Y86.791
X117.383 Y86.777
X117.407 Y86.762
X117.438 Y86.74
X117.469 Y86.713
X117.485 Y86.698
X117.5 Y86.682
X117.518 Y86.662
X117.54 Y86.632
X117.56 Y86.602
X117.571 Y86.583
X117.581 Y86.563
X117.598 Y86.524
Y86.523
X117.611 Y86.483
X117.621 Y86.443
X117.627 Y86.403
X117.63 Y86.363
X117.631 Y86.283
Y85.645
X117.63 Y85.605
X117.626 Y85.566
X117.619 Y85.526
X117.608 Y85.486
X117.598 Y85.456
X117.587 Y85.431
X117.575 Y85.406
X117.565 Y85.386
X117.553 Y85.366
X117.539 Y85.346
X117.524 Y85.326
X117.518 Y85.318
X117.501 Y85.298
X117.482 Y85.279
X117.464 Y85.262
X117.446 Y85.247
X117.438 Y85.24
X117.418 Y85.225
X117.398 Y85.212
X117.378 Y85.2
X117.358 Y85.189
X117.333 Y85.177
X117.308 Y85.167
X117.278 Y85.157
X117.239 Y85.146
X117.199 Y85.139
X-0.499 Y68.923
X-0.536 Y68.91
X-0.565 Y68.884
X-0.582 Y68.849
X-0.585 Y68.81
X-0.128 Y65.562
X-0.122 Y65.524 Z-2.492
X-0.118 Y65.492 Z-2.471
X-0.115 Y65.47 Z-2.438
X-0.114 Y65.463 Z-2.4
G0 Z4
X250.474 Y2.193
Z1.594
G1 Z-2.4 F600
Y2.2 Z-2.438
X250.475 Y2.222 Z-2.471
X250.476 Y2.254 Z-2.492
X250.478 Y2.293 Z-2.5
X250.595 Y5.574
X250.589 Y5.612
X250.569 Y5.645
X250.537 Y5.668
X250.499 Y5.677
X249.18 Y5.724
X248.94 Y5.733
X246.387 Y5.827
X246.148 Y5.836
X243.674 Y5.929
X243.594 Y5.932
X240.961 Y6.033
X240.881 Y6.036
X238.248 Y6.138
X235.615 Y6.241
X235.375 Y6.25
X232.981 Y6.343
X232.742 Y6.352
X230.428 Y6.441
X230.348 Y6.444
X229.151 Y6.489
X229.071 Y6.492
X227.875 Y6.537
X227.396 Y6.554
X226.598 Y6.584
X225.401 Y6.628
X225.321 Y6.631
X224.204 Y6.671
X224.124 Y6.674
X223.007 Y6.714
X222.927 Y6.717
X221.81 Y6.757
X221.73 Y6.759
X220.613 Y6.799
X220.454 Y6.804
X219.496 Y6.837
X219.416 Y6.84
X218.379 Y6.875
X218.299 Y6.878
X217.262 Y6.912
X217.182 Y6.915
X216.145 Y6.948
X216.065 Y6.95
X213.99 Y7.01
X213.91 Y7.012
X211.836 Y7.063
X211.756 Y7.065
X210.798 Y7.085
X210.719 Y7.087
X209.761 Y7.105
X209.681 Y7.106
X208.803 Y7.122
X208.724 Y7.123
X208.325 Y7.129
X208.245 Y7.131
X207.846 Y7.137
X207.766 Y7.138
X207.367 Y7.145
X207.287 Y7.146
X206.888 Y7.152
X206.489 Y7.158
X206.41 Y7.159
X206.09 Y7.164
X206.011 Y7.165
X205.612 Y7.171
X205.293 Y7.175
X205.213 Y7.176
X204.495 Y7.185
X204.455
X204.415 Y7.188
X204.375 Y7.194
X204.335 Y7.204
X204.295 Y7.217
X204.255 Y7.234
X204.233 Y7.245
X204.211 Y7.257
X204.175 Y7.282
X204.144 Y7.307
X204.128 Y7.321
X204.112 Y7.337
X204.096 Y7.355
X204.07 Y7.386
X204.049 Y7.417
X204.031 Y7.447
X204.016 Y7.478
X204.008 Y7.497
X203.993 Y7.537
X203.983 Y7.576
X203.976 Y7.616
X203.972 Y7.656
X203.969 Y7.736
X203.947 Y8.374
Y8.414
X203.95 Y8.454
X203.956 Y8.493
X203.966 Y8.533
X203.979 Y8.573
X203.996 Y8.613
X204.016 Y8.65
X204.029 Y8.671
X204.044 Y8.693
X204.068 Y8.722
X204.096 Y8.752
X204.118 Y8.773
X204.147 Y8.796
X204.175 Y8.816
X204.209 Y8.836
X204.243 Y8.852
X204.255 Y8.857
X204.295 Y8.872
X204.335 Y8.883
X204.415 Y8.897
X250.499 Y16.895
X250.537 Y16.901 Z-2.492
X250.569 Y16.907 Z-2.471
X250.59 Y16.91 Z-2.438
X250.598 Y16.912 Z-2.4
G0 Z2
M9
G28 G91 Z0
G90
G28 G91 X0 Y0
G90
M5
M30
