(fullairfoil1)
(T2  D=1 CR=0.5 - ZMIN=-2.5 - ball end mill)
G90 G94
G17
G21
G28 G91 Z0
G90

(Contour1)
T2
S18000 M3
G54
M8
G0 X251.37 Y34.057
Z2
Z1.594
G1 Z-2.4 F600
X251.368 Y34.065 Z-2.438
X251.364 Y34.086 Z-2.471
X251.356 Y34.117 Z-2.492
X251.348 Y34.155 Z-2.5
X250.618 Y37.356
X250.602 Y37.391
X250.574 Y37.418
X250.537 Y37.432
X250.498 Y37.431
X212.316 Y28.725
X212.238 Y28.708
X54.481 Y2.461
X54.402 Y2.448
X54.362 Y2.444
X54.322 Y2.443
X54.242 Y2.449
X54.082 Y2.463
X54.003 Y2.47
X53.763 Y2.492
X53.683 Y2.5
X53.644 Y2.508
X53.604 Y2.519
X53.564 Y2.534
X53.544 Y2.543
X53.524 Y2.553
X53.504 Y2.564
X53.484 Y2.576
X53.464 Y2.59
X53.444 Y2.605
X53.413 Y2.632
X53.387 Y2.659
X53.364 Y2.686
X53.345 Y2.712
X53.332 Y2.732
X53.32 Y2.752
X53.31 Y2.772
X53.3 Y2.792
X53.284 Y2.832
X53.273 Y2.872
X53.264 Y2.911
X53.259 Y2.951
X52.901 Y7.046
X52.899 Y7.048
X48.917 Y6.699
X48.916 Y6.697
X49.174 Y3.749
X49.181 Y3.669
Y3.629
X49.178 Y3.589
X49.172 Y3.549
X49.162 Y3.51
X49.15 Y3.473
X49.135 Y3.437
X49.132 Y3.43
X49.122 Y3.41
X49.111 Y3.39
X49.098 Y3.37
X49.084 Y3.35
X49.07 Y3.332
X49.055 Y3.314
X49.033 Y3.291
X49.011 Y3.27
X48.993 Y3.255
X48.976 Y3.242
X48.956 Y3.228
X48.936 Y3.216
X48.916 Y3.204
X48.896 Y3.194
X48.887 Y3.191
X48.852 Y3.176
X48.816 Y3.165
X48.776 Y3.155
X48.736 Y3.149
X48.696 Y3.146
X48.656 Y3.147
X48.616 Y3.15
X48.577 Y3.156
X47.699 Y3.293
X47.619 Y3.306
X46.661 Y3.462
X46.582 Y3.476
X45.704 Y3.626
X45.624 Y3.64
X44.667 Y3.812
X44.587 Y3.826
X43.629 Y4.006
X43.549 Y4.021
X42.592 Y4.209
X42.512 Y4.225
X40.517 Y4.645
X40.437 Y4.662
X39.48 Y4.878
X39.4 Y4.896
X38.443 Y5.121
X38.363 Y5.141
X37.485 Y5.357
X37.405 Y5.376
X36.448 Y5.622
X36.368 Y5.644
X35.49 Y5.879
X35.41 Y5.901
X34.533 Y6.146
X34.453 Y6.169
X33.575 Y6.424
X33.495 Y6.448
X32.617 Y6.713
X32.538 Y6.738
X31.644 Y7.018
X31.58 Y7.039
X30.702 Y7.324
X30.663 Y7.337
X29.825 Y7.619
X29.745 Y7.646
X28.867 Y7.951
X28.8 Y7.975
X27.989 Y8.266
X27.912 Y8.294
X27.051 Y8.613
X27.032 Y8.62
X26.154 Y8.956
X26.074 Y8.987
X25.276 Y9.301
X25.204 Y9.331
X24.399 Y9.659
X24.319 Y9.692
X23.521 Y10.028
X23.472 Y10.048
X22.643 Y10.409
X22.563 Y10.445
X21.845 Y10.768
X21.765 Y10.804
X20.967 Y11.175
X20.888 Y11.213
X20.158 Y11.564
X20.09 Y11.596
X19.292 Y11.993
X19.212 Y12.033
X18.494 Y12.401
X18.417 Y12.441
X17.663 Y12.84
X17.616 Y12.865
X16.898 Y13.255
X16.818 Y13.299
X16.1 Y13.701
X16.072 Y13.717
X15.378 Y14.115
X15.302 Y14.159
X14.565 Y14.594
X14.504 Y14.631
X13.866 Y15.018
X13.786 Y15.067
X13.14 Y15.471
X13.068 Y15.516
X12.396 Y15.95
X12.35 Y15.98
X12.27 Y16.033
X11.678 Y16.428
X11.631 Y16.46
X10.987 Y16.906
X10.913 Y16.959
X10.275 Y17.42
X10.216 Y17.465
X9.636 Y17.903
X9.583 Y17.943
X9.557 Y17.964
X8.979 Y18.422
X8.918 Y18.47
X8.304 Y18.98
X8.28 Y19
X8.2 Y19.069
X7.659 Y19.538
X7.642 Y19.553
X7.04 Y20.096
X7.003 Y20.131
X6.444 Y20.654
X6.365 Y20.731
X5.867 Y21.213
X5.806 Y21.272
X5.304 Y21.771
X5.248 Y21.828
X4.769 Y22.313
X4.753 Y22.329
X4.29 Y22.809
X4.215 Y22.887
X3.765 Y23.366
X3.732 Y23.402
X3.331 Y23.844
X3.259 Y23.924
X2.846 Y24.402
X2.779 Y24.482
X2.375 Y24.985
X2.333 Y25.04
X1.976 Y25.526
X1.924 Y25.598
X1.737 Y25.873
X1.708 Y25.917
X1.554 Y26.157
X1.503 Y26.236
X1.338 Y26.508
X1.31 Y26.555
X1.172 Y26.795
X1.126 Y26.874
X1.098 Y26.926
X0.779 Y27.524
X0.744 Y27.592
X0.436 Y28.23
X0.398 Y28.31
X0.116 Y28.948
X0.082 Y29.027
X-0.019 Y29.269
X-0.051 Y29.346
X-0.178 Y29.666
X-0.193 Y29.706
X-0.204 Y29.745
X-0.211 Y29.785
X-0.216 Y29.825
X-0.217 Y29.865
X-0.215 Y29.905
X-0.209 Y29.944
X-0.201 Y29.984
X-0.191 Y30.018
X-0.178 Y30.051
X-0.173 Y30.064
X-0.163 Y30.084
X-0.153 Y30.104
X-0.141 Y30.124
X-0.128 Y30.144
X-0.114 Y30.163
X-0.099 Y30.182
X-0.08 Y30.203
X-0.059 Y30.224
X-0.039 Y30.241
X-0.019 Y30.257
X0 Y30.271
X0.018 Y30.283
X0.054 Y30.303
X0.061 Y30.307
X0.081 Y30.316
X0.101 Y30.324
X0.141 Y30.338
X0.181 Y30.348
X0.221 Y30.355
X0.3 Y30.362
X4.15 Y30.699
X4.151 Y30.7
X3.803 Y34.682
X3.801 Y34.684
X0.061 Y34.356
X0.021 Y34.354
X-0.019 Y34.353
X-0.059 Y34.356
X-0.099 Y34.363
X-0.13 Y34.37
X-0.154 Y34.377
X-0.178 Y34.386
X-0.218 Y34.403
X-0.238 Y34.413
X-0.258 Y34.425
X-0.277 Y34.437
X-0.296 Y34.45
X-0.317 Y34.466
X-0.338 Y34.485
X-0.361 Y34.507
X-0.381 Y34.53
X-0.401 Y34.554
X-0.418 Y34.578
X-0.437 Y34.609
X-0.447 Y34.629
X-0.457 Y34.649
X-0.472 Y34.689
X-0.484 Y34.729
X-0.493 Y34.769
X-0.495 Y34.784
X-0.497 Y34.796
X-0.5 Y34.811
X-0.503 Y34.857
X-0.497 Y34.904
X-0.496 Y34.917
X-0.494 Y34.928
X-0.487 Y34.968
X-0.475 Y35.008
X-0.46 Y35.048
X-0.451 Y35.068
X-0.441 Y35.088
X-0.43 Y35.108
X-0.418 Y35.128
X-0.404 Y35.148
X-0.389 Y35.168
X-0.258 Y35.331
X-0.196 Y35.407
X-0.178 Y35.426
X-0.019 Y35.597
X0.029 Y35.646
X0.141 Y35.754
X0.198 Y35.806
X0.221 Y35.826
X0.286 Y35.885
X0.38 Y35.965
X0.46 Y36.032
X0.574 Y36.125
X0.62 Y36.161
X0.883 Y36.364
X0.939 Y36.406
X1.258 Y36.638
X1.324 Y36.683
X1.577 Y36.853
X1.657 Y36.906
X1.817 Y37.006
X1.896 Y37.054
X1.976 Y37.101
X2.056 Y37.148
X2.221 Y37.241
X2.295 Y37.281
X2.455 Y37.367
X2.519 Y37.401
X2.694 Y37.492
X2.774 Y37.532
X3.013 Y37.652
X3.093 Y37.692
X3.333 Y37.809
X3.412 Y37.847
X3.732 Y38
X3.814 Y38.038
X4.131 Y38.187
X4.155 Y38.198
X4.53 Y38.371
X4.609 Y38.407
X5.028 Y38.597
X5.487 Y38.801
X5.568 Y38.836
X5.966 Y39.009
X6.046 Y39.044
X6.494 Y39.235
X6.524 Y39.248
X7.482 Y39.64
X7.562 Y39.673
X8.519 Y40.042
X8.599 Y40.073
X9.078 Y40.248
X9.143 Y40.271
X9.595 Y40.431
X9.636 Y40.445
X10.067 Y40.59
X10.115 Y40.606
X10.557 Y40.75
X10.594 Y40.761
X11.472 Y41.029
X11.552 Y41.053
X12.451 Y41.308
X12.509 Y41.324
X13.387 Y41.56
X13.467 Y41.581
X14.424 Y41.828
X14.504 Y41.848
X15.382 Y42.07
X15.462 Y42.09
X16.482 Y42.345
X16.499 Y42.349
X17.536 Y42.605
X17.616 Y42.625
X18.653 Y42.879
X18.733 Y42.898
X19.85 Y43.167
X19.93 Y43.186
X20.967 Y43.429
X21.047 Y43.448
X22.164 Y43.702
X22.244 Y43.72
X23.361 Y43.966
X23.441 Y43.983
X24.638 Y44.235
X24.718 Y44.251
X25.835 Y44.476
X25.915 Y44.491
X27.032 Y44.705
X27.112 Y44.72
X28.229 Y44.924
X28.309 Y44.939
X29.505 Y45.148
X29.585 Y45.162
X30.702 Y45.349
X30.782 Y45.363
X31.979 Y45.557
X32.059 Y45.57
X33.256 Y45.758
X33.336 Y45.77
X34.533 Y45.954
X34.612 Y45.966
X35.809 Y46.146
X35.889 Y46.158
X37.086 Y46.334
X37.166 Y46.345
X38.443 Y46.53
X38.522 Y46.541
X39.799 Y46.722
X39.879 Y46.734
X41.076 Y46.9
X41.156 Y46.912
X42.432 Y47.086
X42.512 Y47.097
X43.869 Y47.279
X43.948 Y47.289
X46.582 Y47.631
X46.661 Y47.641
X49.374 Y47.978
X49.454 Y47.988
X52.247 Y48.321
X55.079 Y48.644
X55.12 Y48.649
X57.967 Y48.963
X57.992 Y48.966
X60.865 Y49.274
X60.945 Y49.282
X63.817 Y49.582
X63.897 Y49.59
X66.77 Y49.883
X66.85 Y49.891
X69.722 Y50.177
X69.802 Y50.185
X72.815 Y50.478
X72.834 Y50.48
X75.866 Y50.768
X76.026 Y50.783
X78.899 Y51.049
X78.978 Y51.057
X82.011 Y51.331
X82.09 Y51.338
X85.123 Y51.606
X85.203 Y51.613
X88.235 Y51.876
X88.315 Y51.883
X91.427 Y52.147
X94.539 Y52.407
X94.618 Y52.414
X97.73 Y52.669
X97.81 Y52.675
X100.922 Y52.926
X101.002 Y52.932
X104.194 Y53.185
X104.251 Y53.19
X107.386 Y53.434
X107.465 Y53.44
X110.657 Y53.685
X110.737 Y53.691
X113.929 Y53.932
X114.009 Y53.938
X117.2 Y54.175
X117.28 Y54.181
X120.472 Y54.415
X120.552 Y54.421
X123.823 Y54.657
X127.095 Y54.89
X127.175 Y54.895
X133.718 Y55.352
X133.798 Y55.357
X140.421 Y55.807
X140.501 Y55.813
X147.124 Y56.252
X147.203 Y56.257
X153.906 Y56.691
X153.986 Y56.696
X160.689 Y57.12
X167.392 Y57.534
X167.471 Y57.539
X174.254 Y57.949
X187.819 Y58.742
X187.899 Y58.747
X194.602 Y59.126
X194.681 Y59.131
X201.384 Y59.502
X201.464 Y59.506
X208.167 Y59.869
X208.247 Y59.873
X214.87 Y60.224
X214.949 Y60.229
X221.652 Y60.576
X221.732 Y60.58
X228.355 Y60.914
X228.435 Y60.918
X235.058 Y61.244
X238.359 Y61.403
X238.409 Y61.406
X241.681 Y61.561
X244.952 Y61.714
X245.032 Y61.718
X248.224 Y61.865
X248.304 Y61.869
X250.498 Y61.969
X250.535 Y61.977
X250.566 Y61.999
X250.586 Y62.031
X250.594 Y62.068
X250.613 Y68.961
X250.608 Y68.994
X250.591 Y69.024
X250.565 Y69.047
X250.534 Y69.059
X250.5 Y69.06
X212.955 Y63.887
X212.875 Y63.878
X53.444 Y51.481
X53.364 Y51.475
X53.324 Y51.474
X53.284 Y51.477
X53.205 Y51.49
X53.045 Y51.517
X52.965 Y51.531
X52.726 Y51.575
X52.646 Y51.59
X52.629 Y51.595
X52.598 Y51.605
X52.566 Y51.617
X52.546 Y51.626
X52.526 Y51.637
X52.506 Y51.648
X52.486 Y51.661
X52.467 Y51.675
X52.437 Y51.699
X52.407 Y51.728
X52.383 Y51.754
X52.367 Y51.774
X52.353 Y51.794
X52.34 Y51.814
X52.328 Y51.834
X52.327 Y51.836
X52.308 Y51.875
X52.293 Y51.914
X52.281 Y51.954
X52.273 Y51.994
X52.268 Y52.033
X52.266 Y52.073
Y52.632
Y56.186
X52.263 Y56.188
X48.268
X48.266 Y56.186
Y53.19
X48.265 Y53.15
X48.262 Y53.11
X48.257 Y53.076
X48.253 Y53.053
X48.247 Y53.03
X48.234 Y52.99
X48.216 Y52.951
X48.199 Y52.917
X48.178 Y52.883
X48.169 Y52.871
X48.154 Y52.851
X48.137 Y52.832
X48.117 Y52.811
X48.098 Y52.793
X48.095 Y52.791
X48.076 Y52.775
X48.057 Y52.76
X48.037 Y52.747
X48.018 Y52.735
X47.995 Y52.722
X47.972 Y52.711
X47.938 Y52.698
X47.898 Y52.685
X47.858 Y52.676
X47.818 Y52.67
X47.779 Y52.667
X47.739 Y52.668
X47.699 Y52.671
X47.659 Y52.678
X47.619 Y52.688
X46.741 Y52.905
X46.661 Y52.925
X45.784 Y53.148
X45.704 Y53.168
X44.746 Y53.42
X44.713 Y53.429
X43.789 Y53.68
X43.709 Y53.701
X42.751 Y53.969
X42.689 Y53.987
X41.714 Y54.269
X41.634 Y54.293
X39.719 Y54.874
X39.639 Y54.899
X38.682 Y55.204
X38.602 Y55.23
X37.724 Y55.519
X37.645 Y55.546
X36.767 Y55.845
X36.687 Y55.872
X35.73 Y56.21
X35.701 Y56.22
X34.772 Y56.558
X34.692 Y56.588
X33.894 Y56.889
X33.814 Y56.919
X32.937 Y57.26
X32.857 Y57.291
X31.979 Y57.643
X31.949 Y57.655
X31.101 Y58.005
X31.022 Y58.039
X30.224 Y58.378
X30.144 Y58.412
X29.32 Y58.772
X29.266 Y58.795
X28.388 Y59.189
X28.309 Y59.226
X27.511 Y59.593
X27.431 Y59.631
X26.713 Y59.971
X26.633 Y60.009
X25.835 Y60.396
X25.755 Y60.435
X24.934 Y60.845
X24.877 Y60.874
X24.079 Y61.283
X24 Y61.325
X23.247 Y61.722
X23.202 Y61.747
X22.484 Y62.137
X22.404 Y62.18
X21.606 Y62.627
X21.526 Y62.672
X20.808 Y63.086
X20.728 Y63.133
X20.01 Y63.559
X19.93 Y63.607
X19.212 Y64.045
X19.132 Y64.095
X18.466 Y64.513
X18.414 Y64.546
X17.935 Y64.855
X17.696 Y65.01
X17.616 Y65.062
X16.978 Y65.485
X16.898 Y65.538
X16.177 Y66.028
X16.1 Y66.082
X15.462 Y66.527
X15.382 Y66.584
X14.743 Y67.04
X14.708 Y67.065
X14.025 Y67.566
X13.949 Y67.623
X13.387 Y68.047
X13.315 Y68.102
X12.669 Y68.604
X12.598 Y68.66
X12.001 Y69.138
X11.951 Y69.18
X11.392 Y69.645
X11.33 Y69.697
X11.312 Y69.712
X10.754 Y70.195
X10.685 Y70.255
X10.067 Y70.813
X10.035 Y70.843
X9.476 Y71.371
X9.397 Y71.449
X8.911 Y71.929
X8.839 Y72.002
X8.28 Y72.578
X8.216 Y72.647
X7.721 Y73.179
X7.697 Y73.205
X7.197 Y73.764
X7.163 Y73.802
X6.642 Y74.402
X6.604 Y74.446
X6.17 Y74.96
X6.125 Y75.013
X5.641 Y75.598
X5.577 Y75.677
X5.189 Y76.156
X5.168 Y76.182
X4.749 Y76.714
X4.689 Y76.791
X4.324 Y77.272
X4.29 Y77.317
X4.265 Y77.352
X3.891 Y77.871
X3.864 Y77.91
X3.49 Y78.468
X3.441 Y78.548
X3.15 Y79.027
X3.102 Y79.106
X2.934 Y79.407
X2.924 Y79.425
X2.756 Y79.744
X2.716 Y79.824
X2.598 Y80.063
X2.56 Y80.143
X2.448 Y80.382
X2.411 Y80.462
X2.136 Y81.109
X2.106 Y81.18
X2.015 Y81.419
X1.833 Y81.897
X1.817 Y81.943
X1.577 Y82.644
X1.561 Y82.695
X1.485 Y82.934
X1.46 Y83.014
X1.436 Y83.094
X1.364 Y83.333
X1.352 Y83.373
X1.344 Y83.413
X1.34 Y83.438
X1.338 Y83.462
X1.337 Y83.492
X1.338 Y83.534
X1.342 Y83.572
X1.35 Y83.612
X1.361 Y83.652
X1.376 Y83.692
X1.384 Y83.712
X1.394 Y83.732
X1.405 Y83.751
X1.418 Y83.771
X1.431 Y83.791
X1.447 Y83.811
X1.47 Y83.838
X1.497 Y83.865
X1.527 Y83.891
X1.552 Y83.909
X1.577 Y83.926
X1.597 Y83.937
X1.617 Y83.947
X1.657 Y83.965
X1.674 Y83.971
X1.705 Y83.98
X1.737 Y83.988
X1.777 Y83.994
X1.817 Y83.998
X1.896
X5.761
X5.763 Y84
Y87.997
X5.761 Y87.998
X2.056
X1.976
X1.936 Y88.001
X1.896 Y88.007
X1.856 Y88.016
X1.817 Y88.029
X1.795 Y88.038
X1.766 Y88.051
X1.737 Y88.067
X1.701 Y88.09
X1.683 Y88.103
X1.666 Y88.117
X1.657 Y88.125
X1.639 Y88.142
X1.62 Y88.161
X1.605 Y88.179
X1.59 Y88.197
X1.577 Y88.216
X1.558 Y88.246
X1.541 Y88.277
X1.524 Y88.317
X1.51 Y88.357
X1.503 Y88.384
X1.497 Y88.411
X1.494 Y88.436
X1.49 Y88.476
Y88.516
X1.493 Y88.551
X1.497 Y88.585
X1.499 Y88.596
X1.509 Y88.636
X1.522 Y88.676
X1.539 Y88.715
X1.55 Y88.735
X1.561 Y88.755
X1.577 Y88.781
X1.597 Y88.808
X1.62 Y88.835
X1.657 Y88.874
X1.817 Y89.041
X1.851 Y89.074
X2.056 Y89.258
X2.122 Y89.314
X2.136 Y89.325
X2.216 Y89.389
X2.221 Y89.393
X2.327 Y89.473
X2.375 Y89.509
X2.455 Y89.565
X2.535 Y89.622
X2.668 Y89.712
X2.694 Y89.73
X3.041 Y89.952
X3.093 Y89.983
X3.412 Y90.174
X3.441 Y90.191
X3.732 Y90.351
X3.811 Y90.395
X3.971 Y90.477
X4.039 Y90.51
X4.131 Y90.554
X4.204 Y90.589
X4.38 Y90.669
X4.45 Y90.701
X4.609 Y90.769
X4.689 Y90.803
X4.944 Y90.908
X5.008 Y90.934
X5.248 Y91.029
X5.328 Y91.06
X5.567 Y91.152
X5.647 Y91.182
X5.981 Y91.307
X6.046 Y91.331
X6.365 Y91.448
X6.416 Y91.467
X6.844 Y91.62
X6.861 Y91.626
X7.322 Y91.788
X7.402 Y91.816
X7.801 Y91.953
X7.881 Y91.98
X8.28 Y92.114
X8.36 Y92.14
X8.839 Y92.296
X8.918 Y92.322
X9.876 Y92.62
X9.956 Y92.644
X10.993 Y92.944
X11.073 Y92.965
X11.472 Y93.073
X11.552 Y93.094
X12.03 Y93.217
X12.046 Y93.221
X12.509 Y93.334
X12.589 Y93.353
X12.988 Y93.445
X13.057 Y93.46
X13.945 Y93.648
X14.025 Y93.665
X14.105 Y93.681
X14.983 Y93.848
X15.041 Y93.859
X15.945 Y94.018
X16.02 Y94.031
X16.898 Y94.178
X16.978 Y94.191
X17.935 Y94.346
X18.015 Y94.359
X19.052 Y94.523
X19.132 Y94.536
X20.169 Y94.698
X20.249 Y94.71
X21.287 Y94.87
X21.366 Y94.882
X22.484 Y95.049
X22.523 Y95.055
X23.68 Y95.222
X23.76 Y95.233
X24.877 Y95.387
X24.957 Y95.397
X26.074 Y95.542
X26.154 Y95.552
X27.351 Y95.697
X27.431 Y95.706
X28.548 Y95.83
X28.628 Y95.839
X29.825 Y95.962
X29.904 Y95.969
X31.022 Y96.074
X31.101 Y96.081
X32.298 Y96.184
X32.378 Y96.19
X33.495 Y96.279
X33.575 Y96.285
X34.772 Y96.373
X34.852 Y96.379
X36.049 Y96.462
X36.128 Y96.467
X37.325 Y96.545
X37.405 Y96.55
X38.682 Y96.629
X38.762 Y96.634
X39.959 Y96.704
X40.038 Y96.709
X41.315 Y96.781
X41.395 Y96.785
X42.672 Y96.854
X42.751 Y96.858
X44.028 Y96.923
X44.108 Y96.927
X45.385 Y96.989
X45.465 Y96.993
X46.741 Y97.052
X46.821 Y97.055
X49.534 Y97.169
X49.614 Y97.172
X52.327 Y97.27
X52.407 Y97.273
X55.2 Y97.36
X55.279 Y97.362
X58.072 Y97.437
X58.152 Y97.439
X60.945 Y97.502
X61.025 Y97.504
X63.897 Y97.56
X63.977 Y97.561
X66.85 Y97.609
X66.929 Y97.61
X69.802 Y97.652
X69.882 Y97.653
X72.834 Y97.688
X72.914 Y97.689
X75.866 Y97.717
X75.946 Y97.718
X78.899 Y97.74
X78.978 Y97.741
X82.011 Y97.756
X82.09
X85.123 Y97.766
X85.203
X85.761
X85.799 Y97.774
X85.832 Y97.796
X85.864 Y97.817
X85.903 Y97.825
X91.205
X91.244 Y97.817
X91.276 Y97.796
X91.308 Y97.774
X91.347 Y97.766
X91.427
X94.539 Y97.758
X94.618
X97.73 Y97.746
X97.81 Y97.745
X100.922 Y97.728
X101.002 Y97.727
X104.114 Y97.706
X104.194
X107.386 Y97.679
X107.465
X110.577 Y97.649
X110.657 Y97.648
X113.849 Y97.614
X113.929 Y97.613
X117.121 Y97.575
X117.2 Y97.574
X120.392 Y97.533
X120.472 Y97.532
X123.744 Y97.485
X123.823 Y97.484
X127.015 Y97.435
X127.095 Y97.434
X130.367 Y97.381
X130.446 Y97.38
X136.99 Y97.264
X137.069 Y97.263
X143.692 Y97.134
X143.772 Y97.133
X150.475 Y96.992
X150.555 Y96.99
X157.178 Y96.84
X157.258 Y96.838
X163.96 Y96.676
X164.04 Y96.674
X170.743 Y96.503
X170.823 Y96.501
X177.526 Y96.32
X177.605 Y96.318
X191.171 Y95.927
X191.25 Y95.924
X197.953 Y95.718
X198.033 Y95.716
X204.736 Y95.502
X204.815 Y95.499
X211.518 Y95.277
X211.598 Y95.274
X218.301 Y95.044
X218.381 Y95.041
X225.004 Y94.806
X225.083 Y94.803
X231.706 Y94.559
X231.786 Y94.556
X238.409 Y94.304
X238.489 Y94.301
X241.761 Y94.173
X241.92 Y94.166
X245.032 Y94.043
X245.112 Y94.039
X248.384 Y93.907
X250.498 Y93.82
X250.537 Y93.826
X250.571 Y93.847
X250.594 Y93.88
X250.602 Y93.918
X250.642 Y97.198
Y97.236 Z-2.492
X250.643 Y97.269 Z-2.471
Y97.291 Z-2.438
Y97.298 Z-2.4
G0 Z4
X85.568 Y76.366
Z1.595
G1 Z-2.4 F600
X85.575 Y76.367 Z-2.438
X85.597 Y76.37 Z-2.471
X85.629 Y76.374 Z-2.492
X85.667 Y76.378 Z-2.5
X88.935 Y76.763
X88.972 Y76.775
X89.001 Y76.8
X89.019 Y76.835
X89.022 Y76.874
X89.013 Y76.953
X88.932 Y77.591
X88.92 Y77.671
X88.791 Y78.389
X88.773 Y78.468
X88.625 Y79.106
X88.603 Y79.186
X88.421 Y79.824
X88.396 Y79.904
X88.178 Y80.542
X88.155 Y80.604
X87.893 Y81.259
X87.858 Y81.339
X87.596 Y81.909
X87.565 Y81.977
X87.232 Y82.615
X87.197 Y82.677
X86.859 Y83.253
X86.81 Y83.333
X86.442 Y83.891
X86.399 Y83.954
X85.977 Y84.529
X85.921 Y84.6
X85.522 Y85.09
X85.457 Y85.167
X85.024 Y85.645
X84.963 Y85.712
X84.472 Y86.204
X84.405 Y86.268
X83.926 Y86.701
X83.857 Y86.762
X83.287 Y87.226
X83.269 Y87.24
X82.726 Y87.639
X82.649 Y87.694
X82.09 Y88.062
X82.011 Y88.114
X81.452 Y88.442
X81.372 Y88.489
X80.71 Y88.835
X80.654 Y88.861
X80.016 Y89.154
X79.936 Y89.186
X79.377 Y89.409
X79.298 Y89.441
X78.659 Y89.659
X78.58 Y89.686
X77.861 Y89.891
X77.782 Y89.91
X77.143 Y90.058
X77.063 Y90.074
X76.41 Y90.191
X76.345 Y90.201
X75.627 Y90.293
X75.547 Y90.299
X74.878 Y90.35
X74.829 Y90.352
X74.111 Y90.371
X74.031 Y90.369
X73.393 Y90.353
X73.318 Y90.35
X72.595 Y90.295
X72.515 Y90.286
X71.877 Y90.204
X71.797 Y90.193
X71.079 Y90.064
X70.361 Y89.897
X70.281 Y89.876
X69.642 Y89.693
X69.563 Y89.668
X68.924 Y89.45
X68.844 Y89.42
X68.206 Y89.165
X68.18 Y89.154
X67.568 Y88.873
X67.488 Y88.836
X66.85 Y88.502
X66.77 Y88.457
X66.192 Y88.117
X66.131 Y88.079
X65.573 Y87.711
X65.493 Y87.656
X64.927 Y87.24
X64.855 Y87.182
X64.339 Y86.762
X64.296 Y86.724
X63.808 Y86.283
X63.738 Y86.217
X63.246 Y85.725
X63.179 Y85.653
X62.74 Y85.167
X62.7 Y85.121
X62.282 Y84.609
X62.222 Y84.532
X61.809 Y83.971
X61.754 Y83.891
X61.387 Y83.333
X61.344 Y83.263
X61.009 Y82.695
X60.964 Y82.615
X60.631 Y81.977
X60.626 Y81.965
X60.338 Y81.339
X60.306 Y81.268
X60.048 Y80.622
X60.019 Y80.542
X59.801 Y79.904
X59.775 Y79.824
X59.588 Y79.17
X59.571 Y79.106
X59.423 Y78.468
X59.405 Y78.389
X59.276 Y77.671
X59.269 Y77.626
X59.183 Y76.953
X59.174 Y76.874
X59.119 Y76.156
X59.116 Y76.076
X59.1 Y75.438
X59.099 Y75.358
X59.109 Y74.928
X59.117 Y74.641
X59.121 Y74.561
X59.17 Y73.923
X59.177 Y73.843
X59.269 Y73.117
X59.281 Y73.046
X59.395 Y72.408
X59.411 Y72.328
X59.559 Y71.69
X59.577 Y71.61
X59.783 Y70.893
X59.809 Y70.813
X60.027 Y70.175
X60.058 Y70.095
X60.313 Y69.457
X60.35 Y69.378
X60.626 Y68.777
X60.645 Y68.74
X60.978 Y68.102
X61.024 Y68.022
X61.353 Y67.464
X61.403 Y67.384
X61.771 Y66.826
X61.823 Y66.754
X62.222 Y66.21
X62.238 Y66.188
X62.7 Y65.621
X62.763 Y65.55
X63.195 Y65.072
X63.259 Y65.004
X63.75 Y64.513
X63.817 Y64.451
X64.296 Y64.018
X64.37 Y63.955
X64.859 Y63.556
X64.935 Y63.497
X65.505 Y63.078
X65.573 Y63.031
X66.131 Y62.663
X66.211 Y62.614
X66.777 Y62.281
X66.85 Y62.24
X67.488 Y61.906
X67.541 Y61.882
X68.126 Y61.613
X68.206 Y61.578
X68.844 Y61.323
X68.924 Y61.293
X69.563 Y61.075
X69.642 Y61.049
X70.281 Y60.867
X70.36 Y60.845
X71.047 Y60.686
X71.079 Y60.678
X71.797 Y60.55
X71.877 Y60.538
X72.515 Y60.457
X72.595 Y60.447
X73.313 Y60.393
X73.393 Y60.389
X74.031 Y60.373
X74.111 Y60.372
X74.829 Y60.39
X74.909 Y60.394
X75.591 Y60.446
X75.627 Y60.45
X76.345 Y60.541
X76.425 Y60.554
X77.063 Y60.669
X77.143 Y60.684
X77.836 Y60.845
X77.861 Y60.851
X78.58 Y61.057
X78.659 Y61.083
X79.298 Y61.302
X79.354 Y61.324
X79.953 Y61.563
X80.016 Y61.588
X80.655 Y61.882
X80.734 Y61.92
X81.372 Y62.253
X81.419 Y62.281
X82.011 Y62.629
X82.089 Y62.679
X82.649 Y63.048
X82.692 Y63.078
X83.235 Y63.477
X83.287 Y63.516
X83.846 Y63.972
X83.918 Y64.035
X84.405 Y64.474
X84.446 Y64.513
X84.963 Y65.03
X85.001 Y65.072
X85.442 Y65.559
X85.503 Y65.63
X85.958 Y66.188
X86 Y66.245
X86.399 Y66.789
X86.425 Y66.826
X86.798 Y67.392
X86.844 Y67.464
X87.197 Y68.065
X87.218 Y68.102
X87.552 Y68.74
X87.59 Y68.819
X87.846 Y69.378
X87.883 Y69.457
X88.155 Y70.138
X88.169 Y70.175
X88.394 Y70.835
X88.413 Y70.893
X88.619 Y71.61
X88.634 Y71.674
X88.785 Y72.328
X88.793 Y72.365
X88.915 Y73.046
X88.928 Y73.126
X89.02 Y73.843
X89.026 Y73.923
X89.075 Y74.561
X89.079 Y74.641
X89.098 Y75.358
X89.096 Y75.438
X89.08 Y76.076
X89.077 Y76.156
X89.022 Y76.874
X89.01 Y76.911
X88.984 Y76.941
X88.948 Y76.959
X88.908 Y76.961
X85.66 Y76.482
X85.622 Y76.477 Z-2.492
X85.59 Y76.472 Z-2.471
X85.569 Y76.469 Z-2.438
X85.561 Y76.468 Z-2.4
G0 Z4
X76.598 Y38.992
Z1.599
G1 Z-2.4 F600
X76.601 Y38.999 Z-2.438
X76.607 Y39.02 Z-2.471
X76.615 Y39.051 Z-2.492
X76.626 Y39.088 Z-2.5
X77.531 Y42.251
X77.534 Y42.29
X77.522 Y42.327
X77.497 Y42.357
X77.462 Y42.374
X76.744 Y42.58
X76.729 Y42.584
X76.026 Y42.747
X75.946 Y42.763
X75.308 Y42.877
X75.228 Y42.89
X74.504 Y42.983
X74.43 Y42.989
X73.792 Y43.037
X73.712 Y43.042
X72.994 Y43.06
X72.914 Y43.059
X72.276 Y43.043
X72.196 Y43.04
X71.478 Y42.985
X71.452 Y42.983
X70.76 Y42.894
X70.68 Y42.883
X69.962 Y42.754
X69.914 Y42.743
X69.227 Y42.584
X69.164 Y42.566
X68.525 Y42.384
X68.446 Y42.358
X67.807 Y42.14
X67.727 Y42.11
X67.089 Y41.856
X67.009 Y41.82
X66.415 Y41.547
X66.371 Y41.527
X65.732 Y41.194
X65.653 Y41.149
X65.094 Y40.82
X65.014 Y40.771
X64.456 Y40.403
X64.38 Y40.351
X63.817 Y39.938
X63.738 Y39.874
X63.247 Y39.474
X63.179 Y39.416
X62.7 Y38.984
X62.627 Y38.916
X62.142 Y38.431
X62.072 Y38.357
X61.64 Y37.879
X61.583 Y37.815
X61.181 Y37.321
X61.116 Y37.241
X60.705 Y36.682
X60.649 Y36.603
X60.281 Y36.045
X60.231 Y35.965
X59.902 Y35.407
X59.856 Y35.327
X59.523 Y34.689
X59.508 Y34.661
X59.228 Y34.051
X59.192 Y33.972
X58.937 Y33.334
X58.906 Y33.254
X58.688 Y32.616
X58.662 Y32.536
X58.471 Y31.87
X58.457 Y31.818
X58.29 Y31.101
X58.275 Y31.021
X58.152 Y30.336
X58.148 Y30.303
X58.056 Y29.586
X58.05 Y29.506
X58.001 Y28.868
X57.997 Y28.788
X57.978 Y28.071
X57.98 Y27.991
X57.992 Y27.502
X57.996 Y27.353
X58 Y27.273
X58.054 Y26.555
X58.064 Y26.476
X58.145 Y25.838
X58.152 Y25.785
X58.271 Y25.12
X58.286 Y25.04
X58.452 Y24.323
X58.471 Y24.252
X58.656 Y23.605
X58.682 Y23.525
X58.9 Y22.887
X58.929 Y22.807
X59.189 Y22.157
X59.219 Y22.09
X59.508 Y21.461
X59.513 Y21.452
X59.846 Y20.814
X59.891 Y20.734
X60.227 Y20.164
X60.268 Y20.096
X60.636 Y19.538
X60.691 Y19.458
X61.104 Y18.896
X61.165 Y18.82
X61.583 Y18.307
X61.622 Y18.262
X62.062 Y17.776
X62.129 Y17.704
X62.62 Y17.212
X62.692 Y17.146
X63.179 Y16.705
X63.223 Y16.667
X63.738 Y16.247
X63.811 Y16.189
X64.376 Y15.774
X64.456 Y15.719
X65.014 Y15.351
X65.077 Y15.312
X65.653 Y14.973
X65.732 Y14.928
X66.372 Y14.594
X67.009 Y14.301
X67.067 Y14.275
X67.727 Y14.011
X67.807 Y13.981
X68.446 Y13.763
X68.525 Y13.738
X69.164 Y13.555
X69.243 Y13.534
X69.882 Y13.386
X69.962 Y13.367
X70.683 Y13.238
X70.76 Y13.227
X71.398 Y13.146
X71.478 Y13.137
X72.196 Y13.082
X72.276 Y13.079
X72.914 Y13.063
X72.994 Y13.061
X73.712 Y13.08
X73.792 Y13.084
X74.43 Y13.133
X74.51 Y13.14
X75.228 Y13.231
X75.273 Y13.238
X75.946 Y13.359
X76.026 Y13.375
X76.664 Y13.523
X76.744 Y13.542
X77.462 Y13.747
X77.542 Y13.774
X78.181 Y13.992
X78.26 Y14.024
X78.889 Y14.275
X78.899 Y14.279
X79.584 Y14.594
X80.255 Y14.945
X80.337 Y14.993
X80.894 Y15.32
X80.973 Y15.371
X81.532 Y15.74
X81.602 Y15.79
X82.145 Y16.189
X82.17 Y16.208
X82.733 Y16.667
X82.809 Y16.734
X83.287 Y17.166
X83.349 Y17.225
X83.846 Y17.723
X83.901 Y17.784
X84.334 Y18.262
X84.401 Y18.342
X84.804 Y18.835
X84.855 Y18.9
X85.282 Y19.482
X85.32 Y19.538
X85.688 Y20.096
X85.737 Y20.176
X86.08 Y20.76
X86.11 Y20.814
X86.443 Y21.452
X86.48 Y21.532
X86.737 Y22.09
X86.772 Y22.17
X87.038 Y22.835
X87.056 Y22.887
X87.277 Y23.533
X87.3 Y23.605
X87.482 Y24.243
X87.504 Y24.323
X87.671 Y25.04
X87.676 Y25.071
X87.799 Y25.758
X87.811 Y25.838
X87.892 Y26.476
X87.902 Y26.555
X87.957 Y27.273
X87.96 Y27.353
X87.976 Y27.991
X87.978 Y28.071
X87.959 Y28.788
X87.955 Y28.868
X87.906 Y29.506
X87.9 Y29.586
X87.809 Y30.303
X87.796 Y30.383
X87.676 Y31.051
X87.666 Y31.101
X87.5 Y31.818
X87.477 Y31.898
X87.294 Y32.536
X87.277 Y32.589
X87.05 Y33.254
X87.038 Y33.286
X86.764 Y33.972
X86.728 Y34.051
X86.471 Y34.609
X86.433 Y34.689
X86.1 Y35.327
X86.08 Y35.362
X85.725 Y35.965
X85.681 Y36.035
X85.307 Y36.603
X85.282 Y36.639
X84.84 Y37.241
X84.804 Y37.286
X84.385 Y37.799
X84.325 Y37.87
X83.884 Y38.357
X83.846 Y38.399
X83.329 Y38.916
X83.287 Y38.955
X82.802 Y39.394
X82.729 Y39.458
X82.17 Y39.914
X82.119 Y39.952
X81.576 Y40.351
X81.532 Y40.382
X80.973 Y40.75
X80.894 Y40.801
X80.304 Y41.148
X80.255 Y41.177
X79.617 Y41.511
X79.542 Y41.547
X78.899 Y41.843
X78.84 Y41.866
X78.242 Y42.105
X78.181 Y42.129
X77.542 Y42.348
X77.462 Y42.374
X77.423 Y42.378
X77.385 Y42.365
X77.355 Y42.339
X77.338 Y42.303
X76.527 Y39.122
X76.517 Y39.084 Z-2.492
X76.509 Y39.053 Z-2.471
X76.504 Y39.032 Z-2.438
X76.502 Y39.025 Z-2.4
G0 Z2
M9
G28 G91 Z0
G90
G28 G91 X0 Y0
G90
M5
M30
