(airfoil4)
(T2  D=1 CR=0.5 - ZMIN=-2.5 - ball end mill)
G90 G94
G17
G21
G28 G91 Z0
G90

(Contour1)
T2
S18000 M3
G54
M8
G0 X249.685 Y16.027
Z2
Z1.598
G1 Z-2.4 F600
X249.677 Y16.028 Z-2.438
X249.656 Y16.031 Z-2.471
X249.624 Y16.035 Z-2.492
X249.586 Y16.04 Z-2.5
X246.335 Y16.476
X246.296 Y16.473
X246.261 Y16.456
X246.235 Y16.427
X246.223 Y16.39
X246.221 Y16.381
X246.22 Y16.37
X246.216 Y16.348
X246.205 Y16.308
X246.192 Y16.268
X246.183 Y16.249
X246.174 Y16.229
X246.163 Y16.209
X246.152 Y16.189
X246.144 Y16.177
X246.12 Y16.143
X246.106 Y16.126
X246.09 Y16.109
X246.064 Y16.084
X246.047 Y16.068
X246.029 Y16.054
X245.993 Y16.029
X245.985 Y16.024
X245.965 Y16.012
X245.945 Y16.002
X245.905 Y15.985
X245.865 Y15.972
X245.825 Y15.962
X245.785 Y15.955
X245.745 Y15.952
X245.705
X245.665 Y15.956
X245.626 Y15.962
X245.586 Y15.971
X241.789 Y16.848
X241.787 Y16.846
X240.888 Y12.951
X240.89 Y12.95
X244.548 Y12.106
X244.588 Y12.096
X244.628 Y12.083
X244.668 Y12.066
X244.688 Y12.056
X244.708 Y12.044
X244.712 Y12.042
X244.731 Y12.03
X244.75 Y12.017
X244.769 Y12.002
X244.788 Y11.986
X244.812 Y11.962
X244.828 Y11.945
X244.842 Y11.928
X244.867 Y11.893
X244.875 Y11.883
X244.887 Y11.863
X244.897 Y11.843
X244.907 Y11.823
X244.916 Y11.803
X244.93 Y11.763
X244.941 Y11.723
X244.947 Y11.686
X244.952 Y11.643
Y11.603
X244.95 Y11.564
X244.947 Y11.543
X244.942 Y11.513
X244.935 Y11.484
X244.922 Y11.444
X244.906 Y11.404
X244.888 Y11.37
X244.867 Y11.336
X244.86 Y11.324
X244.845 Y11.304
X244.828 Y11.285
X244.809 Y11.265
X244.789 Y11.245
X244.788 Y11.244
X244.768 Y11.227
X244.748 Y11.211
X244.708 Y11.184
X244.548 Y11.079
X244.468 Y11.028
X244.428 Y11.005
X244.229 Y10.895
X244.149 Y10.854
X244.07 Y10.816
X243.99 Y10.779
X243.91 Y10.743
X243.83 Y10.709
X243.75 Y10.676
X243.671 Y10.643
X243.511 Y10.581
X243.431 Y10.553
X243.112 Y10.439
X243.032 Y10.412
X242.713 Y10.309
X242.643 Y10.288
X242.314 Y10.194
X242.234 Y10.172
X242.059 Y10.128
X241.995 Y10.113
X241.835 Y10.077
X241.755 Y10.061
X241.596 Y10.029
X241.516 Y10.014
X241.356 Y9.985
X241.277 Y9.971
X241.037 Y9.932
X240.958 Y9.919
X240.718 Y9.883
X240.638 Y9.872
X240.399 Y9.838
X240.319 Y9.827
X240 Y9.784
X239.92 Y9.774
X239.521 Y9.724
X239.441 Y9.714
X239.042 Y9.667
X238.963 Y9.658
X238.564 Y9.614
X238.484 Y9.605
X238.005 Y9.555
X237.925 Y9.547
X237.447 Y9.501
X237.287 Y9.487
X236.968 Y9.458
X236.888 Y9.451
X235.851 Y9.373
X235.771 Y9.368
X234.733 Y9.311
X234.654 Y9.307
X234.175 Y9.29
X234.095 Y9.287
X233.616 Y9.275
X233.537 Y9.274
X233.138 Y9.269
X233.058
X232.579
X232.499 Y9.27
X231.621 Y9.286
X231.542 Y9.288
X230.584 Y9.324
X230.504 Y9.328
X229.627 Y9.374
X229.547 Y9.379
X228.589 Y9.438
X228.509 Y9.443
X227.552 Y9.507
X227.472 Y9.512
X226.515 Y9.579
X226.435 Y9.585
X225.397 Y9.66
X225.318 Y9.665
X224.201 Y9.748
X224.121 Y9.755
X223.004 Y9.842
X222.924 Y9.849
X221.807 Y9.942
X221.727 Y9.949
X220.61 Y10.05
X220.53 Y10.058
X219.413 Y10.168
X219.333 Y10.176
X218.136 Y10.304
X218.056 Y10.313
X216.903 Y10.447
X216.859 Y10.452
X215.662 Y10.603
X215.631 Y10.607
X214.443 Y10.766
X214.386 Y10.774
X213.189 Y10.944
X213.109 Y10.956
X211.992 Y11.122
X211.912 Y11.134
X210.715 Y11.319
X210.682 Y11.324
X209.438 Y11.523
X209.359 Y11.535
X208.162 Y11.731
X208.082 Y11.744
X206.885 Y11.944
X206.805 Y11.957
X205.608 Y12.16
X205.528 Y12.174
X204.252 Y12.394
X202.975 Y12.617
X202.895 Y12.632
X201.618 Y12.858
X201.539 Y12.872
X200.262 Y13.102
X200.182 Y13.117
X198.905 Y13.351
X198.826 Y13.365
X196.192 Y13.858
X196.113 Y13.873
X193.4 Y14.397
X193.32 Y14.413
X190.607 Y14.95
X190.527 Y14.967
X187.814 Y15.517
X187.734 Y15.534
X184.956 Y16.109
X184.941 Y16.112
X182.148 Y16.7
X182.069 Y16.717
X179.196 Y17.329
X176.323 Y17.949
X176.244 Y17.967
X173.371 Y18.594
X173.291 Y18.611
X170.419 Y19.245
X170.339 Y19.263
X167.386 Y19.921
X167.307 Y19.939
X164.434 Y20.587
X164.354 Y20.605
X161.402 Y21.277
X161.335 Y21.292
X158.37 Y21.974
X158.29 Y21.992
X155.257 Y22.695
X155.178 Y22.714
X152.225 Y23.403
X152.145 Y23.422
X149.113 Y24.135
X149.033 Y24.153
X145.96 Y24.881
X145.921 Y24.89
X142.889 Y25.612
X142.809 Y25.631
X139.697 Y26.376
X139.616 Y26.396
X136.585 Y27.126
X136.506 Y27.145
X133.394 Y27.899
X133.343 Y27.911
X130.202 Y28.676
X130.122 Y28.695
X127.01 Y29.457
X126.93 Y29.476
X123.818 Y30.241
X123.738 Y30.261
X120.626 Y31.03
X120.547 Y31.049
X117.355 Y31.841
X117.195 Y31.881
X110.891 Y33.454
X110.812 Y33.474
X104.39 Y35.088
X104.348 Y35.099
X97.885 Y36.735
X97.805 Y36.755
X91.342 Y38.402
X91.262 Y38.423
X84.798 Y40.08
X84.719 Y40.101
X78.175 Y41.789
X71.632 Y43.486
X71.552 Y43.507
X58.466 Y46.928
X58.386 Y46.949
X51.843 Y48.673
X45.3 Y50.406
X45.22 Y50.427
X38.732 Y52.153
X38.677 Y52.168
X32.213 Y53.896
X32.169 Y53.907
X25.75 Y55.632
X25.67 Y55.653
X19.207 Y57.398
X19.127 Y57.42
X12.823 Y59.131
X12.743 Y59.152
X9.552 Y60.022
X9.392 Y60.065
X6.36 Y60.894
X6.246 Y60.925
X3.168 Y61.768
X3.044 Y61.802
X-0.024 Y62.645
X-0.499 Y62.776
X-0.535 Y62.779
X-0.57 Y62.768
X-0.599 Y62.746
X-0.619 Y62.715
X-0.625 Y62.679
X-0.609 Y51.626
X-0.603 Y51.593
X-0.587 Y51.564
X-0.562 Y51.542
X-0.531 Y51.529
X-0.498 Y51.527
X16.813 Y53.483
X16.853 Y53.486
X16.893
X16.933 Y53.483
X16.972 Y53.478
X17.212 Y53.444
X17.292 Y53.433
X17.451 Y53.41
X17.531 Y53.398
X17.571 Y53.39
X17.611 Y53.378
X17.644 Y53.365
X17.678 Y53.349
X17.691 Y53.342
X17.711 Y53.331
X17.731 Y53.318
X17.75 Y53.303
X17.77 Y53.287
X17.79 Y53.269
X17.808 Y53.253
X17.823 Y53.236
X17.85 Y53.202
X17.859 Y53.19
X17.872 Y53.17
X17.884 Y53.15
X17.895 Y53.13
X17.904 Y53.11
X17.919 Y53.075
X17.93 Y53.039
X17.932 Y53.03
X17.941 Y52.99
X17.946 Y52.951
X17.95 Y52.871
X18.092 Y48.815
X18.094 Y48.813
X22.088 Y48.952
X22.089 Y48.953
X21.986 Y51.914
X21.983 Y51.994
X21.985 Y52.033
X21.991 Y52.073
X22 Y52.115
X22.011 Y52.153
X22.027 Y52.193
X22.036 Y52.213
X22.047 Y52.233
X22.062 Y52.258
X22.079 Y52.283
X22.102 Y52.313
X22.129 Y52.341
X22.159 Y52.369
X22.188 Y52.392
X22.214 Y52.41
X22.239 Y52.425
X22.259 Y52.436
X22.279 Y52.445
X22.319 Y52.461
X22.355 Y52.472
X22.377 Y52.477
X22.399 Y52.482
X22.438 Y52.487
X22.478 Y52.489
X22.518 Y52.488
X22.558 Y52.483
X22.615 Y52.472
X23.516 Y52.283
X23.595 Y52.266
X24.48 Y52.073
X24.553 Y52.057
X25.511 Y51.841
X25.541 Y51.834
X26.468 Y51.617
X26.548 Y51.598
X27.548 Y51.356
X27.585 Y51.346
X28.543 Y51.106
X28.623 Y51.085
X30.617 Y50.555
X30.697 Y50.533
X31.575 Y50.286
X31.655 Y50.264
X32.612 Y49.985
X32.692 Y49.961
X33.619 Y49.681
X33.65 Y49.672
X34.607 Y49.372
X34.637 Y49.362
X35.565 Y49.06
X35.617 Y49.043
X36.522 Y48.738
X36.563 Y48.724
X37.48 Y48.404
X37.56 Y48.376
X38.362 Y48.086
X38.437 Y48.059
X39.315 Y47.732
X39.395 Y47.701
X40.193 Y47.395
X40.261 Y47.368
X40.273 Y47.364
X41.15 Y47.017
X41.23 Y46.984
X42.049 Y46.651
X42.108 Y46.626
X42.906 Y46.292
X42.986 Y46.258
X43.784 Y45.914
X43.863 Y45.879
X44.661 Y45.525
X44.741 Y45.49
X45.539 Y45.126
X45.619 Y45.089
X46.417 Y44.714
X46.497 Y44.676
X47.295 Y44.29
X47.358 Y44.258
X48.093 Y43.892
X48.157 Y43.86
X48.97 Y43.441
X49.05 Y43.399
X49.768 Y43.018
X49.834 Y42.983
X50.566 Y42.582
X50.646 Y42.538
X51.414 Y42.105
X51.444 Y42.088
X52.162 Y41.671
X52.238 Y41.627
X52.96 Y41.195
X53.038 Y41.148
X53.758 Y40.706
X53.816 Y40.67
X54.476 Y40.254
X54.556 Y40.203
X55.194 Y39.79
X55.274 Y39.738
X55.992 Y39.262
X56.032 Y39.235
X56.71 Y38.773
X56.734 Y38.756
X57.417 Y38.278
X57.429 Y38.27
X58.08 Y37.799
X58.147 Y37.75
X58.785 Y37.274
X58.828 Y37.241
X59.446 Y36.763
X59.503 Y36.717
X60.062 Y36.267
X60.139 Y36.204
X60.707 Y35.726
X60.78 Y35.665
X60.86 Y35.594
X61.344 Y35.168
X61.418 Y35.102
X61.977 Y34.587
X62.038 Y34.53
X62.618 Y33.972
X62.695 Y33.895
X63.175 Y33.413
X63.253 Y33.334
X63.732 Y32.835
X63.789 Y32.775
X64.309 Y32.217
X64.371 Y32.15
X64.85 Y31.622
X64.888 Y31.579
X65.328 Y31.083
X65.383 Y31.021
X65.807 Y30.533
X65.868 Y30.463
X66.286 Y29.969
X66.34 Y29.905
X66.765 Y29.384
X66.794 Y29.346
X67.165 Y28.868
X67.225 Y28.788
X67.57 Y28.31
X67.627 Y28.23
X67.994 Y27.672
X68.041 Y27.597
X68.201 Y27.334
X68.236 Y27.273
X68.373 Y27.034
X68.417 Y26.954
X68.547 Y26.715
X68.589 Y26.635
X68.752 Y26.316
X68.76 Y26.3
X69.079 Y25.618
X69.088 Y25.598
X69.122 Y25.519
X69.39 Y24.881
X69.398 Y24.862
X69.421 Y24.801
X69.664 Y24.163
X69.693 Y24.083
X69.797 Y23.792
X69.806 Y23.764
X69.915 Y23.445
X69.927 Y23.406
X69.936 Y23.366
X69.941 Y23.326
X69.943 Y23.286
X69.942 Y23.246
X69.938 Y23.206
X69.93 Y23.166
X69.919 Y23.126
X69.905 Y23.087
X69.896 Y23.067
X69.886 Y23.047
X69.877 Y23.03
X69.857 Y22.998
X69.834 Y22.967
X69.816 Y22.946
X69.797 Y22.926
X69.775 Y22.905
X69.754 Y22.887
X69.735 Y22.873
X69.717 Y22.861
X69.697 Y22.848
X69.677 Y22.837
X69.657 Y22.827
X69.637 Y22.818
X69.609 Y22.807
X69.583 Y22.799
X69.557 Y22.792
X69.518 Y22.785
X69.478 Y22.78
X69.398 Y22.777
X65.538 Y22.642
X65.536 Y22.64
X65.676 Y18.647
X65.677 Y18.645
X69.398 Y18.775
X69.478 Y18.777
X69.518 Y18.774
X69.557 Y18.768
X69.597 Y18.759
X69.637 Y18.746
X69.651 Y18.741
X69.684 Y18.726
X69.717 Y18.708
X69.751 Y18.687
X69.785 Y18.661
X69.797 Y18.65
X69.815 Y18.634
X69.832 Y18.616
X69.847 Y18.598
X69.861 Y18.581
X69.877 Y18.56
X69.895 Y18.531
X69.911 Y18.501
X69.921 Y18.481
X69.929 Y18.461
X69.943 Y18.422
X69.951 Y18.394
X69.956 Y18.367
X69.96 Y18.342
X69.964 Y18.302
Y18.262
X69.962 Y18.225
X69.956 Y18.187
Y18.182
X69.946 Y18.142
X69.933 Y18.103
X69.916 Y18.063
X69.906 Y18.043
X69.895 Y18.023
X69.877 Y17.994
X69.858 Y17.968
X69.837 Y17.943
X69.695 Y17.784
X69.637 Y17.719
X69.622 Y17.704
X69.456 Y17.544
X69.398 Y17.489
X69.37 Y17.465
X69.277 Y17.385
X69.238 Y17.353
X69.159 Y17.288
X69.079 Y17.226
X68.999 Y17.165
X68.974 Y17.146
X68.919 Y17.106
X68.839 Y17.047
X68.76 Y16.991
X68.52 Y16.826
X68.44 Y16.771
X68.121 Y16.565
X68.041 Y16.515
X67.763 Y16.348
X67.722 Y16.324
X67.622 Y16.268
X67.563 Y16.235
X67.483 Y16.192
X67.403 Y16.151
X67.324 Y16.109
X67.163 Y16.029
X67.084 Y15.99
X66.924 Y15.915
X66.844 Y15.877
X66.605 Y15.769
X66.525 Y15.734
X66.289 Y15.631
X66.286 Y15.629
X66.102 Y15.551
X65.967 Y15.493
X65.914 Y15.471
X65.648 Y15.361
X65.568 Y15.327
X65.169 Y15.165
X65.136 Y15.152
X64.736 Y14.993
X64.69 Y14.974
X64.291 Y14.818
X64.211 Y14.788
X63.812 Y14.635
X63.732 Y14.604
X63.254 Y14.425
X63.174 Y14.396
X62.775 Y14.25
X62.695 Y14.221
X61.709 Y13.876
X61.658 Y13.858
X60.62 Y13.519
X60.541 Y13.495
X60.142 Y13.372
X60.062 Y13.348
X59.663 Y13.23
X59.583 Y13.207
X59.104 Y13.072
X59.025 Y13.051
X58.626 Y12.944
X58.546 Y12.923
X57.668 Y12.705
X57.588 Y12.686
X56.71 Y12.486
X56.631 Y12.468
X55.751 Y12.281
X55.673 Y12.265
X54.716 Y12.07
X54.636 Y12.054
X53.678 Y11.865
X53.598 Y11.85
X52.641 Y11.663
X52.561 Y11.648
X51.524 Y11.449
X51.444 Y11.433
X50.407 Y11.237
X50.327 Y11.222
X49.21 Y11.014
X49.163 Y11.005
X48.013 Y10.798
X46.816 Y10.591
X46.736 Y10.577
X45.619 Y10.393
X45.539 Y10.38
X44.422 Y10.205
X44.342 Y10.193
X43.145 Y10.017
X43.065 Y10.006
X41.948 Y9.852
X41.869 Y9.841
X40.672 Y9.687
X40.592 Y9.677
X39.475 Y9.542
X39.395 Y9.532
X38.198 Y9.395
X38.118 Y9.386
X36.921 Y9.256
X35.724 Y9.131
X35.645 Y9.123
X34.368 Y8.995
X33.091 Y8.871
X33.011 Y8.864
X31.814 Y8.751
X31.735 Y8.744
X30.458 Y8.627
X30.378 Y8.62
X29.101 Y8.507
X29.022 Y8.5
X27.745 Y8.39
X27.558 Y8.374
X26.388 Y8.276
X26.308 Y8.269
X25.032 Y8.166
X24.952 Y8.16
X22.239 Y7.951
X22.159 Y7.945
X19.446 Y7.752
X19.366 Y7.746
X16.653 Y7.567
X16.573 Y7.561
X13.781 Y7.39
X13.701 Y7.385
X10.828 Y7.219
X8.434 Y7.089
X7.956 Y7.062
X7.876 Y7.058
X5.003 Y6.91
X4.923 Y6.906
X1.971 Y6.76
X-0.498 Y6.644
X-0.536 Y6.635
X-0.568 Y6.611
X-0.588 Y6.576
X-0.593 Y6.537
X-0.344 Y3.266
X-0.341 Y3.228 Z-2.492
X-0.338 Y3.196 Z-2.471
X-0.337 Y3.174 Z-2.438
X-0.336 Y3.167 Z-2.4
G0 Z4
X-1.211 Y17.515
Z1.594
G1 Z-2.4 F600
X-1.21 Y17.507 Z-2.438
X-1.206 Y17.486 Z-2.471
X-1.2 Y17.454 Z-2.492
X-1.194 Y17.416 Z-2.5
X-0.614 Y14.185
X-0.6 Y14.148
X-0.573 Y14.12
X-0.537 Y14.105
X-0.498 Y14.104
X-0.104 Y14.175
X-0.024 Y14.19
X0.694 Y14.356
X0.774 Y14.379
X1.412 Y14.561
X1.492 Y14.588
X2.131 Y14.806
X2.202 Y14.833
X2.849 Y15.091
X2.929 Y15.128
X3.502 Y15.391
X3.567 Y15.422
X4.205 Y15.756
X4.266 Y15.79
X4.844 Y16.13
X4.923 Y16.181
X5.482 Y16.549
X5.538 Y16.587
X6.12 Y17.015
X6.183 Y17.066
X6.679 Y17.47
X6.759 Y17.54
X7.237 Y17.972
X7.292 Y18.023
X7.796 Y18.527
X7.847 Y18.581
X8.279 Y19.06
X8.348 Y19.139
X8.803 Y19.697
X8.862 Y19.777
X9.232 Y20.282
X9.27 Y20.335
X9.638 Y20.894
X9.688 Y20.973
X10.03 Y21.554
X10.063 Y21.611
X10.396 Y22.249
X10.429 Y22.317
X10.691 Y22.887
X10.728 Y22.967
X10.988 Y23.619
X11.013 Y23.685
X11.231 Y24.323
X11.258 Y24.402
X11.44 Y25.04
X11.463 Y25.12
X11.63 Y25.838
X11.645 Y25.917
X11.76 Y26.555
X11.772 Y26.635
X11.864 Y27.353
X11.866 Y27.371
X11.919 Y28.071
X11.923 Y28.15
X11.942 Y28.868
X11.94 Y28.948
X11.924 Y29.586
X11.921 Y29.665
X11.866 Y30.387
X11.856 Y30.463
X11.775 Y31.101
X11.764 Y31.181
X11.635 Y31.898
X11.626 Y31.936
X11.467 Y32.623
X11.447 Y32.696
X11.264 Y33.334
X11.239 Y33.413
X11.021 Y34.051
X10.991 Y34.131
X10.736 Y34.769
X10.701 Y34.849
X10.429 Y35.441
X10.408 Y35.487
X10.075 Y36.125
X10.03 Y36.204
X9.701 Y36.763
X9.653 Y36.842
X9.285 Y37.401
X9.232 Y37.477
X8.82 Y38.038
X8.756 Y38.118
X8.355 Y38.611
X8.299 Y38.676
X7.867 Y39.155
X7.796 Y39.231
X7.314 Y39.713
X7.237 Y39.786
X6.759 Y40.219
X6.699 Y40.271
X6.2 Y40.678
X6.12 Y40.743
X5.562 Y41.153
X5.482 Y41.209
X4.923 Y41.578
X4.845 Y41.627
X4.285 Y41.957
X4.205 Y42.003
X3.55 Y42.345
X3.487 Y42.374
X2.929 Y42.631
X2.857 Y42.664
X2.21 Y42.922
X2.131 Y42.952
X1.492 Y43.171
X1.412 Y43.197
X0.767 Y43.381
X0.694 Y43.402
X-0.024 Y43.568
X-0.104 Y43.584
X-0.498 Y43.654
X-0.537 Y43.653
X-0.574 Y43.637
X-0.601 Y43.608
X-0.614 Y43.57
X-1.099 Y40.327
X-1.104 Y40.289 Z-2.492
X-1.109 Y40.257 Z-2.471
X-1.112 Y40.235 Z-2.438
X-1.113 Y40.228 Z-2.4
G0 Z4
X-0.284 Y90.583
Z1.594
G1 Z-2.4 F600
X-0.285 Y90.575 Z-2.438
X-0.287 Y90.554 Z-2.471
X-0.29 Y90.521 Z-2.492
X-0.293 Y90.483 Z-2.5
X-0.588 Y87.213
X-0.584 Y87.175
X-0.565 Y87.14
X-0.535 Y87.116
X-0.498 Y87.105
X44.422 Y83.052
X44.502 Y83.044
X202.695 Y59.25
X202.736 Y59.244
X202.776 Y59.234
X202.815 Y59.22
X202.895 Y59.187
X203.055 Y59.12
X203.123 Y59.091
X203.308 Y59.011
X203.374 Y58.983
X203.394 Y58.973
X203.414 Y58.963
X203.434 Y58.951
X203.454 Y58.938
X203.463 Y58.931
X203.481 Y58.918
X203.498 Y58.903
X203.516 Y58.888
X203.534 Y58.87
X203.55 Y58.852
X203.566 Y58.832
X203.581 Y58.812
X203.594 Y58.792
X203.606 Y58.772
X203.613 Y58.759
X203.629 Y58.725
X203.643 Y58.692
X203.655 Y58.652
X203.663 Y58.612
X203.669 Y58.572
X203.671 Y58.533
X203.67 Y58.493
X203.666 Y58.453
X203.649 Y58.373
X202.733 Y54.407
X202.736 Y54.406
X206.63 Y53.507
X206.631 Y53.509
X207.294 Y56.379
X207.312 Y56.459
X207.324 Y56.499
X207.34 Y56.539
X207.351 Y56.563
X207.364 Y56.586
X207.384 Y56.619
X207.397 Y56.637
X207.411 Y56.655
X207.426 Y56.673
X207.444 Y56.691
X207.451 Y56.698
X207.469 Y56.715
X207.487 Y56.73
X207.505 Y56.743
X207.523 Y56.756
X207.542 Y56.768
X207.561 Y56.778
X207.582 Y56.789
X207.603 Y56.798
X207.643 Y56.813
X207.683 Y56.824
X207.723 Y56.832
X207.763 Y56.836
X207.803 Y56.838
X207.843 Y56.836
X207.882 Y56.83
X207.922 Y56.822
X207.962 Y56.81
X208.002 Y56.794
X208.034 Y56.778
X208.88 Y56.35
X208.96 Y56.309
X209.758 Y55.897
X209.837 Y55.856
X210.662 Y55.423
X210.715 Y55.394
X211.593 Y54.924
X211.673 Y54.881
X212.471 Y54.445
X212.55 Y54.402
X213.437 Y53.907
X213.508 Y53.867
X215.263 Y52.859
X215.343 Y52.812
X216.185 Y52.313
X216.221 Y52.291
X217.019 Y51.807
X217.099 Y51.759
X217.977 Y51.214
X218.005 Y51.196
X218.774 Y50.707
X218.854 Y50.657
X219.652 Y50.138
X219.732 Y50.086
X220.53 Y49.555
X220.58 Y49.522
X221.328 Y49.012
X221.399 Y48.963
X222.126 Y48.457
X222.201 Y48.405
X222.924 Y47.89
X222.985 Y47.847
X223.753 Y47.289
X223.802 Y47.253
X224.52 Y46.72
X224.599 Y46.66
X225.318 Y46.115
X225.347 Y46.093
X226.068 Y45.534
X226.116 Y45.497
X226.834 Y44.93
X226.875 Y44.896
X227.567 Y44.338
X227.632 Y44.285
X228.27 Y43.759
X228.341 Y43.7
X229.002 Y43.142
X229.068 Y43.086
X229.742 Y42.504
X229.786 Y42.466
X230.464 Y41.866
X230.504 Y41.83
X231.167 Y41.228
X231.222 Y41.177
X231.853 Y40.59
X231.861 Y40.583
X232.521 Y39.952
X232.579 Y39.896
X233.173 Y39.314
X233.217 Y39.27
X233.808 Y38.676
X233.856 Y38.628
X234.428 Y38.038
X234.494 Y37.97
X235.053 Y37.38
X235.109 Y37.321
X235.691 Y36.691
X235.699 Y36.683
X236.276 Y36.045
X236.329 Y35.985
X236.839 Y35.407
X236.888 Y35.352
X237.39 Y34.769
X237.447 Y34.703
X237.993 Y34.051
X238.005 Y34.037
X238.513 Y33.413
X238.564 Y33.35
X239.042 Y32.743
X239.079 Y32.696
X239.564 Y32.058
X239.601 Y32.008
X240.031 Y31.42
X240.08 Y31.352
X240.088 Y31.34
X240.559 Y30.666
X240.588 Y30.622
X241.012 Y29.984
X241.037 Y29.945
X241.467 Y29.267
X241.515 Y29.187
X241.9 Y28.549
X241.915 Y28.523
X242.314 Y27.83
X242.358 Y27.752
X242.713 Y27.107
X242.752 Y27.034
X243.09 Y26.396
X243.112 Y26.354
X243.431 Y25.734
X243.46 Y25.678
X243.779 Y25.04
X243.819 Y24.961
X244.091 Y24.402
X244.129 Y24.323
X244.43 Y23.685
X244.466 Y23.605
X244.717 Y23.047
X244.751 Y22.967
X244.985 Y22.409
X245.017 Y22.329
X245.229 Y21.771
X245.258 Y21.691
X245.469 Y21.053
X245.494 Y20.973
X245.563 Y20.734
X245.586 Y20.655
X245.67 Y20.335
X245.69 Y20.256
X245.746 Y20.016
X245.765 Y19.937
X245.782 Y19.857
X245.833 Y19.618
X245.85 Y19.538
X245.977 Y18.82
X245.985 Y18.778
X245.99 Y18.741
X246.088 Y18.023
X246.098 Y17.943
X246.171 Y17.225
X246.178 Y17.146
X246.197 Y16.906
X246.203 Y16.827
X246.224 Y16.508
X246.234 Y16.469
X246.259 Y16.438
X246.294 Y16.419
X246.333 Y16.415
X249.598 Y16.725
X249.636 Y16.728 Z-2.492
X249.669 Y16.731 Z-2.471
X249.69 Y16.733 Z-2.438
X249.698 Y16.734 Z-2.4
G0 Z4
X187.904 Y36.52
Z1.598
G1 Z-2.4 F600
X187.911 Y36.517 Z-2.438
X187.931 Y36.51 Z-2.471
X187.962 Y36.5 Z-2.492
X187.998 Y36.487 Z-2.5
X191.108 Y35.424
X191.147 Y35.419
X191.185 Y35.429
X191.216 Y35.453
X191.235 Y35.487
X191.453 Y36.125
X191.477 Y36.204
X191.659 Y36.842
X191.679 Y36.922
X191.827 Y37.56
X191.844 Y37.64
X191.963 Y38.306
X191.972 Y38.357
X192.064 Y39.075
X192.071 Y39.155
X192.123 Y39.83
X192.126 Y39.873
X192.144 Y40.59
Y40.67
X192.128 Y41.308
X192.125 Y41.388
X192.071 Y42.105
X192.063 Y42.185
X191.981 Y42.823
X191.971 Y42.903
X191.842 Y43.621
X191.825 Y43.7
X191.677 Y44.338
X191.657 Y44.418
X191.474 Y45.056
X191.45 Y45.136
X191.232 Y45.774
X191.204 Y45.853
X190.949 Y46.491
X190.926 Y46.549
X190.622 Y47.209
X190.607 Y47.242
X190.288 Y47.853
X190.248 Y47.927
X189.889 Y48.537
X189.872 Y48.565
X189.49 Y49.144
X189.451 Y49.203
X189.011 Y49.802
X188.98 Y49.841
X188.532 Y50.389
X188.524 Y50.399
X188.02 Y50.957
X187.974 Y51.004
X187.495 Y51.482
X187.46 Y51.515
X186.931 Y51.994
X186.856 Y52.055
X186.345 Y52.472
X186.298 Y52.509
X185.739 Y52.919
X185.694 Y52.951
X185.089 Y53.349
X185.021 Y53.39
X184.463 Y53.719
X184.411 Y53.748
X183.801 Y54.067
X183.744 Y54.096
X183.106 Y54.389
X183.026 Y54.424
X182.388 Y54.679
X182.317 Y54.705
X181.67 Y54.926
X181.614 Y54.944
X180.952 Y55.134
X180.872 Y55.155
X180.233 Y55.303
X180.154 Y55.321
X179.435 Y55.449
X179.356 Y55.461
X178.717 Y55.542
X178.637 Y55.551
X177.919 Y55.605
X177.84 Y55.608
X177.201 Y55.624
X177.121 Y55.625
X176.403 Y55.607
X176.323 Y55.602
X175.685 Y55.553
X175.605 Y55.546
X174.887 Y55.455
X174.807 Y55.441
X174.169 Y55.326
X174.089 Y55.31
X173.451 Y55.162
X173.371 Y55.143
X172.676 Y54.944
X172.653 Y54.937
X171.973 Y54.705
X171.935 Y54.692
X171.296 Y54.437
X171.217 Y54.404
X170.578 Y54.111
X170.498 Y54.072
X169.879 Y53.748
X169.86 Y53.738
X169.222 Y53.362
X169.201 Y53.349
X168.583 Y52.942
X168.503 Y52.884
X168.025 Y52.532
X167.945 Y52.472
X167.386 Y52.017
X167.36 Y51.994
X166.828 Y51.513
X166.748 Y51.435
X166.349 Y51.036
X166.27 Y50.957
X165.766 Y50.399
X165.711 Y50.331
X165.311 Y49.841
X165.249 Y49.761
X164.839 Y49.203
X164.833 Y49.194
X164.418 Y48.565
X164.371 Y48.485
X164.035 Y47.914
X163.999 Y47.847
X163.708 Y47.289
X163.668 Y47.209
X163.375 Y46.571
X163.341 Y46.491
X163.086 Y45.853
X163.077 Y45.831
X162.838 Y45.131
X162.816 Y45.056
X162.633 Y44.418
X162.613 Y44.338
X162.465 Y43.7
X162.448 Y43.621
X162.319 Y42.903
X162.309 Y42.823
X162.227 Y42.185
X162.219 Y42.105
X162.165 Y41.388
X162.163 Y41.308
X162.146 Y40.67
Y40.59
X162.164 Y39.873
X162.17 Y39.793
X162.2 Y39.404
X162.219 Y39.155
X162.226 Y39.075
X162.318 Y38.357
X162.332 Y38.278
X162.446 Y37.64
X162.463 Y37.56
X162.611 Y36.922
X162.631 Y36.842
X162.813 Y36.204
X162.837 Y36.125
X163.077 Y35.421
X163.083 Y35.407
X163.338 Y34.769
X163.371 Y34.689
X163.664 Y34.051
X163.704 Y33.972
X163.995 Y33.413
X164.035 Y33.338
X164.413 Y32.696
X164.434 Y32.664
X164.833 Y32.058
X164.892 Y31.978
X165.243 Y31.499
X165.304 Y31.42
X165.759 Y30.862
X165.79 Y30.826
X166.269 Y30.296
X166.341 Y30.224
X166.748 Y29.817
X166.821 Y29.745
X167.35 Y29.267
X167.386 Y29.235
X167.945 Y28.78
X168.025 Y28.72
X168.503 Y28.368
X168.583 Y28.31
X169.189 Y27.911
X169.222 Y27.89
X169.863 Y27.512
X169.94 Y27.472
X170.498 Y27.18
X170.578 Y27.141
X171.217 Y26.848
X171.296 Y26.815
X171.935 Y26.56
X171.948 Y26.555
X172.653 Y26.315
X172.733 Y26.292
X173.371 Y26.109
X173.451 Y26.09
X174.089 Y25.942
X174.169 Y25.925
X174.807 Y25.811
X174.887 Y25.797
X175.605 Y25.706
X175.685 Y25.699
X176.323 Y25.65
X176.403 Y25.645
X177.121 Y25.627
X177.201 Y25.628
X177.84 Y25.644
X177.919 Y25.646
X178.637 Y25.701
X178.717 Y25.71
X179.356 Y25.791
X179.435 Y25.802
X180.154 Y25.931
X180.233 Y25.949
X180.872 Y26.097
X180.952 Y26.118
X181.59 Y26.301
X181.642 Y26.316
X182.342 Y26.555
X182.388 Y26.573
X183.026 Y26.828
X183.106 Y26.863
X183.744 Y27.156
X183.817 Y27.193
X184.383 Y27.489
X184.427 Y27.512
X185.021 Y27.862
X185.101 Y27.911
X185.707 Y28.31
X185.739 Y28.333
X186.298 Y28.743
X186.356 Y28.788
X186.856 Y29.196
X186.936 Y29.263
X187.469 Y29.745
X187.495 Y29.769
X187.974 Y30.248
X188.028 Y30.303
X188.46 Y30.782
X188.531 Y30.862
X188.986 Y31.42
X189.011 Y31.45
X189.41 Y31.994
X189.457 Y32.058
X189.825 Y32.616
X189.877 Y32.696
X190.253 Y33.334
X190.288 Y33.399
X190.607 Y34.01
X190.626 Y34.051
X190.926 Y34.703
X190.953 Y34.769
X191.207 Y35.407
X191.235 Y35.487
X191.24 Y35.526
X191.23 Y35.564
X191.205 Y35.595
X191.17 Y35.615
X188.037 Y36.585
X188 Y36.596 Z-2.492
X187.969 Y36.606 Z-2.471
X187.949 Y36.612 Z-2.438
X187.941 Y36.614 Z-2.4
G0 Z2
M9
G28 G91 Z0
G90
G28 G91 X0 Y0
G90
M5
M30
