(airfoil3)
(T2  D=1 CR=0.5 - ZMIN=-2.5 - ball end mill)
G90 G94
G17
G21
G28 G91 Z0
G90

(Contour1)
T2
S18000 M3
G54
M8
G0 X-0.597 Y50.138
Z2
G1 Z-2.5 F600
X-0.59 Y50.1
X-0.569 Y50.067
X-0.537 Y50.045
X-0.498 Y50.037
X5.723 Y49.971
X5.803 Y49.97
X12.426 Y49.891
X12.506 Y49.89
X15.777 Y49.848
X15.857 Y49.847
X19.049 Y49.803
X19.129 Y49.802
X22.4 Y49.756
X22.56 Y49.753
X25.672 Y49.706
X25.752 Y49.705
X28.943 Y49.655
X29.023 Y49.654
X32.215 Y49.601
X32.295 Y49.599
X35.487 Y49.544
X35.566 Y49.543
X38.758 Y49.484
X41.95 Y49.423
X42.03 Y49.421
X45.142 Y49.358
X45.222 Y49.356
X48.334 Y49.289
X48.413 Y49.288
X51.525 Y49.217
X51.605 Y49.215
X54.717 Y49.14
X57.829 Y49.061
X57.909 Y49.059
X60.941 Y48.977
X61.021 Y48.975
X64.053 Y48.888
X64.133 Y48.886
X67.086 Y48.796
X67.165 Y48.794
X70.198 Y48.697
X70.277 Y48.695
X73.23 Y48.596
X73.31 Y48.593
X76.262 Y48.489
X79.214 Y48.38
X79.294 Y48.377
X82.167 Y48.267
X82.247 Y48.264
X85.119 Y48.149
X85.199 Y48.146
X87.992 Y48.031
X88.072 Y48.027
X90.944 Y47.906
X93.737 Y47.784
X93.817 Y47.78
X96.61 Y47.656
X96.69 Y47.652
X99.424 Y47.528
X102.116 Y47.403
X102.195 Y47.399
X104.908 Y47.272
X107.542 Y47.147
X107.861 Y47.131
X110.175 Y47.021
X110.335 Y47.013
X112.808 Y46.896
X112.93 Y46.89
X115.362 Y46.776
X115.441 Y46.772
X116.638 Y46.716
X116.718 Y46.713
X117.915 Y46.657
X118.075 Y46.65
X119.192 Y46.599
X120.389 Y46.545
X120.469 Y46.541
X121.586 Y46.491
X121.665 Y46.488
X122.783 Y46.438
X122.862 Y46.434
X123.98 Y46.385
X124.059 Y46.381
X125.182 Y46.332
X125.416 Y46.322
X126.294 Y46.284
X126.373 Y46.28
X127.411 Y46.236
X127.49 Y46.232
X128.528 Y46.189
X128.608 Y46.186
X129.645 Y46.144
X129.725 Y46.141
X131.799 Y46.063
X131.879 Y46.06
X133.954 Y45.991
X134.034 Y45.988
X134.991 Y45.96
X135.071 Y45.958
X136.029 Y45.931
X136.108 Y45.929
X136.986 Y45.906
X137.066 Y45.904
X137.465 Y45.894
X137.545 Y45.892
X137.944 Y45.882
X138.023 Y45.88
X138.422 Y45.87
X138.502 Y45.869
X138.901 Y45.859
X139.3 Y45.849
X139.38 Y45.848
X139.699 Y45.84
X139.779 Y45.838
X140.178 Y45.829
X140.497 Y45.822
X140.577 Y45.82
X141.295 Y45.805
X141.335
X141.375 Y45.801
X141.415 Y45.794
X141.455 Y45.784
X141.487 Y45.774
X141.511 Y45.764
X141.534 Y45.753
X141.554 Y45.743
X141.574 Y45.731
X141.594 Y45.718
X141.614 Y45.704
X141.627 Y45.694
X141.644 Y45.68
X141.66 Y45.664
X141.678 Y45.646
X141.694 Y45.628
X141.706 Y45.614
X141.721 Y45.594
X141.734 Y45.574
X141.746 Y45.554
X141.757 Y45.534
X141.774 Y45.498
X141.782 Y45.476
X141.79 Y45.455
X141.8 Y45.415
X141.808 Y45.375
X141.812 Y45.335
X141.813 Y45.295
X141.83 Y44.657
X141.831 Y44.577
X141.828 Y44.538
X141.822 Y44.498
X141.812 Y44.458
X141.799 Y44.418
X141.788 Y44.39
X141.774 Y44.362
X141.761 Y44.338
X141.748 Y44.318
X141.734 Y44.298
X141.719 Y44.278
X141.702 Y44.258
X141.694 Y44.25
X141.674 Y44.23
X141.654 Y44.213
X141.634 Y44.197
X141.614 Y44.182
X141.609 Y44.179
X141.591 Y44.167
X141.572 Y44.156
X141.534 Y44.137
X141.495 Y44.122
X141.455 Y44.11
X141.401 Y44.099
X-0.498 Y20.748
X-0.531 Y20.736
X-0.558 Y20.714
X-0.576 Y20.684
X-0.582 Y20.65
X-0.616 Y16.821
X-0.61 Y16.787
X-0.593 Y16.756
X-0.566 Y16.734
X-0.533 Y16.722
X-0.498
X107.781 Y35.512
X107.861 Y35.523
X250.5 Y51.64
X250.534 Y51.65
X250.563 Y51.673
X250.582 Y51.704
X250.589 Y51.739
X250.573 Y62.405
X250.568 Y62.437
X250.553 Y62.465
X250.529 Y62.487
X250.5 Y62.501
X249.976 Y62.645
X246.864 Y63.502
X246.784 Y63.524
X243.672 Y64.384
X243.592 Y64.406
X240.56 Y65.247
X240.48 Y65.269
X237.448 Y66.113
X237.368 Y66.135
X234.323 Y66.985
X234.256 Y67.004
X231.224 Y67.854
X231.195 Y67.863
X228.192 Y68.708
X228.112 Y68.731
X225.08 Y69.589
X224.981 Y69.617
X222.048 Y70.451
X221.968 Y70.474
X219.016 Y71.318
X216.059 Y72.169
X215.983 Y72.191
X213.031 Y73.045
X210.079 Y73.904
X209.919 Y73.951
X207.206 Y74.746
X207.126 Y74.769
X204.253 Y75.616
X204.174 Y75.64
X201.357 Y76.475
X201.301 Y76.492
X198.508 Y77.325
X198.428 Y77.349
X195.636 Y78.186
X195.229 Y78.309
X192.843 Y79.029
X192.763 Y79.053
X190.05 Y79.875
X189.955 Y79.904
X187.335 Y80.701
X187.257 Y80.725
X184.544 Y81.554
X184.464 Y81.579
X181.831 Y82.386
X180.873 Y82.681
X179.198 Y83.197
X179.118 Y83.221
X176.565 Y84.009
X176.485 Y84.034
X173.931 Y84.824
X173.772 Y84.874
X171.378 Y85.616
X168.824 Y86.408
X166.351 Y87.174
X166.191 Y87.224
X163.877 Y87.94
X162.68 Y88.309
X162.521 Y88.359
X161.483 Y88.679
X161.403 Y88.703
X160.286 Y89.047
X160.198 Y89.074
X159.089 Y89.415
X158.85 Y89.489
X157.892 Y89.783
X156.775 Y90.126
X156.616 Y90.175
X155.658 Y90.468
X155.578 Y90.492
X154.541 Y90.81
X154.461 Y90.834
X153.424 Y91.151
X153.344 Y91.175
X152.387 Y91.467
X152.307 Y91.491
X151.269 Y91.806
X151.074 Y91.865
X150.232 Y92.12
X150.152 Y92.144
X148.152 Y92.743
X148.078 Y92.764
X146.163 Y93.328
X146.083 Y93.352
X145.125 Y93.63
X145.045 Y93.653
X144.168 Y93.906
X144.088 Y93.929
X143.21 Y94.181
X143.13 Y94.204
X142.731 Y94.318
X142.652 Y94.34
X142.253 Y94.454
X142.093 Y94.499
X141.774 Y94.59
X141.375 Y94.704
X141.215 Y94.749
X140.976 Y94.817
X140.896 Y94.84
X140.577 Y94.931
X140.497 Y94.953
X140.137 Y95.055
X139.939 Y95.111
X139.779 Y95.156
X139.699 Y95.179
X139.061 Y95.358
X139.004 Y95.374
X138.981 Y95.382
X138.941 Y95.399
X138.921 Y95.409
X138.901 Y95.42
X138.876 Y95.436
X138.851 Y95.454
X138.821 Y95.478
X138.793 Y95.506
X138.768 Y95.534
X138.754 Y95.551
X138.742 Y95.569
X138.727 Y95.591
X138.714 Y95.613
X138.704 Y95.633
X138.695 Y95.653
X138.68 Y95.693
X138.669 Y95.729
X138.662 Y95.765
X138.66 Y95.773
X138.656 Y95.813
X138.654 Y95.853
X138.656 Y95.892
X138.661 Y95.932
X138.662 Y95.937
X138.678 Y96.012
X138.826 Y96.65
X138.836 Y96.69
X138.85 Y96.73
X138.859 Y96.75
X138.868 Y96.77
X138.879 Y96.79
X138.891 Y96.809
X138.901 Y96.825
X138.925 Y96.857
X138.953 Y96.889
X138.981 Y96.916
X138.999 Y96.931
X139.016 Y96.945
X139.051 Y96.969
X139.061 Y96.975
X139.081 Y96.986
X139.101 Y96.996
X139.141 Y97.013
X139.18 Y97.025
X139.22 Y97.035
X139.26 Y97.041
X139.3 Y97.043
X139.34
X139.38 Y97.04
X250.5 Y87.015
X250.539 Y87.019
X250.574 Y87.039
X250.598 Y87.07
X250.609 Y87.108
X250.808 Y90.382
X250.81 Y90.42 Z-2.492
X250.812 Y90.453 Z-2.471
X250.814 Y90.474 Z-2.438
Y90.482 Z-2.4
G0 Z4
X249.81 Y40.031
Z1.594
G1 Z-2.4 F600
X249.811 Y40.039 Z-2.438
X249.816 Y40.06 Z-2.471
X249.824 Y40.091 Z-2.492
X249.832 Y40.129 Z-2.5
X250.575 Y43.327
X250.576 Y43.366
X250.562 Y43.402
X250.535 Y43.431
X250.5 Y43.447
X249.976 Y43.568
X249.896 Y43.584
X249.245 Y43.7
X249.178 Y43.71
X248.46 Y43.802
X248.38 Y43.808
X247.742 Y43.857
X247.698 Y43.86
X246.944 Y43.879
X246.864 Y43.877
X246.186 Y43.86
X246.146 Y43.857
X245.428 Y43.802
X245.348 Y43.792
X244.71 Y43.711
X244.639 Y43.7
X243.991 Y43.584
X243.912 Y43.569
X243.193 Y43.403
X243.117 Y43.381
X242.475 Y43.198
X242.396 Y43.172
X241.757 Y42.954
X241.677 Y42.923
X241.028 Y42.664
X240.959 Y42.632
X240.401 Y42.376
X240.334 Y42.345
X239.683 Y42.005
X239.603 Y41.959
X239.039 Y41.627
X238.964 Y41.58
X238.406 Y41.212
X238.326 Y41.156
X237.767 Y40.746
X237.688 Y40.681
X237.185 Y40.271
X237.129 Y40.222
X236.65 Y39.789
X236.57 Y39.714
X236.091 Y39.235
X236.017 Y39.155
X235.585 Y38.676
X235.533 Y38.616
X235.128 Y38.118
X235.064 Y38.038
X234.654 Y37.48
X234.599 Y37.401
X234.231 Y36.842
X234.183 Y36.763
X233.854 Y36.204
X233.809 Y36.125
X233.476 Y35.487
X233.458 Y35.449
X233.183 Y34.849
X233.148 Y34.769
X232.893 Y34.131
X232.863 Y34.051
X232.645 Y33.413
X232.62 Y33.334
X232.421 Y32.639
X232.416 Y32.616
X232.262 Y31.952
X232.249 Y31.898
X232.121 Y31.181
X232.109 Y31.101
X232.022 Y30.421
X232.018 Y30.383
X231.963 Y29.665
X231.96 Y29.586
X231.942 Y28.888
Y28.87
X231.961 Y28.15
X231.965 Y28.071
X232.014 Y27.433
X232.02 Y27.353
X232.112 Y26.635
X232.125 Y26.555
X232.239 Y25.917
X232.254 Y25.838
X232.421 Y25.12
Y25.119
X232.626 Y24.402
X232.653 Y24.323
X232.871 Y23.685
X232.9 Y23.609
X233.157 Y22.967
X233.193 Y22.887
X233.458 Y22.309
X233.488 Y22.249
X233.821 Y21.611
X233.857 Y21.548
X234.196 Y20.973
X234.246 Y20.894
X234.614 Y20.335
X234.655 Y20.276
X235.054 Y19.733
X235.081 Y19.697
X235.536 Y19.139
X235.605 Y19.06
X236.037 Y18.581
X236.092 Y18.523
X236.592 Y18.023
X236.65 Y17.969
X237.129 Y17.536
X237.209 Y17.467
X237.701 Y17.066
X237.767 Y17.012
X238.346 Y16.587
X238.406 Y16.546
X238.964 Y16.178
X239.044 Y16.128
X239.618 Y15.79
X239.683 Y15.754
X240.321 Y15.42
X240.382 Y15.391
X240.959 Y15.126
X241.039 Y15.09
X241.682 Y14.833
X241.757 Y14.805
X242.396 Y14.586
X242.475 Y14.56
X243.114 Y14.378
X243.193 Y14.355
X243.912 Y14.189
X243.991 Y14.174
X244.63 Y14.06
X244.71 Y14.047
X245.348 Y13.966
X245.428 Y13.956
X246.146 Y13.901
X246.226 Y13.897
X246.864 Y13.881
X246.944 Y13.879
X247.662 Y13.897
X247.742 Y13.902
X248.456 Y13.956
X248.46
X249.178 Y14.048
X249.258 Y14.06
X249.896 Y14.175
X249.976 Y14.19
X250.5 Y14.311
X250.536 Y14.328
X250.563 Y14.357
X250.576 Y14.394
X250.574 Y14.434
X249.74 Y17.606
X249.73 Y17.643 Z-2.492
X249.722 Y17.674 Z-2.471
X249.716 Y17.695 Z-2.438
X249.714 Y17.703 Z-2.4
G0 Z4
X250.763 Y3.216
Z1.594
G1 Z-2.4 F600
Y3.224 Z-2.438
X250.762 Y3.246 Z-2.471
X250.76 Y3.278 Z-2.492
X250.758 Y3.316 Z-2.5
X250.604 Y6.596
X250.595 Y6.634
X250.572 Y6.665
X250.538 Y6.685
X250.5 Y6.691
X248.976 Y6.62
X248.939 Y6.618
X245.986 Y6.486
X245.907 Y6.483
X242.874 Y6.354
X242.795 Y6.351
X239.842 Y6.233
X239.762 Y6.23
X236.73 Y6.114
X236.65 Y6.111
X233.618 Y6.003
X233.538 Y6
X230.426 Y5.894
X230.346 Y5.891
X227.314 Y5.793
X227.234 Y5.79
X224.122 Y5.694
X224.043 Y5.692
X220.931 Y5.6
X220.851 Y5.598
X217.739 Y5.511
X217.659 Y5.508
X214.467 Y5.423
X214.387 Y5.421
X211.196 Y5.34
X208.004 Y5.263
X207.924 Y5.261
X204.732 Y5.187
X204.652 Y5.185
X201.381 Y5.114
X198.109 Y5.046
X198.029 Y5.045
X194.838 Y4.982
X194.758 Y4.98
X191.486 Y4.919
X191.406 Y4.918
X184.863 Y4.805
X184.783 Y4.803
X178.16 Y4.7
X178.081 Y4.699
X171.378 Y4.606
X171.298 Y4.605
X164.675 Y4.524
X164.595 Y4.523
X157.892 Y4.451
X157.813 Y4.45
X151.11 Y4.388
X151.03 Y4.387
X144.247 Y4.333
X144.168 Y4.332
X130.682 Y4.25
X130.603
X123.9 Y4.222
X123.82
X117.037 Y4.201
X116.878
X110.255 Y4.189
X109.936
X103.552 Y4.186
X103.472
X96.769 Y4.19
X96.69
X90.067 Y4.202
X89.987 Y4.203
X83.364 Y4.224
X83.284
X80.092 Y4.237
X80.012 Y4.238
X76.741 Y4.254
X76.661
X73.469 Y4.272
X73.389
X70.118 Y4.293
X69.16 Y4.3
X66.846 Y4.316
X66.766
X63.575 Y4.341
X63.495 Y4.342
X60.303 Y4.37
X57.111 Y4.4
X57.031 Y4.401
X53.84 Y4.435
X50.648 Y4.472
X50.568 Y4.473
X47.456 Y4.512
X47.376 Y4.513
X44.264 Y4.557
X44.184 Y4.558
X41.152 Y4.605
X41.072 Y4.606
X37.96 Y4.658
X34.848 Y4.715
X34.769 Y4.716
X31.736 Y4.777
X28.704 Y4.842
X28.624 Y4.843
X25.672 Y4.912
X25.592 Y4.914
X22.56 Y4.989
X19.607 Y5.067
X19.528 Y5.069
X16.575 Y5.152
X16.495 Y5.155
X13.623 Y5.24
X13.543 Y5.242
X10.67 Y5.332
X10.591 Y5.334
X7.798 Y5.425
X7.718 Y5.428
X4.925 Y5.522
X4.845 Y5.524
X2.052 Y5.622
X1.973 Y5.624
X-0.498 Y5.713
X-0.538 Y5.706
X-0.571 Y5.685
X-0.594 Y5.653
X-0.602 Y5.614
X-0.624 Y2.334
Y2.296 Z-2.492
Y2.263 Z-2.471
X-0.625 Y2.241 Z-2.438
Y2.234 Z-2.4
G0 Z4
X-0.747 Y95.036
Z1.594
G1 Z-2.4 F600
Y95.028 Z-2.438
X-0.746 Y95.007 Z-2.471
X-0.744 Y94.974 Z-2.492
X-0.743 Y94.936 Z-2.5
X-0.603 Y91.656
X-0.593 Y91.618
X-0.57 Y91.586
X-0.537 Y91.566
X-0.498 Y91.56
X125.815 Y96.957
X125.855
X125.895 Y96.954
X125.934 Y96.948
X125.974 Y96.939
X126.214 Y96.889
X126.453 Y96.837
X126.533 Y96.819
X126.564 Y96.809
X126.589 Y96.801
X126.613 Y96.79
X126.633 Y96.781
X126.653 Y96.77
X126.673 Y96.758
X126.693 Y96.744
X126.712 Y96.73
X126.742 Y96.704
X126.772 Y96.674
X126.793 Y96.65
X126.809 Y96.63
X126.823 Y96.61
X126.835 Y96.59
X126.846 Y96.57
X126.852 Y96.559
X126.868 Y96.525
X126.88 Y96.49
X126.891 Y96.451
X126.899 Y96.411
X126.903 Y96.371
X126.905 Y96.331
X126.902 Y96.251
X126.761 Y92.21
X126.762 Y92.208
X130.756 Y92.069
X130.758 Y92.071
X130.863 Y95.055
X130.864 Y95.095
X130.868 Y95.135
X130.874 Y95.175
X130.885 Y95.215
X130.898 Y95.254
X130.907 Y95.274
X130.916 Y95.294
X130.922 Y95.305
X130.942 Y95.339
X130.966 Y95.374
X130.983 Y95.395
X131.001 Y95.416
X131.022 Y95.436
X131.042 Y95.454
X131.062 Y95.469
X131.081 Y95.483
X131.101 Y95.496
X131.121 Y95.508
X131.141 Y95.518
X131.161 Y95.528
X131.174 Y95.534
X131.208 Y95.546
X131.241 Y95.555
X131.281 Y95.564
X131.321 Y95.569
X131.361 Y95.571
X131.4 Y95.569
X131.44 Y95.565
X131.48 Y95.557
X131.56 Y95.535
X132.438 Y95.285
X132.518 Y95.262
X133.395 Y95.006
X133.475 Y94.982
X134.353 Y94.718
X134.433 Y94.694
X135.328 Y94.417
X135.39 Y94.398
X136.348 Y94.093
X136.428 Y94.068
X137.385 Y93.754
X137.465 Y93.727
X139.38 Y93.072
X139.41 Y93.062
X140.338 Y92.73
X140.417 Y92.701
X141.295 Y92.377
X141.375 Y92.348
X142.332 Y91.984
X142.412 Y91.952
X143.29 Y91.608
X143.37 Y91.576
X144.232 Y91.227
X144.247 Y91.221
X145.125 Y90.855
X145.188 Y90.829
X146.083 Y90.445
X146.116 Y90.43
X146.961 Y90.057
X147.017 Y90.031
X147.838 Y89.658
X147.895 Y89.633
X148.749 Y89.234
X148.796 Y89.212
X149.594 Y88.83
X149.674 Y88.791
X150.472 Y88.399
X150.551 Y88.36
X151.349 Y87.958
X151.429 Y87.917
X152.227 Y87.505
X152.275 Y87.479
X153.028 Y87.081
X153.105 Y87.04
X153.91 Y86.602
X153.982 Y86.562
X154.701 Y86.161
X154.767 Y86.124
X155.578 Y85.659
X155.602 Y85.645
X156.376 Y85.189
X156.413 Y85.167
X157.174 Y84.706
X157.202 Y84.688
X157.972 Y84.208
X158.052 Y84.158
X158.716 Y83.732
X158.77 Y83.697
X158.85 Y83.644
X159.488 Y83.223
X159.564 Y83.173
X160.286 Y82.683
X160.366 Y82.628
X161.004 Y82.184
X161.071 Y82.137
X161.741 Y81.658
X161.802 Y81.614
X162.441 Y81.146
X162.504 Y81.1
X163.159 Y80.608
X163.239 Y80.548
X163.877 Y80.057
X163.957 Y79.995
X164.578 Y79.505
X164.595 Y79.491
X165.234 Y78.974
X165.267 Y78.947
X165.872 Y78.442
X165.936 Y78.389
X166.51 Y77.894
X166.583 Y77.83
X167.149 Y77.326
X167.208 Y77.272
X167.809 Y76.714
X167.867 Y76.659
X168.386 Y76.156
X168.425 Y76.117
X168.466 Y76.076
X168.984 Y75.551
X169.017 Y75.518
X169.064 Y75.468
X169.544 Y74.96
X169.618 Y74.88
X170.122 Y74.322
X170.181 Y74.255
X170.676 Y73.684
X170.739 Y73.608
X171.218 Y73.035
X171.274 Y72.966
X171.725 Y72.408
X171.788 Y72.328
X172.176 Y71.836
X172.228 Y71.77
X172.658 Y71.212
X172.718 Y71.132
X173.079 Y70.654
X173.133 Y70.581
X173.548 Y70.016
X173.604 Y69.936
X173.942 Y69.457
X173.997 Y69.378
X174.33 Y68.879
X174.369 Y68.819
X174.729 Y68.239
X174.762 Y68.182
X175.076 Y67.623
X175.118 Y67.544
X175.241 Y67.304
X175.28 Y67.225
X175.396 Y66.985
X175.433 Y66.906
X175.542 Y66.666
X175.578 Y66.587
X175.607 Y66.518
X175.713 Y66.268
X175.746 Y66.188
X176.006 Y65.513
X176.022 Y65.47
X176.266 Y64.753
X176.291 Y64.673
X176.485 Y64.033
X176.508 Y63.955
X176.596 Y63.636
X176.618 Y63.556
X176.681 Y63.317
X176.691 Y63.277
X176.699 Y63.237
X176.704 Y63.198
X176.706 Y63.158
X176.705 Y63.118
X176.7 Y63.078
X176.692 Y63.038
X176.681 Y62.998
X176.666 Y62.958
X176.657 Y62.938
X176.647 Y62.918
X176.644 Y62.914
X176.633 Y62.895
X176.621 Y62.876
X176.608 Y62.858
X176.593 Y62.839
X176.565 Y62.806
X176.538 Y62.781
X176.511 Y62.759
X176.485 Y62.74
X176.465 Y62.727
X176.445 Y62.716
X176.425 Y62.705
X176.405 Y62.696
X176.382 Y62.687
X176.36 Y62.679
X176.325 Y62.669
X176.285 Y62.661
X176.245 Y62.657
X176.205 Y62.655
X176.166 Y62.656
X172.266 Y62.792
X172.264 Y62.79
X172.125 Y58.796
X172.126 Y58.795
X175.846 Y58.665
X175.926 Y58.661
X175.966 Y58.656
X176.006 Y58.647
X176.046 Y58.635
X176.086 Y58.619
X176.099 Y58.612
X176.132 Y58.594
X176.166 Y58.573
X176.191 Y58.554
X176.216 Y58.533
X176.245 Y58.503
X176.267 Y58.478
X176.286 Y58.453
X176.307 Y58.421
X176.325 Y58.388
X176.332 Y58.373
X176.349 Y58.333
X176.361 Y58.293
X176.37 Y58.253
X176.376 Y58.214
X176.378 Y58.174
Y58.134
X176.374 Y58.094
X176.366 Y58.054
X176.356 Y58.014
X176.341 Y57.974
X176.325 Y57.939
X176.313 Y57.917
X176.3 Y57.895
X176.275 Y57.859
X176.261 Y57.841
X176.245 Y57.824
X176.237 Y57.815
X176.166 Y57.745
X176.074 Y57.655
X176.006 Y57.59
X175.989 Y57.576
X175.798 Y57.416
X175.767 Y57.39
X175.696 Y57.336
X175.687 Y57.33
X175.607 Y57.271
X175.527 Y57.215
X175.473 Y57.177
X175.447 Y57.16
X175.352 Y57.097
X175.288 Y57.055
X175.208 Y57.005
X175.128 Y56.955
X174.809 Y56.766
X174.729 Y56.721
X174.4 Y56.539
X174.33 Y56.503
X174.088 Y56.379
X174.011 Y56.341
X173.931 Y56.303
X173.851 Y56.266
X173.772 Y56.229
X173.612 Y56.159
X173.567 Y56.14
X173.373 Y56.06
X173.293 Y56.029
X173.133 Y55.966
X173.054 Y55.936
X172.894 Y55.877
X172.814 Y55.848
X172.575 Y55.762
X172.516 Y55.742
X172.176 Y55.624
X172.096 Y55.597
X171.813 Y55.502
X171.777 Y55.49
X171.378 Y55.36
X171.325 Y55.343
X170.979 Y55.232
X170.899 Y55.207
X170.5 Y55.082
X170.42 Y55.057
X169.942 Y54.911
X169.862 Y54.887
X169.463 Y54.769
X169.383 Y54.745
X168.904 Y54.607
X168.824 Y54.585
X167.804 Y54.306
X167.787 Y54.302
X166.75 Y54.041
X166.67 Y54.022
X166.191 Y53.91
X166.178 Y53.907
X165.712 Y53.805
X165.633 Y53.788
X165.234 Y53.705
X165.154 Y53.689
X164.675 Y53.596
X164.633 Y53.588
X163.717 Y53.428
X163.638 Y53.414
X162.704 Y53.269
X162.68 Y53.266
X161.723 Y53.131
X161.643 Y53.121
X160.765 Y53.005
X160.685 Y52.995
X159.7 Y52.871
X159.648 Y52.864
X158.611 Y52.737
X158.531 Y52.727
X157.493 Y52.602
X157.414 Y52.593
X156.376 Y52.47
X156.297 Y52.461
X155.179 Y52.333
X155.1 Y52.324
X153.982 Y52.202
X153.903 Y52.194
X152.786 Y52.08
X152.721 Y52.073
X151.589 Y51.967
X151.509 Y51.959
X150.312 Y51.857
X150.232 Y51.85
X149.115 Y51.765
X149.035 Y51.759
X147.838 Y51.679
X147.778 Y51.675
X146.562 Y51.603
X146.482 Y51.599
X145.365 Y51.542
X145.285 Y51.538
X144.088 Y51.485
X144.008 Y51.482
X142.799 Y51.435
X142.731 Y51.433
X141.534 Y51.392
X141.455 Y51.39
X140.258 Y51.354
X140.178 Y51.352
X138.981 Y51.32
X138.901 Y51.318
X137.624 Y51.287
X137.545 Y51.285
X136.268 Y51.258
X134.991 Y51.234
X134.911 Y51.233
X133.635 Y51.212
X133.555 Y51.21
X132.198 Y51.192
X130.842 Y51.177
X130.762 Y51.176
X128.049 Y51.157
X127.969
X125.256 Y51.153
X125.176
X122.384 Y51.164
X122.304
X119.511 Y51.188
X118.873 Y51.195
X116.638 Y51.223
X116.559 Y51.224
X113.686 Y51.268
X110.734 Y51.322
X110.654 Y51.323
X107.781 Y51.382
X107.701 Y51.384
X104.749 Y51.452
X104.669 Y51.454
X101.717 Y51.528
X101.637 Y51.53
X98.684 Y51.612
X98.605 Y51.614
X95.572 Y51.704
X95.493 Y51.707
X92.46 Y51.803
X92.381 Y51.806
X89.348 Y51.909
X89.269 Y51.912
X86.236 Y52.02
X86.157 Y52.023
X83.045 Y52.139
X82.965 Y52.142
X79.853 Y52.264
X79.773 Y52.267
X76.661 Y52.393
X76.581 Y52.396
X73.469 Y52.526
X73.389 Y52.53
X70.277 Y52.664
X70.198 Y52.667
X67.006 Y52.809
X66.926 Y52.813
X63.734 Y52.958
X63.654 Y52.962
X60.463 Y53.112
X60.383 Y53.115
X57.174 Y53.269
X57.111 Y53.273
X53.919 Y53.429
X53.84 Y53.433
X50.568 Y53.597
X47.296 Y53.765
X47.217 Y53.769
X40.594 Y54.117
X33.971 Y54.477
X33.891 Y54.482
X27.188 Y54.857
X27.062 Y54.864
X20.485 Y55.243
X20.405 Y55.248
X13.703 Y55.644
X13.623 Y55.649
X6.92 Y56.055
X6.829 Y56.061
X0.137 Y56.475
X0.058 Y56.48
X-0.498 Y56.515
G0 Z4
X92.864 Y72.238
Z1.598
G1 Z-2.4 F600
X92.856 Y72.237 Z-2.438
X92.835 Y72.233 Z-2.471
X92.803 Y72.227 Z-2.492
X92.765 Y72.22 Z-2.5
X89.526 Y71.647
X89.49 Y71.632
X89.461 Y71.605
X89.446 Y71.57
X89.445 Y71.531
X89.459 Y71.451
X89.573 Y70.813
X89.588 Y70.743
X89.747 Y70.056
X89.758 Y70.016
X89.94 Y69.378
X89.964 Y69.298
X90.182 Y68.66
X90.21 Y68.58
X90.466 Y67.94
X90.498 Y67.863
X90.791 Y67.225
X90.83 Y67.145
X91.122 Y66.587
X91.165 Y66.507
X91.54 Y65.869
X91.583 Y65.804
X91.96 Y65.231
X91.982 Y65.202
X92.381 Y64.658
X92.431 Y64.593
X92.886 Y64.035
X92.939 Y63.975
X93.389 Y63.477
X93.418 Y63.447
X93.897 Y62.968
X93.947 Y62.918
X94.477 Y62.44
X94.535 Y62.39
X95.061 Y61.962
X95.094 Y61.935
X95.652 Y61.525
X95.71 Y61.483
X96.315 Y61.084
X96.37 Y61.05
X96.99 Y60.686
X97.009 Y60.676
X97.647 Y60.342
X97.727 Y60.304
X98.285 Y60.048
X98.365 Y60.011
X99.004 Y59.756
X99.075 Y59.729
X99.774 Y59.489
X99.802 Y59.481
X100.44 Y59.299
X100.52 Y59.276
X101.238 Y59.11
X101.318 Y59.094
X101.956 Y58.98
X102.036 Y58.968
X102.754 Y58.876
X102.834 Y58.87
X103.472 Y58.821
X103.552 Y58.817
X104.27 Y58.799
X104.35 Y58.801
X104.988 Y58.817
X105.068 Y58.821
X105.786 Y58.876
X105.866 Y58.886
X106.504 Y58.967
X106.584 Y58.979
X107.223 Y59.094
X107.302 Y59.109
X108.02 Y59.275
X108.1 Y59.297
X108.739 Y59.48
X108.77 Y59.489
X109.47 Y59.729
X109.537 Y59.755
X110.175 Y60.01
X110.255 Y60.046
X110.813 Y60.302
X110.893 Y60.34
X111.531 Y60.673
X111.555 Y60.686
X112.17 Y61.048
X112.229 Y61.084
X112.834 Y61.483
X112.888 Y61.522
X113.447 Y61.932
X113.483 Y61.962
X114.005 Y62.387
X114.067 Y62.44
X114.597 Y62.918
X114.643 Y62.964
X115.122 Y63.443
X115.155 Y63.477
X115.601 Y63.97
X115.659 Y64.035
X116.114 Y64.593
X116.16 Y64.653
X116.559 Y65.196
X116.584 Y65.231
X116.958 Y65.797
X117.004 Y65.869
X117.38 Y66.507
X117.422 Y66.587
X117.714 Y67.145
X117.754 Y67.225
X118.047 Y67.863
X118.075 Y67.929
X118.335 Y68.58
X118.362 Y68.66
X118.581 Y69.298
X118.604 Y69.378
X118.793 Y70.038
X118.806 Y70.095
X118.954 Y70.733
X118.971 Y70.813
X119.085 Y71.451
X119.1 Y71.531
X119.192 Y72.256
X119.199 Y72.328
X119.247 Y72.966
X119.253 Y73.046
X119.272 Y73.782
Y73.816
X119.255 Y74.481
X119.253 Y74.561
X119.198 Y75.279
X119.192 Y75.342
X119.108 Y75.996
X119.098 Y76.076
X118.969 Y76.794
X118.952 Y76.873
X118.804 Y77.512
X118.793 Y77.56
X118.601 Y78.229
X118.577 Y78.309
X118.359 Y78.947
X118.331 Y79.027
X118.075 Y79.668
X118.043 Y79.744
X117.749 Y80.382
X117.709 Y80.462
X117.418 Y81.02
X117.375 Y81.1
X117.037 Y81.673
X116.999 Y81.738
X116.631 Y82.296
X116.578 Y82.376
X116.16 Y82.945
X116.106 Y83.014
X115.681 Y83.536
X115.651 Y83.572
X115.147 Y84.13
X115.122 Y84.155
X114.643 Y84.634
X114.587 Y84.688
X114.057 Y85.167
X114.005 Y85.211
X113.472 Y85.645
X113.447 Y85.666
X112.888 Y86.076
X112.821 Y86.124
X112.216 Y86.523
X112.17 Y86.55
X111.611 Y86.879
X111.538 Y86.921
X110.893 Y87.258
X110.813 Y87.296
X110.24 Y87.559
X110.175 Y87.588
X109.537 Y87.843
X109.457 Y87.874
X108.818 Y88.092
X108.74 Y88.117
X108.1 Y88.3
X108.02 Y88.323
X107.302 Y88.489
X107.223 Y88.504
X106.584 Y88.619
X106.504 Y88.631
X105.866 Y88.712
X105.786 Y88.722
X105.068 Y88.777
X104.988 Y88.781
X104.35 Y88.797
X104.27 Y88.799
X103.552 Y88.78
X103.472 Y88.776
X102.834 Y88.728
X102.754 Y88.722
X102.036 Y88.63
X101.956 Y88.618
X101.318 Y88.503
X101.238 Y88.488
X100.52 Y88.322
X100.44 Y88.299
X99.802 Y88.117
X99.722 Y88.09
X99.083 Y87.872
X99.004 Y87.841
X98.365 Y87.586
X98.305 Y87.559
X97.727 Y87.294
X97.647 Y87.256
X97.007 Y86.921
X96.929 Y86.876
X96.37 Y86.548
X96.329 Y86.523
X95.724 Y86.124
X95.652 Y86.073
X95.094 Y85.663
X95.072 Y85.645
X94.535 Y85.207
X94.487 Y85.167
X93.957 Y84.688
X93.897 Y84.63
X93.418 Y84.151
X93.398 Y84.13
X92.893 Y83.572
X92.859 Y83.531
X92.438 Y83.014
X92.381 Y82.939
X91.967 Y82.376
X91.914 Y82.296
X91.546 Y81.738
X91.503 Y81.666
X91.17 Y81.1
X91.127 Y81.02
X90.835 Y80.462
X90.795 Y80.382
X90.502 Y79.744
X90.468 Y79.665
X90.213 Y79.027
X90.185 Y78.947
X89.967 Y78.309
X89.943 Y78.229
X89.761 Y77.591
X89.747 Y77.542
X89.588 Y76.854
X89.575 Y76.794
X89.446 Y76.076
X89.436 Y75.996
X89.355 Y75.358
X89.348 Y75.304
X89.292 Y74.561
X89.29 Y74.481
X89.273 Y73.843
Y73.764
X89.291 Y73.046
X89.297 Y72.966
X89.348 Y72.293
X89.354 Y72.248
X89.445 Y71.531
X89.46 Y71.494
X89.487 Y71.465
X89.524 Y71.45
X89.564
X92.779 Y72.117
X92.816 Y72.124 Z-2.492
X92.848 Y72.131 Z-2.471
X92.869 Y72.135 Z-2.438
X92.877 Y72.137 Z-2.4
G0 Z2
M9
G28 G91 Z0
G90
G28 G91 X0 Y0
G90
M5
M30
