(bigperpconnectorpart1)
(Machine)
(  vendor: Autodesk)
(  description: Generic 3-axis)
(T1  D=3 CR=0 - ZMIN=-9.98 - flat end mill)
G90 G94
G17
G21
G28 G91 Z0
G90

(Adaptive1)
T1
S18000 M3
G54
G0 X25.424 Y22.471
Z3.01
Z1
G2 X22.888 Y24.399 Z0.825 I-1.268 J0.964 F333.3
X25.424 Y22.471 Z0.651 I1.268 J-0.964
X22.888 Y24.399 Z0.476 I-1.268 J0.964
X25.424 Y22.471 Z0.301 I1.268 J-0.964
X22.888 Y24.399 Z0.127 I-1.268 J0.964
X25.424 Y22.471 Z-0.048 I1.268 J-0.964
X22.888 Y24.399 Z-0.223 I-1.268 J0.964
X25.424 Y22.471 Z-0.398 I1.268 J-0.964
X22.888 Y24.399 Z-0.572 I-1.268 J0.964
X25.424 Y22.471 Z-0.747 I1.268 J-0.964
X22.888 Y24.399 Z-0.922 I-1.268 J0.964
X25.424 Y22.471 Z-1.096 I1.268 J-0.964
X22.888 Y24.399 Z-1.271 I-1.268 J0.964
X25.424 Y22.471 Z-1.446 I1.268 J-0.964
X22.888 Y24.399 Z-1.62 I-1.268 J0.964
X25.424 Y22.471 Z-1.795 I1.268 J-0.964
X22.888 Y24.399 Z-1.97 I-1.268 J0.964
X25.424 Y22.471 Z-2.145 I1.268 J-0.964
X22.888 Y24.399 Z-2.319 I-1.268 J0.964
X25.424 Y22.471 Z-2.494 I1.268 J-0.964
X22.888 Y24.399 Z-2.669 I-1.268 J0.964
X25.424 Y22.471 Z-2.843 I1.268 J-0.964
X22.888 Y24.399 Z-3.018 I-1.268 J0.964
X25.424 Y22.471 Z-3.193 I1.268 J-0.964
X22.888 Y24.399 Z-3.367 I-1.268 J0.964
X25.424 Y22.471 Z-3.542 I1.268 J-0.964
X22.888 Y24.399 Z-3.717 I-1.268 J0.964
X25.424 Y22.471 Z-3.892 I1.268 J-0.964
X22.888 Y24.399 Z-4.066 I-1.268 J0.964
X25.424 Y22.471 Z-4.241 I1.268 J-0.964
X22.888 Y24.399 Z-4.416 I-1.268 J0.964
X25.424 Y22.471 Z-4.59 I1.268 J-0.964
X22.888 Y24.399 Z-4.765 I-1.268 J0.964
X25.424 Y22.471 Z-4.94 I1.268 J-0.964
X22.888 Y24.399 Z-5.114 I-1.268 J0.964
X25.424 Y22.471 Z-5.289 I1.268 J-0.964
X22.888 Y24.399 Z-5.464 I-1.268 J0.964
X25.424 Y22.471 Z-5.639 I1.268 J-0.964
X22.888 Y24.399 Z-5.813 I-1.268 J0.964
X25.424 Y22.471 Z-5.988 I1.268 J-0.964
X22.888 Y24.399 Z-6.163 I-1.268 J0.964
X25.424 Y22.471 Z-6.337 I1.268 J-0.964
X22.888 Y24.399 Z-6.512 I-1.268 J0.964
X25.424 Y22.471 Z-6.687 I1.268 J-0.964
X22.888 Y24.399 Z-6.861 I-1.268 J0.964
X25.749 Y23.435 Z-7 I1.268 J-0.964
X22.564 Y23.435 I-1.592 J0
X25.749 Y23.435 I1.592 J0
X24.156 Y23.435 I-0.796 J0
X24.333 Y23.699 Z-6.289 I0.3 J-0.01 F100
G1 X24.393 Y23.718 Z-6.156 F1000
X24.456 Y23.725 Z-6.022
X24.466 Z-6
X25.438
X25.449 Z-6.022
X25.511 Y23.718 Z-6.156
X25.571 Y23.699 Z-6.289
G2 X25.749 Y23.435 Z-7 I-0.122 J-0.274 F100
G1 Y22.836
G2 X25.158 Y21.848 I-1.205 J0.05
X22.252 Y23.414 I-1.038 J1.554
X25.936 Y24.123 I1.904 J0.031
G1 X25.971 Y23.956
X25.984 Y23.785
X25.987 Y23.435
X25.985 Y22.818
G2 X25.026 Y21.414 I-1.553 J0.032
X22.366 Y22.104 I-0.927 J1.897
G1 X22.269 Y22.378
X22.235 Y22.663
X22.236 Y23.435
X22.231 Y24.094
G2 X22.982 Y25.318 I1.486 J-0.069
X25.73 Y25.026 I1.199 J-1.788
G1 X25.862 Y24.805
X25.948 Y24.565
X25.98 Y24.311
X25.984 Y23.785
G2 X25.818 Y23.515 Z-6.289 I-0.3 J-0.002
G1 X25.754 Y23.492 Z-6.145 F1000
X25.686 Y23.483 Z-6
G2 X25.682 Y24.083 I-0.002 J0.3
X25.954 Y23.653 I0.002 J-0.3
G1 X25.778 Y23.289
G2 X25.238 Y23.55 I-0.27 J0.131
X25.767 Y23.572 I0.27 J-0.131
X25.901 Y23.28 I-1.363 J-0.804
G1 X25.94 Y23.149 Z-6.289
G2 X25.985 Y22.818 Z-7 I-1.536 J-0.381 F100
G1 X25.983 Y22.266
G2 X25.39 Y21.277 I-1.24 J0.071
X22.975 Y21.134 I-1.323 J1.867
X22.233 Y22.227 I0.426 J1.088
G1 X22.235 Y22.663
G2 X22.413 Y22.926 Z-6.289 I0.3 J-0.011
G1 X22.478 Y22.946 Z-6.145 F1000
X22.546 Y22.951 Z-6
X22.572 Y22.949
X25.675 Y22.561
X25.721 Y22.555 Z-6.098
X25.765 Y22.546 Z-6.194
X25.807 Y22.531 Z-6.289
G2 X25.983 Y22.266 Z-7 I-0.124 J-0.273 F100
G1 X25.982 Y22.13
X25.98 Y21.858
G2 X25.586 Y21.079 I-1.043 J0.039
X23.483 Y20.581 I-1.526 J1.75
X22.43 Y21.158 I0.193 J1.6
G1 X22.32 Y21.371
X22.251 Y21.599
X22.229 Y21.836
X22.233 Y22.227
G2 X22.412 Y22.49 Z-6.289 I0.3 J-0.012
G1 X22.476 Y22.51 Z-6.145 F1000
X22.544 Y22.515 Z-6
X22.567 Y22.513
X25.673 Y22.153
X25.714 Y22.148 Z-6.088
X25.761 Y22.139 Z-6.189
X25.805 Y22.123 Z-6.289
G2 X25.98 Y21.858 Z-7 I-0.125 J-0.273 F100
G1 X25.974 Y21.47
G2 X25.559 Y20.706 I-1.011 J0.054
X23.591 Y20.194 I-1.535 J1.862
X22.449 Y20.741 I0.079 J1.632
G1 X22.326 Y20.965
X22.248 Y21.206
X22.224 Y21.459
X22.229 Y21.836
G2 X22.409 Y22.098 Z-6.289 I0.3 J-0.014
G1 X22.474 Y22.117 Z-6.145 F1000
X22.542 Y22.122 Z-6
X22.563 Y22.12
X25.669 Y21.767
X25.708 Y21.762 Z-6.084
X25.756 Y21.753 Z-6.187
X25.801 Y21.736 Z-6.289
G2 X25.974 Y21.47 Z-7 I-0.126 J-0.272 F100
G1 X25.969 Y21.128
G2 X25.559 Y20.361 I-1 J0.042
X23.593 Y19.827 I-1.58 J1.931
X22.446 Y20.362 I0.047 J1.597
G1 X22.321 Y20.587
X22.242 Y20.829
X22.218 Y21.084
X22.224 Y21.459
G2 X22.405 Y21.72 Z-6.289 I0.3 J-0.015
G1 X22.47 Y21.739 Z-6.145 F1000
X22.538 Y21.744 Z-6
X22.554 Y21.742
X25.664 Y21.424
X25.7 Y21.42 Z-6.077
X25.749 Y21.411 Z-6.183
X25.796 Y21.394 Z-6.289
G2 X25.969 Y21.128 Z-7 I-0.127 J-0.272 F100
G1 X25.964 Y20.748
G2 X25.644 Y20.094 I-0.897 J0.033
X23.861 Y19.445 I-1.653 J1.77
X22.61 Y19.806 I-0.106 J1.986
X22.212 Y20.708 I0.826 J0.903
G1 X22.218 Y21.084
G2 X22.4 Y21.344 Z-6.289 I0.3 J-0.015
G1 X22.465 Y21.364 Z-6.145 F1000
X22.533 Y21.368 Z-6
X22.549 Y21.367
X25.657 Y21.044
X25.695 Y21.04 Z-6.08
X25.743 Y21.031 Z-6.185
X25.79 Y21.014 Z-6.289
G2 X25.964 Y20.748 Z-7 I-0.126 J-0.272 F100
G1 X25.959 Y20.419
G2 X25.542 Y19.656 I-0.996 J0.05
X23.431 Y19.114 I-1.645 J2.022
X22.308 Y19.837 I0.08 J1.358
G1 X22.233 Y20.083
X22.208 Y20.337
X22.213 Y20.708
G2 X22.393 Y20.969 Z-6.289 I0.3 J-0.014
G1 X22.458 Y20.988 Z-6.145 F1000
X22.526 Y20.993 Z-6
X22.539 Y20.992
X25.653 Y20.714
X25.686 Y20.711 Z-6.071
X25.737 Y20.702 Z-6.18
X25.785 Y20.684 Z-6.289
G2 X25.959 Y20.419 Z-7 I-0.126 J-0.272 F100
G1 X25.955 Y20.049
G2 X25.636 Y19.395 I-0.902 J0.035
X23.712 Y18.721 I-1.72 J1.83
X22.609 Y19.064 I-0.041 J1.817
X22.203 Y19.968 I0.802 J0.902
G1 X22.208 Y20.337
G2 X22.389 Y20.598 Z-6.289 I0.3 J-0.014
G1 X22.454 Y20.618 Z-6.145 F1000
X22.522 Y20.623 Z-6
X22.535 Y20.622
X25.649 Y20.344
X25.682 Y20.341 Z-6.071
X25.733 Y20.332 Z-6.18
X25.781 Y20.314 Z-6.289
G2 X25.955 Y20.049 Z-7 I-0.126 J-0.272 F100
G1 X25.951 Y19.714
G2 X25.534 Y18.951 I-1.007 J0.055
X22.827 Y18.55 I-1.685 J2.037
X22.199 Y19.604 I0.556 J1.046
G1 X22.204 Y19.968
G2 X22.384 Y20.23 Z-6.289 I0.3 J-0.014
G1 X22.45 Y20.25 Z-6.145 F1000
X22.517 Y20.254 Z-6
X22.527
X25.645 Y20.009
X25.675 Y20.007 Z-6.063
X25.727 Y19.998 Z-6.176
X25.777 Y19.98 Z-6.289
G2 X25.951 Y19.714 Z-7 I-0.126 J-0.272 F100
G1 X25.946 Y19.359
G2 X25.529 Y18.596 I-1.014 J0.058
X22.824 Y18.183 I-1.693 J2.025
X22.194 Y19.241 I0.555 J1.048
G1 X22.199 Y19.604
G2 X22.38 Y19.865 Z-6.289 I0.3 J-0.014
G1 X22.445 Y19.885 Z-6.145 F1000
X22.513 Y19.889 Z-6
X22.521
X25.64 Y19.654
X25.669 Y19.652 Z-6.061
X25.722 Y19.643 Z-6.175
X25.773 Y19.625 Z-6.289
G2 X25.946 Y19.359 Z-7 I-0.126 J-0.272 F100
G1 X25.941 Y19.011
G2 X25.53 Y18.244 I-1.02 J0.052
X22.825 Y17.816 I-1.704 J2.011
X22.188 Y18.876 I0.55 J1.051
G1 X22.194 Y19.241
G2 X22.375 Y19.502 Z-6.289 I0.3 J-0.015
G1 X22.44 Y19.521 Z-6.145 F1000
X22.508 Y19.526 Z-6
X22.515 Y19.525
X25.635 Y19.306
X25.662 Y19.304 Z-6.057
X25.716 Y19.295 Z-6.173
X25.768 Y19.277 Z-6.289
G2 X25.941 Y19.011 Z-7 I-0.126 J-0.272 F100
G1 X25.936 Y18.648
G2 X25.523 Y17.882 I-1.021 J0.057
X22.82 Y17.452 I-1.705 J2.006
X22.184 Y18.51 I0.551 J1.052
G1 X22.189 Y18.876
G2 X22.37 Y19.137 Z-6.289 I0.3 J-0.015
G1 X22.435 Y19.157 Z-6.145 F1000
X22.503 Y19.161 Z-6
X22.51
X25.63 Y18.943
X25.657 Y18.941 Z-6.059
X25.711 Y18.932 Z-6.174
X25.762 Y18.914 Z-6.289
G2 X25.936 Y18.648 Z-7 I-0.126 J-0.272 F100
G1 X25.932 Y18.293
G2 X25.521 Y17.525 I-1.025 J0.054
X22.818 Y17.087 I-1.712 J1.999
X22.179 Y18.148 I0.548 J1.053
G1 X22.184 Y18.51
G2 X22.365 Y18.771 Z-6.289 I0.3 J-0.014
G1 X22.43 Y18.791 Z-6.145 F1000
X22.498 Y18.796 Z-6
X22.504 Y18.795
X25.625 Y18.587
X25.652 Y18.586 Z-6.056
X25.706 Y18.577 Z-6.173
X25.758 Y18.559 Z-6.289
G2 X25.932 Y18.293 Z-7 I-0.126 J-0.272 F100
G1 X25.927 Y17.941
G2 X25.523 Y17.168 I-1.06 J0.062
X22.818 Y16.721 I-1.721 J2.004
X22.174 Y17.785 I0.546 J1.057
G1 X22.18 Y18.148
G2 X22.361 Y18.409 Z-6.289 I0.3 J-0.014
G1 X22.426 Y18.428 Z-6.145 F1000
X22.494 Y18.433 Z-6
X22.498
X25.621 Y18.236
X25.646 Y18.234 Z-6.054
X25.701 Y18.225 Z-6.172
X25.753 Y18.207 Z-6.289
G2 X25.927 Y17.941 Z-7 I-0.126 J-0.272 F100
G1 X25.922 Y17.554
G2 X25.608 Y16.895 I-0.935 J0.042
X23.55 Y16.185 I-1.783 J1.831
X22.402 Y16.695 I-0.013 J1.516
G1 X22.274 Y16.922
X22.193 Y17.168
X22.169 Y17.426
X22.175 Y17.785
G2 X22.356 Y18.046 Z-6.289 I0.3 J-0.014
G1 X22.421 Y18.065 Z-6.145 F1000
X22.489 Y18.07 Z-6
X22.496 Y18.069
X25.616 Y17.849
X25.643 Y17.848 Z-6.056
X25.697 Y17.839 Z-6.173
X25.749 Y17.82 Z-6.289
G2 X25.922 Y17.554 Z-7 I-0.127 J-0.272 F100
G1 X25.916 Y17.211
G2 X25.507 Y16.442 I-1.029 J0.054
X22.804 Y15.996 I-1.717 J1.991
X22.163 Y17.057 I0.547 J1.055
G1 X22.169 Y17.426
G2 X22.351 Y17.686 Z-6.289 I0.3 J-0.016
G1 X22.416 Y17.705 Z-6.145 F1000
X22.484 Y17.71 Z-6
X22.488
X25.61 Y17.506
X25.636 Y17.504 Z-6.055
X25.69 Y17.495 Z-6.172
X25.742 Y17.477 Z-6.289
G2 X25.916 Y17.211 Z-7 I-0.126 J-0.272 F100
G1 X25.912 Y16.868
G2 X25.515 Y16.092 I-1.03 J0.039
X22.81 Y15.629 I-1.731 J1.976
X22.159 Y16.691 I0.536 J1.059
G1 X22.164 Y17.057
G2 X22.345 Y17.319 Z-6.289 I0.3 J-0.014
G1 X22.41 Y17.338 Z-6.145 F1000
X22.478 Y17.343 Z-6
X22.481
X25.605 Y17.161
X25.629 Y17.16 Z-6.053
X25.685 Y17.151 Z-6.171
X25.737 Y17.133 Z-6.289
G2 X25.912 Y16.868 Z-7 I-0.125 J-0.273 F100
G1 X25.908 Y16.505
G2 X25.51 Y15.731 I-1.033 J0.042
X22.807 Y15.266 I-1.731 J1.973
X22.156 Y16.327 I0.536 J1.059
G1 X22.16 Y16.691
G2 X22.34 Y16.953 Z-6.289 I0.3 J-0.013
G1 X22.405 Y16.973 Z-6.145 F1000
X22.473 Y16.978 Z-6
X22.477 Y16.977
X25.601 Y16.798
X25.626 Y16.797 Z-6.052
X25.681 Y16.789 Z-6.171
X25.734 Y16.77 Z-6.289
G2 X25.908 Y16.505 Z-7 I-0.125 J-0.273 F100
G1 X25.905 Y16.133
G2 X25.499 Y15.362 I-1.032 J0.052
X22.799 Y14.905 I-1.724 J1.979
X22.153 Y15.961 I0.542 J1.057
G1 X22.157 Y16.327
G2 X22.336 Y16.589 Z-6.289 I0.3 J-0.013
G1 X22.401 Y16.609 Z-6.145 F1000
X22.469 Y16.614 Z-6
X22.474 Y16.613
X25.598 Y16.426
X25.623 Y16.424 Z-6.054
X25.678 Y16.416 Z-6.172
X25.73 Y16.397 Z-6.289
G2 X25.905 Y16.133 Z-7 I-0.125 J-0.273 F100
G1 X25.903 Y15.765
G2 X25.6 Y15.101 I-0.936 J0.026
X23.55 Y14.369 I-1.799 J1.803
X22.394 Y14.868 I-0.028 J1.526
G1 X22.263 Y15.092
X22.179 Y15.337
X22.151 Y15.594
X22.154 Y15.961
G2 X22.333 Y16.224 Z-6.289 I0.3 J-0.013
G1 X22.398 Y16.244 Z-6.145 F1000
X22.466 Y16.249 Z-6
X22.472 Y16.248
X25.595 Y16.058
X25.621 Y16.056 Z-6.056
X25.675 Y16.048 Z-6.173
X25.727 Y16.03 Z-6.289
G2 X25.903 Y15.765 Z-7 I-0.124 J-0.273 F100
G1 X25.901 Y15.42
G2 X25.502 Y14.646 I-1.029 J0.041
X22.802 Y14.174 I-1.736 J1.973
X22.149 Y15.23 I0.534 J1.06
G1 X22.151 Y15.594
G2 X22.33 Y15.857 Z-6.289 I0.3 J-0.011
G1 X22.394 Y15.877 Z-6.145 F1000
X22.462 Y15.882 Z-6
X22.467
X25.592 Y15.711
X25.617 Y15.71 Z-6.054
X25.672 Y15.702 Z-6.172
X25.724 Y15.684 Z-6.289
G2 X25.901 Y15.42 Z-7 I-0.123 J-0.273 F100
G1 X25.9 Y15.061
G2 X25.502 Y14.286 I-1.029 J0.038
X22.804 Y13.81 I-1.739 J1.968
X22.149 Y14.864 I0.532 J1.061
G1 X22.15 Y15.23
G2 X22.328 Y15.493 Z-6.289 I0.3 J-0.011
G1 X22.393 Y15.513 Z-6.145 F1000
X22.461 Y15.519 Z-6
X22.466 Y15.518
X25.59 Y15.352
X25.616 Y15.351 Z-6.055
X25.67 Y15.343 Z-6.172
X25.723 Y15.325 Z-6.289
G2 X25.9 Y15.061 Z-7 I-0.123 J-0.274 F100
G1 X25.899 Y14.692
G2 X25.602 Y14.025 I-0.938 J0.018
X23.557 Y13.28 I-1.81 J1.789
X22.395 Y13.772 I-0.038 J1.527
G1 X22.263 Y13.997
X22.178 Y14.243
X22.149 Y14.501
X22.15 Y14.864
G2 X22.327 Y15.127 Z-6.289 I0.3 J-0.011
G1 X22.392 Y15.148 Z-6.145 F1000
X22.46 Y15.153 Z-6
X22.466
X25.59 Y14.983
X25.616 Y14.981 Z-6.055
X25.67 Y14.973 Z-6.172
X25.722 Y14.956 Z-6.289
G2 X25.899 Y14.692 Z-7 I-0.123 J-0.274 F100
G1 Y14.329
G2 X25.601 Y13.663 I-0.938 J0.019
X23.556 Y12.917 I-1.812 J1.792
X22.395 Y13.409 I-0.039 J1.526
G1 X22.262 Y13.634
X22.177 Y13.88
X22.149 Y14.138
Y14.501
G2 X22.327 Y14.764 Z-6.289 I0.3 J-0.011
G1 X22.392 Y14.785 Z-6.145 F1000
X22.46 Y14.79 Z-6
X22.465
X25.589 Y14.62
X25.615 Y14.619 Z-6.055
X25.67 Y14.611 Z-6.172
X25.722 Y14.593 Z-6.289
G2 X25.899 Y14.329 Z-7 I-0.123 J-0.274 F100
G1 X25.898 Y13.957
G2 X25.595 Y13.293 I-0.933 J0.026
X23.547 Y12.555 I-1.808 J1.804
X22.392 Y13.049 I-0.034 J1.518
G1 X22.26 Y13.273
X22.176 Y13.518
X22.148 Y13.775
X22.149 Y14.138
G2 X22.326 Y14.401 Z-6.289 I0.3 J-0.011
G1 X22.391 Y14.422 Z-6.145 F1000
X22.459 Y14.427 Z-6
X22.466
X25.589 Y14.248
X25.616 Y14.246 Z-6.057
X25.67 Y14.238 Z-6.173
X25.721 Y14.22 Z-6.289
G2 X25.898 Y13.957 Z-7 I-0.123 J-0.274 F100
G1 Y13.622
G2 X25.505 Y12.844 I-1.034 J0.034
X22.806 Y12.354 I-1.75 J1.962
X22.147 Y13.413 I0.528 J1.064
G1 X22.148 Y13.775
G2 X22.326 Y14.038 Z-6.289 I0.3 J-0.011
G1 X22.391 Y14.059 Z-6.145 F1000
X22.459 Y14.064 Z-6
X22.462
X25.588 Y13.913
X25.612 Y13.912 Z-6.051
X25.668 Y13.904 Z-6.17
X25.721 Y13.886 Z-6.289
G2 X25.898 Y13.622 Z-7 I-0.123 J-0.274 F100
G1 X25.897 Y13.267
G2 X25.395 Y12.389 I-1.117 J0.057
X22.809 Y11.99 I-1.643 J2.062
X22.146 Y13.05 I0.527 J1.067
G1 X22.147 Y13.413
G2 X22.325 Y13.676 Z-6.289 I0.3 J-0.011
G1 X22.39 Y13.696 Z-6.145 F1000
X22.458 Y13.701 Z-6
X22.461
X25.587 Y13.558
X25.611 Y13.557 Z-6.05
X25.667 Y13.549 Z-6.17
X25.72 Y13.531 Z-6.289
G2 X25.897 Y13.267 Z-7 I-0.123 J-0.274 F100
G1 X25.896 Y12.885
G2 X25.495 Y12.112 I-1.036 J0.047
X22.799 Y11.632 I-1.74 J1.963
X22.145 Y12.687 I0.534 J1.061
G1 X22.146 Y13.05
G2 X22.324 Y13.313 Z-6.289 I0.3 J-0.011
G1 X22.389 Y13.334 Z-6.145 F1000
X22.457 Y13.339 Z-6
X22.462
X25.587 Y13.177
X25.612 Y13.175 Z-6.053
X25.667 Y13.167 Z-6.171
X25.719 Y13.149 Z-6.289
G2 X25.896 Y12.885 Z-7 I-0.123 J-0.274 F100
G1 X25.895 Y12.519
G2 X25.598 Y11.852 I-0.941 J0.02
X23.555 Y11.103 I-1.815 J1.787
X22.391 Y11.595 I-0.04 J1.527
G1 X22.258 Y11.82
X22.173 Y12.066
X22.145 Y12.324
X22.146 Y12.687
G2 X22.324 Y12.951 Z-6.289 I0.3 J-0.011
G1 X22.388 Y12.971 Z-6.145 F1000
X22.456 Y12.976 Z-6
X22.461
X25.586 Y12.81
X25.611 Y12.809 Z-6.054
X25.666 Y12.801 Z-6.172
X25.718 Y12.783 Z-6.289
G2 X25.895 Y12.519 Z-7 I-0.123 J-0.274 F100
G1 Y12.156
X25.894 Y12.121
G2 X25.223 Y11.177 I-1.308 J0.22
X22.903 Y10.863 I-1.48 J2.211
X22.261 Y11.526 I0.47 J1.098
X22.332 Y11.835 Z-6.289 I0.284 J0.098
G1 X22.385 Y11.878 Z-6.145 F1000
X22.447 Y11.907 Z-6
X22.498 Y11.92
X25.547 Y12.407
X25.56 Y12.409
X25.572 Y12.41
X25.585 Y12.411
X25.653 Y12.405 Z-6.145
X25.718 Y12.384 Z-6.289
G2 X25.894 Y12.121 Z-7 I-0.123 J-0.274 F100
G1 X25.839 Y11.686
X25.752 Y11.462
G2 X24.774 Y10.587 I-1.5 J0.692
X23.408 Y10.392 I-1.024 J2.288
G1 X23.238 Y10.448
X23.077 Y10.525
G2 X22.938 Y10.811 Z-6.289 I0.159 J0.254
G1 X22.952 Y10.877 Z-6.145 F1000
X22.982 Y10.939 Z-6
X23.024 Y10.991
X23.076 Y11.033
X23.137 Y11.063
X25.369 Y11.845
X25.435 Y11.86
X25.502
X25.568 Y11.844
X25.629 Y11.815 Z-6.145
X25.682 Y11.772 Z-6.289
G2 X25.752 Y11.462 Z-7 I-0.214 J-0.211 F100
G1 X25.669 Y11.25
G2 X24.703 Y10.379 I-1.816 J1.041
G1 X24.591 Y10.341
X24.156 Y10.251
X23.722 Y10.272
X23.359 Y10.38
X23.287 Y10.403
X22.852 Y10.655
X22.682 Y10.815
X22.418 Y11.146
X22.367 Y11.25
X22.2 Y11.686
X22.144 Y12.121
X22.145 Y12.324
X22.303 Y12.62 Z-6.289
X22.367 Y12.74 Z-6 F1000
X23.199 Y14.297
X23.282 Y22.13
X22.408 Y23.435
X22.353 Y23.639
X22.318 Y23.77 Z-6.289
X22.231 Y24.094 Z-7 F100
X22.23 Y24.306
X22.226 Y24.545
G2 X22.79 Y25.551 I1.246 J-0.038
X25.584 Y25.584 I1.42 J-1.868
X25.974 Y24.724 I-0.816 J-0.888
G1 X25.98 Y24.311
G2 X25.806 Y24.045 Z-6.289 I-0.3 J0.006
G1 X25.742 Y24.024 Z-6.145 F1000
X25.674 Y24.018 Z-6
X25.657
X22.54 Y24.258
X22.503 Y24.261 Z-6.08
X22.454 Y24.268 Z-6.185
X22.407 Y24.284 Z-6.289
G2 X22.226 Y24.545 Z-7 I0.118 J0.276 F100
G1 X22.219 Y24.964
G2 X22.595 Y25.751 I1.051 J-0.019
X24.682 Y26.331 I1.606 J-1.736
X25.714 Y25.829 I-0.128 J-1.578
G1 X25.848 Y25.61
X25.935 Y25.37
X25.967 Y25.116
X25.974 Y24.724
G2 X25.8 Y24.458 Z-6.289 I-0.3 J0.006
G1 X25.736 Y24.436 Z-6.145 F1000
X25.668 Y24.43 Z-6
X25.65 Y24.431
X22.534 Y24.678
X22.495 Y24.681 Z-6.083
X22.447 Y24.688 Z-6.186
X22.401 Y24.704 Z-6.289
G2 X22.219 Y24.964 Z-7 I0.118 J0.276 F100
G1 X22.214 Y25.335
G2 X22.599 Y26.116 I1.02 J-0.018
X24.544 Y26.713 I1.624 J-1.821
X25.713 Y26.207 I-0.013 J-1.63
G1 X25.844 Y25.986
X25.93 Y25.745
X25.962 Y25.491
X25.967 Y25.116
G2 X25.794 Y24.85 Z-6.289 I-0.3 J0.005
G1 X25.73 Y24.828 Z-6.145 F1000
X25.662 Y24.821 Z-6
X25.646 Y24.822
X22.528 Y25.048
X22.492 Y25.051 Z-6.077
X22.442 Y25.058 Z-6.183
X22.395 Y25.074 Z-6.289
G2 X22.214 Y25.335 Z-7 I0.119 J0.276 F100
G1 X22.209 Y25.683
G2 X22.705 Y26.561 I1.086 J-0.034
X24.832 Y27.041 I1.583 J-2.066
X25.93 Y26.12 I-0.125 J-1.264
G1 X25.957 Y25.863
X25.962 Y25.491
G2 X25.788 Y25.225 Z-6.289 I-0.3 J0.006
G1 X25.724 Y25.204 Z-6.145 F1000
X25.656 Y25.197 Z-6
X25.643 Y25.198
X22.523 Y25.396
X22.49 Y25.398 Z-6.07
X22.439 Y25.406 Z-6.18
X22.39 Y25.422 Z-6.289
G2 X22.209 Y25.683 Z-7 I0.119 J0.275 F100
G1 X22.204 Y26.046
G2 X22.595 Y26.823 I1.005 J-0.018
X24.687 Y27.429 I1.697 J-1.946
X25.839 Y26.733 I-0.043 J-1.372
G1 X25.921 Y26.488
X25.952 Y26.233
X25.957 Y25.863
G2 X25.783 Y25.597 Z-6.289 I-0.3 J0.007
G1 X25.718 Y25.576 Z-6.145 F1000
X25.651 Y25.569 Z-6
X25.639 Y25.57
X22.518 Y25.759
X22.486 Y25.761 Z-6.069
X22.435 Y25.769 Z-6.179
X22.385 Y25.785 Z-6.289
G2 X22.204 Y26.046 Z-7 I0.119 J0.275 F100
G1 X22.2 Y26.401
G2 X22.484 Y27.075 I0.991 J-0.022
X24.682 Y27.793 I1.815 J-1.829
X25.834 Y27.101 I-0.032 J-1.357
G1 X25.916 Y26.856
X25.947 Y26.601
X25.952 Y26.233
G2 X25.778 Y25.968 Z-6.289 I-0.3 J0.007
G1 X25.714 Y25.946 Z-6.145 F1000
X25.646 Y25.94 Z-6
X25.636
X22.514 Y26.114
X22.483 Y26.116 Z-6.066
X22.431 Y26.124 Z-6.178
X22.381 Y26.14 Z-6.289
G2 X22.2 Y26.401 Z-7 I0.119 J0.275 F100
G1 X22.195 Y26.753
G2 X22.587 Y27.53 I1.012 J-0.023
X24.822 Y28.139 I1.739 J-1.976
X25.948 Y26.967 I-0.101 J-1.224
G1 X25.947 Y26.601
G2 X25.773 Y26.335 Z-6.289 I-0.3 J0.007
G1 X25.709 Y26.314 Z-6.145 F1000
X25.641 Y26.307 Z-6
X25.632 Y26.308
X22.509 Y26.466
X22.48 Y26.468 Z-6.062
X22.427 Y26.475 Z-6.176
X22.376 Y26.492 Z-6.289
G2 X22.195 Y26.753 Z-7 I0.119 J0.275 F100
G1 X22.191 Y27.099
G2 X22.576 Y27.88 I1.018 J-0.016
X25.272 Y28.376 I1.755 J-1.963
X25.939 Y27.332 I-0.518 J-1.065
G1 X25.943 Y26.967
G2 X25.769 Y26.701 Z-6.289 I-0.3 J0.007
G1 X25.704 Y26.68 Z-6.145 F1000
X25.636 Y26.673 Z-6
X25.63 Y26.674
X22.505 Y26.812
X22.477 Y26.813 Z-6.058
X22.423 Y26.82 Z-6.174
X22.372 Y26.837 Z-6.289
G2 X22.191 Y27.099 Z-7 I0.119 J0.275 F100
G1 X22.186 Y27.457
G2 X22.572 Y28.238 I1.021 J-0.019
X25.266 Y28.741 I1.759 J-1.956
X25.934 Y27.698 I-0.518 J-1.067
G1 X25.938 Y27.332
G2 X25.764 Y27.066 Z-6.289 I-0.3 J0.007
G1 X25.7 Y27.045 Z-6.145 F1000
X25.632 Y27.038 Z-6
X25.626 Y27.039
X22.5 Y27.171
X22.473 Y27.172 Z-6.057
X22.419 Y27.179 Z-6.173
X22.367 Y27.196 Z-6.289
G2 X22.186 Y27.457 Z-7 I0.119 J0.276 F100
G1 X22.181 Y27.827
G2 X22.47 Y28.497 I0.931 J-0.003
X24.357 Y29.266 I1.81 J-1.74
X25.487 Y28.968 I0.123 J-1.817
X25.929 Y28.063 I-0.762 J-0.933
G1 X25.934 Y27.698
G2 X25.76 Y27.432 Z-6.289 I-0.3 J0.006
G1 X25.695 Y27.411 Z-6.145 F1000
X25.627 Y27.404 Z-6
X25.621
X22.495 Y27.541
X22.468 Y27.542 Z-6.058
X22.414 Y27.549 Z-6.174
X22.362 Y27.566 Z-6.289
G2 X22.181 Y27.827 Z-7 I0.119 J0.276 F100
G1 X22.176 Y28.189
G2 X22.466 Y28.859 I0.931 J-0.006
X24.354 Y29.63 I1.813 J-1.745
X25.482 Y29.331 I0.124 J-1.814
X25.924 Y28.427 I-0.763 J-0.933
G1 X25.928 Y28.063
G2 X25.755 Y27.797 Z-6.289 I-0.3 J0.006
G1 X25.69 Y27.776 Z-6.145 F1000
X25.622 Y27.769 Z-6
X25.616
X22.49 Y27.903
X22.463 Y27.904 Z-6.058
X22.409 Y27.912 Z-6.174
X22.357 Y27.928 Z-6.289
G2 X22.176 Y28.189 Z-7 I0.119 J0.276 F100
G1 X22.171 Y28.562
G2 X22.468 Y29.228 I0.927 J-0.014
X24.508 Y29.989 I1.829 J-1.788
X25.665 Y29.51 I0.052 J-1.513
G1 X25.799 Y29.288
X25.886 Y29.046
X25.918 Y28.79
X25.923 Y28.427
G2 X25.75 Y28.161 Z-6.289 I-0.3 J0.006
G1 X25.685 Y28.14 Z-6.145 F1000
X25.617 Y28.133 Z-6
X25.61
X22.485 Y28.276
X22.457 Y28.277 Z-6.06
X22.403 Y28.284 Z-6.175
X22.352 Y28.301 Z-6.289
G2 X22.171 Y28.562 Z-7 I0.119 J0.276 F100
G1 X22.167 Y28.897
G2 X22.552 Y29.678 I1.03 J-0.022
X25.243 Y30.198 I1.772 J-1.946
X25.914 Y29.151 I-0.516 J-1.07
G1 X25.918 Y28.79
G2 X25.744 Y28.524 Z-6.289 I-0.3 J0.007
G1 X25.68 Y28.502 Z-6.145 F1000
X25.612 Y28.496 Z-6
X25.607
X22.48 Y28.61
X22.455 Y28.611 Z-6.053
X22.4 Y28.618 Z-6.171
X22.347 Y28.635 Z-6.289
G2 X22.167 Y28.897 Z-7 I0.119 J0.275 F100
G1 X22.162 Y29.252
G2 X22.544 Y30.035 I1.034 J-0.019
X25.235 Y30.562 I1.777 J-1.936
X25.91 Y29.513 I-0.513 J-1.071
G1 X25.914 Y29.151
G2 X25.739 Y28.885 Z-6.289 I-0.3 J0.007
G1 X25.675 Y28.864 Z-6.145 F1000
X25.607 Y28.858 Z-6
X25.603
X22.476 Y28.965
X22.452 Y28.966 Z-6.051
X22.396 Y28.973 Z-6.17
X22.343 Y28.99 Z-6.289
G2 X22.162 Y29.252 Z-7 I0.119 J0.275 F100
G1 X22.158 Y29.633
G2 X22.448 Y30.303 I0.942 J-0.01
X24.482 Y31.078 I1.837 J-1.766
X25.65 Y30.601 I0.059 J-1.524
G1 X25.786 Y30.377
X25.874 Y30.133
X25.906 Y29.874
X25.909 Y29.513
G2 X25.735 Y29.248 Z-6.289 I-0.3 J0.007
G1 X25.671 Y29.227 Z-6.145 F1000
X25.603 Y29.22 Z-6
X25.597 Y29.221
X22.471 Y29.346
X22.446 Y29.347 Z-6.054
X22.391 Y29.354 Z-6.172
X22.338 Y29.372 Z-6.289
G2 X22.158 Y29.633 Z-7 I0.12 J0.275 F100
G1 X22.154 Y30.003
G2 X22.448 Y30.671 I0.941 J-0.014
X24.484 Y31.441 I1.835 J-1.775
X25.65 Y30.961 I0.055 J-1.521
G1 X25.784 Y30.737
X25.872 Y30.492
X25.903 Y30.234
X25.906 Y29.874
G2 X25.731 Y29.609 Z-6.289 I-0.3 J0.007
G1 X25.666 Y29.588 Z-6.145 F1000
X25.599 Y29.582 Z-6
X25.593
X22.466 Y29.714
X22.441 Y29.716 Z-6.053
X22.386 Y29.723 Z-6.171
X22.334 Y29.74 Z-6.289
G2 X22.154 Y30.003 Z-7 I0.12 J0.275 F100
G1 X22.152 Y30.365
G2 X22.444 Y31.034 I0.94 J-0.013
X24.481 Y31.803 I1.835 J-1.776
X25.649 Y31.322 I0.055 J-1.523
G1 X25.784 Y31.097
X25.871 Y30.851
X25.901 Y30.592
X25.903 Y30.234
G2 X25.727 Y29.969 Z-6.289 I-0.3 J0.008
G1 X25.663 Y29.948 Z-6.145 F1000
X25.595 Y29.942 Z-6
X25.59
X22.464 Y30.077
X22.438 Y30.078 Z-6.054
X22.384 Y30.086 Z-6.172
X22.331 Y30.103 Z-6.289
G2 X22.152 Y30.365 Z-7 I0.12 J0.275 F100
G1 X22.15 Y30.738
G2 X22.448 Y31.404 I0.94 J-0.02
X24.487 Y32.166 I1.829 J-1.786
X25.651 Y31.68 I0.049 J-1.518
G1 X25.785 Y31.455
X25.87 Y31.209
X25.9 Y30.95
X25.901 Y30.592
G2 X25.724 Y30.328 Z-6.289 I-0.3 J0.009
G1 X25.66 Y30.307 Z-6.145 F1000
X25.592 Y30.301 Z-6
X25.587
X22.461 Y30.449
X22.436 Y30.45 Z-6.054
X22.381 Y30.457 Z-6.172
X22.329 Y30.475 Z-6.289
G2 X22.15 Y30.738 Z-7 I0.121 J0.274 F100
G1 Y31.072
G2 X22.646 Y31.953 I1.122 J-0.052
X25.23 Y32.372 I1.658 J-2.05
X25.9 Y31.312 I-0.521 J-1.071
G1 Y30.95
G2 X25.723 Y30.687 Z-6.289 I-0.3 J0.01
G1 X25.658 Y30.666 Z-6.145 F1000
X25.59 Y30.661 Z-6
X25.588
X22.46 Y30.783
X22.438 Z-6.047
X22.381 Y30.791 Z-6.168
X22.327 Y30.809 Z-6.289
G2 X22.15 Y31.072 Z-7 I0.122 J0.274 F100
G1 X22.149 Y31.45
G2 X22.543 Y32.228 I1.04 J-0.038
X25.237 Y32.73 I1.757 J-1.947
X25.9 Y31.675 I-0.526 J-1.066
G1 X25.899 Y31.312
G2 X25.722 Y31.049 Z-6.289 I-0.3 J0.01
G1 X25.658 Y31.028 Z-6.145 F1000
X25.59 Y31.023 Z-6
X25.586
X22.46 Y31.161
X22.436 Y31.162 Z-6.051
X22.38 Y31.169 Z-6.17
X22.327 Y31.187 Z-6.289
G2 X22.149 Y31.45 Z-7 I0.122 J0.274 F100
G1 Y31.809
G2 X22.539 Y32.588 I1.039 J-0.033
X25.234 Y33.093 I1.759 J-1.945
X25.899 Y32.037 I-0.523 J-1.067
G1 Y31.675
G2 X25.722 Y31.411 Z-6.289 I-0.3 J0.01
G1 X25.657 Y31.39 Z-6.145 F1000
X25.589 Y31.385 Z-6
X25.586
X22.459 Y31.519
X22.436 Y31.52 Z-6.05
X22.38 Y31.528 Z-6.17
X22.327 Y31.546 Z-6.289
G2 X22.149 Y31.809 Z-7 I0.122 J0.274 F100
G1 X22.148 Y32.178
G2 X22.543 Y32.955 I1.038 J-0.038
X25.237 Y33.454 I1.754 J-1.949
X25.898 Y32.4 I-0.527 J-1.065
G1 Y32.037
G2 X25.721 Y31.773 Z-6.289 I-0.3 J0.01
G1 X25.657 Y31.753 Z-6.145 F1000
X25.589 Y31.747 Z-6
X25.585
X22.459 Y31.889
X22.434 Y31.89 Z-6.052
X22.379 Y31.898 Z-6.171
X22.326 Y31.915 Z-6.289
G2 X22.148 Y32.178 Z-7 I0.122 J0.274 F100
G1 X22.147 Y32.541
G2 X22.541 Y33.318 I1.037 J-0.038
X25.236 Y33.817 I1.754 J-1.95
X25.897 Y32.763 I-0.526 J-1.065
G1 X25.898 Y32.4
G2 X25.721 Y32.136 Z-6.289 I-0.3 J0.01
G1 X25.656 Y32.116 Z-6.145 F1000
X25.588 Y32.11 Z-6
X25.584
X22.458 Y32.251
X22.434 Y32.252 Z-6.052
X22.378 Y32.26 Z-6.171
X22.325 Y32.278 Z-6.289
G2 X22.147 Y32.541 Z-7 I0.122 J0.274 F100
G1 X22.146 Y32.914
G2 X22.441 Y33.582 I0.942 J-0.017
X24.481 Y34.341 I1.823 J-1.778
X25.647 Y33.854 I0.047 J-1.526
G1 X25.78 Y33.63
X25.866 Y33.384
X25.896 Y33.126
X25.897 Y32.763
G2 X25.72 Y32.499 Z-6.289 I-0.3 J0.01
G1 X25.655 Y32.478 Z-6.145 F1000
X25.587 Y32.473 Z-6
X25.582
X22.457 Y32.624
X22.432 Y32.625 Z-6.054
X22.377 Y32.633 Z-6.172
X22.324 Y32.651 Z-6.289
G2 X22.146 Y32.914 Z-7 I0.122 J0.274 F100
G1 Y33.281
G2 X22.443 Y33.948 I0.939 J-0.019
X24.484 Y34.704 I1.822 J-1.785
X25.647 Y34.216 I0.045 J-1.523
G1 X25.78 Y33.992
X25.866 Y33.747
X25.895 Y33.488
X25.896 Y33.126
G2 X25.719 Y32.862 Z-6.289 I-0.3 J0.01
G1 X25.654 Y32.841 Z-6.145 F1000
X25.587 Y32.836 Z-6
X25.581
X22.456 Y32.991
X22.431 Y32.992 Z-6.055
X22.376 Y33 Z-6.172
X22.324 Y33.018 Z-6.289
G2 X22.146 Y33.281 Z-7 I0.122 J0.274 F100
G1 X22.145 Y33.626
G2 X22.536 Y34.405 I1.036 J-0.033
X25.226 Y34.908 I1.757 J-1.953
X25.88 Y33.999 I-0.526 J-1.068
X25.737 Y33.715 Z-6.289 I-0.299 J-0.028
G1 X25.677 Y33.687 Z-6.149 F1000
X25.612 Y33.673 Z-6.009
X25.608 Y33.672 Z-6
X22.477 Y33.339
X22.466 Y33.338
X22.456
X22.388 Y33.343 Z-6.145
X22.323 Y33.363 Z-6.289
G2 X22.145 Y33.626 Z-7 I0.122 J0.274 F100
G1 X22.144 Y33.879
X22.173 Y34.104
G2 X22.752 Y34.94 I1.217 J-0.223
X24.912 Y35.372 I1.558 J-2.173
G1 X25.155 Y35.272
X25.369 Y35.121
X25.544 Y34.925
G2 X25.552 Y34.607 Z-6.289 I-0.251 J-0.165
G1 X25.511 Y34.553 Z-6.145 F1000
X25.459 Y34.51 Z-6
X25.414 Y34.485
X25.365 Y34.468
X22.542 Y33.784
X22.493 Y33.777
X22.444
X22.377 Y33.791 Z-6.145
X22.316 Y33.82 Z-6.289
G2 X22.173 Y34.104 Z-7 I0.156 J0.256 F100
G1 X22.2 Y34.314
X22.367 Y34.75
X22.395 Y34.807
X22.408 Y34.833
X22.418 Y34.85
X22.429 Y34.867
X22.441 Y34.883
G2 X22.777 Y34.595 I0.168 J-0.144
X22.388 Y34.746 I-0.168 J0.144
G1 X22.393 Y34.79
X22.408 Y34.833
X22.418 Y34.854
X22.563 Y35.036
X22.583 Y35.061
X22.613 Y35.098
G2 X23.054 Y35.462 I1.166 J-0.966
X23.371 Y35.44 Z-6.289 I0.141 J-0.265
G1 X23.421 Y35.394 Z-6.145 F1000
X23.46 Y35.338 Z-6
G2 X23.384 Y34.964 I-0.265 J-0.141
G1 X23.043 Y34.687
G2 X22.675 Y34.679 I-0.189 J0.233
G1 X22.625 Y34.725 Z-6.145
X22.587 Y34.782 Z-6.289
G2 X22.613 Y35.098 Z-7 I0.266 J0.138 F100
G1 X22.682 Y35.185
X22.852 Y35.345
X23.076 Y35.475
X23.111 Y35.495
X23.141 Y35.512
X23.274 Y35.58
X23.416 Y35.636
X23.448 Y35.647
G2 X23.751 Y35.552 Z-6.289 I0.076 J-0.29
G1 X23.79 Y35.496 Z-6.145 F1000
X23.814 Y35.432 Z-6
G2 X23.645 Y35.082 I-0.29 J-0.076
G1 X23.421 Y34.983
G2 X23.046 Y35.098 I-0.121 J0.275
G1 X23.016 Y35.16 Z-6.145
X23.002 Y35.226 Z-6.289
G2 X23.141 Y35.512 Z-7 I0.298 J0.031 F100
G1 X23.287 Y35.597
X23.359 Y35.62
X23.558 Y35.679
X23.608 Y35.694
X23.642 Y35.704
X23.743 Y35.729
G2 X24.034 Y35.589 Z-6.289 I0.005 J-0.364
G1 X24.071 Y35.532 Z-6.145 F1000
X24.097 Y35.469 Z-6
X24.101 Y35.452
G2 X23.812 Y35.016 I-0.346 J-0.084
X23.401 Y35.34 I-0.056 J0.351
G1 X23.402 Y35.408 Z-6.145
X23.416 Y35.474 Z-6.289
G2 X23.642 Y35.704 Z-7 I0.339 J-0.107 F100
G1 X23.722 Y35.728
X24.156 Y35.749
X24.591 Y35.659
G2 X25.666 Y34.748 I-0.664 J-1.875
G1 X25.839 Y34.314
X25.894 Y33.879
X25.895 Y33.488
X25.93 Y33.489
G2 X26.208 Y32.775 I-1.263 J-0.902
G1 X26.253 Y32.552
X26.297 Y32.243
X26.343 Y31.766
X26.393 Y30.81
G2 X26.488 Y22.191 I-867.643 J-13.875
G3 X26.387 Y12.463 I638.921 J-11.513
G2 X25.75 Y10.742 I-3.093 J0.167
X21.834 Y11.811 I-1.723 J1.396
G1 X21.789 Y12.034
G2 X21.652 Y14.714 I16.756 J2.199
X21.736 Y22.375 I705.121 J-3.941
G3 X21.651 Y30.036 I-683.822 J-3.752
G2 X21.657 Y33.56 I128.075 J1.544
G1 X21.676 Y33.709
G2 X22.519 Y35.511 I2.766 J-0.197
X26.038 Y34.742 I1.483 J-1.651
X26.813 Y31.727 I-8.222 J-3.719
G1 X26.87 Y30.976
G2 X26.905 Y16.612 I-291.123 J-7.892
X26.881 Y12.797 I-152.919 J-0.938
X26.242 Y10.767 I-4.194 J0.206
X23.207 Y9.696 I-2.23 J1.482
X21.521 Y11.532 I0.885 J2.505
X21.228 Y13.126 I6.445 J2.01
X21.166 Y16.739 I36.371 J2.432
G3 X21.231 Y24.401 I-434.275 J7.536
G1 X21.213 Y25.358
G2 X21.156 Y33.166 I306.315 J6.166
X21.633 Y34.98 I4.594 J-0.238
X24.389 Y36.413 I2.423 J-1.293
X26.333 Y34.974 I-0.471 J-2.667
X27.159 Y32.587 I-6.015 J-3.42
X27.404 Y29.554 I-16.79 J-2.879
X27.399 Y16.148 I-295.515 J-6.606
X27.379 Y13.082 I-82.977 J-0.979
X26.718 Y10.77 I-5.254 J0.251
X24.107 Y9.196 I-2.776 J1.652
X21.259 Y11.132 I-0.041 J3.002
X20.76 Y13.238 I6.062 J2.549
G1 X20.697 Y13.945
X20.66 Y14.902
G2 X20.737 Y22.563 I496.944 J-1.156
G1 X20.686 Y27.352
X20.643 Y32.14
G2 X20.906 Y34.31 I7.714 J0.167
X22.792 Y36.552 I3.453 J-0.99
X26.452 Y35.495 I1.188 J-2.752
X27.567 Y32.854 I-5.101 J-3.711
G1 X27.668 Y32.378
G2 X27.908 Y29.174 I-19.974 J-3.108
X27.908 Y16.725 I-281.9 J-6.223
G1 X27.905 Y15.767
X27.897 Y13.851
G2 X27.741 Y12.305 I-9.094 J0.136
X26.341 Y9.698 I-4.616 J0.799
X22.38 Y9.258 I-2.292 J2.586
X20.71 Y11.423 I2.047 J3.307
X20.233 Y13.841 I8.049 J2.844
G1 X20.179 Y14.623
X20.16 Y15.581
X20.2 Y19.411
X20.233 Y23.242
X20.184 Y27.551
X20.146 Y31.861
G2 X20.393 Y34.11 I9.168 J0.131
X22.133 Y36.635 I4.197 J-1.031
X26.608 Y35.93 I1.841 J-2.875
X27.86 Y33.541 I-4.507 J-3.885
X28.341 Y30.705 I-11.823 J-3.461
X28.441 Y26.876 I-71.077 J-3.788
X28.416 Y17.299 I-244.533 J-4.141
X28.359 Y13.28 I-99.863 J-0.591
X27.774 Y10.964 I-7.435 J0.644
X25.206 Y8.606 I-4.017 J1.796
X20.817 Y10.266 I-1.134 J3.633
X19.909 Y12.752 I5.386 J3.378
X19.667 Y15.6 I15.213 J2.726
X19.732 Y22.304 I540.907 J-1.921
G3 X19.654 Y29.965 I-627.754 J-2.547
G1 X19.653 Y30.923
G2 X19.759 Y33.287 I14.579 J0.525
X20.511 Y35.504 I6.111 J-0.834
X23.861 Y37.573 I3.586 J-2.06
X27.086 Y35.993 I0.042 J-3.998
X28.309 Y33.62 I-4.967 J-4.06
X28.829 Y30.695 I-12.123 J-3.662
G1 X28.887 Y29.739
G2 X28.901 Y16.333 I-279.076 J-6.992
G1 X28.897 Y14.417
G2 X28.471 Y11.521 I-9.86 J-0.031
X26.487 Y8.782 I-5.132 J1.63
X21.331 Y9.044 I-2.407 J3.505
X19.689 Y11.748 I3.765 J4.137
X19.239 Y14.25 I10.278 J3.139
G1 X19.181 Y15.206
X19.167 Y16.163
X19.17 Y17.121
G3 X19.158 Y29.57 I-322.041 J5.904
G2 X19.205 Y32.682 I38.65 J0.963
X19.96 Y35.41 I7.583 J-0.629
X22.886 Y37.832 I4.271 J-2.181
X27.092 Y36.608 I1.061 J-4.192
X28.617 Y34.124 I-4.541 J-4.495
X29.219 Y31.594 I-10.294 J-3.786
X29.425 Y27.9 I-28.027 J-3.418
X29.405 Y16.408 I-278.837 J-5.268
G1 Y15.451
X29.396 Y14.493
X29.361 Y13.787
G2 X28.569 Y10.581 I-8.639 J0.436
X25.956 Y8.015 I-4.919 J2.395
X20.247 Y9.632 I-1.871 J4.283
X19.092 Y12.201 I5.489 J4.011
X18.728 Y14.589 I12.291 J3.096
X18.687 Y18.418 I46.806 J2.412
G3 X18.651 Y29.91 I-322.149 J4.729
G1 X18.655 Y30.867
G2 X18.879 Y33.669 I13.232 J0.352
X20.333 Y36.708 I6.54 J-1.262
X24.491 Y38.354 I3.684 J-3.235
X27.888 Y36.355 I-0.693 J-5.064
G1 X28.069 Y36.132
G2 X29.55 Y32.47 I-7.364 J-5.108
X29.898 Y29.136 I-17.58 J-3.523
X29.908 Y16.687 I-270.223 J-6.45
G1 X29.898 Y14.772
G2 X29.389 Y11.389 I-11.535 J0.007
X27.384 Y8.395 I-6.275 J2.033
X22.088 Y7.606 I-3.304 J4.015
X19.289 Y10.37 I2.365 J5.196
X18.418 Y13.147 I8.092 J4.06
X18.174 Y16.508 I18.939 J3.065
G1 X18.225 Y22.254
X18.21 Y25.127
X18.187 Y28
X18.157 Y30.873
G2 X18.503 Y34.108 I12.701 J0.277
X20.368 Y37.362 I6.658 J-1.654
X25.443 Y38.579 I3.602 J-3.831
X28.656 Y36.04 I-1.862 J-5.661
X29.941 Y32.911 I-7.667 J-4.976
X30.362 Y29.873 I-16.215 J-3.793
X30.454 Y20.297 I-189.713 J-6.619
G1 X30.424 Y17.424
X30.388 Y14.551
G2 X29.912 Y11.509 I-12.179 J0.35
X27.585 Y7.997 I-6.857 J2.015
X22.718 Y6.946 I-3.517 J4.495
X19.114 Y9.771 I1.573 J5.72
X17.988 Y12.884 I7.747 J4.561
X17.684 Y16.045 I16.863 J3.216
X17.731 Y22.749 I389.769 J0.643
G1 X17.688 Y27.058
X17.66 Y31.368
G2 X18.105 Y34.412 I12.744 J-0.311
X20.193 Y37.791 I6.984 J-1.981
X25.274 Y39.065 I3.779 J-4.302
X26.671 Y38.514 I-1.606 J-6.121
X29.569 Y35.347 I-3.481 J-6.094
X30.52 Y32.503 I-9.471 J-4.745
X30.895 Y29.067 I-19.107 J-3.824
X30.908 Y16.618 I-264.297 J-6.501
X30.78 Y13.326 I-25.51 J-0.659
X29.651 Y9.742 I-9.839 J1.129
X25.945 Y6.637 I-5.923 J3.304
X19.449 Y8.547 I-1.837 J5.755
X17.752 Y11.849 I6.22 J5.284
X17.224 Y15.212 I14.021 J3.926
G1 X17.186 Y16.169
G2 X17.23 Y22.872 I431.793 J0.537
G1 X17.162 Y30.534
G2 X17.446 Y33.719 I15.033 J0.263
X19.107 Y37.306 I8.319 J-1.674
X23.626 Y39.649 I4.967 J-4.051
X28.601 Y37.545 I0.249 J-6.344
X30.585 Y34.086 I-6.413 J-5.978
X31.277 Y30.724 I-13.91 J-4.616
X31.439 Y26.898 I-42.172 J-3.692
X31.454 Y20.194 I-205.338 J-3.836
X31.376 Y14.514 I-349.187 J1.985
X30.664 Y10.829 I-12.678 J0.537
X28.08 Y7.265 I-7.529 J2.74
X21.88 Y6.301 I-3.987 J5.224
X18.22 Y9.52 I2.567 J6.609
X16.969 Y13.166 I9.2 J5.192
X16.688 Y16.553 I19.029 J3.287
G1 X16.701 Y19.426
X16.722 Y22.299
G3 X16.659 Y29.96 I-606.174 J-1.121
G2 X16.824 Y32.96 I20.558 J0.377
G1 X16.917 Y33.491
X17.023 Y33.982
G2 X19.285 Y38.161 I8.369 J-1.827
X24.021 Y40.094 I4.743 J-4.855
X29.072 Y37.694 I-0.176 J-6.887
X30.968 Y34.425 I-6.829 J-6.144
X31.816 Y30.213 I-14.876 J-5.186
X31.956 Y25.428 I-72.499 J-4.523
X31.882 Y14.894 I-338.312 J-2.878
X31.178 Y10.871 I-13.537 J0.295
X28.467 Y6.997 I-8.137 J2.808
X26.826 Y6.031 I-4.81 J6.299
X18.978 Y7.741 I-2.724 J6.365
X16.973 Y11.197 I6.443 J6.047
X16.311 Y14.369 I13.351 J4.443
X16.189 Y18.167 I32.107 J2.927
G3 X16.16 Y29.659 I-388.505 J4.744
G2 X16.315 Y32.811 I23.097 J0.443
X17.412 Y36.385 I10.956 J-1.407
X21.295 Y40.014 I7.015 J-3.615
X27.772 Y39.396 I2.645 J-6.534
X30.998 Y35.581 I-4.802 J-7.331
X32.065 Y32.118 I-11.842 J-5.544
X32.404 Y28.457 I-22.193 J-3.901
X32.423 Y17.923 I-234.9 J-5.703
G1 X32.408 Y16.008
G2 X32.065 Y12.276 I-18.461 J-0.185
X30.29 Y8.219 I-10.206 J2.049
X25.471 Y5.146 I-6.426 J4.759
X18.399 Y7.706 I-1.34 J7.347
X16.679 Y10.62 I6.963 J6.074
X15.82 Y14.396 I13.431 J5.041
X15.691 Y18.201 I31.318 J2.967
G3 X15.661 Y29.693 I-410.024 J4.674
G2 X15.842 Y32.921 I22.609 J0.348
X17.216 Y36.984 I11.098 J-1.49
X21.162 Y40.443 I7.157 J-4.183
X28.945 Y39.081 I2.781 J-7.029
X31.48 Y35.66 I-6.128 J-7.192
X32.578 Y32.004 I-12.625 J-5.782
G1 X32.711 Y31.141
X32.811 Y30.189
G2 X32.956 Y25.403 I-73.346 J-4.62
X32.876 Y14.869 I-326.223 J-2.778
X32.23 Y11.027 I-15.369 J0.605
X29.547 Y6.717 I-9.55 J2.955
X23.429 Y4.597 I-5.501 J5.988
X17.706 Y7.827 I0.791 J8.086
X15.815 Y11.757 I8.526 J6.522
X15.232 Y15.64 I16.675 J4.488
X15.211 Y20.428 I83.198 J2.757
G3 X15.162 Y30.005 I-505.431 J2.196
G2 X15.392 Y33.184 I21.379 J0.05
X17.123 Y37.703 I11.276 J-1.728
X21.449 Y41.029 I7.151 J-4.825
X29.09 Y39.557 I2.489 J-7.648
X32.024 Y35.596 I-6.337 J-7.76
X33.125 Y31.68 I-13.499 J-5.909
X33.414 Y27.875 I-27.413 J-3.998
X33.462 Y21.171 I-193.13 J-4.725
X33.391 Y15.426 I-412.775 J2.227
X32.931 Y11.749 I-17.415 J0.309
X30.581 Y7.109 I-10.842 J2.578
X25.01 Y4.164 I-6.634 J5.805
X17.723 Y7.084 I-0.858 J8.412
X15.609 Y10.808 I7.911 J6.952
X14.768 Y15.173 I15.421 J5.234
X14.696 Y19.002 I49.207 J2.841
G3 X14.684 Y27.621 I-334.412 J3.821
G2 X14.712 Y31.451 I67.48 J1.416
X15.566 Y35.699 I14.516 J-0.707
X18.527 Y39.925 I9.509 J-3.513
X26.543 Y41.472 I5.424 J-6.562
X31.349 Y37.783 I-3.013 J-8.899
X33.233 Y33.561 I-10.606 J-7.263
X33.858 Y29.262 I-19.269 J-4.996
X33.953 Y20.645 I-154.778 J-6.017
G1 X33.938 Y18.73
X33.916 Y16.814
X33.898 Y15.857
G2 X33.48 Y11.964 I-19.337 J0.111
X31.348 Y7.307 I-11.809 J2.588
X25.994 Y3.862 I-7.479 J5.741
X17.495 Y6.646 I-1.857 J8.697
X15.235 Y10.442 I8.002 J7.334
X14.309 Y14.741 I15.143 J5.509
X14.205 Y19.526 I47.179 J3.421
G3 X14.167 Y30.061 I-547.698 J3.274
G1 X14.2 Y31.018
G2 X15.022 Y35.599 I15.38 J-0.395
X17.77 Y39.879 I10.297 J-3.59
X25.384 Y42.226 I6.204 J-6.606
X31.325 Y38.601 I-1.675 J-9.426
X33.425 Y34.61 I-9.829 J-7.721
X34.246 Y30.67 I-16.75 J-5.544
X34.447 Y25.888 I-52.867 J-4.62
X34.38 Y15.354 I-295.127 J-3.389
G1 X34.325 Y14.398
G2 X33.125 Y9.376 I-14.964 J0.922
X29.65 Y5.012 I-10.038 J4.427
X21.127 Y3.695 I-5.536 J7.587
X15.849 Y8.069 I3.332 J9.393
X14.111 Y12.684 I11.767 J7.066
X13.726 Y16.206 I19.904 J3.957
X13.72 Y21.952 I141.4 J3.002
G1 X13.703 Y25.783
X13.676 Y29.614
X13.691 Y30.571
X13.733 Y31.528
G2 X14.88 Y36.536 I14.94 J-0.788
X18.303 Y40.927 I10.053 J-4.306
X29.902 Y40.686 I5.644 J-7.593
X33.049 Y36.763 I-6.964 J-8.811
X34.625 Y31.544 I-14.175 J-7.129
G3 X34.723 Y26.696 I129.133 J0.163
G2 X34.799 Y23.217 I-228.951 J-6.742
X34.647 Y16.913 I-326.676 J4.697
G3 X34.619 Y13.652 I125.719 J-2.727
G2 X32.798 Y7.766 I-11.886 J0.451
X25.957 Y2.908 I-8.943 J5.349
X16.917 Y5.896 I-1.805 J9.71
X14.18 Y10.56 I8.807 J8.304
X13.423 Y13.898 I14.569 J5.059
G1 X13.428 Y32.348
G2 X15.225 Y38.207 I11.988 J-0.472
X22.044 Y43.085 I8.955 J-5.312
X30.993 Y40.355 I1.863 J-9.925
X33.814 Y36.274 I-8.472 J-8.872
X34.615 Y34.001 I-11.648 J-5.386
G1 X34.611 Y33.897
X34.62 Y31.574
Y31.543
X34.409 Y31.283 Z-6.289
X34.391 Y31.261 Z-6.228 F1000
X34.284 Y31.265 Z-6
X13.745 Y32.072
X13.625 Y32.077 Z-6.256
X13.612 Y32.086 Z-6.289
X13.479 Y32.19 Z-6.647 F100
X13.428 Y32.348 Z-7
Y34.522
G2 X13.949 Y36.706 I6.401 J-0.374
X20.219 Y43.04 I10.434 J-4.057
X30.579 Y41.344 I3.717 J-9.784
X33.984 Y37.038 I-7.716 J-9.601
G1 X34.271 Y36.442
X34.515 Y35.859
X34.564 Y35.715
X34.594 Y35.566
X34.605 Y35.415
X34.611 Y33.897
G2 X34.435 Y33.633 Z-6.289 I-0.3 J0.009
G1 X34.37 Y33.612 Z-6.145 F1000
X34.302 Y33.606 Z-6
X13.738 Y34.232
X13.719 Z-6.041
X13.661 Y34.24 Z-6.165
X13.605 Y34.258 Z-6.289
G2 X13.428 Y34.522 Z-7 I0.122 J0.274 F100
G1 Y35.826
G2 X13.971 Y37.819 I4.8 J-0.237
X23.379 Y44.186 I10.089 J-4.772
X31.783 Y40.907 I0.483 J-11.172
X34.544 Y36.984 I-9.064 J-9.311
G1 X34.585 Y36.806
X34.599 Y36.626
X34.605 Y35.415
G2 X34.428 Y35.151 Z-6.289 I-0.3 J0.009
G1 X34.365 Y35.13 Z-6.148 F1000
X34.299 Y35.124 Z-6.006
X34.296 Z-6
X13.738 Y35.536
X13.722 Y35.537 Z-6.035
X13.662 Y35.544 Z-6.162
X13.605 Y35.563 Z-6.289
G2 X13.428 Y35.826 Z-7 I0.122 J0.274 F100
G1 Y36.979
G2 X13.909 Y38.622 I3.856 J-0.236
X16.774 Y42.1 I9.265 J-4.714
X22.855 Y44.604 I7.139 J-8.702
G1 X25.137 Y44.599
G2 X31.784 Y41.563 I-1.278 J-11.592
X34.536 Y38.05 I-8.643 J-9.605
G1 X34.578 Y37.856
X34.595 Y37.661
X34.599 Y36.626
G2 X34.423 Y36.362 Z-6.289 I-0.3 J0.009
G1 X34.358 Y36.341 Z-6.145 F1000
X34.291 Y36.335 Z-6
X34.225 Y36.345
X34.162 Y36.368
X34.107 Y36.405
X24.955 Y44.069
X24.911 Y44.114
X24.878 Y44.168
X24.857 Y44.227
X24.848 Y44.289
X24.853 Y44.357 Z-6.145
X24.874 Y44.422 Z-6.289
G2 X25.137 Y44.599 Z-7 I0.274 J-0.122 F100
G1 X26.875
G2 X28.737 Y44.089 I-0.614 J-5.893
X33.783 Y40.087 I-4.921 J-11.388
G1 X34.158 Y39.586
X34.423 Y39.188
X34.515 Y39
X34.571 Y38.798
X34.591 Y38.59
X34.595 Y37.661
G2 X34.419 Y37.397 Z-6.289 I-0.3 J0.009
G1 X34.354 Y37.376 Z-6.145 F1000
X34.286 Y37.371 Z-6
X34.234 Y37.377
X34.184 Y37.392
X34.137 Y37.415
X34.095 Y37.447
X26.685 Y44.076
X26.645 Y44.12
X26.614 Y44.172
X26.594 Y44.229
X26.586 Y44.289
X26.591 Y44.357 Z-6.145
X26.612 Y44.422 Z-6.289
G2 X26.875 Y44.599 Z-7 I0.274 J-0.122 F100
G1 X28.134
G2 X29.331 Y44.278 I-0.353 J-3.711
X32.835 Y41.88 I-4.309 J-10.055
X34.384 Y40.088 I-8.632 J-9.023
G1 X34.494 Y39.884
X34.563 Y39.663
X34.587 Y39.433
X34.591 Y38.59
G2 X34.415 Y38.325 Z-6.289 I-0.3 J0.009
G1 X34.35 Y38.305 Z-6.145 F1000
X34.282 Y38.299 Z-6
X34.229 Y38.305
X34.177 Y38.321
X34.13 Y38.346
X34.087 Y38.379
X27.941 Y44.079
X27.902 Y44.124
X27.872 Y44.175
X27.853 Y44.23
X27.845 Y44.289
X27.85 Y44.357 Z-6.145
X27.871 Y44.422 Z-6.289
G2 X28.134 Y44.599 Z-7 I0.274 J-0.122 F100
G1 X29.167
G2 X29.99 Y44.394 I-0.179 J-2.48
X32.587 Y42.752 I-3.338 J-8.152
X34.367 Y40.897 I-8.014 J-9.475
G1 X34.485 Y40.689
X34.558 Y40.461
X34.584 Y40.224
G2 X34.408 Y39.96 Z-6.289 I-0.3 J0.009
G1 X34.343 Y39.939 Z-6.145 F1000
X34.275 Y39.933 Z-6
X34.212 Y39.942
X34.151 Y39.964
X34.097 Y39.998
X28.99 Y44.065
G2 X28.877 Y44.289 I0.187 J0.235
G1 X28.883 Y44.357 Z-6.145
X28.903 Y44.422 Z-6.289
G2 X29.167 Y44.599 Z-7 I0.274 J-0.122 F100
G1 X30.035
G2 X30.972 Y44.343 I-0.184 J-2.512
X33.057 Y42.962 I-3.319 J-7.276
X34.336 Y41.676 I-6.68 J-7.925
G1 X34.469 Y41.458
X34.552 Y41.217
X34.581 Y40.964
G2 X34.405 Y40.7 Z-6.289 I-0.3 J0.009
G1 X34.34 Y40.679 Z-6.145 F1000
X34.272 Y40.673 Z-6
X34.209 Y40.682
X34.149 Y40.704
X34.096 Y40.737
X29.861 Y44.063
G2 X29.746 Y44.289 I0.185 J0.236
G1 X29.751 Y44.357 Z-6.145
X29.772 Y44.422 Z-6.289
G2 X30.035 Y44.599 Z-7 I0.274 J-0.122 F100
G1 X30.904
G2 X31.646 Y44.399 I-0.128 J-1.951
X33.797 Y42.916 I-3.102 J-6.8
X34.449 Y42.189 I-1.972 J-2.425
G1 X34.544 Y41.93
X34.578 Y41.657
G2 X34.402 Y41.393 Z-6.289 I-0.3 J0.009
G1 X34.337 Y41.372 Z-6.145 F1000
X34.269 Y41.366 Z-6
X34.206 Y41.375
X34.147 Y41.396
X34.093 Y41.43
X30.73 Y44.063
G2 X30.615 Y44.289 I0.185 J0.236
G1 X30.62 Y44.357 Z-6.145
X30.641 Y44.422 Z-6.289
G2 X30.904 Y44.599 Z-7 I0.274 J-0.122 F100
G1 X31.654
G2 X32.374 Y44.41 I-0.099 J-1.839
X34.26 Y43.086 I-2.512 J-5.587
G1 X34.431 Y42.851
X34.538 Y42.581
X34.575 Y42.293
G2 X34.399 Y42.029 Z-6.289 I-0.3 J0.009
G1 X34.334 Y42.008 Z-6.145 F1000
X34.266 Y42.002 Z-6
X34.205 Y42.011
X34.146 Y42.032
X34.093 Y42.064
X31.482 Y44.061
G2 X31.364 Y44.289 I0.182 J0.238
G1 X31.37 Y44.357 Z-6.145
X31.39 Y44.422 Z-6.289
G2 X31.654 Y44.599 Z-7 I0.274 J-0.122 F100
G1 X32.371
G2 X33.407 Y44.251 I-0.19 J-2.284
X34.368 Y43.513 I-1.342 J-2.744
G1 X34.487 Y43.286
X34.558 Y43.041
X34.573 Y42.786
G2 X34.383 Y42.532 Z-6.289 I-0.299 J0.025
G1 X34.318 Y42.515 Z-6.145 F1000
X34.25 Y42.512 Z-6
X34.192 Y42.523
X34.138 Y42.544
X34.089 Y42.576
X32.196 Y44.063
G2 X32.082 Y44.289 I0.185 J0.236
G1 X32.087 Y44.357 Z-6.145
X32.108 Y44.422 Z-6.289
G2 X32.371 Y44.599 Z-7 I0.274 J-0.122 F100
G1 X33.076
G2 X34.318 Y44.027 I-0.128 J-1.911
G1 X34.48 Y43.778
X34.575 Y43.496
X34.595 Y43.2
G2 X34.403 Y42.947 Z-6.289 I-0.299 J0.028
G1 X34.337 Y42.93 Z-6.145 F1000
X34.269 Y42.929 Z-6
X34.207 Y42.941
X34.149 Y42.966
X34.098 Y43.003
X32.888 Y44.075
X32.847 Y44.119
X32.815 Y44.172
X32.795 Y44.229
X32.787 Y44.289
X32.792 Y44.357 Z-6.145
X32.813 Y44.422 Z-6.289
G2 X33.076 Y44.599 Z-7 I0.274 J-0.122 F100
G1 X33.728
X33.878 Y44.592
G2 X34.609 Y43.435 I-0.29 J-0.992
X34.417 Y43.182 Z-6.289 I-0.299 J0.028
G1 X34.351 Y43.166 Z-6.145 F1000
X34.283 Y43.164 Z-6
G2 X34.063 Y43.294 I0.028 J0.299
G1 X33.491 Y44.13
X33.464 Y44.179
X33.446 Y44.233
X33.439 Y44.289
X33.444 Y44.357 Z-6.145
X33.465 Y44.422 Z-6.289
G2 X33.728 Y44.599 Z-7 I0.274 J-0.122 F100
G1 X34.079
X34.229 Y44.592
G2 X34.662 Y43.73 I-0.302 J-0.691
X34.491 Y43.447 Z-6.289 I-0.577 J0.156
G1 X34.439 Y43.403 Z-6.145 F1000
X34.382 Y43.366 Z-6
G2 X33.909 Y43.314 I-0.297 J0.519
X33.653 Y44.422 I0.194 J0.628
G1 X33.705 Y44.466 Z-6.145
X33.762 Y44.505 Z-6.289
G2 X34.079 Y44.599 Z-7 I0.34 J-0.563 F100
G1 X34.327
X34.476 Y44.592
G2 X34.72 Y43.948 I-0.279 J-0.474
X34.498 Y43.71 Z-6.289 I-0.39 J0.142
G1 X34.433 Y43.688 Z-6.145 F1000
X34.366 Y43.676 Z-6
X34.292 Y43.677
X34.218 Y43.69
G2 X33.941 Y44.366 I0.125 J0.446
G1 X33.979 Y44.422 Z-6.145
X34.024 Y44.473 Z-6.289
G2 X34.327 Y44.599 Z-7 I0.318 J-0.337 F100
G1 X34.477
X34.532 Y44.598
X34.559 Y44.594
X34.586 Y44.587
X34.631 Y44.569
X34.649 Y44.56
X34.668 Y44.549
X34.703 Y44.513
X34.727 Y44.468
X34.739 Y44.418
X34.737 Y44.367
X34.722 Y44.318
G2 X34.373 Y44.48 I-0.174 J0.081
X34.586 Y44.587 I0.174 J-0.081
G1 X34.613 Y44.578
X34.64 Y44.565
X34.668 Y44.549
X34.695 Y44.529
X34.703 Y44.522
X34.73 Y44.495
X34.751 Y44.468
X34.77 Y44.44
X34.785 Y44.413
X34.796 Y44.386
X34.805 Y44.359
X34.81 Y44.332
X34.814 Y44.305
Y44.277
X34.812 Y44.25
G3 X34.577 Y42.783 I3.751 J-1.355
G1 X34.587 Y39.433
G2 X34.411 Y39.169 Z-6.289 I-0.3 J0.009
G1 X34.368 Y39.153 Z-6.192 F1000
X34.323 Y39.144 Z-6.095
X34.279 Y39.139 Z-6
X13.763 Y36.692
X13.751 Y36.69
X13.738
X13.67 Y36.695 Z-6.145
X13.605 Y36.716 Z-6.289
G2 X13.428 Y36.979 Z-7 I0.122 J0.274 F100
G1 Y37.902
G2 X14.023 Y39.667 I3.57 J-0.221
X16.29 Y42.312 I8.355 J-4.866
X20.392 Y44.577 I7.542 J-8.811
G1 X20.515 Y44.593
X20.638 Y44.599
X21.264
G2 X21.527 Y44.422 Z-6.289 I-0.01 J-0.3
G1 X21.548 Y44.357 Z-6.145 F1000
X21.553 Y44.289 Z-6
X21.544 Y44.227
X21.523 Y44.169
X21.49 Y44.116
X21.447 Y44.071
X13.922 Y37.684
X13.866 Y37.647
X13.804 Y37.623
X13.738 Y37.613
X13.67 Y37.618 Z-6.145
X13.605 Y37.639 Z-6.289
G2 X13.428 Y37.902 Z-7 I0.122 J0.274 F100
G1 Y38.772
G2 X13.895 Y40.219 I2.98 J-0.162
X15.902 Y42.598 I7.557 J-4.341
X19.019 Y44.563 I7.635 J-8.655
G1 X19.178 Y44.588
X19.337 Y44.599
G2 X19.6 Y44.422 Z-6.289 I-0.01 J-0.3
G1 X19.621 Y44.357 Z-6.145 F1000
X19.626 Y44.289 Z-6
X19.619 Y44.233
X19.601 Y44.179
X19.573 Y44.129
X19.537 Y44.086
X13.938 Y38.569
X13.895 Y38.533
X13.846 Y38.507
X13.793 Y38.49
X13.738 Y38.483
X13.67 Y38.488 Z-6.145
X13.605 Y38.508 Z-6.289
G2 X13.428 Y38.772 Z-7 I0.122 J0.274 F100
G1 Y39.588
G2 X13.919 Y40.993 I2.791 J-0.188
X15.94 Y43.24 I7.157 J-4.403
X17.904 Y44.545 I6.727 J-7.994
G1 X18.092 Y44.584
X18.281 Y44.599
G2 X18.545 Y44.422 Z-6.289 I-0.01 J-0.3
G1 X18.565 Y44.357 Z-6.145 F1000
X18.571 Y44.289 Z-6
X18.564 Y44.234
X18.547 Y44.182
X18.521 Y44.134
X18.487 Y44.091
X13.943 Y39.39
X13.9 Y39.352
X13.85 Y39.324
X13.795 Y39.306
X13.738 Y39.298
X13.67 Y39.304 Z-6.145
X13.605 Y39.324 Z-6.289
G2 X13.428 Y39.588 Z-7 I0.122 J0.274 F100
G1 Y40.294
G2 X13.892 Y41.642 I2.561 J-0.127
X15.803 Y43.726 I6.61 J-4.142
X16.952 Y44.527 I4.148 J-4.729
G1 X17.159 Y44.58
X17.371 Y44.599
G2 X17.635 Y44.422 Z-6.289 I-0.01 J-0.3
G1 X17.655 Y44.357 Z-6.145 F1000
X17.661 Y44.289 Z-6
X17.654 Y44.237
X17.639 Y44.186
X17.615 Y44.139
X17.583 Y44.097
X13.95 Y40.102
X13.905 Y40.062
X13.854 Y40.032
X13.797 Y40.012
X13.738 Y40.004
X13.67 Y40.01 Z-6.145
X13.605 Y40.03 Z-6.289
G2 X13.428 Y40.294 Z-7 I0.122 J0.274 F100
G1 Y41.044
G2 X13.947 Y42.395 I2.523 J-0.193
X16.09 Y44.508 I6.192 J-4.137
G1 X16.325 Y44.574
X16.565 Y44.599
G2 X16.828 Y44.422 Z-6.289 I-0.01 J-0.3
G1 X16.849 Y44.357 Z-6.145 F1000
X16.854 Y44.289 Z-6
X16.844 Y44.222
X16.819 Y44.158
X16.78 Y44.102
X13.954 Y40.857
X13.909 Y40.815
X13.857 Y40.783
X13.799 Y40.763
X13.738 Y40.754
X13.67 Y40.76 Z-6.145
X13.605 Y40.78 Z-6.289
G2 X13.428 Y41.044 Z-7 I0.122 J0.274 F100
G1 Y41.696
G2 X13.923 Y43.002 I2.368 J-0.15
X15.324 Y44.481 I4.549 J-2.907
G1 X15.584 Y44.567
X15.855 Y44.599
G2 X16.118 Y44.422 Z-6.289 I-0.01 J-0.3
G1 X16.139 Y44.357 Z-6.145 F1000
X16.144 Y44.289 Z-6
X16.135 Y44.225
X16.112 Y44.164
X16.077 Y44.11
X13.96 Y41.517
X13.915 Y41.472
X13.861 Y41.438
X13.801 Y41.415
X13.738 Y41.407
X13.67 Y41.412 Z-6.145
X13.605 Y41.432 Z-6.289
G2 X13.428 Y41.696 Z-7 I0.122 J0.274 F100
G1 Y42.348
G2 X13.942 Y43.653 I2.306 J-0.154
X14.812 Y44.52 I1.998 J-1.134
G1 X15.031 Y44.577
X15.255 Y44.599
G2 X15.518 Y44.422 Z-6.289 I-0.01 J-0.3
G1 X15.539 Y44.357 Z-6.145 F1000
X15.544 Y44.289 Z-6
X15.536 Y44.227
X15.514 Y44.168
X15.481 Y44.115
X13.964 Y42.174
G2 X13.738 Y42.059 I-0.236 J0.185
G1 X13.67 Y42.064 Z-6.145
X13.605 Y42.085 Z-6.289
G2 X13.428 Y42.348 Z-7 I0.122 J0.274 F100
G1 Y42.783
X13.422 Y42.902
G2 X14.053 Y44.34 I1.966 J-0.006
G1 X14.276 Y44.482
X14.524 Y44.569
X14.786 Y44.599
G2 X15.049 Y44.422 Z-6.289 I-0.01 J-0.3
G1 X15.07 Y44.357 Z-6.145 F1000
X15.075 Y44.289 Z-6
X15.066 Y44.228
X15.046 Y44.169
X15.013 Y44.116
X13.959 Y42.745
X13.916 Y42.7
X13.865 Y42.665
X13.807 Y42.641
X13.746 Y42.629
X13.678 Y42.631 Z-6.145
X13.612 Y42.648 Z-6.289
G2 X13.422 Y42.902 Z-7 I0.109 J0.28 F100
G1 X13.417 Y43
X13.391 Y43.435
X13.385 Y43.471
X13.369 Y43.62
G2 X14.499 Y44.599 I1.131 J-0.164
X14.763 Y44.422 Z-6.289 I-0.01 J-0.3
G1 X14.783 Y44.357 Z-6.145 F1000
X14.789 Y44.289 Z-6
X14.781 Y44.231
X14.763 Y44.176
X14.734 Y44.126
X14.696 Y44.082
X13.886 Y43.312
X13.842 Y43.277
X13.792 Y43.251
X13.738 Y43.235
X13.67 Y43.23 Z-6.145
X13.602 Y43.239 Z-6.289
G2 X13.385 Y43.471 Z-7 I0.077 J0.29 F100
G1 X13.356 Y43.652
X13.33 Y43.764
X13.303 Y43.912
G2 X14.121 Y44.599 I0.818 J-0.142
X14.384 Y44.422 Z-6.289 I-0.01 J-0.3
G1 X14.405 Y44.357 Z-6.145 F1000
X14.41 Y44.289 Z-6
X14.403 Y44.231
X14.384 Y44.175
X14.354 Y44.124
X14.315 Y44.08
X13.824 Y43.623
X13.786 Y43.592
X13.743 Y43.569
X13.698 Y43.552
X13.63 Y43.542 Z-6.145
X13.562 Y43.548 Z-6.289
G2 X13.33 Y43.764 Z-7 I0.057 J0.294 F100
G1 X13.305 Y43.87
X13.269 Y43.981
X13.23 Y44.126
G2 X13.819 Y44.599 I0.588 J-0.13
X14.118 Y44.469 Z-6.289 I-0.016 J-0.445
G1 X14.162 Y44.417 Z-6.145 F1000
X14.198 Y44.359 Z-6
X14.225 Y44.296
X14.242 Y44.229
X14.248 Y44.161
G2 X13.6 Y43.67 I-0.504 J-0.007
G1 X13.536 Y43.694 Z-6.145
X13.476 Y43.726 Z-6.289
G2 X13.269 Y43.981 Z-7 I0.267 J0.428 F100
G1 X13.221 Y44.13
X13.212 Y44.161
X13.2 Y44.199
X13.19 Y44.23
X13.189 Y44.245
Y44.292
X13.193 Y44.338
X13.203 Y44.383
G2 X13.561 Y44.206 I0.179 J-0.088
X13.433 Y44.101 I-0.179 J0.088
X13.19 Y44.23 I-0.052 J0.195
G1 X13.186 Y44.267
Y44.305
X13.19 Y44.337
X13.203 Y44.383
X13.214 Y44.408
X13.224 Y44.429
X13.254 Y44.476
X13.273 Y44.499
X13.296 Y44.522
X13.324 Y44.544
X13.352 Y44.562
X13.38 Y44.575
X13.408 Y44.585
X13.667 Y44.522 Z-6.433
X13.705 Y44.466 Z-6.289
X13.782 Y44.353 Z-6 F1000
X33.609 Y15.174
X34.043 Y14.824
G2 X34.534 Y14.114 I-1.007 J-1.221
G1 X34.572 Y13.983 Z-6.289
X34.596 Y13.869 Z-6.536 F100
X34.618 Y13.652 Z-7
X34.608 Y11.478
G2 X34.079 Y9.257 I-6.296 J0.327
X27.777 Y2.944 I-10.431 J4.11
X16.564 Y5.59 I-3.641 J9.652
X13.942 Y9.802 I8.833 J8.422
X13.443 Y11.308 I10.944 J4.46
G1 X13.432 Y11.409
X13.428 Y11.51
Y13.898
G2 X13.605 Y14.162 Z-6.289 I0.3 J-0.01
G1 X13.67 Y14.182 Z-6.145 F1000
X13.738 Y14.188 Z-6
X13.763 Y14.186
X34.3 Y11.772
X34.343 Y11.767 Z-6.094
X34.389 Y11.758 Z-6.191
X34.432 Y11.742 Z-6.289
G2 X34.608 Y11.478 Z-7 I-0.124 J-0.273 F100
G1 X34.602 Y10.054
G2 X34.038 Y8.112 I-4.898 J0.369
X25.041 Y1.842 I-10.073 J4.864
X16.073 Y5.423 I-0.865 J10.857
X13.462 Y9.715 I9.4 J8.658
G1 X13.437 Y9.858
X13.428 Y10.004
Y11.51
G2 X13.605 Y11.773 Z-6.289 I0.3 J-0.01
G1 X13.67 Y11.794 Z-6.145 F1000
X13.738 Y11.799 Z-6
X13.749
X34.294 Y10.346
X34.324 Y10.344 Z-6.064
X34.376 Y10.336 Z-6.177
X34.426 Y10.318 Z-6.289
G2 X34.602 Y10.054 Z-7 I-0.124 J-0.273 F100
G1 X34.598 Y8.967
G2 X34.098 Y7.314 I-3.884 J0.271
X31.186 Y3.838 I-9.28 J4.816
X25.175 Y1.396 I-7.057 J8.754
G1 X22.965 Y1.401
G2 X15.395 Y5.474 I1.232 J11.36
X13.48 Y8.456 I9.34 J8.103
G1 X13.442 Y8.634
X13.428 Y8.814
Y10.004
G2 X13.605 Y10.267 Z-6.289 I0.3 J-0.01
G1 X13.67 Y10.287 Z-6.145 F1000
X13.738 Y10.293 Z-6
X13.79 Y10.287
X13.84 Y10.271
X13.886 Y10.248
X13.928 Y10.216
X23.155 Y1.924
X23.196 Y1.879
X23.227 Y1.828
X23.246 Y1.771
X23.254 Y1.711
X23.249 Y1.643 Z-6.145
X23.229 Y1.578 Z-6.289
G2 X22.965 Y1.401 Z-7 I-0.274 J0.122 F100
G1 X21.227
G2 X19.405 Y1.898 I0.59 J5.75
X14.228 Y6.206 I4.779 J11.006
X13.487 Y7.403 I5.75 J4.389
G1 X13.444 Y7.594
X13.428 Y7.788
Y8.814
G2 X13.605 Y9.078 Z-6.289 I0.3 J-0.01
G1 X13.67 Y9.098 Z-6.145 F1000
X13.738 Y9.104 Z-6
X13.792 Y9.097
X13.844 Y9.081
X13.892 Y9.055
X13.934 Y9.022
X21.423 Y1.918
X21.462 Y1.874
X21.491 Y1.824
X21.509 Y1.769
X21.517 Y1.711
X21.511 Y1.643 Z-6.145
X21.491 Y1.578 Z-6.289
G2 X21.227 Y1.401 Z-7 I-0.274 J0.122 F100
G1 X19.968
G2 X19.06 Y1.616 I0.234 J3.011
X15.83 Y3.658 I3.548 J9.187
X13.601 Y6.268 I8.603 J9.602
G1 X13.506 Y6.46
X13.448 Y6.667
X13.428 Y6.88
Y7.788
G2 X13.605 Y8.051 Z-6.289 I0.3 J-0.01
G1 X13.67 Y8.072 Z-6.145 F1000
X13.738 Y8.077 Z-6
X13.793 Y8.07
X13.845 Y8.053
X13.894 Y8.027
X13.937 Y7.992
X20.167 Y1.915
X20.204 Y1.872
X20.232 Y1.822
X20.25 Y1.768
X20.257 Y1.711
X20.252 Y1.643 Z-6.145
X20.232 Y1.578 Z-6.289
G2 X19.968 Y1.401 Z-7 I-0.274 J0.122 F100
G1 X18.99
G2 X17.993 Y1.668 I0.224 J2.83
X15.378 Y3.432 I3.643 J8.22
X13.624 Y5.395 I8.252 J9.139
G1 X13.517 Y5.597
X13.45 Y5.816
X13.428 Y6.044
G2 X13.605 Y6.307 Z-6.289 I0.3 J-0.01
G1 X13.67 Y6.328 Z-6.145 F1000
X13.738 Y6.333 Z-6
X13.803 Y6.324
X13.864 Y6.3
X13.919 Y6.265
X19.17 Y1.932
X19.214 Y1.887
X19.248 Y1.833
X19.27 Y1.774
X19.279 Y1.711
X19.274 Y1.643 Z-6.145
X19.253 Y1.578 Z-6.289
G2 X18.99 Y1.401 Z-7 I-0.274 J0.122 F100
G1 X18.067
G2 X17.307 Y1.598 I0.14 J2.107
X15.05 Y3.101 I3.092 J7.09
X13.659 Y4.572 I7.265 J8.261
G1 X13.533 Y4.787
X13.454 Y5.023
X13.428 Y5.271
G2 X13.605 Y5.534 Z-6.289 I0.3 J-0.01
G1 X13.67 Y5.555 Z-6.145 F1000
X13.738 Y5.56 Z-6
X13.803 Y5.551
X13.864 Y5.528
X13.918 Y5.492
X18.247 Y1.932
X18.292 Y1.887
X18.326 Y1.833
X18.347 Y1.774
X18.356 Y1.711
X18.351 Y1.643 Z-6.145
X18.33 Y1.578 Z-6.289
G2 X18.067 Y1.401 Z-7 I-0.274 J0.122 F100
G1 X17.252
G2 X16.519 Y1.597 I0.117 J1.91
X14.461 Y3.018 I2.938 J6.456
X13.679 Y3.826 I4.891 J5.517
G1 X13.542 Y4.047
X13.457 Y4.292
X13.428 Y4.55
G2 X13.605 Y4.813 Z-6.289 I0.3 J-0.01
G1 X13.67 Y4.834 Z-6.145 F1000
X13.738 Y4.839 Z-6
X13.802 Y4.83
X13.862 Y4.807
X13.916 Y4.772
X17.43 Y1.934
X17.475 Y1.889
X17.51 Y1.835
X17.532 Y1.774
X17.541 Y1.711
X17.536 Y1.643 Z-6.145
X17.515 Y1.578 Z-6.289
G2 X17.252 Y1.401 Z-7 I-0.274 J0.122 F100
G1 X16.493
G2 X15.771 Y1.598 I0.104 J1.8
X13.736 Y3.099 I2.768 J5.885
G1 X13.568 Y3.333
X13.463 Y3.601
X13.428 Y3.887
G2 X13.605 Y4.15 Z-6.289 I0.3 J-0.01
G1 X13.67 Y4.171 Z-6.145 F1000
X13.738 Y4.176 Z-6
X13.801 Y4.167
X13.86 Y4.145
X13.914 Y4.112
X16.668 Y1.936
G2 X16.782 Y1.711 I-0.186 J-0.235
G1 X16.777 Y1.643 Z-6.145
X16.756 Y1.578 Z-6.289
G2 X16.493 Y1.401 Z-7 I-0.274 J0.122 F100
G1 X15.797
G2 X14.763 Y1.753 I0.188 J2.245
X13.617 Y2.65 I1.732 J3.396
G1 X13.516 Y2.856
X13.45 Y3.074
X13.428 Y3.3
G2 X13.605 Y3.564 Z-6.289 I0.3 J-0.01
G1 X13.67 Y3.584 Z-6.145 F1000
X13.738 Y3.59 Z-6
X13.8 Y3.581
X13.858 Y3.56
X13.911 Y3.527
X15.97 Y1.938
G2 X16.086 Y1.711 I-0.183 J-0.237
G1 X16.081 Y1.643 Z-6.145
X16.06 Y1.578 Z-6.289
G2 X15.797 Y1.401 Z-7 I-0.274 J0.122 F100
G1 X15.08
G2 X14.233 Y1.675 I0.131 J1.848
X13.422 Y2.627 I0.54 J1.282
G1 X13.411 Y2.902
G2 X13.604 Y3.155 Z-6.289 I0.299 J-0.028
G1 X13.67 Y3.171 Z-6.145 F1000
X13.738 Y3.173 Z-6
X13.798 Y3.161
X13.855 Y3.136
X13.906 Y3.101
X15.265 Y1.928
X15.308 Y1.883
X15.34 Y1.83
X15.361 Y1.772
X15.369 Y1.711
X15.364 Y1.643 Z-6.145
X15.343 Y1.578 Z-6.289
G2 X15.08 Y1.401 Z-7 I-0.274 J0.122 F100
G1 X14.428
X14.278 Y1.408
G2 X13.394 Y2.61 I0.28 J1.133
X13.587 Y2.863 Z-6.289 I0.299 J-0.028
G1 X13.652 Y2.879 Z-6.145 F1000
X13.72 Y2.881 Z-6
X13.778 Y2.869
X13.833 Y2.847
X13.882 Y2.814
X13.924 Y2.773
X14.649 Y1.891
X14.685 Y1.837
X14.708 Y1.776
X14.717 Y1.711
X14.712 Y1.643 Z-6.145
X14.691 Y1.578 Z-6.289
G2 X14.428 Y1.401 Z-7 I-0.274 J0.122 F100
G1 X14.023
G2 X13.56 Y1.603 I-0.032 J0.556
X13.356 Y2.348 I0.582 J0.56
X13.573 Y2.579 Z-6.289 I0.294 J-0.058
G1 X13.64 Y2.589 Z-6.145 F1000
X13.708 Y2.584 Z-6
X13.767 Y2.566
X13.821 Y2.536
X13.868 Y2.496
X13.906 Y2.447
X14.268 Y1.858
X14.291 Y1.812
X14.306 Y1.762
X14.313 Y1.711
X14.307 Y1.643 Z-6.145
X14.287 Y1.578 Z-6.289
G2 X14.023 Y1.401 Z-7 I-0.274 J0.122 F100
G1 X13.723
X13.573 Y1.408
G2 X13.296 Y2.102 I0.28 J0.513
X13.512 Y2.348 Z-6.289 I0.422 J-0.153
G1 X13.575 Y2.375 Z-6.145 F1000
X13.641 Y2.391 Z-6
X13.707 Y2.398
X13.772 Y2.395
X13.837 Y2.382
G2 X14.12 Y1.621 I-0.132 J-0.482
G1 X14.078 Y1.567 Z-6.145
X14.029 Y1.52 Z-6.289
G2 X13.723 Y1.401 Z-7 I-0.324 J0.381 F100
G1 X13.516
X13.486 Y1.402
X13.462 Y1.403
X13.416 Y1.413
X13.38 Y1.425
G2 X13.549 Y1.743 I0.085 J0.159
X13.588 Y1.453 I-0.085 J-0.159
G1 X13.551 Y1.426
X13.508 Y1.409
X13.462 Y1.403
X13.435 Y1.407
X13.408 Y1.414
X13.38 Y1.425
X13.352 Y1.438
X13.324 Y1.456
X13.296 Y1.478
X13.267 Y1.511
X13.245 Y1.54
X13.224 Y1.571
G2 X13.292 Y1.828 I0.204 J0.084
X13.563 Y1.481 I0.136 J-0.173
X13.296 Y1.478 I-0.136 J0.173
G1 X13.273 Y1.501
X13.254 Y1.524
X13.224 Y1.571
X13.203 Y1.617
X13.19 Y1.663
X13.186 Y1.695
Y1.733
G3 X13.425 Y3.217 I-3.968 J1.399
G1 X13.428 Y6.88
G2 X13.605 Y7.144 Z-6.289 I0.3 J-0.01
G1 X13.65 Y7.16 Z-6.188 F1000
X13.697 Y7.168 Z-6.086
X13.738 Y7.172 Z-6
X34.267 Y9.257
X34.278
X34.289 Y9.258
X34.357 Y9.252 Z-6.145
X34.421 Y9.231 Z-6.289
G2 X34.598 Y8.967 Z-7 I-0.124 J-0.273 F100
G1 X34.593 Y8
G2 X34.08 Y6.446 I-3.413 J0.267
X31.94 Y3.851 I-8.258 J4.631
X27.64 Y1.422 I-7.725 J8.652
G1 X27.517 Y1.407
X27.394 Y1.401
X26.763
G2 X26.5 Y1.578 Z-6.289 I0.01 J0.3
G1 X26.479 Y1.643 Z-6.145 F1000
X26.474 Y1.711 Z-6
X26.483 Y1.773
X26.504 Y1.832
X26.538 Y1.886
X26.581 Y1.931
X34.101 Y8.221
X34.157 Y8.258
X34.219 Y8.281
X34.285 Y8.291
X34.352 Y8.285 Z-6.145
X34.417 Y8.264 Z-6.289
G2 X34.593 Y8 Z-7 I-0.124 J-0.273 F100
G1 X34.59 Y7.174
G2 X34.111 Y5.731 I-2.989 J0.191
X32.08 Y3.354 I-7.558 J4.402
X29.022 Y1.437 I-7.553 J8.651
G1 X28.862 Y1.412
X28.703 Y1.401
G2 X28.44 Y1.578 Z-6.289 I0.01 J0.3
G1 X28.419 Y1.643 Z-6.145 F1000
X28.414 Y1.711 Z-6
X28.421 Y1.767
X28.439 Y1.822
X28.467 Y1.871
X28.504 Y1.915
X34.08 Y7.379
X34.123 Y7.415
X34.173 Y7.441
X34.226 Y7.458
X34.281 Y7.465
X34.349 Y7.459 Z-6.145
X34.414 Y7.438 Z-6.289
G2 X34.59 Y7.174 Z-7 I-0.124 J-0.273 F100
G1 X34.586 Y6.359
G2 X34.075 Y4.943 I-2.825 J0.222
X32.01 Y2.688 I-7.206 J4.525
X30.3 Y1.539 I-6.805 J8.275
G1 X30.125 Y1.463
X29.94 Y1.416
X29.75 Y1.401
G2 X29.487 Y1.578 Z-6.289 I0.01 J0.3
G1 X29.466 Y1.643 Z-6.145 F1000
X29.461 Y1.711 Z-6
X29.468 Y1.766
X29.485 Y1.818
X29.511 Y1.867
X29.546 Y1.91
X34.072 Y6.559
X34.116 Y6.596
X34.166 Y6.624
X34.221 Y6.642
X34.278 Y6.649
X34.345 Y6.643 Z-6.145
X34.41 Y6.623 Z-6.289
G2 X34.586 Y6.359 Z-7 I-0.124 J-0.273 F100
G1 X34.583 Y5.653
G2 X34.104 Y4.302 I-2.577 J0.154
X32.153 Y2.208 I-6.659 J4.249
X31.094 Y1.477 I-3.82 J4.404
G1 X30.883 Y1.421
X30.666 Y1.401
G2 X30.403 Y1.578 Z-6.289 I0.01 J0.3
G1 X30.382 Y1.643 Z-6.145 F1000
X30.377 Y1.711 Z-6
X30.383 Y1.764
X30.399 Y1.814
X30.423 Y1.861
X30.455 Y1.903
X34.062 Y5.846
X34.107 Y5.886
X34.159 Y5.916
X34.215 Y5.935
X34.275 Y5.943
X34.342 Y5.938 Z-6.145
X34.407 Y5.917 Z-6.289
G2 X34.583 Y5.653 Z-7 I-0.124 J-0.273 F100
G1 X34.58 Y4.956
G2 X34.094 Y3.624 I-2.453 J0.141
X31.952 Y1.496 I-6.123 J4.021
G1 X31.715 Y1.427
X31.472 Y1.401
G2 X31.208 Y1.578 Z-6.289 I0.01 J0.3
G1 X31.188 Y1.643 Z-6.145 F1000
X31.182 Y1.711 Z-6
X31.192 Y1.778
X31.217 Y1.841
X31.255 Y1.897
X34.053 Y5.143
X34.099 Y5.186
X34.152 Y5.218
X34.21 Y5.239
X34.272 Y5.247
X34.339 Y5.241 Z-6.145
X34.404 Y5.22 Z-6.289
G2 X34.58 Y4.956 Z-7 I-0.124 J-0.273 F100
G1 X34.578 Y4.268
G2 X34.07 Y2.949 I-2.38 J0.158
X32.707 Y1.518 I-4.399 J2.824
G1 X32.448 Y1.432
X32.179 Y1.401
G2 X31.915 Y1.578 Z-6.289 I0.01 J0.3
G1 X31.895 Y1.643 Z-6.145 F1000
X31.889 Y1.711 Z-6
X31.899 Y1.775
X31.921 Y1.836
X31.957 Y1.89
X34.045 Y4.449
X34.091 Y4.494
X34.145 Y4.528
X34.205 Y4.55
X34.269 Y4.559
X34.337 Y4.553 Z-6.145
X34.401 Y4.532 Z-6.289
G2 X34.578 Y4.268 Z-7 I-0.124 J-0.273 F100
G1 X34.575 Y3.616
G2 X34.064 Y2.318 I-2.296 J0.155
X33.217 Y1.48 I-1.911 J1.083
G1 X32.998 Y1.423
X32.775 Y1.401
G2 X32.511 Y1.578 Z-6.289 I0.01 J0.3
G1 X32.491 Y1.643 Z-6.145 F1000
X32.485 Y1.711 Z-6
X32.494 Y1.773
X32.515 Y1.832
X32.549 Y1.885
X34.039 Y3.791
G2 X34.266 Y3.906 I0.236 J-0.185
G1 X34.334 Y3.901 Z-6.145
X34.398 Y3.88 Z-6.289
G2 X34.575 Y3.616 Z-7 I-0.124 J-0.273 F100
G1 X34.573 Y3.217
X34.581 Y3.044
G2 X33.994 Y1.682 I-1.911 J0.017
G1 X33.766 Y1.529
X33.508 Y1.433
X33.235 Y1.401
G2 X32.972 Y1.578 Z-6.289 I0.01 J0.3
G1 X32.951 Y1.643 Z-6.145 F1000
X32.946 Y1.711 Z-6
X32.954 Y1.773
X32.976 Y1.833
X33.01 Y1.886
X34.047 Y3.204
X34.089 Y3.249
X34.14 Y3.283
X34.197 Y3.306
X34.258 Y3.318
X34.326 Y3.316 Z-6.145
X34.392 Y3.298 Z-6.289
G2 X34.581 Y3.044 Z-7 I-0.109 J-0.279 F100
G1 X34.609 Y2.565
X34.615 Y2.529
X34.631 Y2.38
G2 X33.534 Y1.401 I-1.097 J0.125
X33.271 Y1.578 Z-6.289 I0.01 J0.3
G1 X33.251 Y1.643 Z-6.145 F1000
X33.245 Y1.711 Z-6
X33.252 Y1.767
X33.27 Y1.821
X33.297 Y1.87
X33.334 Y1.914
X34.109 Y2.684
X34.155 Y2.721
X34.206 Y2.748
X34.263 Y2.765
X34.33 Y2.771 Z-6.145
X34.398 Y2.761 Z-6.289
G2 X34.615 Y2.529 Z-7 I-0.077 J-0.29 F100
G1 X34.644 Y2.348
X34.67 Y2.236
X34.697 Y2.088
G2 X33.902 Y1.401 I-0.795 J0.115
X33.639 Y1.578 Z-6.289 I0.01 J0.3
G1 X33.618 Y1.643 Z-6.145 F1000
X33.613 Y1.711 Z-6
X33.62 Y1.768
X33.638 Y1.822
X33.666 Y1.872
X33.703 Y1.915
X34.171 Y2.372
X34.21 Y2.405
X34.254 Y2.43
X34.302 Y2.448
X34.37 Y2.458 Z-6.145
X34.438 Y2.452 Z-6.289
G2 X34.67 Y2.236 Z-7 I-0.057 J-0.294 F100
G1 X34.695 Y2.13
X34.731 Y2.018
X34.77 Y1.874
G2 X34.194 Y1.401 I-0.575 J0.114
X33.895 Y1.531 Z-6.289 I0.016 J0.445
G1 X33.85 Y1.583 Z-6.145 F1000
X33.815 Y1.641 Z-6
X33.789 Y1.701
X33.772 Y1.764
X33.765 Y1.829
G2 X34.399 Y2.327 I0.498 J0.019
G1 X34.463 Y2.304 Z-6.145
X34.523 Y2.273 Z-6.289
G2 X34.731 Y2.018 Z-7 I-0.261 J-0.425 F100
G1 X34.785 Y1.853
X34.794 Y1.826
X34.801 Y1.804
X34.811 Y1.756
X34.814 Y1.723
G2 X34.644 Y1.536 I-0.201 J0.012
X34.581 Y1.932 I-0.032 J0.198
X34.801 Y1.804 I0.032 J-0.198
G1 X34.808 Y1.777
X34.812 Y1.75
X34.814 Y1.723
Y1.695
X34.81 Y1.668
X34.805 Y1.641
X34.783 Y1.59
X34.759 Y1.546
X34.73 Y1.505
G2 X34.383 Y1.869 I-0.173 J0.182
X34.705 Y1.889 I0.173 J-0.182
X34.805 Y1.641 I-0.15 J-0.204
G1 X34.796 Y1.614
X34.785 Y1.587
X34.77 Y1.56
X34.751 Y1.532
X34.73 Y1.505
X34.703 Y1.478
X34.695 Y1.471
X34.668 Y1.451
X34.64 Y1.435
X34.613 Y1.422
X34.586 Y1.413
X34.552 Y1.408
X34.526 Y1.407 Z-6.999
X34.474 Y1.42 Z-6.989
X34.424 Y1.433 Z-6.969
X34.379 Y1.445 Z-6.94
X34.348 Y1.472 Z-6.903
X34.323 Y1.494 Z-6.859
X34.304 Y1.51 Z-6.809
X34.292 Y1.52 Z-6.756
X34.288 Y1.524 Z-6.7
G0 Z3.01

(Adaptive1 2)
X32.67 Y43.981
Z2.01
Z-4.39
G1 Z-4.69 F250
X32.677 Y43.985 Z-4.757
X32.696 Y43.996 Z-4.82
X32.726 Y44.014 Z-4.877
X32.767 Y44.039 Z-4.925
X32.816 Y44.068 Z-4.96
X32.871 Y44.1 Z-4.982
X32.928 Y44.134 Z-4.99
G2 X34.511 Y44.599 I1.699 J-2.858
G1 X34.631
X34.706 Y44.595
X34.835 Y44.52
X34.916 Y44.393
G2 X35.088 Y42.851 I-8.323 J-1.708
G1 X35.109 Y42.043
X35.116 Y41.234
X35.123 Y39.618
X35.155 Y29.111
G3 X35.285 Y23.455 I406.569 J6.527
G2 X35.115 Y14.566 I-572.445 J6.46
G1 X35.113 Y13.758
X35.104 Y11.333
X35.079 Y4.059
X35.099 Y3.251
X35.143 Y2.849
X35.16 Y2.709
G2 X34.002 Y1.401 I-1.158 J-0.142
X33.738 Y1.578 Z-4.279 I0.01 J0.3
G1 X33.719 Y1.639 Z-4.144 F1000
X33.712 Y1.702 Z-4.009
Y1.711 Z-3.99
X33.926 Y44.464
X33.919 Y44.5
X33.899 Y44.532
X33.869 Y44.554
X33.833 Y44.563
X33.796 Y44.559
X33.763 Y44.542
X33.739 Y44.513
X33.727 Y44.478
X33.729 Y44.441
X33.744 Y44.407
X33.771 Y44.381
X33.805 Y44.366
X33.842 Y44.365
X33.877 Y44.378
G2 X34.169 Y44.513 I0.809 J-1.36
G1 X34.3 Y44.552 Z-4.279
G2 X34.631 Y44.599 Z-4.99 I0.386 J-1.535 F250
G1 X34.784
X34.859 Y44.595
X34.988 Y44.52
G2 X35.408 Y43.47 I-1.768 J-1.314
X35.601 Y41.473 I-10.446 J-2.019
G1 X35.615 Y40.665
X35.621 Y39.856
X35.629 Y37.432
X35.651 Y30.158
G3 X35.779 Y23.693 I241.919 J1.55
G2 X35.637 Y15.612 I-363.655 J2.382
G3 X35.583 Y4.297 I997.056 J-10.359
G2 X35.615 Y2.889 I-27.086 J-1.324
X35.328 Y1.893 I-2.12 J0.073
X34.372 Y1.401 I-0.961 J0.693
X34.108 Y1.578 Z-4.279 I0.01 J0.3
G1 X34.089 Y1.64 Z-4.143 F1000
X34.082 Y1.704 Z-4.006
Y1.711 Z-3.99
X34.494 Y44.289
Y44.302 Z-4.018
X34.501 Y44.363 Z-4.149
X34.52 Y44.422 Z-4.279
G2 X34.784 Y44.599 Z-4.99 I0.274 J-0.122 F250
G1 X34.927
G2 X35.357 Y44.333 I-0.051 J-0.562
X35.872 Y43.066 I-2.358 J-1.696
X36.095 Y41.039 I-10.499 J-2.184
G1 X36.114 Y40.231
X36.121 Y39.422
X36.125 Y38.614
X36.148 Y31.34
G3 X36.284 Y23.259 I293.274 J0.913
G1 X36.207 Y18.814
X36.121 Y14.37
X36.114 Y13.562
X36.106 Y11.945
X36.084 Y5.479
G2 X36.095 Y3.255 I-164.035 J-1.904
X35.783 Y1.988 I-3.165 J0.107
X34.766 Y1.4 I-1.023 J0.597
X34.503 Y1.578 Z-4.279 I0.01 J0.3
G1 X34.483 Y1.639 Z-4.144 F1000
X34.477 Y1.702 Z-4.009
Y1.711 Z-3.99
X34.637 Y44.289
Y44.3 Z-4.014
X34.644 Y44.362 Z-4.147
X34.664 Y44.422 Z-4.279
G2 X34.927 Y44.599 Z-4.99 I0.274 J-0.122 F250
G1 X35.15
X35.3 Y44.592
G2 X36.048 Y43.687 I-0.794 J-1.419
X36.499 Y41.82 I-5.327 J-2.274
X36.62 Y38.762 I-25.66 J-2.542
G1 X36.63 Y37.146
X36.65 Y30.68
G3 X36.78 Y23.407 I337.294 J2.384
G2 X36.618 Y14.518 I-701.227 J8.338
G1 X36.603 Y11.016
X36.595 Y7.513
Y4.011
G2 X36.288 Y2.159 I-4.811 J-0.153
X35.42 Y1.423 I-1.168 J0.497
G1 X35.179 Y1.401
G2 X34.915 Y1.578 Z-4.279 I0.01 J0.3
G1 X34.896 Y1.638 Z-4.146 F1000
X34.889 Y1.701 Z-4.012
Y1.711 Z-3.99
X34.861 Y44.289
Y44.299 Z-4.012
X34.868 Y44.362 Z-4.146
X34.887 Y44.422 Z-4.279
G2 X35.15 Y44.599 Z-4.99 I0.274 J-0.122 F250
G1 X35.428
X35.578 Y44.592
G2 X36.321 Y43.877 I-0.724 J-1.498
X36.622 Y43.014 I-1.488 J-1.003
G1 X36.611 Y42.947 Z-4.848
X36.586 Y42.884 Z-4.706
X36.547 Y42.829 Z-4.564
X36.497 Y42.784 Z-4.422
X36.439 Y42.751 Z-4.279
X36.374 Y42.731 Z-4.135 F1000
X36.306 Y42.726 Z-3.99
G2 X36.071 Y42.855 I0.012 J0.3
G1 X35.192 Y44.129
X35.164 Y44.179
X35.146 Y44.233
X35.139 Y44.289
X35.144 Y44.357 Z-4.135
X35.165 Y44.422 Z-4.279
G2 X35.428 Y44.599 Z-4.99 I0.274 J-0.122 F250
G1 X35.731
X35.881 Y44.592
G2 X36.591 Y43.882 I-0.349 J-1.06
G1 X36.651 Y43.598
X36.639 Y43.309
G2 X36.42 Y43.079 Z-4.279 I-0.294 J0.06
G1 X36.353 Y43.069 Z-4.135 F1000
X36.285 Y43.075 Z-3.99
X36.228 Y43.093
X36.176 Y43.121
X36.13 Y43.159
X36.093 Y43.206
X35.49 Y44.136
X35.465 Y44.184
X35.448 Y44.235
X35.442 Y44.289
X35.447 Y44.357 Z-4.135
X35.468 Y44.422 Z-4.279
G2 X35.731 Y44.599 Z-4.99 I0.274 J-0.122 F250
G1 X36.067
X36.217 Y44.592
G2 X36.703 Y43.633 I-0.286 J-0.747
G1 X36.679 Y43.572 Z-4.848
X36.641 Y43.517 Z-4.706
X36.592 Y43.472 Z-4.564
X36.535 Y43.439 Z-4.422
X36.471 Y43.419 Z-4.279
X36.403 Y43.414 Z-4.135 F1000
X36.336 Y43.425 Z-3.99
X36.282 Y43.446
X36.233 Y43.477
X36.191 Y43.516
X36.157 Y43.563
X35.818 Y44.149
X35.797 Y44.193
X35.784 Y44.24
X35.778 Y44.289
X35.783 Y44.357 Z-4.135
X35.804 Y44.422 Z-4.279
G2 X36.067 Y44.599 Z-4.99 I0.274 J-0.122 F250
G1 X36.345
X36.495 Y44.592
G2 X36.78 Y43.854 I-0.294 J-0.538
X36.562 Y43.609 Z-4.279 I-0.433 J0.166
G1 X36.5 Y43.582 Z-4.135 F1000
X36.434 Y43.565 Z-3.99
X36.362 Y43.557
X36.29 Y43.56
X36.22 Y43.574
G2 X35.942 Y44.387 I0.143 J0.502
G1 X35.986 Y44.439 Z-4.135
X36.036 Y44.485 Z-4.279
G2 X36.345 Y44.599 Z-4.99 I0.327 J-0.408 F250
G1 X36.584
X36.618
X36.651 Y44.598
X36.72 Y44.579
X36.783 Y44.549
X36.841 Y44.51
G2 X36.456 Y44.157 I-0.193 J-0.177
X36.387 Y44.331 I0.193 J0.177
X36.651 Y44.598 I0.265 J0.002
G1 X36.685 Y44.593
X36.719 Y44.584
X36.753 Y44.571
X36.777 Y44.558
X36.801 Y44.542
X36.841 Y44.51
X36.863 Y44.487
X36.881 Y44.465
X36.905 Y44.426
X36.922 Y44.387
X36.934 Y44.341
X36.938 Y44.295
X36.936 Y44.249
G3 X36.664 Y43.47 I4.491 J-2.006
G1 X36.635 Y43.286
X36.618 Y43.066
X36.631 Y38.862
X36.652 Y34.657
G3 X36.83 Y32.453 I46.644 J2.666
G1 X36.984 Y31.584
X37.075 Y30.813
X37.128 Y30.09
G2 X37.273 Y22.009 I-343.411 J-10.196
G1 X37.131 Y15.263
X37.117 Y15.197
G3 X36.649 Y10.791 I22.739 J-4.642
G1 X36.631 Y6.862
X36.618 Y2.933
X36.635 Y2.714
G2 X35.484 Y1.402 I-1.143 J-0.157
G1 X35.418 Y1.412 Z-4.848
X35.356 Y1.435 Z-4.706
X35.3 Y1.472 Z-4.564
X35.254 Y1.521 Z-4.422
X35.22 Y1.578 Z-4.279
X35.2 Y1.643 Z-4.135 F1000
X35.194 Y1.711 Z-3.99
X35.205 Y1.779
X35.23 Y1.843
X35.27 Y1.9
X36.117 Y2.853
X36.164 Y2.896
X36.22 Y2.928
X36.281 Y2.947
X36.349 Y2.953 Z-4.135
X36.416 Y2.944 Z-4.279
G2 X36.635 Y2.714 Z-4.99 I-0.075 J-0.29 F250
G1 X36.666 Y2.53
X36.702 Y2.384
X36.73 Y2.236
G2 X36.105 Y1.433 I-0.84 J0.009
G1 X35.872 Y1.401
G2 X35.608 Y1.578 Z-4.279 I0.01 J0.3
G1 X35.588 Y1.643 Z-4.135 F1000
X35.582 Y1.711 Z-3.99
X35.593 Y1.779
X35.618 Y1.843
X35.657 Y1.899
X36.188 Y2.501
X36.23 Y2.54
X36.278 Y2.571
X36.332 Y2.591
X36.399 Y2.602 Z-4.135
X36.467 Y2.597 Z-4.279
G2 X36.702 Y2.384 Z-4.99 I-0.054 J-0.295 F250
G1 X36.711 Y2.346
X36.774 Y2.163
X36.816 Y2.019
X36.81 Y1.869
G2 X36.189 Y1.401 I-0.621 J0.178
X35.878 Y1.51 Z-4.279 I0.019 J0.55
G1 X35.826 Y1.555 Z-4.135 F1000
X35.78 Y1.605 Z-3.99
G2 X35.666 Y1.857 I0.428 J0.346
X36.454 Y2.49 I0.569 J0.098
G1 X36.515 Y2.461 Z-4.135
X36.573 Y2.424 Z-4.279
G2 X36.774 Y2.163 Z-4.99 I-0.338 J-0.469 F250
G1 X36.801 Y2.085
X36.842 Y1.979
X36.856 Y1.949
X36.868 Y1.923
X36.896 Y1.854
X36.856 Y1.679
X36.754 Y1.533
X36.604 Y1.435
X36.428 Y1.401
G2 X36.153 Y1.565 Z-4.279 I0.012 J0.334
G1 X36.124 Y1.627 Z-4.135 F1000
X36.109 Y1.693 Z-3.99
X36.108 Y1.698
G2 X36.481 Y2.143 I0.4 J0.043
G1 X36.549 Y2.142 Z-4.135
X36.616 Y2.13 Z-4.279
G2 X36.868 Y1.923 Z-4.99 I-0.108 J-0.388 F250
G1 X36.927 Y1.796
X36.936 Y1.75
X36.939 Y1.704
X36.934 Y1.658
X36.922 Y1.612
X36.905 Y1.574
X36.882 Y1.535
X36.864 Y1.513
X36.841 Y1.49
X36.801 Y1.459
X36.749 Y1.429
X36.716 Y1.416
X36.649 Y1.408 Z-4.848
X36.382 Z-4.279
X36.245 Z-3.99 F1000
X13.982 Y1.401
X13.846 Z-4.279
X13.511 Z-4.99 F250
X13.359
X13.284 Y1.405
X13.157 Y1.485
X13.079 Y1.613
X13.042 Y1.758
G2 X12.92 Y4.861 I21.69 J2.405
G1 X12.916 Y7.286
X12.924 Y42.04
X12.893 Y42.848
X12.842 Y43.295
G2 X14 Y44.599 I1.159 J0.137
G1 X14.245 Y44.457 Z-4.39
X14.244 Y44.405 Z-4.279
X14.243 Y44.269 Z-3.99 F1000
X13.952 Y3.264
X13.655 Y1.718
X13.635 Y1.612 Z-4.22
X13.616 Y1.591 Z-4.279
X13.474 Y1.429 Z-4.737 F250
X13.359 Y1.401 Z-4.99
X13.219
X13.144 Y1.405
X13.012 Y1.476
G2 X12.642 Y2.342 I1.469 J1.14
X12.454 Y3.846 I7.825 J1.745
G1 X12.426 Y4.654
X12.418 Y5.462
X12.416 Y6.27
Y10.312
X12.424 Y41.025
X12.421 Y41.833
G2 X12.389 Y43.159 I12.425 J0.96
X12.656 Y44.078 I2.115 J-0.115
X13.63 Y44.599 I0.978 J-0.657
X13.893 Y44.422 Z-4.279 I-0.01 J-0.3
G1 X13.913 Y44.36 Z-4.143 F1000
X13.919 Y44.296 Z-4.006
Y44.289 Z-3.99
X13.508 Y1.711
Y1.698 Z-4.018
X13.501 Y1.637 Z-4.149
X13.482 Y1.578 Z-4.279
G2 X13.219 Y1.401 Z-4.99 I-0.274 J0.122 F250
G1 X13.05
X12.975 Y1.405
G2 X12.472 Y1.936 I0.427 J0.908
X12.075 Y3.311 I3.714 J1.817
X11.922 Y5.975 I16.85 J2.303
G1 X11.917 Y6.783
X11.916 Y8.4
X11.924 Y40.729
X11.92 Y41.537
G2 X11.932 Y43.041 I8.815 J0.682
X12.242 Y44.054 I2.83 J-0.311
X13.232 Y44.599 I0.994 J-0.633
X13.495 Y44.422 Z-4.279 I-0.01 J-0.3
G1 X13.515 Y44.361 Z-4.144 F1000
X13.522 Y44.298 Z-4.009
Y44.289 Z-3.99
X13.34 Y1.711
Y1.699 Z-4.014
X13.333 Y1.638 Z-4.147
X13.314 Y1.578 Z-4.279
G2 X13.05 Y1.401 Z-4.99 I-0.274 J0.122 F250
G1 X12.86
X12.71 Y1.408
G2 X12.026 Y2.174 I0.675 J1.292
X11.585 Y3.723 I4.398 J2.089
X11.423 Y6.483 I17.502 J2.411
G1 X11.417 Y7.292
X11.416 Y8.908
X11.424 Y40.429
G2 X11.427 Y42.618 I40.433 J1.04
X11.85 Y44.098 I3.663 J-0.248
X12.817 Y44.6 I0.98 J-0.705
G1 X12.883 Y44.59 Z-4.848
X12.946 Y44.566 Z-4.706
X13.001 Y44.528 Z-4.564
X13.047 Y44.479 Z-4.422
X13.08 Y44.422 Z-4.279
X13.1 Y44.362 Z-4.146 F1000
X13.107 Y44.3 Z-4.012
Y44.289 Z-3.99
X13.15 Y1.711
Y1.701 Z-4.012
X13.143 Y1.638 Z-4.146
X13.124 Y1.578 Z-4.279
G2 X12.86 Y1.401 Z-4.99 I-0.274 J0.122 F250
G1 X12.594
G2 X12.068 Y1.647 I0.004 J0.694
X11.386 Y2.897 I1.695 J1.737
G1 X11.383 Y3.052
G2 X11.567 Y3.311 Z-4.279 I0.299 J-0.017
G1 X11.632 Y3.33 Z-4.135 F1000
X11.7 Y3.334 Z-3.99
G2 X11.931 Y3.202 I-0.017 J-0.3
G1 X12.832 Y1.869
X12.859 Y1.82
X12.876 Y1.766
X12.884 Y1.711
X12.878 Y1.643 Z-4.135
X12.858 Y1.578 Z-4.279
G2 X12.594 Y1.401 Z-4.99 I-0.274 J0.122 F250
G1 X12.265
X12.115 Y1.408
G2 X11.363 Y2.699 I0.397 J1.095
X11.581 Y2.929 Z-4.279 I0.294 J-0.06
G1 X11.649 Y2.939 Z-4.135 F1000
X11.717 Y2.933 Z-3.99
X11.774 Y2.915
X11.827 Y2.886
X11.872 Y2.847
X11.909 Y2.8
X12.507 Y1.862
X12.532 Y1.815
X12.547 Y1.764
X12.554 Y1.711
X12.549 Y1.643 Z-4.135
X12.528 Y1.578 Z-4.279
G2 X12.265 Y1.401 Z-4.99 I-0.274 J0.122 F250
G1 X11.943
X11.793 Y1.408
G2 X11.31 Y2.406 I0.324 J0.773
X11.551 Y2.612 Z-4.279 I0.286 J-0.09
G1 X11.619 Y2.615 Z-4.135 F1000
X11.686 Y2.602 Z-3.99
X11.739 Y2.58
X11.786 Y2.548
X11.827 Y2.507
X11.859 Y2.46
X12.196 Y1.845
X12.215 Y1.802
X12.227 Y1.757
X12.233 Y1.711
X12.227 Y1.643 Z-4.135
X12.207 Y1.578 Z-4.279
G2 X11.943 Y1.401 Z-4.99 I-0.274 J0.122 F250
G1 X11.677
X11.527 Y1.408
G2 X11.234 Y2.177 I0.309 J0.558
X11.451 Y2.423 Z-4.279 I0.443 J-0.172
G1 X11.513 Y2.451 Z-4.135 F1000
X11.578 Y2.47 Z-3.99
X11.657 Y2.48
X11.737 Y2.477
X11.814 Y2.46
G2 X12.084 Y1.608 I-0.156 J-0.518
G1 X12.039 Y1.557 Z-4.135
X11.987 Y1.512 Z-4.279
G2 X11.677 Y1.401 Z-4.99 I-0.329 J0.43 F250
G1 X11.466
X11.391 Y1.405
X11.247 Y1.503
X11.152 Y1.649
X11.12 Y1.82
X11.155 Y1.99
G2 X11.412 Y2.184 Z-4.279 I0.311 J-0.146
G1 X11.48 Y2.188 Z-4.135 F1000
X11.548 Y2.178 Z-3.99
X11.557 Y2.176
G2 X11.824 Y1.663 I-0.105 J-0.38
G1 X11.796 Y1.601 Z-4.135
X11.757 Y1.545 Z-4.279
G2 X11.466 Y1.401 Z-4.99 I-0.305 J0.25 F250
G1 X11.356 Y1.402
X11.31 Y1.409
X11.281 Y1.417
X11.252 Y1.429
X11.221 Y1.445
X11.19 Y1.465
X11.158 Y1.49
X11.127 Y1.524
X11.111 Y1.546
X11.098 Y1.568
X11.078 Y1.612
X11.066 Y1.658
X11.061 Y1.704
X11.064 Y1.75
G3 X11.34 Y2.528 I-5.121 J2.257
G1 X11.365 Y2.714
X11.38 Y2.897
X11.384 Y3.081
Y8.588
Y42.735
Y42.918
X11.38 Y43.102
X11.365 Y43.286
G2 X12.516 Y44.598 I1.142 J0.159
G1 X12.581 Y44.588 Z-4.848
X12.644 Y44.564 Z-4.706
X12.699 Y44.527 Z-4.564
X12.745 Y44.479 Z-4.422
X12.779 Y44.422 Z-4.279
X12.8 Y44.357 Z-4.135 F1000
X12.805 Y44.289 Z-3.99
X12.795 Y44.221
X12.769 Y44.157
X12.73 Y44.1
X11.883 Y43.147
X11.836 Y43.104
X11.78 Y43.071
X11.719 Y43.052
X11.651 Y43.046 Z-4.135
X11.584 Y43.055 Z-4.279
G2 X11.365 Y43.286 Z-4.99 I0.075 J0.29 F250
G1 X11.334 Y43.469
X11.31 Y43.591
X11.301 Y43.625
X11.268 Y43.771
X11.275 Y43.921
G2 X12.129 Y44.599 I0.854 J-0.199
X12.392 Y44.422 Z-4.279 I-0.01 J-0.3
G1 X12.413 Y44.357 Z-4.135 F1000
X12.418 Y44.289 Z-3.99
X12.412 Y44.237
X12.396 Y44.186
X12.372 Y44.139
X12.34 Y44.097
X11.809 Y43.514
X11.77 Y43.478
X11.726 Y43.45
X11.678 Y43.43
X11.611 Y43.417 Z-4.135
X11.543 Y43.419 Z-4.279
G2 X11.301 Y43.625 Z-4.99 I0.044 J0.297 F250
G1 X11.293 Y43.653
X11.229 Y43.836
X11.216 Y43.867
X11.164 Y44.008
G2 X11.828 Y44.599 I0.663 J-0.076
X12.132 Y44.477 Z-4.279 I-0.017 J-0.483
G1 X12.18 Y44.428 Z-4.135 F1000
X12.22 Y44.373 Z-3.99
X12.254 Y44.309
X12.279 Y44.239
X12.292 Y44.167
G2 X11.561 Y43.566 I-0.563 J-0.06
G1 X11.497 Y43.59 Z-4.135
X11.437 Y43.622 Z-4.279
G2 X11.216 Y43.867 Z-4.99 I0.292 J0.485 F250
G1 X11.138 Y44.051
X11.127 Y44.076
X11.102 Y44.146
X11.144 Y44.321
X11.248 Y44.468
X11.399 Y44.565
X11.576 Y44.599
G2 X11.855 Y44.439 Z-4.279 I-0.012 J-0.344
G1 X11.885 Y44.378 Z-4.135 F1000
X11.903 Y44.313 Z-3.99
X11.907 Y44.282
G2 X11.505 Y43.84 I-0.409 J-0.032
G1 X11.437 Y43.844 Z-4.135
X11.371 Y43.86 Z-4.279
G2 X11.127 Y44.076 Z-4.99 I0.128 J0.39 F250
G1 X11.074 Y44.204
X11.064 Y44.249
X11.062 Y44.295
X11.066 Y44.341
X11.078 Y44.387
X11.098 Y44.431
X11.111 Y44.454
X11.127 Y44.476
X11.158 Y44.509
X11.189 Y44.534
X11.251 Y44.571
X11.281 Y44.583
X11.596 Y44.471 Z-4.279
X11.724 Y44.425 Z-3.99 F1000
X11.83 Y44.387
X36.632 Y31.864
X36.754 Y31.802 Z-4.279
X36.917 Y31.72 Z-4.668 F250
X36.984 Y31.584 Z-4.99
G3 X37.441 Y29.416 I16.492 J2.34
G2 X37.673 Y27.462 I-10.532 J-2.243
X37.667 Y17.486 I-133.702 J-4.907
G1 X37.641 Y17.4
G2 X37.225 Y15.749 I-72.162 J17.338
G1 X37.186 Y15.564
X37.117 Y15.197
G2 X36.903 Y14.963 Z-4.279 I-0.295 J0.055
G1 X36.835 Y14.953 Z-4.135 F1000
X36.768 Y14.957 Z-3.99
G2 X36.522 Y15.253 I0.055 J0.295
G1 X36.528 Y29.879
G2 X37.04 Y30.091 I0.3 J0
X37.244 Y29.842 I-1.117 J-1.121
G1 X37.314 Y29.725 Z-4.279
G2 X37.442 Y29.416 Z-4.99 I-1.391 J-0.755 F250
G3 X37.901 Y27.761 I19.871 J4.625
G2 X38.139 Y26.519 I-6.403 J-1.872
X38.261 Y23.384 I-32.501 J-2.836
X38.205 Y19.203 I-117.555 J-0.504
G1 X38.174 Y19.106
G2 X37.932 Y18.901 Z-4.279 I-0.286 J0.091
G1 X37.888 Y18.898 Z-4.186 F1000
X37.808 Y18.945 Z-3.99
X37.625 Y19.053
X34.899 Y26.763
G2 X37.679 Y28.174 I1.514 J0.462
G1 X37.756 Y28.062 Z-4.279
X37.811 Y27.965 Z-4.516 F250
X37.86 Y27.865 Z-4.753
X37.901 Y27.761 Z-4.99
X38.268 Y26.62
X38.401 Y26.212
X38.451 Y26.06
G2 X38.692 Y24.649 I-6.249 J-1.793
X38.728 Y20.815 I-34.823 J-2.243
G1 X38.692 Y20.705
G2 X38.445 Y20.505 Z-4.279 I-0.284 J0.098
G1 X38.408 Y20.503 Z-4.201 F1000
X38.312 Y20.527 Z-3.99
X38.268 Y20.538
X37.799 Y21.439
X36.172 Y25.111
G2 X38.205 Y26.458 I1.125 J0.509
G1 X38.292 Y26.353 Z-4.279
G2 X38.451 Y26.06 Z-4.99 I-0.994 J-0.733 F250
X39.092 Y23.828 I-16.914 J-6.064
X39.087 Y22.173 I-6.346 J-0.807
X38.206 Y19.238 I-24.82 J5.848
X37.808 Y17.952 I-12.557 J3.188
G1 X37.695 Y17.584
X37.641 Y17.4
X37.629 Y17.368
X37.595 Y17.327 Z-4.985
X37.562 Y17.288 Z-4.971
X37.532 Y17.251 Z-4.948
X37.521 Y17.244 Z-4.94
X37.483 Y17.219 Z-4.902
X37.452 Y17.198 Z-4.857
X37.429 Y17.183 Z-4.805
X37.415 Y17.173 Z-4.749
X37.41 Y17.17 Z-4.69
G0 Z2.01
X23.853 Y33.11
Z-3.99
G2 X24.147 Y36.36 Z-4.169 I0.147 J1.625 F333.3
X23.853 Y33.11 Z-4.348 I-0.147 J-1.625
X24.147 Y36.36 Z-4.527 I0.147 J1.625
X23.853 Y33.11 Z-4.706 I-0.147 J-1.625
X24.147 Y36.36 Z-4.885 I0.147 J1.625
X23.853 Y33.11 Z-5.064 I-0.147 J-1.625
X24.147 Y36.36 Z-5.243 I0.147 J1.625
X23.853 Y33.11 Z-5.422 I-0.147 J-1.625
X24.147 Y36.36 Z-5.601 I0.147 J1.625
X23.853 Y33.11 Z-5.78 I-0.147 J-1.625
X24.147 Y36.36 Z-5.959 I0.147 J1.625
X23.853 Y33.11 Z-6.138 I-0.147 J-1.625
X24.147 Y36.36 Z-6.316 I0.147 J1.625
X23.853 Y33.11 Z-6.495 I-0.147 J-1.625
X24.147 Y36.36 Z-6.674 I0.147 J1.625
X23.853 Y33.11 Z-6.853 I-0.147 J-1.625
X24.147 Y36.36 Z-7.032 I0.147 J1.625
X23.853 Y33.11 Z-7.211 I-0.147 J-1.625
X24.147 Y36.36 Z-7.39 I0.147 J1.625
X23.853 Y33.11 Z-7.569 I-0.147 J-1.625
X24.147 Y36.36 Z-7.748 I0.147 J1.625
X23.853 Y33.11 Z-7.927 I-0.147 J-1.625
X24.147 Y36.36 Z-8.106 I0.147 J1.625
X23.853 Y33.11 Z-8.285 I-0.147 J-1.625
X24.147 Y36.36 Z-8.464 I0.147 J1.625
X23.853 Y33.11 Z-8.643 I-0.147 J-1.625
X24.147 Y36.36 Z-8.822 I0.147 J1.625
X23.853 Y33.11 Z-9.001 I-0.147 J-1.625
X24.147 Y36.36 Z-9.18 I0.147 J1.625
X23.853 Y33.11 Z-9.359 I-0.147 J-1.625
X24.147 Y36.36 Z-9.538 I0.147 J1.625
X23.853 Y33.11 Z-9.717 I-0.147 J-1.625
X24.147 Y36.36 Z-9.896 I0.147 J1.625
X25.631 Y34.735 Z-9.98 I-0.147 J-1.625
X22.369 Y34.735 I-1.631 J0
X25.631 Y34.735 I1.631 J0
X24 Y34.735 I-0.816 J0
X24.177 Y34.998 Z-9.269 I0.3 J-0.01 F250
G1 X24.237 Y35.018 Z-9.136 F1000
X24.3 Y35.024 Z-9.002
X24.31 Z-8.98
X25.321
X25.331 Z-9.002
X25.394 Y35.018 Z-9.136
X25.454 Y34.998 Z-9.269
G2 X25.631 Y34.735 Z-9.98 I-0.122 J-0.274 F250
G1 Y34.124
G2 X25.049 Y33.13 I-1.225 J0.051
X22.128 Y34.231 I-1.084 J1.55
G1 X22.125 Y34.394
Y34.923
G2 X24.297 Y36.656 I1.839 J-0.077
X25.852 Y35.325 I-0.246 J-1.862
G1 X25.863 Y35.218
G2 X25.714 Y34.938 Z-9.269 I-0.299 J-0.021
G1 X25.653 Y34.911 Z-9.128 F1000
X25.588 Y34.898 Z-8.987
X25.585 Z-8.98
X22.45 Y34.635
X22.435 Y34.634
X22.367 Y34.639 Z-9.125
X22.302 Y34.66 Z-9.269
G2 X22.125 Y34.923 Z-9.98 I0.122 J0.274 F250
X22.312 Y35.912 I2.11 J0.114
G1 X22.489 Y36.202
X22.677 Y36.414
X22.848 Y36.569
X22.956 Y36.648
X22.982 Y36.668
X23.064 Y36.722
G2 X23.386 Y36.698 Z-9.269 I0.137 J-0.339
G1 X23.441 Y36.658 Z-9.125 F1000
X23.488 Y36.609 Z-8.98
X23.505 Y36.586
G2 X23.378 Y36.071 I-0.299 J-0.199
X22.877 Y36.243 I-0.172 J0.315
G1 X22.855 Y36.307 Z-9.125
X22.847 Y36.375 Z-9.269
G2 X22.982 Y36.668 Z-9.98 I0.359 J0.012 F250
G1 X23.043 Y36.713
X23.336 Y36.843
G2 X25.499 Y36.199 I0.672 J-1.698
G1 X25.612 Y36.037
X25.721 Y35.835
X25.836 Y35.468
X25.875 Y35.102
Y34.117
G2 X24.934 Y32.696 I-1.584 J0.027
X22.35 Y33.163 I-0.989 J1.91
G1 X22.229 Y33.38
X22.151 Y33.616
X22.125 Y33.862
Y34.394
G2 X22.302 Y34.658 Z-9.269 I0.3 J-0.01
G1 X22.367 Y34.678 Z-9.125 F1000
X22.435 Y34.684 Z-8.98
X22.451 Y34.683
X25.565 Y34.408
X25.602 Y34.405 Z-9.058
X25.651 Y34.396 Z-9.164
X25.698 Y34.38 Z-9.269
G2 X25.875 Y34.117 Z-9.98 I-0.122 J-0.274 F250
G1 Y33.574
G2 X25.305 Y32.57 I-1.256 J0.049
X22.502 Y32.583 I-1.393 J1.879
X22.125 Y33.446 I0.815 J0.87
G1 Y33.862
G2 X22.302 Y34.126 Z-9.269 I0.3 J-0.01
G1 X22.367 Y34.146 Z-9.125 F1000
X22.435 Y34.152 Z-8.98
X22.452 Y34.15
X25.565 Y33.865
X25.603 Y33.862 Z-9.06
X25.651 Y33.854 Z-9.165
X25.698 Y33.837 Z-9.269
G2 X25.875 Y33.574 Z-9.98 I-0.122 J-0.274 F250
G1 Y33.157
G2 X25.498 Y32.37 I-1.056 J0.023
X23.406 Y31.816 I-1.579 J1.735
X22.336 Y32.373 I0.134 J1.564
G1 X22.222 Y32.586
X22.15 Y32.814
X22.125 Y33.053
Y33.446
G2 X22.302 Y33.71 Z-9.269 I0.3 J-0.01
G1 X22.367 Y33.73 Z-9.125 F1000
X22.435 Y33.736 Z-8.98
X22.452 Y33.734
X25.565 Y33.449
X25.603 Y33.445 Z-9.06
X25.651 Y33.437 Z-9.165
X25.698 Y33.421 Z-9.269
G2 X25.875 Y33.157 Z-9.98 I-0.122 J-0.274 F250
G1 Y32.748
G2 X25.571 Y32.085 I-0.926 J0.023
X23.652 Y31.423 I-1.651 J1.674
X22.536 Y31.778 I-0.004 J1.918
X22.124 Y32.674 I0.791 J0.906
G1 X22.125 Y33.053
G2 X22.302 Y33.316 Z-9.269 I0.3 J-0.01
G1 X22.367 Y33.337 Z-9.125 F1000
X22.435 Y33.342 Z-8.98
X22.454 Y33.341
X25.565 Y33.04
X25.604 Y33.036 Z-9.063
X25.652 Y33.027 Z-9.166
X25.698 Y33.011 Z-9.269
G2 X25.875 Y32.748 Z-9.98 I-0.122 J-0.274 F250
G1 Y32.381
G2 X25.564 Y31.723 I-0.904 J0.025
X23.79 Y31.054 I-1.661 J1.72
X22.533 Y31.403 I-0.122 J2.001
X22.124 Y32.299 I0.815 J0.913
G1 X22.125 Y32.674
G2 X22.302 Y32.937 Z-9.269 I0.3 J-0.01
G1 X22.367 Y32.958 Z-9.125 F1000
X22.435 Y32.963 Z-8.98
X22.453 Y32.962
X25.565 Y32.673
X25.603 Y32.669 Z-9.061
X25.651 Y32.661 Z-9.165
X25.698 Y32.644 Z-9.269
G2 X25.875 Y32.381 Z-9.98 I-0.122 J-0.274 F250
G1 Y32.057
G2 X25.472 Y31.287 I-1 J0.033
X23.517 Y30.701 I-1.651 J1.956
X22.365 Y31.209 I0.002 J1.564
G1 X22.236 Y31.432
X22.153 Y31.674
X22.125 Y31.929
Y32.299
G2 X22.302 Y32.563 Z-9.269 I0.3 J-0.01
G1 X22.367 Y32.583 Z-9.125 F1000
X22.435 Y32.589 Z-8.98
X22.448 Y32.588
X25.565 Y32.348
X25.598 Y32.346 Z-9.051
X25.649 Y32.337 Z-9.16
X25.698 Y32.32 Z-9.269
G2 X25.875 Y32.057 Z-9.98 I-0.122 J-0.274 F250
G1 Y31.712
G2 X25.476 Y30.94 I-1.003 J0.029
X23.377 Y30.351 I-1.689 J1.984
X22.232 Y31.058 I0.053 J1.365
G1 X22.153 Y31.305
X22.125 Y31.561
Y31.929
G2 X22.302 Y32.192 Z-9.269 I0.3 J-0.01
G1 X22.367 Y32.213 Z-9.125 F1000
X22.435 Y32.218 Z-8.98
X22.445
X25.565 Y32.003
X25.596 Y32.001 Z-9.045
X25.648 Y31.993 Z-9.157
X25.698 Y31.976 Z-9.269
G2 X25.875 Y31.712 Z-9.98 I-0.122 J-0.274 F250
G1 Y31.345
G2 X25.671 Y30.795 I-0.82 J-0.01
X23.965 Y29.975 I-1.781 J1.523
X22.765 Y30.151 I-0.286 J2.226
X22.125 Y31.194 I0.531 J1.044
G1 Y31.561
G2 X22.302 Y31.824 Z-9.269 I0.3 J-0.01
G1 X22.367 Y31.845 Z-9.125 F1000
X22.435 Y31.85 Z-8.98
X22.445
X25.565 Y31.636
X25.596 Y31.634 Z-9.045
X25.648 Y31.626 Z-9.157
X25.698 Y31.609 Z-9.269
G2 X25.875 Y31.345 Z-9.98 I-0.122 J-0.274 F250
G1 Y31.007
G2 X25.477 Y30.233 I-1.015 J0.033
X22.774 Y29.778 I-1.725 J1.995
X22.124 Y30.829 I0.535 J1.057
G1 X22.125 Y31.194
G2 X22.302 Y31.457 Z-9.269 I0.3 J-0.01
G1 X22.367 Y31.478 Z-9.125 F1000
X22.435 Y31.483 Z-8.98
X22.443
X25.565 Y31.297
X25.593 Y31.296 Z-9.04
X25.646 Y31.288 Z-9.155
X25.698 Y31.27 Z-9.269
G2 X25.875 Y31.007 Z-9.98 I-0.122 J-0.274 F250
G1 Y30.637
G2 X25.575 Y29.972 I-0.925 J0.017
X23.673 Y29.238 I-1.778 J1.776
X22.552 Y29.554 I-0.092 J1.817
X22.124 Y30.464 I0.778 J0.92
G1 X22.125 Y30.829
G2 X22.302 Y31.092 Z-9.269 I0.3 J-0.01
G1 X22.367 Y31.113 Z-9.125 F1000
X22.435 Y31.118 Z-8.98
X22.443
X25.565 Y30.928
X25.593 Y30.926 Z-9.04
X25.647 Y30.918 Z-9.155
X25.698 Y30.9 Z-9.269
G2 X25.875 Y30.637 Z-9.98 I-0.122 J-0.274 F250
G1 Y30.301
G2 X25.483 Y29.523 I-1.025 J0.029
X22.782 Y29.045 I-1.742 J1.974
X22.124 Y30.1 I0.528 J1.062
G1 X22.125 Y30.464
G2 X22.302 Y30.727 Z-9.269 I0.3 J-0.01
G1 X22.367 Y30.747 Z-9.125 F1000
X22.435 Y30.753 Z-8.98
X22.44
X25.565 Y30.591
X25.591 Y30.59 Z-9.035
X25.645 Y30.582 Z-9.152
X25.698 Y30.564 Z-9.269
G2 X25.875 Y30.301 Z-9.98 I-0.122 J-0.274 F250
G1 Y29.934
G2 X25.477 Y29.159 I-1.027 J0.038
X22.779 Y28.683 I-1.739 J1.972
X22.124 Y29.736 I0.532 J1.061
G1 X22.125 Y30.1
G2 X22.302 Y30.363 Z-9.269 I0.3 J-0.01
G1 X22.367 Y30.384 Z-9.125 F1000
X22.435 Y30.389 Z-8.98
X22.441
X25.565 Y30.224
X25.591 Y30.223 Z-9.035
X25.645 Y30.215 Z-9.152
X25.698 Y30.197 Z-9.269
G2 X25.875 Y29.934 Z-9.98 I-0.122 J-0.274 F250
G1 Y29.567
G2 X25.473 Y28.795 I-1.029 J0.044
X22.777 Y28.32 I-1.737 J1.973
X22.124 Y29.372 I0.535 J1.06
G1 X22.125 Y29.736
G2 X22.302 Y29.999 Z-9.269 I0.3 J-0.01
G1 X22.367 Y30.02 Z-9.125 F1000
X22.435 Y30.025 Z-8.98
X22.441
X25.565 Y29.858
X25.591 Y29.856 Z-9.036
X25.646 Y29.848 Z-9.153
X25.698 Y29.831 Z-9.269
G2 X25.875 Y29.567 Z-9.98 I-0.122 J-0.274 F250
G1 Y29.2
G2 X25.576 Y28.535 I-0.935 J0.02
X23.53 Y27.79 I-1.811 J1.795
X22.371 Y28.282 I-0.038 J1.523
G1 X22.239 Y28.506
X22.154 Y28.751
X22.125 Y29.009
Y29.372
G2 X22.302 Y29.636 Z-9.269 I0.3 J-0.01
G1 X22.367 Y29.656 Z-9.125 F1000
X22.435 Y29.662 Z-8.98
X22.441
X25.565 Y29.491
X25.592 Y29.49 Z-9.036
X25.646 Y29.482 Z-9.153
X25.698 Y29.464 Z-9.269
G2 X25.875 Y29.2 Z-9.98 I-0.122 J-0.274 F250
G1 Y28.867
G2 X25.375 Y27.989 I-1.114 J0.053
X22.789 Y27.588 I-1.645 J2.064
X22.124 Y28.646 I0.526 J1.068
G1 X22.125 Y29.009
G2 X22.302 Y29.272 Z-9.269 I0.3 J-0.01
G1 X22.367 Y29.293 Z-9.125 F1000
X22.435 Y29.298 Z-8.98
X22.438
X25.565 Y29.158
X25.589 Y29.157 Z-9.03
X25.644 Y29.149 Z-9.15
X25.698 Y29.131 Z-9.269
G2 X25.875 Y28.867 Z-9.98 I-0.122 J-0.274 F250
G1 Y28.501
G2 X25.484 Y27.722 I-1.035 J0.032
X22.787 Y27.227 I-1.753 J1.953
X22.124 Y28.284 I0.525 J1.065
G1 X22.125 Y28.646
G2 X22.302 Y28.91 Z-9.269 I0.3 J-0.01
G1 X22.367 Y28.93 Z-9.125 F1000
X22.435 Y28.936 Z-8.98
X22.439
X25.565 Y28.791
X25.589 Y28.79 Z-9.031
X25.645 Y28.782 Z-9.15
X25.698 Y28.764 Z-9.269
G2 X25.875 Y28.501 Z-9.98 I-0.122 J-0.274 F250
G1 Y28.134
G2 X25.481 Y27.357 I-1.036 J0.037
X22.784 Y26.865 I-1.75 J1.955
X22.124 Y27.921 I0.528 J1.064
G1 X22.125 Y28.284
G2 X22.302 Y28.547 Z-9.269 I0.3 J-0.01
G1 X22.367 Y28.568 Z-9.125 F1000
X22.435 Y28.573 Z-8.98
X22.439
X25.565 Y28.424
X25.589 Y28.423 Z-9.032
X25.645 Y28.415 Z-9.151
X25.698 Y28.397 Z-9.269
G2 X25.875 Y28.134 Z-9.98 I-0.122 J-0.274 F250
G1 Y27.767
G2 X25.478 Y26.991 I-1.035 J0.04
X22.782 Y26.503 I-1.747 J1.958
X22.124 Y27.558 I0.53 J1.063
G1 X22.125 Y27.921
G2 X22.302 Y28.184 Z-9.269 I0.3 J-0.01
G1 X22.367 Y28.205 Z-9.125 F1000
X22.435 Y28.21 Z-8.98
X22.439
X25.565 Y28.057
X25.59 Y28.056 Z-9.033
X25.645 Y28.048 Z-9.151
X25.698 Y28.031 Z-9.269
G2 X25.875 Y27.767 Z-9.98 I-0.122 J-0.274 F250
G1 Y27.4
G2 X25.475 Y26.626 I-1.035 J0.044
X22.78 Y26.141 I-1.744 J1.961
X22.124 Y27.195 I0.532 J1.062
G1 X22.125 Y27.558
G2 X22.302 Y27.821 Z-9.269 I0.3 J-0.01
G1 X22.367 Y27.842 Z-9.125 F1000
X22.435 Y27.847 Z-8.98
X22.44
X25.565 Y27.691
X25.59 Y27.69 Z-9.034
X25.645 Y27.682 Z-9.152
X25.698 Y27.664 Z-9.269
G2 X25.875 Y27.4 Z-9.98 I-0.122 J-0.274 F250
G1 Y27.034
G2 X25.579 Y26.366 I-0.94 J0.018
X23.537 Y25.614 I-1.818 J1.785
X22.373 Y26.103 I-0.043 J1.526
G1 X22.239 Y26.328
X22.154 Y26.574
X22.125 Y26.832
Y27.195
G2 X22.302 Y27.458 Z-9.269 I0.3 J-0.01
G1 X22.367 Y27.479 Z-9.125 F1000
X22.435 Y27.484 Z-8.98
X22.44
X25.565 Y27.324
X25.591 Y27.323 Z-9.034
X25.645 Y27.315 Z-9.152
X25.698 Y27.297 Z-9.269
G2 X25.875 Y27.034 Z-9.98 I-0.122 J-0.274 F250
G1 Y26.667
G2 X25.576 Y26.001 I-0.938 J0.02
X23.533 Y25.251 I-1.817 J1.791
X22.372 Y25.741 I-0.041 J1.523
G1 X22.239 Y25.966
X22.154 Y26.211
X22.125 Y26.469
Y26.832
G2 X22.302 Y27.095 Z-9.269 I0.3 J-0.01
G1 X22.367 Y27.116 Z-9.125 F1000
X22.435 Y27.121 Z-8.98
X22.441
X25.565 Y26.957
X25.591 Y26.956 Z-9.035
X25.645 Y26.948 Z-9.152
X25.698 Y26.93 Z-9.269
G2 X25.875 Y26.667 Z-9.98 I-0.122 J-0.274 F250
G1 Y26.331
G2 X25.374 Y25.452 I-1.117 J0.055
X22.789 Y25.048 I-1.647 J2.06
X22.124 Y26.107 I0.526 J1.068
G1 X22.125 Y26.469
G2 X22.302 Y26.732 Z-9.269 I0.3 J-0.01
G1 X22.367 Y26.753 Z-9.125 F1000
X22.435 Y26.758 Z-8.98
X22.438
X25.565 Y26.621
X25.588 Y26.62 Z-9.03
X25.644 Y26.612 Z-9.15
X25.698 Y26.594 Z-9.269
G2 X25.875 Y26.331 Z-9.98 I-0.122 J-0.274 F250
G1 Y25.967
G2 X25.486 Y25.187 I-1.037 J0.03
X22.789 Y24.686 I-1.757 J1.948
X22.124 Y25.744 I0.523 J1.066
G1 X22.125 Y26.107
G2 X22.302 Y26.37 Z-9.269 I0.3 J-0.01
G1 X22.367 Y26.391 Z-9.125 F1000
X22.435 Y26.396 Z-8.98
X22.438
X25.565 Y26.257
X25.588 Y26.256 Z-9.03
X25.644 Y26.248 Z-9.15
X25.698 Y26.23 Z-9.269
G2 X25.875 Y25.967 Z-9.98 I-0.122 J-0.274 F250
G1 Y25.6
G2 X25.483 Y24.822 I-1.038 J0.034
X22.787 Y24.325 I-1.753 J1.95
X22.124 Y25.382 I0.525 J1.065
G1 X22.125 Y25.744
G2 X22.302 Y26.008 Z-9.269 I0.3 J-0.01
G1 X22.367 Y26.028 Z-9.125 F1000
X22.435 Y26.034 Z-8.98
X22.439
X25.565 Y25.89
X25.589 Y25.889 Z-9.031
X25.644 Y25.882 Z-9.15
X25.698 Y25.864 Z-9.269
G2 X25.875 Y25.6 Z-9.98 I-0.122 J-0.274 F250
G1 Y25.233
G2 X25.481 Y24.456 I-1.037 J0.038
X22.785 Y23.963 I-1.75 J1.953
X22.124 Y25.019 I0.528 J1.064
G1 X22.125 Y25.382
G2 X22.302 Y25.645 Z-9.269 I0.3 J-0.01
G1 X22.367 Y25.666 Z-9.125 F1000
X22.435 Y25.671 Z-8.98
X22.439
X25.565 Y25.524
X25.589 Y25.523 Z-9.032
X25.645 Y25.515 Z-9.151
X25.698 Y25.497 Z-9.269
G2 X25.875 Y25.233 Z-9.98 I-0.122 J-0.274 F250
G1 Y24.867
G2 X25.478 Y24.091 I-1.036 J0.041
X22.782 Y23.601 I-1.748 J1.956
X22.124 Y24.656 I0.53 J1.063
G1 X22.125 Y25.019
G2 X22.302 Y25.283 Z-9.269 I0.3 J-0.01
G1 X22.367 Y25.303 Z-9.125 F1000
X22.435 Y25.308 Z-8.98
X22.439
X25.565 Y25.157
X25.59 Y25.156 Z-9.033
X25.645 Y25.148 Z-9.151
X25.698 Y25.13 Z-9.269
G2 X25.875 Y24.867 Z-9.98 I-0.122 J-0.274 F250
G1 Y24.5
G2 X25.475 Y23.726 I-1.035 J0.044
X22.781 Y23.239 I-1.745 J1.96
X22.124 Y24.293 I0.532 J1.062
G1 X22.125 Y24.656
G2 X22.302 Y24.92 Z-9.269 I0.3 J-0.01
G1 X22.367 Y24.94 Z-9.125 F1000
X22.435 Y24.946 Z-8.98
X22.44 Y24.945
X25.565 Y24.79
X25.59 Y24.789 Z-9.033
X25.645 Y24.781 Z-9.151
X25.698 Y24.763 Z-9.269
G2 X25.875 Y24.5 Z-9.98 I-0.122 J-0.274 F250
G1 Y24.133
G2 X25.579 Y23.466 I-0.941 J0.018
X23.537 Y22.712 I-1.819 J1.784
X22.373 Y23.202 I-0.043 J1.526
G1 X22.24 Y23.426
X22.154 Y23.672
X22.125 Y23.931
Y24.293
G2 X22.302 Y24.557 Z-9.269 I0.3 J-0.01
G1 X22.367 Y24.577 Z-9.125 F1000
X22.435 Y24.583 Z-8.98
X22.44
X25.565 Y24.424
X25.59 Y24.422 Z-9.034
X25.645 Y24.414 Z-9.152
X25.698 Y24.397 Z-9.269
G2 X25.875 Y24.133 Z-9.98 I-0.122 J-0.274 F250
G1 Y23.767
G2 X25.577 Y23.1 I-0.938 J0.02
X23.534 Y22.35 I-1.817 J1.79
X22.372 Y22.84 I-0.042 J1.523
G1 X22.239 Y23.064
X22.154 Y23.31
X22.125 Y23.568
Y23.931
G2 X22.302 Y24.194 Z-9.269 I0.3 J-0.01
G1 X22.367 Y24.215 Z-9.125 F1000
X22.435 Y24.22 Z-8.98
X22.44
X25.565 Y24.057
X25.591 Y24.056 Z-9.035
X25.645 Y24.048 Z-9.152
X25.698 Y24.03 Z-9.269
G2 X25.875 Y23.767 Z-9.98 I-0.122 J-0.274 F250
G1 Y23.4
G2 X25.575 Y22.735 I-0.936 J0.022
X23.53 Y21.987 I-1.816 J1.795
X22.371 Y22.477 I-0.04 J1.52
G1 X22.239 Y22.702
X22.154 Y22.947
X22.125 Y23.205
Y23.568
G2 X22.302 Y23.831 Z-9.269 I0.3 J-0.01
G1 X22.367 Y23.852 Z-9.125 F1000
X22.435 Y23.857 Z-8.98
X22.441
X25.565 Y23.69
X25.591 Y23.689 Z-9.036
X25.646 Y23.681 Z-9.153
X25.698 Y23.663 Z-9.269
G2 X25.875 Y23.4 Z-9.98 I-0.122 J-0.274 F250
G1 Y23.033
G2 X25.573 Y22.369 I-0.934 J0.024
X23.527 Y21.624 I-1.814 J1.801
X22.37 Y22.115 I-0.038 J1.517
G1 X22.239 Y22.34
X22.154 Y22.584
X22.125 Y22.842
Y23.205
G2 X22.302 Y23.468 Z-9.269 I0.3 J-0.01
G1 X22.367 Y23.489 Z-9.125 F1000
X22.435 Y23.494 Z-8.98
X22.441
X25.565 Y23.324
X25.591 Y23.322 Z-9.036
X25.646 Y23.314 Z-9.153
X25.698 Y23.296 Z-9.269
G2 X25.875 Y23.033 Z-9.98 I-0.122 J-0.274 F250
G1 Y22.666
G2 X25.571 Y22.003 I-0.931 J0.026
X23.524 Y21.261 I-1.813 J1.807
X22.37 Y21.753 I-0.037 J1.514
G1 X22.238 Y21.977
X22.154 Y22.221
X22.125 Y22.478
Y22.842
G2 X22.302 Y23.105 Z-9.269 I0.3 J-0.01
G1 X22.367 Y23.125 Z-9.125 F1000
X22.435 Y23.131 Z-8.98
X22.441
X25.565 Y22.957
X25.592 Y22.955 Z-9.037
X25.646 Y22.947 Z-9.153
X25.698 Y22.93 Z-9.269
G2 X25.875 Y22.666 Z-9.98 I-0.122 J-0.274 F250
G1 Y22.34
G2 X25.375 Y21.462 I-1.116 J0.054
X22.789 Y21.057 I-1.648 J2.063
X22.124 Y22.116 I0.526 J1.069
G1 X22.125 Y22.478
G2 X22.302 Y22.742 Z-9.269 I0.3 J-0.01
G1 X22.367 Y22.762 Z-9.125 F1000
X22.435 Y22.768 Z-8.98
X22.438
X25.565 Y22.631
X25.588 Y22.63 Z-9.03
X25.644 Y22.622 Z-9.15
X25.698 Y22.604 Z-9.269
G2 X25.875 Y22.34 Z-9.98 I-0.122 J-0.274 F250
G1 Y21.974
G2 X25.484 Y21.195 I-1.036 J0.032
X22.787 Y20.697 I-1.755 J1.952
X22.124 Y21.754 I0.525 J1.066
G1 X22.125 Y22.116
G2 X22.302 Y22.38 Z-9.269 I0.3 J-0.01
G1 X22.367 Y22.4 Z-9.125 F1000
X22.435 Y22.406 Z-8.98
X22.438
X25.565 Y22.264
X25.589 Y22.263 Z-9.031
X25.644 Y22.255 Z-9.15
X25.698 Y22.237 Z-9.269
G2 X25.875 Y21.974 Z-9.98 I-0.122 J-0.274 F250
G1 Y21.607
G2 X25.481 Y20.83 I-1.037 J0.037
X22.785 Y20.335 I-1.752 J1.953
X22.124 Y21.391 I0.527 J1.065
G1 X22.125 Y21.754
G2 X22.302 Y22.017 Z-9.269 I0.3 J-0.01
G1 X22.367 Y22.038 Z-9.125 F1000
X22.435 Y22.043 Z-8.98
X22.439
X25.565 Y21.897
X25.589 Y21.896 Z-9.031
X25.645 Y21.888 Z-9.15
X25.698 Y21.87 Z-9.269
G2 X25.875 Y21.607 Z-9.98 I-0.122 J-0.274 F250
G1 Y21.24
G2 X25.479 Y20.464 I-1.036 J0.04
X22.783 Y19.973 I-1.749 J1.956
X22.124 Y21.029 I0.529 J1.064
G1 X22.125 Y21.391
G2 X22.302 Y21.655 Z-9.269 I0.3 J-0.01
G1 X22.367 Y21.675 Z-9.125 F1000
X22.435 Y21.681 Z-8.98
X22.439
X25.565 Y21.531
X25.59 Y21.529 Z-9.032
X25.645 Y21.522 Z-9.151
X25.698 Y21.504 Z-9.269
G2 X25.875 Y21.24 Z-9.98 I-0.122 J-0.274 F250
G1 Y20.88
G2 X25.48 Y20.103 I-1.036 J0.038
X22.784 Y19.61 I-1.75 J1.955
X22.124 Y20.666 I0.528 J1.064
G1 X22.125 Y21.029
G2 X22.302 Y21.292 Z-9.269 I0.3 J-0.01
G1 X22.367 Y21.313 Z-9.125 F1000
X22.435 Y21.318 Z-8.98
X22.439
X25.565 Y21.17
X25.589 Y21.169 Z-9.032
X25.645 Y21.161 Z-9.151
X25.698 Y21.143 Z-9.269
G2 X25.875 Y20.88 Z-9.98 I-0.122 J-0.274 F250
G1 Y20.513
G2 X25.477 Y19.738 I-1.036 J0.042
X22.782 Y19.248 I-1.747 J1.958
X22.124 Y20.303 I0.53 J1.063
G1 X22.125 Y20.666
G2 X22.302 Y20.929 Z-9.269 I0.3 J-0.01
G1 X22.367 Y20.95 Z-9.125 F1000
X22.435 Y20.955 Z-8.98
X22.439
X25.565 Y20.803
X25.59 Y20.802 Z-9.033
X25.645 Y20.794 Z-9.151
X25.698 Y20.776 Z-9.269
G2 X25.875 Y20.513 Z-9.98 I-0.122 J-0.274 F250
G1 Y20.146
G2 X25.475 Y19.372 I-1.035 J0.045
X22.78 Y18.887 I-1.745 J1.961
X22.124 Y19.94 I0.533 J1.062
G1 X22.125 Y20.303
G2 X22.302 Y20.567 Z-9.269 I0.3 J-0.01
G1 X22.367 Y20.587 Z-9.125 F1000
X22.435 Y20.593 Z-8.98
X22.44 Y20.592
X25.565 Y20.437
X25.59 Y20.435 Z-9.033
X25.645 Y20.427 Z-9.151
X25.698 Y20.41 Z-9.269
G2 X25.875 Y20.146 Z-9.98 I-0.122 J-0.274 F250
G1 Y19.779
G2 X25.578 Y19.112 I-0.94 J0.019
X23.536 Y18.359 I-1.818 J1.786
X22.373 Y18.849 I-0.043 J1.525
G1 X22.239 Y19.074
X22.154 Y19.319
X22.125 Y19.578
Y19.94
G2 X22.302 Y20.204 Z-9.269 I0.3 J-0.01
G1 X22.367 Y20.224 Z-9.125 F1000
X22.435 Y20.23 Z-8.98
X22.44
X25.565 Y20.07
X25.591 Y20.068 Z-9.034
X25.645 Y20.061 Z-9.152
X25.698 Y20.043 Z-9.269
G2 X25.875 Y19.779 Z-9.98 I-0.122 J-0.274 F250
G1 Y19.413
G2 X25.576 Y18.747 I-0.938 J0.021
X23.533 Y17.997 I-1.817 J1.791
X22.372 Y18.487 I-0.041 J1.522
G1 X22.239 Y18.711
X22.154 Y18.957
X22.125 Y19.215
Y19.578
G2 X22.302 Y19.841 Z-9.269 I0.3 J-0.01
G1 X22.367 Y19.862 Z-9.125 F1000
X22.435 Y19.867 Z-8.98
X22.441
X25.565 Y19.703
X25.591 Y19.702 Z-9.035
X25.645 Y19.694 Z-9.152
X25.698 Y19.676 Z-9.269
G2 X25.875 Y19.413 Z-9.98 I-0.122 J-0.274 F250
G1 Y19.046
G2 X25.574 Y18.381 I-0.935 J0.023
X23.529 Y17.634 I-1.815 J1.797
X22.371 Y18.125 I-0.04 J1.519
G1 X22.239 Y18.349
X22.154 Y18.594
X22.125 Y18.852
Y19.215
G2 X22.302 Y19.478 Z-9.269 I0.3 J-0.01
G1 X22.367 Y19.499 Z-9.125 F1000
X22.435 Y19.504 Z-8.98
X22.441
X25.565 Y19.336
X25.591 Y19.335 Z-9.036
X25.646 Y19.327 Z-9.153
X25.698 Y19.309 Z-9.269
G2 X25.875 Y19.046 Z-9.98 I-0.122 J-0.274 F250
G1 Y18.714
G2 X25.375 Y17.836 I-1.117 J0.055
X22.79 Y17.43 I-1.648 J2.061
X22.124 Y18.489 I0.525 J1.069
G1 X22.125 Y18.852
G2 X22.302 Y19.115 Z-9.269 I0.3 J-0.01
G1 X22.367 Y19.136 Z-9.125 F1000
X22.435 Y19.141 Z-8.98
X22.438
X25.565 Y19.004
X25.588 Y19.003 Z-9.03
X25.644 Y18.995 Z-9.149
X25.698 Y18.977 Z-9.269
G2 X25.875 Y18.714 Z-9.98 I-0.122 J-0.274 F250
G1 Y18.347
G2 X25.484 Y17.568 I-1.037 J0.032
X22.788 Y17.07 I-1.755 J1.95
X22.124 Y18.127 I0.524 J1.066
G1 X22.125 Y18.489
G2 X22.302 Y18.753 Z-9.269 I0.3 J-0.01
G1 X22.367 Y18.773 Z-9.125 F1000
X22.435 Y18.779 Z-8.98
X22.438
X25.565 Y18.638
X25.589 Y18.636 Z-9.03
X25.644 Y18.629 Z-9.15
X25.698 Y18.611 Z-9.269
G2 X25.875 Y18.347 Z-9.98 I-0.122 J-0.274 F250
G1 Y17.981
G2 X25.482 Y17.203 I-1.037 J0.036
X22.785 Y16.708 I-1.752 J1.952
X22.124 Y17.764 I0.527 J1.065
G1 X22.125 Y18.127
G2 X22.302 Y18.39 Z-9.269 I0.3 J-0.01
G1 X22.367 Y18.411 Z-9.125 F1000
X22.435 Y18.416 Z-8.98
X22.439
X25.565 Y18.271
X25.589 Y18.27 Z-9.031
X25.645 Y18.262 Z-9.15
X25.698 Y18.244 Z-9.269
G2 X25.875 Y17.981 Z-9.98 I-0.122 J-0.274 F250
G1 Y17.614
G2 X25.479 Y16.838 I-1.037 J0.04
X22.783 Y16.346 I-1.749 J1.955
X22.124 Y17.402 I0.529 J1.064
G1 X22.125 Y17.764
G2 X22.302 Y18.028 Z-9.269 I0.3 J-0.01
G1 X22.367 Y18.048 Z-9.125 F1000
X22.435 Y18.054 Z-8.98
X22.439
X25.565 Y17.904
X25.59 Y17.903 Z-9.032
X25.645 Y17.895 Z-9.151
X25.698 Y17.877 Z-9.269
G2 X25.875 Y17.614 Z-9.98 I-0.122 J-0.274 F250
G1 Y17.247
G2 X25.476 Y16.472 I-1.036 J0.043
X22.781 Y15.984 I-1.746 J1.959
X22.124 Y17.039 I0.531 J1.063
G1 X22.125 Y17.402
G2 X22.302 Y17.665 Z-9.269 I0.3 J-0.01
G1 X22.367 Y17.686 Z-9.125 F1000
X22.435 Y17.691 Z-8.98
X22.44
X25.565 Y17.537
X25.59 Y17.536 Z-9.033
X25.645 Y17.528 Z-9.151
X25.698 Y17.51 Z-9.269
G2 X25.875 Y17.247 Z-9.98 I-0.122 J-0.274 F250
G1 Y16.88
G2 X25.474 Y16.107 I-1.035 J0.046
X22.779 Y15.622 I-1.744 J1.962
X22.124 Y16.676 I0.533 J1.062
G1 X22.125 Y17.039
G2 X22.302 Y17.302 Z-9.269 I0.3 J-0.01
G1 X22.367 Y17.323 Z-9.125 F1000
X22.435 Y17.328 Z-8.98
X22.44
X25.565 Y17.171
X25.59 Y17.17 Z-9.034
X25.645 Y17.162 Z-9.152
X25.698 Y17.144 Z-9.269
G2 X25.875 Y16.88 Z-9.98 I-0.122 J-0.274 F250
G1 Y16.514
G2 X25.578 Y15.847 I-0.939 J0.019
X23.535 Y15.095 I-1.818 J1.788
X22.372 Y15.585 I-0.042 J1.524
G1 X22.239 Y15.809
X22.154 Y16.055
X22.125 Y16.313
Y16.676
G2 X22.302 Y16.939 Z-9.269 I0.3 J-0.01
G1 X22.367 Y16.96 Z-9.125 F1000
X22.435 Y16.965 Z-8.98
X22.44
X25.565 Y16.804
X25.591 Y16.803 Z-9.035
X25.645 Y16.795 Z-9.152
X25.698 Y16.777 Z-9.269
G2 X25.875 Y16.514 Z-9.98 I-0.122 J-0.274 F250
G1 Y16.147
G2 X25.575 Y15.481 I-0.937 J0.022
X23.532 Y14.732 I-1.816 J1.793
X22.372 Y15.223 I-0.041 J1.521
G1 X22.239 Y15.447
X22.154 Y15.692
X22.125 Y15.95
Y16.313
G2 X22.302 Y16.577 Z-9.269 I0.3 J-0.01
G1 X22.367 Y16.597 Z-9.125 F1000
X22.435 Y16.602 Z-8.98
X22.441
X25.565 Y16.437
X25.591 Y16.436 Z-9.035
X25.645 Y16.428 Z-9.152
X25.698 Y16.41 Z-9.269
G2 X25.875 Y16.147 Z-9.98 I-0.122 J-0.274 F250
G1 Y15.78
G2 X25.573 Y15.116 I-0.935 J0.024
X23.528 Y14.37 I-1.815 J1.799
X22.371 Y14.861 I-0.039 J1.518
G1 X22.239 Y15.085
X22.154 Y15.33
X22.125 Y15.587
Y15.95
G2 X22.302 Y16.214 Z-9.269 I0.3 J-0.01
G1 X22.367 Y16.234 Z-9.125 F1000
X22.435 Y16.24 Z-8.98
X22.441 Y16.239
X25.565 Y16.071
X25.591 Y16.069 Z-9.036
X25.646 Y16.061 Z-9.153
X25.698 Y16.044 Z-9.269
G2 X25.875 Y15.78 Z-9.98 I-0.122 J-0.274 F250
G1 Y15.413
G2 X25.571 Y14.75 I-0.932 J0.026
X23.525 Y14.007 I-1.814 J1.804
X22.37 Y14.498 I-0.037 J1.515
G1 X22.238 Y14.722
X22.154 Y14.967
X22.125 Y15.224
Y15.587
G2 X22.302 Y15.851 Z-9.269 I0.3 J-0.01
G1 X22.367 Y15.871 Z-9.125 F1000
X22.435 Y15.876 Z-8.98
X22.441
X25.565 Y15.704
X25.592 Y15.703 Z-9.037
X25.646 Y15.695 Z-9.153
X25.698 Y15.677 Z-9.269
G2 X25.875 Y15.413 Z-9.98 I-0.122 J-0.274 F250
G1 Y15.047
G2 X25.569 Y14.385 I-0.93 J0.028
X23.522 Y13.644 I-1.812 J1.81
X22.369 Y14.136 I-0.036 J1.512
G1 X22.238 Y14.36
X22.154 Y14.604
X22.125 Y14.861
Y15.224
G2 X22.302 Y15.487 Z-9.269 I0.3 J-0.01
G1 X22.367 Y15.508 Z-9.125 F1000
X22.435 Y15.513 Z-8.98
X22.442
X25.565 Y15.337
X25.592 Y15.336 Z-9.038
X25.646 Y15.328 Z-9.154
X25.698 Y15.31 Z-9.269
G2 X25.875 Y15.047 Z-9.98 I-0.122 J-0.274 F250
G1 Y14.68
G2 X25.567 Y14.019 I-0.927 J0.029
X23.519 Y13.281 I-1.811 J1.815
X22.369 Y13.774 I-0.034 J1.509
G1 X22.238 Y13.997
X22.154 Y14.241
X22.125 Y14.498
Y14.861
G2 X22.302 Y15.124 Z-9.269 I0.3 J-0.01
G1 X22.367 Y15.145 Z-9.125 F1000
X22.435 Y15.15 Z-8.98
X22.442
X25.565 Y14.971
X25.592 Y14.969 Z-9.038
X25.646 Y14.961 Z-9.154
X25.698 Y14.943 Z-9.269
G2 X25.875 Y14.68 Z-9.98 I-0.122 J-0.274 F250
G1 Y14.313
G2 X25.565 Y13.653 I-0.925 J0.031
X23.516 Y12.918 I-1.809 J1.821
X22.368 Y13.411 I-0.032 J1.506
G1 X22.237 Y13.635
X22.153 Y13.878
X22.125 Y14.134
Y14.498
G2 X22.302 Y14.761 Z-9.269 I0.3 J-0.01
G1 X22.367 Y14.782 Z-9.125 F1000
X22.435 Y14.787 Z-8.98
X22.442
X25.565 Y14.604
X25.593 Y14.602 Z-9.039
X25.646 Y14.594 Z-9.154
X25.698 Y14.577 Z-9.269
G2 X25.875 Y14.313 Z-9.98 I-0.122 J-0.274 F250
G1 Y13.947
G2 X25.664 Y13.399 I-0.851 J0.014
X23.662 Y12.551 I-1.877 J1.646
X22.548 Y12.865 I-0.103 J1.77
X22.124 Y13.771 I0.781 J0.918
G1 X22.125 Y14.134
G2 X22.302 Y14.398 Z-9.269 I0.3 J-0.01
G1 X22.367 Y14.418 Z-9.125 F1000
X22.435 Y14.424 Z-8.98
X22.443 Y14.423
X25.565 Y14.237
X25.593 Y14.236 Z-9.04
X25.646 Y14.227 Z-9.155
X25.698 Y14.21 Z-9.269
G2 X25.875 Y13.947 Z-9.98 I-0.122 J-0.274 F250
G1 Y13.63
G2 X25.486 Y12.85 I-1.034 J0.029
X22.788 Y12.351 I-1.757 J1.961
X22.124 Y13.409 I0.524 J1.066
G1 X22.125 Y13.771
G2 X22.302 Y14.034 Z-9.269 I0.3 J-0.01
G1 X22.367 Y14.055 Z-9.125 F1000
X22.435 Y14.06 Z-8.98
X22.438
X25.565 Y13.92
X25.589 Y13.919 Z-9.03
X25.644 Y13.911 Z-9.15
X25.698 Y13.893 Z-9.269
G2 X25.875 Y13.63 Z-9.98 I-0.122 J-0.274 F250
G1 Y13.263
G2 X25.483 Y12.483 I-1.065 J0.047
X22.785 Y11.99 I-1.755 J1.971
X22.124 Y13.047 I0.529 J1.066
G1 X22.125 Y13.409
G2 X22.302 Y13.672 Z-9.269 I0.3 J-0.01
G1 X22.367 Y13.693 Z-9.125 F1000
X22.435 Y13.698 Z-8.98
X22.439
X25.565 Y13.553
X25.589 Y13.552 Z-9.031
X25.645 Y13.544 Z-9.15
X25.698 Y13.526 Z-9.269
G2 X25.875 Y13.263 Z-9.98 I-0.122 J-0.274 F250
G1 Y12.896
G2 X25.479 Y12.12 I-1.036 J0.039
X22.783 Y11.629 I-1.75 J1.957
X22.124 Y12.684 I0.529 J1.064
G1 X22.125 Y13.047
G2 X22.302 Y13.31 Z-9.269 I0.3 J-0.01
G1 X22.367 Y13.331 Z-9.125 F1000
X22.435 Y13.336 Z-8.98
X22.439
X25.565 Y13.187
X25.589 Y13.185 Z-9.032
X25.645 Y13.178 Z-9.151
X25.698 Y13.16 Z-9.269
G2 X25.875 Y12.896 Z-9.98 I-0.122 J-0.274 F250
G1 Y12.543
G2 X25.485 Y11.763 I-1.037 J0.032
X22.788 Y11.264 I-1.756 J1.95
X22.124 Y12.322 I0.524 J1.066
G1 X22.125 Y12.684
G2 X22.302 Y12.948 Z-9.269 I0.3 J-0.01
G1 X22.367 Y12.968 Z-9.125 F1000
