(bigperpconnectorpart2)
(Machine)
(  vendor: Autodesk)
(  description: Generic 3-axis)
(T2  D=3 CR=1.5 - ZMIN=-17 - ball end mill)
G90 G94
G17
G21
G28 G91 Z0
G90

(Adaptive1 3)
T2
S18000 M3
G54
G0 X36.981 Y24.256
Z2.01
Z-1.385
G1 Z-1.685 F550
X36.987 Y24.26 Z-1.752
X37.006 Y24.271 Z-1.816
X37.037 Y24.29 Z-1.872
X37.078 Y24.314 Z-1.92
X37.126 Y24.343 Z-1.956
X37.181 Y24.376 Z-1.978
X37.238 Y24.41 Z-1.985
G2 X38.82 Y24.879 I1.707 J-2.853
G1 X38.854
X38.879 Y24.878
G2 X39.418 Y23.783 I-1.331 J-1.336
X39.346 Y21.556 I-4.221 J-0.977
X38.668 Y21.129 I-0.679 J0.327
X38.405 Y21.307 Z-1.275 I0.01 J0.3
G1 X38.384 Y21.371 Z-1.13 F1000
X38.379 Y21.439 Z-0.985
Y21.447
X38.564 Y24.569
X38.565 Y24.597 Z-1.046
X38.573 Y24.65 Z-1.161
X38.591 Y24.701 Z-1.275
G2 X38.854 Y24.879 Z-1.985 I0.274 J-0.122 F550
G1 X38.996 Y24.88
X39.046 Y24.877
G2 X39.673 Y24.067 I-0.727 J-1.211
X39.764 Y21.655 I-3.428 J-1.336
G1 X39.707 Y21.557
G2 X39.033 Y21.13 I-0.677 J0.323
X38.769 Y21.307 Z-1.275 I0.01 J0.3
G1 X38.749 Y21.365 Z-1.144 F1000
X38.742 Y21.426 Z-1.013
Y21.439 Z-0.985
X38.707 Y24.569
Y24.577 Z-1.002
X38.713 Y24.641 Z-1.138
X38.733 Y24.702 Z-1.275
G2 X38.996 Y24.88 Z-1.985 I0.274 J-0.122 F550
G1 X39.187
G2 X39.639 Y24.63 I-0.078 J-0.673
X40.271 Y23.094 I-1.906 J-1.684
X40.032 Y21.459 I-2.547 J-0.462
X39.4 Y21.129 I-0.639 J0.452
G1 X39.334 Y21.139 Z-1.843
X39.272 Y21.163 Z-1.701
X39.217 Y21.201 Z-1.559
X39.171 Y21.25 Z-1.417
X39.138 Y21.308 Z-1.275
X39.121 Y21.357 Z-1.164 F1000
X39.113 Y21.409 Z-1.054
X39.111 Y21.441 Z-0.985
X38.899 Y24.56
X38.898 Y24.569
X38.904 Y24.637 Z-1.13
X38.924 Y24.702 Z-1.275
G2 X39.187 Y24.88 Z-1.985 I0.274 J-0.122 F550
G1 X39.419 Y24.879
G2 X39.913 Y24.662 I-0.027 J-0.733
X40.628 Y23.212 I-1.663 J-1.722
X40.405 Y21.451 I-2.565 J-0.569
X39.779 Y21.127 I-0.637 J0.464
G1 X39.713 Y21.137 Z-1.843
X39.651 Y21.162 Z-1.701
X39.595 Y21.199 Z-1.559
X39.55 Y21.248 Z-1.417
X39.516 Y21.306 Z-1.275
X39.501 Y21.349 Z-1.178 F1000
X39.492 Y21.393 Z-1.081
X39.487 Y21.438 Z-0.985
X39.129 Y24.545
X39.128 Y24.558
Y24.571
X39.133 Y24.638 Z-1.13
X39.154 Y24.703 Z-1.275
G2 X39.419 Y24.879 Z-1.985 I0.273 J-0.124 F550
G1 X39.707 Y24.878
G2 X40.232 Y24.669 I-0.006 J-0.78
X41.016 Y23.096 I-1.631 J-1.795
X40.788 Y21.465 I-2.484 J-0.484
X40.158 Y21.128 I-0.643 J0.445
G1 X39.779
G2 X39.516 Y21.306 Z-1.275 I0.011 J0.3
G1 X39.497 Y21.362 Z-1.149 F1000
X39.49 Y21.421 Z-1.023
Y21.438 Z-0.985
X39.418 Y24.569
X39.417 Y24.571 Z-0.991
X39.423 Y24.638 Z-1.133
X39.444 Y24.701 Z-1.275
G2 X39.707 Y24.878 Z-1.985 I0.274 J-0.123 F550
G1 X40.01
G2 X40.774 Y24.476 I-0.034 J-0.993
X41.423 Y22.533 I-2.094 J-1.778
X41.167 Y21.481 I-2.111 J-0.044
X40.527 Y21.128 I-0.643 J0.41
G1 X40.158 Y21.129
G2 X39.894 Y21.305 Z-1.275 I0.009 J0.3
G1 X39.876 Y21.359 Z-1.155 F1000
X39.868 Y21.415 Z-1.034
X39.867 Y21.438 Z-0.985
X39.722 Y24.564
X39.721 Y24.567
X39.727 Y24.635 Z-1.13
X39.747 Y24.7 Z-1.275
G2 X40.01 Y24.878 Z-1.985 I0.274 J-0.121 F550
G1 X40.349 Y24.879
G2 X41.073 Y24.536 I-0.028 J-0.996
X41.794 Y22.621 I-1.957 J-1.829
X41.526 Y21.458 I-2.141 J-0.12
X40.904 Y21.128 I-0.627 J0.431
G1 X40.527 Y21.129
G2 X40.264 Y21.306 Z-1.275 I0.011 J0.3
G1 X40.246 Y21.358 Z-1.16 F1000
X40.238 Y21.411 Z-1.044
X40.237 Y21.439 Z-0.985
X40.059 Y24.562
Y24.569
X40.064 Y24.637 Z-1.13
X40.085 Y24.702 Z-1.275
G2 X40.349 Y24.879 Z-1.985 I0.274 J-0.123 F550
G1 X40.716 Y24.878
G2 X41.483 Y24.482 I-0.046 J-1.032
X42.159 Y22.402 I-2.066 J-1.82
X41.87 Y21.434 I-1.752 J-0.004
G1 X41.711 Y21.301
X41.526 Y21.212
G2 X41.221 Y21.301 Z-1.275 I-0.082 J0.289
G1 X41.182 Y21.356 Z-1.13 F1000
X41.156 Y21.419 Z-0.985
X41.152 Y21.433
X40.434 Y24.51
X40.426 Y24.568
X40.432 Y24.636 Z-1.13
X40.452 Y24.701 Z-1.275
G2 X40.716 Y24.878 Z-1.985 I0.274 J-0.122 F550
G1 X41.021 Y24.879
X41.132 Y24.867
G2 X42.035 Y24.244 I-0.21 J-1.269
X42.43 Y21.834 I-2.327 J-1.62
G1 X42.358 Y21.73
X42.278 Y21.635
G2 X41.966 Y21.574 Z-1.275 I-0.204 J0.22
G1 X41.905 Y21.606 Z-1.13 F1000
X41.854 Y21.65 Z-0.985
X41.817 Y21.699
X41.791 Y21.754
X40.828 Y24.467
X40.814 Y24.527
X40.812 Y24.589
X40.824 Y24.656 Z-1.13
X40.852 Y24.718 Z-1.275
G2 X41.132 Y24.867 Z-1.985 I0.259 J-0.151 F550
X41.944 Y24.615 I-0.022 J-1.503
X42.799 Y23.339 I-1.09 J-1.656
X42.878 Y22.827 I-1.161 J-0.442
G1 X42.861 Y22.762 Z-1.843
X42.83 Y22.702 Z-1.701
X42.787 Y22.651 Z-1.559
X42.734 Y22.611 Z-1.417
X42.673 Y22.584 Z-1.275
X42.606 Y22.571 Z-1.13 F1000
X42.538 Y22.573 Z-0.985
G2 X42.315 Y22.73 I0.043 J0.297
G1 X41.539 Y24.209
G2 X41.539 Y24.488 I0.266 J0.139
G1 X41.577 Y24.545 Z-1.13
X41.627 Y24.591 Z-1.275
G2 X41.944 Y24.614 Z-1.985 I0.177 J-0.242 F550
G1 X42.122 Y24.513
X42.186 Y24.467
X42.489 Y24.163
X42.533 Y24.1
X42.741 Y23.734
X42.856 Y23.386
X42.896 Y23
X42.856 Y22.629
X42.738 Y22.267
X42.527 Y21.9
X42.489 Y21.846
X42.176 Y21.533
X42.122 Y21.496
X41.755 Y21.286
X41.388 Y21.168
X41.021 Y21.129
X40.904
Y21.091
X40.782 Y21.004
X40.645 Y20.942
X40.265 Y20.806
X39.922 Y20.592
X39.322 Y20.051
X38.902 Y19.36
G3 X37.694 Y15.51 I18.843 J-8.026
X37.209 Y12.316 I24.873 J-5.414
G1 X37.182 Y11.508
X37.172 Y10.7
X37.166 Y9.892
X37.141 Y4.234
X37.138 Y3.426
G2 X37.294 Y2.17 I-18.974 J-2.999
X36.543 Y1.401 I-0.754 J-0.016
G1 X36.313 Y1.508 Z-1.447
X36.308 Y1.589 Z-1.275
X36.299 Y1.725 Z-0.985 F1000
X36.033 Y5.835
X34.126 Y41.818
G2 X36.067 Y44.462 I2.492 J0.205
G1 X36.161 Y44.485
X36.293 Y44.518 Z-1.275
X36.618 Y44.599 Z-1.985 F550
X36.732
X36.833 Y44.594
X36.962 Y44.518
X37.04 Y44.39
X37.072 Y44.243
G2 X37.129 Y41.67 I-43.959 J-2.271
G1 X37.163 Y35.204
G3 X38.124 Y28.831 I22.993 J0.209
G1 X38.343 Y28.053
X38.583 Y27.281
X38.705 Y26.896
X38.895 Y26.539
X39.166 Y26.239
X39.328 Y26.119
X40.015 Y25.693
X40.183 Y25.58
X40.936 Y25.288
G2 X43.162 Y23.567 I-0.086 J-2.411
X42.008 Y21.035 I-2.172 J-0.538
G1 X41.278 Y20.687
X40.544 Y20.35
X40.201 Y20.136
X39.672 Y19.525
X39.271 Y18.823
G3 X38.104 Y14.963 I16.022 J-6.951
X37.68 Y10.952 I18.856 J-4.023
G1 X37.67 Y10.171
X37.669 Y10.134
X37.666 Y10.098
X37.661 Y10.061
G3 X37.486 Y6.569 I22.151 J-2.86
X37.456 Y2.897 I547.804 J-6.303
G1 X37.473 Y2.714
X37.502 Y2.53
X37.52 Y2.447
G2 X37.404 Y1.692 I-0.882 J-0.252
G1 X37.236 Y1.537
X37.031 Y1.436
X36.805 Y1.401
G2 X36.542 Y1.578 Z-1.275 I0.01 J0.3
G1 X36.521 Y1.643 Z-1.13 F1000
X36.516 Y1.711 Z-0.985
X36.522 Y1.762
X36.537 Y1.812
X36.56 Y1.858
X36.973 Y2.53
X37.008 Y2.576
X37.051 Y2.615
X37.101 Y2.645
X37.155 Y2.664
X37.223 Y2.673 Z-1.13
X37.291 Y2.667 Z-1.275
G2 X37.52 Y2.447 Z-1.985 I-0.062 J-0.294 F550
G1 X37.534 Y2.379
X37.601 Y2.163
X37.614 Y2.133
X37.653 Y2.025
X37.66 Y1.875
G2 X37.066 Y1.401 I-0.594 J0.134
X36.76 Y1.52 Z-1.275 I0.017 J0.498
G1 X36.712 Y1.568 Z-1.13 F1000
X36.67 Y1.621 Z-0.985
X36.639 Y1.675
X36.614 Y1.733
X36.597 Y1.792
G2 X37.266 Y2.428 I0.527 J0.115
G1 X37.33 Y2.405 Z-1.13
X37.391 Y2.375 Z-1.275
G2 X37.614 Y2.133 Z-1.985 I-0.267 J-0.468 F550
G1 X37.678 Y1.98
X37.705 Y1.917
X37.718 Y1.889
X37.73 Y1.861
X37.746 Y1.816
X37.698 Y1.654
X37.595 Y1.52
X37.45 Y1.432
X37.284 Y1.401
G2 X37.02 Y1.578 Z-1.275 I0.011 J0.302
G1 X36.999 Y1.642 Z-1.13 F1000
X36.993 Y1.71 Z-0.985
Y1.715
G2 X37.348 Y2.084 I0.386 J-0.017
G1 X37.416 Y2.083 Z-1.13
X37.483 Y2.071 Z-1.275
G2 X37.73 Y1.861 Z-1.985 I-0.103 J-0.372 F550
G1 X37.757 Y1.796
X37.767 Y1.75
X37.769 Y1.704
X37.764 Y1.658
X37.752 Y1.612
X37.738 Y1.578
X37.718 Y1.543
X37.689 Y1.508
X37.651 Y1.472
X37.617 Y1.447
X37.583 Y1.429
X37.556 Y1.419
X37.222 Z-1.275
X37.085 Z-0.985 F1000
X11.864 Y1.401
X11.728 Z-1.275
X11.393 Z-1.985 F550
X11.255
X11.205 Y1.403
X11.135 Y1.431
X11.075 Y1.476
X10.98 Y1.592
X10.946 Y1.738
G2 X10.867 Y4.405 I25.854 J2.099
G1 X10.864 Y6.83
X10.868 Y42.392
G3 X10.714 Y43.705 I-11.661 J-0.709
G2 X11.023 Y44.462 I0.787 J0.12
G1 X11.231 Y44.564
X11.459 Y44.599
G2 X11.722 Y44.422 Z-1.275 I-0.01 J-0.3
G1 X11.742 Y44.361 Z-1.139 F1000
X11.748 Y44.298 Z-1.004
Y44.289 Z-0.985
X11.545 Y1.711
Y1.699 Z-1.01
X11.538 Y1.637 Z-1.142
X11.518 Y1.578 Z-1.275
G2 X11.255 Y1.401 Z-1.985 I-0.274 J0.122 F550
G1 X11.127
X11.037 Y1.405
X10.905 Y1.477
G2 X10.564 Y2.338 I1.542 J1.109
X10.526 Y2.714 I0.845 J0.276
G1 X10.543 Y2.779 Z-1.843
X10.574 Y2.838 Z-1.701
X10.617 Y2.889 Z-1.559
X10.67 Y2.93 Z-1.417
X10.731 Y2.957 Z-1.275
X10.798 Y2.971 Z-1.13 F1000
X10.866 Y2.969 Z-0.985
G2 X11.111 Y2.759 I-0.042 J-0.297
G1 X11.404 Y1.787
X11.413 Y1.749
X11.416 Y1.711
X11.411 Y1.643 Z-1.13
X11.391 Y1.578 Z-1.275
G2 X11.127 Y1.401 Z-1.985 I-0.274 J0.122 F550
G1 X10.944
X10.879 Y1.404
G2 X10.449 Y2.323 I0.29 J0.696
X10.646 Y2.587 Z-1.275 I0.513 J-0.178
G1 X10.703 Y2.623 Z-1.13 F1000
X10.765 Y2.651 Z-0.985
G2 X11.171 Y2.646 I0.196 J-0.507
X11.368 Y1.58 I-0.25 J-0.598
G1 X11.317 Y1.535 Z-1.13
X11.261 Y1.497 Z-1.275
G2 X10.944 Y1.401 Z-1.985 I-0.339 J0.552 F550
G1 X10.76
X10.684 Y1.405
G2 X10.386 Y2.127 I0.204 J0.507
X10.629 Y2.344 Z-1.275 I0.377 J-0.178
G1 X10.695 Y2.361 Z-1.13 F1000
X10.763 Y2.366 Z-0.985
X10.822 Y2.362
X10.88 Y2.349
G2 X11.153 Y1.626 I-0.136 J-0.465
G1 X11.113 Y1.571 Z-1.13
X11.065 Y1.523 Z-1.275
G2 X10.76 Y1.401 Z-1.985 I-0.321 J0.362 F550
G1 X10.577
X10.534 Y1.403
X10.5 Y1.405
X10.439 Y1.422
X10.392 Y1.451
X10.356 Y1.491
X10.332 Y1.541
X10.324 Y1.595
Y1.596
G2 X10.701 Y1.596 I0.188 J0
X10.607 Y1.432 I-0.188 J0
G1 X10.555 Y1.411
X10.5 Y1.405
X10.461 Y1.414
X10.422 Y1.429
X10.394 Y1.444
X10.366 Y1.462
X10.343 Y1.477
X10.315 Y1.503
X10.293 Y1.528
X10.266 Y1.57
X10.248 Y1.612
X10.236 Y1.658
X10.231 Y1.704
X10.233 Y1.75
X10.243 Y1.796
G3 X10.545 Y3.081 I-2.405 J1.244
G1 X10.546 Y10.975
Y42.736
G3 X10.486 Y43.526 I-3.319 J0.147
G2 X10.591 Y44.298 I0.888 J0.273
G1 X10.76 Y44.459
X10.967 Y44.563
X11.197 Y44.599
G2 X11.46 Y44.422 Z-1.275 I-0.01 J-0.3
G1 X11.481 Y44.357 Z-1.13 F1000
X11.486 Y44.289 Z-0.985
X11.48 Y44.24
X11.466 Y44.192
X11.445 Y44.147
X11.033 Y43.449
X10.998 Y43.402
X10.955 Y43.362
X10.905 Y43.331
X10.85 Y43.311
X10.783 Y43.302 Z-1.13
X10.715 Y43.307 Z-1.275
G2 X10.484 Y43.525 Z-1.985 I0.059 J0.294 F550
G1 X10.456 Y43.653
X10.394 Y43.854
X10.382 Y43.882
X10.344 Y43.983
X10.339 Y44.133
G2 X10.935 Y44.599 I0.596 J-0.148
X11.239 Y44.476 Z-1.275 I-0.017 J-0.479
G1 X11.286 Y44.427 Z-1.13 F1000
X11.326 Y44.372 Z-0.985
X11.354 Y44.32
X11.375 Y44.266
X11.39 Y44.209
G2 X10.733 Y43.592 I-0.525 J-0.099
G1 X10.669 Y43.613 Z-1.13
X10.607 Y43.642 Z-1.275
G2 X10.382 Y43.882 Z-1.985 I0.258 J0.468 F550
G1 X10.298 Y44.077
X10.281 Y44.115
X10.27 Y44.142
X10.254 Y44.184
X10.302 Y44.346
X10.405 Y44.48
X10.549 Y44.568
X10.715 Y44.599
G2 X11.001 Y44.289 I-0.01 J-0.297
X10.27 Y44.142 I-0.384 J0.017
G1 X10.243 Y44.204
X10.233 Y44.25
X10.231 Y44.296
X10.235 Y44.342
X10.248 Y44.388
X10.266 Y44.43
X10.293 Y44.472
X10.315 Y44.498
X10.343 Y44.523
X10.394 Y44.556
X10.423 Y44.571
X10.461 Y44.586
X10.76 Y44.47 Z-1.304
X10.766 Y44.457 Z-1.275
X10.817 Y44.331 Z-0.985 F1000
X11.395 Y42.919
X11.513 Y42.001 Z-2.971
X13.804 Y3.999
G2 X12.138 Y1.542 Z-3.777 I-2.498 J-0.1
X11.393 Y1.401 Z-3.971 I-0.832 J2.357 F550
G1 X11.255
X11.176 Y1.405
X11.11 Y1.44
X11.003 Y1.545
X10.957 Y1.688
G2 X10.868 Y4.144 I20.811 J1.983
G1 X10.864 Y4.952
X10.868 Y42.131
X10.85 Y42.939
G2 X10.706 Y43.852 I4.892 J1.242
X11.458 Y44.599 I0.755 J-0.008
X11.721 Y44.422 Z-3.26 I-0.01 J-0.3
G1 X11.741 Y44.361 Z-3.125 F1000
X11.747 Y44.298 Z-2.989
Y44.289 Z-2.971
X11.545 Y1.711
Y1.699 Z-2.995
X11.538 Y1.637 Z-3.128
X11.518 Y1.578 Z-3.26
G2 X11.255 Y1.401 Z-3.971 I-0.274 J0.122 F550
G1 X11.097
X11.04 Y1.404
X10.91 Y1.478
G2 X10.662 Y2.348 I0.751 J0.683
G1 X10.692 Y2.428 Z-3.793
X10.733 Y2.501 Z-3.615
X10.786 Y2.567 Z-3.438
X10.848 Y2.623 Z-3.26
X10.904 Y2.662 Z-3.115 F1000
X10.964 Y2.694 Z-2.971
G2 X11.486 Y2.632 I0.208 J-0.475
X11.526 Y1.572 I-0.413 J-0.547
G1 X11.472 Y1.529 Z-3.115
X11.415 Y1.492 Z-3.26
G2 X11.097 Y1.401 Z-3.971 I-0.342 J0.593 F550
G1 X10.944
X10.874 Y1.404
G2 X10.595 Y2.123 I0.271 J0.519
X10.828 Y2.349 Z-3.26 I0.369 J-0.149
G1 X10.894 Y2.367 Z-3.115 F1000
X10.962 Y2.373 Z-2.971
X11.018 Y2.369
X11.072 Y2.358
X11.124 Y2.339
G2 X11.338 Y1.624 I-0.198 J-0.448
G1 X11.297 Y1.57 Z-3.115
X11.249 Y1.522 Z-3.26
G2 X10.944 Y1.401 Z-3.971 I-0.322 J0.369 F550
G1 X10.8
X10.76
X10.728 Y1.402
X10.669 Y1.414
X10.656 Y1.438 Z-3.913
G2 X10.663 Y1.732 Z-3.26 I0.265 J0.141
G1 X10.704 Y1.786 Z-3.115 F1000
X10.756 Y1.83 Z-2.971
X11.182 Y2.108
G2 X11.604 Y2.011 I0.164 J-0.251
X11.489 Y1.593 I-0.258 J-0.154
X11.192 Y1.47 I-0.754 J1.391
G1 X11.06 Y1.436 Z-3.26
G2 X10.728 Y1.402 Z-3.971 I-0.325 J1.549 F550
G1 X10.695 Y1.407
X10.662 Y1.416
X10.629 Y1.429
X10.6 Y1.445
X10.556 Y1.474
X10.538 Y1.488
G2 X10.754 Y1.769 I0.113 J0.137
G1 X10.785 Y1.746
G2 X10.6 Y1.445 I-0.103 J-0.144
G1 X10.577 Y1.458
X10.536 Y1.489
X10.513 Y1.512
X10.495 Y1.535
X10.471 Y1.574
X10.455 Y1.612
X10.443 Y1.658
X10.438 Y1.704
X10.441 Y1.75
G3 X10.671 Y2.346 I-5.487 J2.461
X10.76 Y3.081 I-2.75 J0.705
G1 Y9.139
Y42.736
G3 X10.611 Y43.838 I-2.945 J0.165
G1 X10.569 Y43.968
X10.572 Y44.118
G2 X11.2 Y44.599 I0.628 J-0.169
X11.51 Y44.488 Z-3.26 I-0.019 J-0.54
G1 X11.561 Y44.443 Z-3.115 F1000
X11.607 Y44.392 Z-2.971
G2 X11.714 Y44.148 I-0.426 J-0.333
X10.935 Y43.515 I-0.57 J-0.095
G1 X10.873 Y43.543 Z-3.115
X10.815 Y43.579 Z-3.26
G2 X10.609 Y43.837 Z-3.971 I0.33 J0.474 F550
G1 X10.577 Y43.925
X10.533 Y44.021
X10.487 Y44.139
X10.527 Y44.316
X10.63 Y44.465
X10.782 Y44.564
X10.961 Y44.599
G2 X11.249 Y44.451 Z-3.26 I-0.013 J-0.38
G1 X11.285 Y44.394 Z-3.115 F1000
X11.311 Y44.331 Z-2.971
X11.317 Y44.308
G2 X10.915 Y43.789 I-0.409 J-0.098
G1 X10.847 Y43.794 Z-3.115
X10.781 Y43.809 Z-3.26
G2 X10.533 Y44.021 Z-3.971 I0.128 J0.401 F550
G1 X10.464 Y44.173
X10.45 Y44.204
X10.441 Y44.25
X10.438 Y44.296
X10.443 Y44.342
X10.455 Y44.388
X10.471 Y44.426
X10.495 Y44.465
X10.513 Y44.488
X10.536 Y44.511
X10.577 Y44.542
X10.629 Y44.571
X10.662 Y44.584
X10.695 Y44.593
X10.728 Y44.598
X10.76 Y44.599
X11.458
X11.492 Y44.597
X11.542 Y44.578 Z-3.966
X11.589 Y44.559 Z-3.951
X11.634 Y44.542 Z-3.928
X11.663 Y44.515 Z-3.9
X11.688 Y44.492 Z-3.867
X11.71 Y44.471 Z-3.823
X11.727 Y44.455 Z-3.775
X11.737 Y44.446 Z-3.724
X11.741 Y44.442 Z-3.671
G0 Z2.01
X15.251 Y2.019
Z-5.36
G1 Z-5.66 F550
X15.245 Y2.015 Z-5.727
X15.226 Y2.004 Z-5.79
X15.195 Y1.986 Z-5.847
X15.154 Y1.961 Z-5.895
X15.105 Y1.932 Z-5.93
X15.051 Y1.9 Z-5.952
X14.993 Y1.866 Z-5.96
G2 X13.41 Y1.401 I-1.699 J2.858
G1 X13.297
X13.247 Y1.403
X13.177 Y1.43
X13.063 Y1.527
X13.001 Y1.664
X12.967 Y1.81
G2 X12.85 Y4.303 I17.637 J2.079
G1 X12.846 Y5.111
X12.85 Y19.659
X12.855 Y42.29
X12.8 Y43.096
G2 X12.732 Y43.864 I4.511 J0.79
X13.483 Y44.599 I0.753 J-0.018
X13.746 Y44.422 Z-5.249 I-0.01 J-0.3
G1 X13.766 Y44.361 Z-5.114 F1000
X13.772 Y44.298 Z-4.979
Y44.289 Z-4.96
X13.587 Y1.711
Y1.699 Z-4.985
X13.58 Y1.637 Z-5.117
X13.561 Y1.578 Z-5.249
G2 X13.297 Y1.401 Z-5.96 I-0.274 J0.122 F550
G1 X13.144
X13.094 Y1.403
X12.96 Y1.47
G2 X12.579 Y2.303 I1.269 J1.082
X12.385 Y3.787 I7.307 J1.713
G1 X12.356 Y4.594
X12.349 Y5.403
X12.347 Y6.211
X12.348 Y11.868
X12.355 Y41.773
X12.329 Y42.581
G2 X12.33 Y43.829 I4.045 J0.619
X12.73 Y44.488 I1.031 J-0.175
G1 X12.923 Y44.57
X13.13 Y44.599
G2 X13.393 Y44.422 Z-5.249 I-0.01 J-0.3
G1 X13.413 Y44.362 Z-5.116 F1000
X13.419 Y44.299 Z-4.982
Y44.289 Z-4.96
X13.434 Y1.711
Y1.701 Z-4.982
X13.427 Y1.638 Z-5.116
X13.408 Y1.578 Z-5.249
G2 X13.144 Y1.401 Z-5.96 I-0.274 J0.122 F550
G1 X12.994
G2 X12.559 Y1.679 I0.047 J0.555
X12.055 Y2.998 I2.451 J1.692
X11.859 Y5.223 I11.529 J2.133
G1 X11.85 Y6.031
X11.847 Y6.839
Y10.072
X11.855 Y41.593
G2 X11.824 Y43.188 I32.517 J1.441
X12.103 Y44.244 I2.545 J-0.108
X12.746 Y44.599 I0.649 J-0.415
X13.009 Y44.422 Z-5.249 I-0.01 J-0.3
G1 X13.028 Y44.363 Z-5.117 F1000
X13.035 Y44.301 Z-4.985
Y44.289 Z-4.96
X13.284 Y1.711
Y1.702 Z-4.978
X13.278 Y1.639 Z-5.114
X13.258 Y1.578 Z-5.249
G2 X12.994 Y1.401 Z-5.96 I-0.274 J0.122 F550
G1 X12.778
G2 X12.289 Y1.658 I0.023 J0.637
X11.64 Y3.049 I2.206 J1.876
X11.391 Y4.855 I8.61 J2.107
X11.347 Y8.896 I89.276 J2.988
G1 X11.355 Y41.225
G2 X11.354 Y43.027 I31.394 J0.913
X11.718 Y44.276 I3.004 J-0.197
X12.341 Y44.6 I0.633 J-0.456
G1 X12.746 Y44.599
G2 X13.009 Y44.422 Z-5.249 I-0.01 J-0.3
G1 X13.028 Y44.362 Z-5.116 F1000
X13.035 Y44.3 Z-4.982
Y44.289 Z-4.96
X13.067 Y1.711
Y1.701 Z-4.982
X13.06 Y1.638 Z-5.116
X13.041 Y1.578 Z-5.249
G2 X12.778 Y1.401 Z-5.96 I-0.274 J0.122 F550
G1 X12.5
G2 X11.902 Y1.728 I0.068 J0.835
X11.284 Y2.911 I1.921 J1.756
G1 X11.285 Y3.004
G2 X11.471 Y3.262 Z-5.249 I0.299 J-0.02
G1 X11.537 Y3.28 Z-5.105 F1000
X11.605 Y3.283 Z-4.96
G2 X11.83 Y3.157 I-0.02 J-0.299
G1 X12.735 Y1.874
X12.763 Y1.823
X12.782 Y1.768
X12.789 Y1.711
X12.784 Y1.643 Z-5.105
X12.763 Y1.578 Z-5.249
G2 X12.5 Y1.401 Z-5.96 I-0.274 J0.122 F550
G1 X12.197
G2 X11.573 Y1.708 I0.053 J0.896
X11.215 Y2.316 I0.59 J0.756
G1 X11.239 Y2.53
G2 X11.449 Y2.768 Z-5.249 I0.296 J-0.05
G1 X11.516 Y2.78 Z-5.105 F1000
X11.584 Y2.776 Z-4.96
X11.635 Y2.763
X11.684 Y2.741
X11.727 Y2.711
X11.765 Y2.673
X12.417 Y1.893
X12.453 Y1.838
X12.477 Y1.776
X12.486 Y1.711
X12.481 Y1.643 Z-5.105
X12.46 Y1.578 Z-5.249
G2 X12.197 Y1.401 Z-5.96 I-0.274 J0.122 F550
G1 X11.861
X11.735 Y1.407
G2 X11.191 Y2.347 I0.203 J0.745
X11.429 Y2.557 Z-5.249 I0.288 J-0.086
G1 X11.497 Y2.56 Z-5.105 F1000
X11.564 Y2.549 Z-4.96
X11.612 Y2.529
X11.657 Y2.502
X11.696 Y2.468
X11.728 Y2.427
X12.1 Y1.867
X12.126 Y1.818
X12.143 Y1.766
X12.15 Y1.711
X12.145 Y1.643 Z-5.105
X12.124 Y1.578 Z-5.249
G2 X11.861 Y1.401 Z-5.96 I-0.274 J0.122 F550
G1 X11.583
X11.483 Y1.406
X11.34 Y1.451
G2 X11.127 Y2.154 I0.292 J0.472
X11.339 Y2.404 Z-5.249 I0.451 J-0.167
G1 X11.4 Y2.434 Z-5.105 F1000
X11.465 Y2.455 Z-4.96
X11.544 Y2.467
X11.624 Y2.466
X11.703 Y2.452
G2 X11.988 Y1.61 I-0.139 J-0.516
G1 X11.944 Y1.558 Z-5.105
X11.893 Y1.513 Z-5.249
G2 X11.583 Y1.401 Z-5.96 I-0.328 J0.422 F550
G1 X11.348
X11.31
X11.263 Y1.402
X11.218 Y1.406
X11.18 Y1.413
X11.17 Y1.438 Z-5.902
G2 X11.205 Y1.73 Z-5.249 I0.277 J0.115
G1 X11.235 Y1.765 Z-5.149 F1000
X11.271 Y1.796 Z-5.049
X11.305 Y1.821 Z-4.96
X11.701 Y2.107
G2 X12.13 Y2.024 I0.176 J-0.243
X12.023 Y1.601 I-0.253 J-0.161
X11.726 Y1.474 I-0.768 J1.384
G1 X11.595 Y1.439 Z-5.249
G2 X11.263 Y1.402 Z-5.96 I-0.34 J1.546 F550
G1 X11.224 Y1.404
X11.18 Y1.413
X11.137 Y1.429
X11.127 Y1.434
X11.1 Y1.449
X11.054 Y1.488
X11.035 Y1.505
X11.018 Y1.523
G2 X11.397 Y1.781 I0.19 J0.129
X11.271 Y1.431 I-0.19 J-0.129
G1 X11.213 Y1.423
X11.155 Y1.429
X11.1 Y1.449
X11.072 Y1.469
X11.045 Y1.493
X11.018 Y1.523
X11.001 Y1.545
X10.988 Y1.568
X10.968 Y1.612
X10.956 Y1.658
X10.951 Y1.704
X10.954 Y1.75
X10.964 Y1.796
G3 X11.287 Y3.081 I-2.244 J1.248
G1 X11.288 Y7.304
Y42.736
G3 X11.243 Y43.433 I-3.774 J0.108
G2 X11.444 Y44.34 I1.225 J0.205
G1 X11.611 Y44.479
X11.806 Y44.568
X12.018 Y44.599
G2 X12.282 Y44.422 Z-5.249 I-0.01 J-0.3
G1 X12.302 Y44.357 Z-5.105 F1000
X12.308 Y44.289 Z-4.96
X12.302 Y44.241
X12.289 Y44.194
X12.268 Y44.15
X11.8 Y43.333
G2 X11.589 Y43.187 I-0.26 J0.149
G1 X11.521 Y43.183 Z-5.105
X11.454 Y43.195 Z-5.249
G2 X11.244 Y43.433 Z-5.96 I0.085 J0.288 F550
G1 X11.239 Y43.47
X11.191 Y43.653
X11.157 Y43.754
G2 X11.57 Y44.564 I0.613 J0.197
G1 X11.784 Y44.599
G2 X12.048 Y44.422 Z-5.249 I-0.01 J-0.3
G1 X12.068 Y44.357 Z-5.105 F1000
X12.074 Y44.289 Z-4.96
X12.065 Y44.228
X12.045 Y44.17
X12.013 Y44.118
X11.678 Y43.677
X11.639 Y43.635
X11.594 Y43.601
X11.543 Y43.577
X11.477 Y43.561 Z-5.105
X11.408 Y43.56 Z-5.249
G2 X11.157 Y43.754 Z-5.96 I0.03 J0.298 F550
G1 X11.127 Y43.846
X11.063 Y43.985
X11.034 Y44.06
X11.023 Y44.209
G2 X11.522 Y44.599 I0.5 J-0.125
X11.815 Y44.458 Z-5.249 I-0.014 J-0.403
G1 X11.855 Y44.402 Z-5.105 F1000
X11.884 Y44.341 Z-4.96
X11.901 Y44.286
G2 X11.439 Y43.739 I-0.437 J-0.1
G1 X11.372 Y43.748 Z-5.105
X11.306 Y43.767 Z-5.249
G2 X11.063 Y43.985 Z-5.96 I0.158 J0.42 F550
G1 X10.98 Y44.167
X10.963 Y44.204
X10.954 Y44.25
X10.951 Y44.296
X10.956 Y44.342
X10.968 Y44.388
X10.988 Y44.432
X11.001 Y44.455
X11.018 Y44.477
X11.045 Y44.507
X11.072 Y44.531
X11.1 Y44.551
X11.127 Y44.567
X11.137 Y44.571
X11.18 Y44.587
X11.224 Y44.597
X11.31 Y44.599
X12.341
X12.594 Y44.46 Z-5.346
X12.599 Y44.414 Z-5.249
X12.612 Y44.279 Z-4.96 F1000
X16.586 Y4.183
G2 X14.189 Y1.401 I-2.484 J-0.283
G1 Z-7.175
Z-7.96 F550
X14.101
X14.051 Y1.403
X13.921 Y1.478
X13.843 Y1.607
X13.812 Y1.753
G2 X13.771 Y4.354 I48.882 J2.068
G1 Y42.341
X13.711 Y43.147
G2 X13.599 Y43.827 I4.176 J1.035
X14.35 Y44.599 I0.752 J0.02
X14.613 Y44.422 Z-7.249 I-0.01 J-0.3
G1 X14.633 Y44.361 Z-7.114 F1000
X14.639 Y44.298 Z-6.978
Y44.289 Z-6.96
X14.391 Y1.711
Y1.699 Z-6.985
X14.384 Y1.637 Z-7.117
X14.365 Y1.578 Z-7.249
G2 X14.101 Y1.401 Z-7.96 I-0.274 J0.122 F550
G1 X13.985
X13.934 Y1.403
X13.794 Y1.457
G2 X13.489 Y2.133 I1.044 J0.877
X13.309 Y3.526 I7.098 J1.627
G1 X13.28 Y4.333
X13.273 Y5.142
X13.271 Y5.95
Y14.84
Y41.512
X13.261 Y42.32
X13.185 Y43.125
G2 X13.341 Y44.209 I2.068 J0.255
X14.003 Y44.599 I0.668 J-0.375
X14.266 Y44.422 Z-7.249 I-0.01 J-0.3
G1 X14.286 Y44.363 Z-7.119 F1000
X14.293 Y44.302 Z-6.988
Y44.289 Z-6.96
X14.689 Y1.535
X14.696 Y1.499
X14.717 Y1.468
X14.747 Y1.446
X14.783 Y1.436
X14.82 Y1.441
X14.852 Y1.459
X14.876 Y1.487
X14.888 Y1.522
X14.886 Y1.56
X14.871 Y1.594
X14.845 Y1.62
X14.81 Y1.634
X14.773 Y1.635
X14.738 Y1.622
G2 X14.446 Y1.487 I-0.809 J1.36
G1 X14.315 Y1.448 Z-7.249
G2 X13.985 Y1.401 Z-7.96 I-0.386 J1.535 F550
G1 X13.801
X13.717 Y1.405
G2 X13.244 Y1.965 I0.504 J0.906
X12.87 Y3.582 I4.536 J1.899
X12.775 Y6.621 I27.24 J2.377
G1 X12.77 Y9.046
X12.771 Y41.375
X12.763 Y42.183
G2 X12.813 Y43.846 I4.789 J0.688
X13.115 Y44.405 I1.334 J-0.36
G1 X13.267 Y44.51
X13.439 Y44.576
X13.623 Y44.599
G2 X13.886 Y44.422 Z-7.249 I-0.01 J-0.3
G1 X13.905 Y44.362 Z-7.117 F1000
X13.912 Y44.301 Z-6.984
Y44.289 Z-6.96
X14.091 Y1.711
Y1.702 Z-6.979
X14.084 Y1.639 Z-7.114
X14.065 Y1.578 Z-7.249
G2 X13.801 Y1.401 Z-7.96 I-0.274 J0.122 F550
G1 X13.639
G2 X13.148 Y1.662 I0.012 J0.615
X12.53 Y3.107 I2.404 J1.882
G1 X12.464 Y3.402
G2 X12.276 Y6.741 I20.021 J2.8
G1 X12.271 Y7.549
X12.27 Y10.782
X12.271 Y41.495
G2 X12.267 Y43.09 I25.317 J0.869
X12.615 Y44.285 I2.795 J-0.166
X13.23 Y44.6 I0.624 J-0.461
G1 X13.623 Y44.599
G2 X13.886 Y44.422 Z-7.249 I-0.01 J-0.3
G1 X13.905 Y44.362 Z-7.116 F1000
X13.912 Y44.299 Z-6.982
Y44.289 Z-6.96
X13.929 Y1.711
Y1.701 Z-6.982
X13.922 Y1.638 Z-7.116
X13.902 Y1.578 Z-7.249
G2 X13.639 Y1.401 Z-7.96 I-0.274 J0.122 F550
G1 X13.365
G2 X12.869 Y1.642 I0.026 J0.684
X12.181 Y2.935 I1.883 J1.832
G1 Y3.021
G2 X12.366 Y3.28 Z-7.249 I0.299 J-0.018
G1 X12.431 Y3.299 Z-7.105 F1000
X12.499 Y3.302 Z-6.96
G2 X12.73 Y3.17 I-0.018 J-0.299
G1 X13.604 Y1.868
X13.63 Y1.819
X13.647 Y1.766
X13.654 Y1.711
X13.649 Y1.643 Z-7.105
X13.628 Y1.578 Z-7.249
G2 X13.365 Y1.401 Z-7.96 I-0.274 J0.122 F550
G1 X13.089
G2 X12.466 Y1.714 I0.05 J0.875
X12.122 Y2.534 I0.553 J0.714
G1 X12.145 Y2.598 Z-7.818
X12.182 Y2.655 Z-7.676
X12.23 Y2.702 Z-7.534
X12.287 Y2.737 Z-7.392
X12.351 Y2.758 Z-7.249
X12.418 Y2.766 Z-7.105 F1000
X12.486 Y2.759 Z-6.96
X12.546 Y2.738
X12.6 Y2.706
X12.647 Y2.662
X13.306 Y1.896
X13.344 Y1.841
X13.368 Y1.778
X13.378 Y1.711
X13.373 Y1.643 Z-7.105
X13.352 Y1.578 Z-7.249
G2 X13.089 Y1.401 Z-7.96 I-0.274 J0.122 F550
G1 X12.747
X12.63 Y1.407
G2 X12.077 Y2.347 I0.193 J0.746
X12.316 Y2.556 Z-7.249 I0.288 J-0.087
G1 X12.384 Y2.56 Z-7.105 F1000
X12.451 Y2.548 Z-6.96
X12.515 Y2.52
X12.57 Y2.479
X12.615 Y2.426
X12.987 Y1.867
X13.013 Y1.818
X13.029 Y1.766
X13.036 Y1.711
X13.031 Y1.643 Z-7.105
X13.01 Y1.578 Z-7.249
G2 X12.747 Y1.401 Z-7.96 I-0.274 J0.122 F550
G1 X12.448
X12.358 Y1.405
G2 X12.013 Y2.155 I0.107 J0.503
G1 X12.058 Y2.225 Z-7.782
X12.114 Y2.286 Z-7.605
X12.18 Y2.337 Z-7.427
X12.254 Y2.376 Z-7.249
X12.319 Y2.397 Z-7.105 F1000
X12.386 Y2.408 Z-6.96
X12.438 Y2.41
X12.49 Y2.407
G2 X12.846 Y1.619 I-0.06 J-0.501
G1 X12.804 Y1.566 Z-7.105
X12.755 Y1.519 Z-7.249
G2 X12.448 Y1.401 Z-7.96 I-0.324 J0.387 F550
G1 X12.2
X12.165
X12.136
X12.077 Y1.41
X12.044 Y1.417
X12.034 Y1.442 Z-7.902
G2 X12.076 Y1.734 Z-7.249 I0.28 J0.108
G1 X12.101 Y1.762 Z-7.169 F1000
X12.13 Y1.787 Z-7.089
X12.177 Y1.824 Z-6.96
X12.552 Y2.116
G2 X12.984 Y2.049 I0.185 J-0.237
X12.889 Y1.622 I-0.248 J-0.169
X12.597 Y1.486 I-0.808 J1.361
G1 X12.466 Y1.448 Z-7.249
G2 X12.136 Y1.401 Z-7.96 I-0.385 J1.535 F550
G1 X12.09 Y1.405
X12.044 Y1.417
X12.015 Y1.429
X11.976 Y1.449
X11.938 Y1.474
X11.915 Y1.494
X11.892 Y1.518
X11.875 Y1.541
X11.861 Y1.563
X11.848 Y1.588
X11.838 Y1.612
X11.826 Y1.658
X11.821 Y1.704
G2 X11.924 Y1.979 I0.508 J-0.033
G3 X12.182 Y3.081 I-1.99 J1.046
G1 X12.183 Y5.835
Y42.736
G3 X12.153 Y43.342 I-3.598 J0.123
G2 X12.357 Y44.367 I1.231 J0.287
G1 X12.522 Y44.49
X12.709 Y44.571
X12.911 Y44.599
G2 X13.174 Y44.422 Z-7.249 I-0.01 J-0.3
G1 X13.195 Y44.357 Z-7.105 F1000
X13.2 Y44.289 Z-6.96
X13.191 Y44.224
X13.167 Y44.162
X12.71 Y43.272
G2 X12.51 Y43.116 I-0.267 J0.137
G1 X12.442 Y43.109 Z-7.105
X12.375 Y43.117 Z-7.249
G2 X12.151 Y43.342 Z-7.96 I0.068 J0.292 F550
G1 X12.126 Y43.47
X12.078 Y43.653
X12.044 Y43.75
X12.006 Y43.878
G2 X12.684 Y44.599 I0.678 J0.041
X12.948 Y44.422 Z-7.249 I-0.01 J-0.3
G1 X12.968 Y44.357 Z-7.105 F1000
X12.974 Y44.289 Z-6.96
X12.965 Y44.226
X12.943 Y44.166
X12.908 Y44.112
X12.558 Y43.673
X12.522 Y43.635
X12.48 Y43.603
X12.433 Y43.58
X12.367 Y43.563 Z-7.105
X12.299 Y43.561 Z-7.249
G2 X12.044 Y43.75 Z-7.96 I0.025 J0.299 F550
G1 X12.013 Y43.837
X11.967 Y43.931
X11.929 Y44.022
X11.91 Y44.171
G2 X12.44 Y44.599 I0.529 J-0.113
X12.738 Y44.466 Z-7.249 I-0.015 J-0.434
G1 X12.781 Y44.413 Z-7.105 F1000
X12.815 Y44.354 Z-6.96
X12.841 Y44.288
G2 X12.344 Y43.682 I-0.455 J-0.134
G1 X12.277 Y43.693 Z-7.105
X12.212 Y43.713 Z-7.249
G2 X11.967 Y43.931 Z-7.96 I0.174 J0.441 F550
G1 X11.924 Y44.021
X11.873 Y44.116
X11.861 Y44.14
X11.845 Y44.172
X11.828 Y44.233
X11.824 Y44.25
X11.843 Y44.27 Z-7.902
G2 X12.124 Y44.354 Z-7.249 I0.216 J-0.208
G1 X12.181 Y44.335 Z-7.123 F1000
X12.251 Y44.304 Z-6.96
X12.663 Y44.12
G2 X12.804 Y43.703 I-0.122 J-0.274
X12.377 Y43.595 I-0.264 J0.143
X12.126 Y43.797 I0.862 J1.327
G1 X12.033 Y43.896 Z-7.249
G2 X11.845 Y44.172 Z-7.96 I1.205 J1.026 F550
G1 X11.834 Y44.204
X11.824 Y44.25
X11.821 Y44.296
X11.826 Y44.342
X11.838 Y44.388
X11.848 Y44.413
X11.861 Y44.437
X11.875 Y44.46
X11.892 Y44.482
X11.915 Y44.506
X11.938 Y44.526
X11.977 Y44.552
X12.015 Y44.571
X12.044 Y44.583
X12.09 Y44.595
X12.136 Y44.599
X13.23
X13.505 Y44.409 Z-7.249
X13.511 Y44.405 Z-7.235 F1000
X13.522 Y44.276 Z-6.96
X14.45 Y33.005
X16.812 Y4.252 Z-8.95
G2 X14.978 Y1.563 I-2.485 J-0.275
G1 X14.718 Y1.498
X14.612 Y1.472 Z-9.221
X14.327 Y1.401 Z-9.95 F550
X14.214
X14.164 Y1.403
X14.094 Y1.43
X13.973 Y1.52
X13.912 Y1.657
X13.889 Y1.805
X13.852 Y2.612
X13.843 Y3.42
X13.84 Y4.229
X13.839 Y7.462
X13.84 Y42.216
X13.802 Y43.023
G2 X13.667 Y43.871 I4.071 J1.082
X14.418 Y44.599 I0.753 J-0.025
X14.681 Y44.422 Z-9.239 I-0.01 J-0.3
G1 X14.701 Y44.361 Z-9.104 F1000
X14.708 Y44.298 Z-8.969
X14.707 Y44.289 Z-8.95
X14.504 Y1.711
Y1.699 Z-8.975
X14.497 Y1.637 Z-9.107
X14.478 Y1.578 Z-9.239
G2 X14.214 Y1.401 Z-9.95 I-0.274 J0.122 F550
G1 X14.061
X14.013 Y1.403
X13.877 Y1.466
G2 X13.571 Y2.14 I1.091 J0.901
X13.5 Y2.714 I1.284 J0.451
G1 X13.52 Y2.779 Z-9.808
X13.554 Y2.837 Z-9.666
X13.6 Y2.886 Z-9.524
X13.656 Y2.924 Z-9.382
X13.718 Y2.948 Z-9.239
X13.785 Y2.959 Z-9.095 F1000
X13.853 Y2.954 Z-8.95
G2 X14.089 Y2.735 I-0.054 J-0.295
G1 X14.341 Y1.777
X14.351 Y1.711
X14.345 Y1.643 Z-9.095
X14.325 Y1.578 Z-9.239
G2 X14.061 Y1.401 Z-9.95 I-0.274 J0.122 F550
G1 X13.926
X13.849 Y1.405
G2 X13.409 Y2.347 I0.308 J0.717
X13.602 Y2.614 Z-9.239 I0.534 J-0.181
G1 X13.658 Y2.652 Z-9.095 F1000
X13.719 Y2.683 Z-8.95
G2 X14.158 Y2.686 I0.224 J-0.517
X14.353 Y1.575 I-0.256 J-0.618
G1 X14.3 Y1.532 Z-9.095
X14.244 Y1.494 Z-9.239
G2 X13.926 Y1.401 Z-9.95 I-0.341 J0.575 F550
G1 X13.725
X13.628 Y1.406
X13.49 Y1.469
G2 X13.337 Y2.163 I0.364 J0.444
X13.57 Y2.392 Z-9.239 I0.397 J-0.172
G1 X13.635 Y2.412 Z-9.095 F1000
X13.702 Y2.423 Z-8.95
X13.762
X13.821 Y2.415
X13.878 Y2.4
G2 X14.126 Y1.616 I-0.17 J-0.485
G1 X14.083 Y1.563 Z-9.095
X14.033 Y1.517 Z-9.239
G2 X13.725 Y1.401 Z-9.95 I-0.326 J0.398 F550
G1 X13.511
X13.441 Y1.405
X13.302 Y1.512
X13.216 Y1.666
X13.198 Y1.841
X13.252 Y2.008
G2 X13.608 Y2.145 I0.266 J-0.162
X13.511 Y1.401 I-0.11 J-0.364
G1 X13.419 Y1.402
X13.374 Y1.408
X13.328 Y1.423
X13.313 Y1.429
X13.284 Y1.444
X13.255 Y1.465
X13.225 Y1.49
X13.196 Y1.521
X13.179 Y1.544
X13.165 Y1.566
X13.144 Y1.613
X13.132 Y1.659
X13.128 Y1.704
X13.13 Y1.75
X13.14 Y1.796
G3 X13.467 Y2.53 I-2.507 J1.555
G1 X13.504 Y2.714
X13.522 Y2.897
X13.527 Y3.081
X13.528 Y5.1
Y42.736
G3 X13.457 Y43.501 I-2.598 J0.145
G2 X13.71 Y44.456 I0.794 J0.301
G1 X13.923 Y44.561
X14.158 Y44.599
G2 X14.421 Y44.422 Z-9.239 I-0.01 J-0.3
G1 X14.442 Y44.357 Z-9.095 F1000
X14.447 Y44.289 Z-8.95
X14.441 Y44.24
X14.428 Y44.193
X14.407 Y44.149
X13.998 Y43.446
X13.967 Y43.402
X13.929 Y43.364
X13.884 Y43.334
X13.835 Y43.313
X13.769 Y43.298 Z-9.095
X13.701 Y43.299 Z-9.239
G2 X13.455 Y43.5 Z-9.95 I0.038 J0.298 F550
G1 X13.409 Y43.653
X13.337 Y43.837
X13.286 Y43.966
X13.284 Y44.116
G2 X13.901 Y44.599 I0.617 J-0.152
X14.206 Y44.479 Z-9.239 I-0.017 J-0.491
G1 X14.254 Y44.43 Z-9.095 F1000
X14.295 Y44.376 Z-8.95
X14.334 Y44.303
X14.361 Y44.225
G2 X13.698 Y43.557 I-0.536 J-0.131
G1 X13.633 Y43.577 Z-9.095
X13.571 Y43.605 Z-9.239
G2 X13.337 Y43.837 Z-9.95 I0.254 J0.489 F550
G1 X13.328 Y43.856
X13.235 Y44.021
X13.186 Y44.119
X13.224 Y44.303
X13.33 Y44.459
X13.486 Y44.563
X13.67 Y44.599
G2 X13.95 Y44.44 Z-9.239 I-0.012 J-0.346
G1 X13.977 Y44.389 Z-9.118 F1000
X13.995 Y44.335 Z-8.997
X13.999 Y44.314 Z-8.95
G2 X13.636 Y43.823 I-0.409 J-0.077
G1 X13.568 Y43.822 Z-9.095
X13.5 Y43.831 Z-9.239
G2 X13.235 Y44.021 Z-9.95 I0.09 J0.406 F550
G1 X13.188 Y44.106
X13.163 Y44.148
X13.144 Y44.191
X13.14 Y44.204
X13.131 Y44.265
X13.128 Y44.296
X13.142 Y44.346
X13.168 Y44.391
X13.205 Y44.428
X13.25 Y44.455
X13.301 Y44.468
G2 X13.353 Y44.075 I0.026 J-0.197
X13.14 Y44.204 I-0.026 J0.197
G1 X13.13 Y44.25
X13.128 Y44.296
X13.132 Y44.341
X13.144 Y44.387
X13.165 Y44.434
X13.179 Y44.457
X13.196 Y44.48
X13.226 Y44.51
X13.255 Y44.535
X13.284 Y44.556
X13.314 Y44.571
X13.328 Y44.577
X13.374 Y44.592
X13.666 Y44.589 Z-9.221
X13.845 Y44.587 Z-8.775 F1000
X34.784 Y44.389 Z-0.985
X36.067 Y44.427
X36.302 Y44.488 Z-1.338
X36.732 Y44.599 Z-1.985 F550
X36.91
X36.953 Y44.597
X37.091 Y44.538
G2 X37.395 Y43.86 I-1.102 J-0.902
X37.477 Y43.286 I-1.558 J-0.516
G1 X37.46 Y43.221 Z-1.843
X37.429 Y43.161 Z-1.701
X37.386 Y43.109 Z-1.559
X37.332 Y43.069 Z-1.417
X37.271 Y43.042 Z-1.275
X37.204 Y43.027 Z-1.13 F1000
X37.136 Y43.029 Z-0.985
G2 X36.886 Y43.25 I0.04 J0.297
G1 X36.63 Y44.223
X36.621 Y44.289
X36.626 Y44.357 Z-1.13
X36.647 Y44.422 Z-1.275
G2 X36.91 Y44.599 Z-1.985 I0.274 J-0.122 F550
G1 X37.078
X37.141 Y44.596
G2 X37.554 Y43.686 I-0.302 J-0.686
G1 X37.521 Y43.61 Z-1.808
X37.475 Y43.54 Z-1.63
X37.42 Y43.477 Z-1.452
X37.355 Y43.424 Z-1.275
X37.297 Y43.389 Z-1.13 F1000
X37.234 Y43.362 Z-0.985
G2 X36.84 Y43.377 I-0.179 J0.497
X36.655 Y44.418 I0.261 J0.583
G1 X36.706 Y44.463 Z-1.13
X36.762 Y44.502 Z-1.275
G2 X37.078 Y44.599 Z-1.985 I0.339 J-0.542 F550
G1 X37.262
X37.404 Y44.592
G2 X37.626 Y43.896 I-0.299 J-0.479
X37.382 Y43.68 Z-1.275 I-0.367 J0.169
G1 X37.316 Y43.665 Z-1.13 F1000
X37.248 Y43.661 Z-0.985
X37.194 Y43.666
X37.141 Y43.678
G2 X36.873 Y44.369 I0.137 J0.45
G1 X36.912 Y44.425 Z-1.13
X36.959 Y44.474 Z-1.275
G2 X37.262 Y44.599 Z-1.985 I0.319 J-0.346 F550
G1 X37.443
X37.489 Y44.597
X37.534 Y44.589
X37.561 Y44.579
X37.583 Y44.571
X37.617 Y44.553
X37.65 Y44.528
X37.672 Y44.509
X37.689 Y44.493
X37.702 Y44.475
X37.728 Y44.433
X37.749 Y44.389
X37.765 Y44.342
G2 X37.331 Y44.313 I-0.217 J-0.014
X37.39 Y44.477 I0.217 J0.014
X37.689 Y44.493 I0.158 J-0.149
G1 X37.718 Y44.457
X37.738 Y44.422
X37.752 Y44.388
X37.765 Y44.342
X37.769 Y44.296
G2 X37.678 Y44.021 I-0.533 J0.024
G3 X37.456 Y42.919 I2.241 J-1.024
G2 X37.487 Y38.146 I-466.002 J-5.361
G1 X37.506 Y37.595
X37.581 Y36.677
G3 X37.837 Y32.645 I59.044 J1.715
X38.916 Y27.923 I27.947 J3.902
G1 X39.235 Y27.181
X39.775 Y26.579
X40.06 Y26.293
X40.396 Y26.068
X41.131 Y25.732
G2 X43.321 Y24.152 I-0.549 J-3.07
X42.296 Y20.784 I-2.355 J-1.123
G1 X42.059 Y20.62
X41.365 Y20.207
X40.648 Y19.833
X40.08 Y19.258
X39.697 Y18.547
X39.384 Y17.801
G3 X38.205 Y12.172 I21.891 J-7.524
G1 X38.173 Y12.107
G3 X37.902 Y11.122 I5.341 J-2
G1 X37.82 Y10.792
X37.689 Y10.241
X37.661 Y10.061
X37.534 Y9.871 Z-1.5
X37.432 Y9.842 Z-1.275
X37.351 Y9.819 Z-1.096 F1000
X37.303 Y9.839 Z-0.985
X37.168 Y9.894
X37.054 Y10.241
X34.438 Y36.31
G2 X37.297 Y37.412 I1.572 J0.181
G1 X37.411 Y37.116
X37.461 Y36.989 Z-1.275
X37.581 Y36.677 Z-1.985 F550
G3 X37.819 Y35.208 I7.124 J0.4
G1 X38 Y34.474
X38.044 Y34.291
G2 X38.52 Y31.503 I-39.75 J-8.225
G3 X39.301 Y28.367 I30.785 J6
G1 X39.578 Y27.608
X40.072 Y26.968
X40.378 Y26.704
X41.064 Y26.276
G2 X43.087 Y25.134 I-1.14 J-4.382
X43.282 Y21.153 I-2.169 J-2.101
X42.014 Y20.08 I-4.426 J3.944
G1 X41.33 Y19.649
X40.993 Y19.427
X40.693 Y19.156
X40.201 Y18.515
G3 X38.921 Y13.894 I18.777 J-7.689
G1 X38.886 Y13.815
X38.848 Y13.738
G3 X38.173 Y12.107 I38.628 J-16.92
G1 X38.142 Y12.049 Z-1.846
X38.1 Y11.999 Z-1.707
X38.048 Y11.96 Z-1.568
X37.988 Y11.933 Z-1.43
X37.953 Y11.924 Z-1.352
X37.917 Y11.919 Z-1.275
X37.849 Y11.921 Z-1.13 F1000
X37.783 Y11.939 Z-0.985
G2 X37.594 Y12.212 I0.111 J0.279
G1 X37.124 Y34.738
G2 X37.633 Y34.96 I0.3 J0.006
X37.84 Y34.713 I-1.101 J-1.137
G1 X37.912 Y34.597 Z-1.275
G2 X38.044 Y34.291 Z-1.985 I-1.38 J-0.775 F550
G3 X38.383 Y33.373 I5.415 J1.478
G1 X38.609 Y32.822
G2 X39.132 Y30.975 I-13.039 J-4.69
G3 X40.007 Y27.865 I25.817 J5.59
G1 X40.504 Y27.226
X41.182 Y26.786
G2 X43.281 Y25.519 I-1.847 J-5.43
X44.195 Y22.096 I-2.51 J-2.504
X42.885 Y20.208 I-3.82 J1.251
G1 X42.64 Y19.995
X41.997 Y19.505
X41.333 Y19.045
X41.045 Y18.76
X40.787 Y18.449
X40.404 Y17.738
G3 X39.645 Y15.078 I34.555 J-11.303
G1 X39.599 Y15.005
G3 X38.847 Y13.739 I68.265 J-41.347
G2 X38.563 Y13.599 Z-1.275 I-0.254 J0.158
G1 X38.496 Y13.613 Z-1.13 F1000
X38.435 Y13.642 Z-0.985
G2 X38.293 Y13.893 I0.158 J0.255
G1 X38.035 Y32.694
G2 X38.212 Y32.972 I0.3 J0.004
G1 X38.277 Y32.993 Z-1.13
X38.345 Y32.998 Z-1.275
G2 X38.609 Y32.822 Z-1.985 I-0.009 J-0.3 F550
G3 X39.185 Y31.687 I5.302 J1.978
G2 X39.753 Y30.336 I-6.279 J-3.434
G1 X39.992 Y29.564
X40.222 Y28.789
X40.353 Y28.407
X40.537 Y28.047
X40.771 Y27.717
X41.4 Y27.209
G2 X43.836 Y25.517 I-2.005 J-5.487
X44.514 Y21.819 I-3.093 J-2.478
X42.921 Y19.667 I-4.694 J1.809
G1 X42.307 Y19.141
X41.663 Y18.652
X41.381 Y18.363
X40.918 Y17.7
X40.673 Y16.93
X40.482 Y16.3
X40.448 Y16.21
X40.404 Y16.126
X40.349 Y16.048
G3 X39.598 Y15.006 I4.493 J-4.027
G2 X39.31 Y14.873 Z-1.275 I-0.25 J0.165
G1 X39.244 Y14.889 Z-1.13 F1000
X39.183 Y14.92 Z-0.985
G2 X39.048 Y15.163 I0.165 J0.251
G1 X38.634 Y31.515
G2 X38.77 Y31.774 I0.3 J0.008
G1 X38.831 Y31.805 Z-1.13
X38.897 Y31.82 Z-1.275
G2 X39.185 Y31.686 Z-1.985 I0.037 J-0.298 F550
G3 X39.941 Y30.459 I14.982 J8.38
G2 X40.298 Y29.829 I-2.721 J-1.96
G1 X40.624 Y29.09
X40.773 Y28.714
X40.958 Y28.354
X41.213 Y28.041
X41.813 Y27.5
G2 X44.606 Y25.097 I-1.974 J-5.119
X44.159 Y20.349 I-3.845 J-2.033
X43.239 Y19.335 I-5.483 J4.045
G1 X42.639 Y18.793
X42.016 Y18.279
X41.745 Y17.979
X41.503 Y17.656
X41.26 Y17.134
X41.218 Y17.058
X41.168 Y16.986
X41.11 Y16.921
G3 X40.351 Y16.047 I5.678 J-5.698
G1 X40.301 Y16.001 Z-1.843
X40.243 Y15.968 Z-1.701
X40.179 Y15.948 Z-1.559
X40.112 Y15.944 Z-1.417
X40.046 Y15.954 Z-1.275
X39.982 Y15.978 Z-1.13 F1000
X39.926 Y16.016 Z-0.985
X39.883 Y16.062
X39.851 Y16.115
X39.83 Y16.173
X39.822 Y16.235
X39.413 Y30.258
G2 X39.52 Y30.496 I0.3 J0.009
G1 X39.576 Y30.534 Z-1.13
X39.64 Y30.558 Z-1.275
G2 X39.942 Y30.46 Z-1.985 I0.073 J-0.291 F550
G1 X40.404 Y29.885
X40.469 Y29.805
X40.652 Y29.586
X41.139 Y28.941
X41.637 Y28.304
X42.257 Y27.786
G2 X45.232 Y24.724 I-2.27 J-5.182
X44.604 Y20.239 I-4.554 J-1.648
X43.149 Y18.622 I-6.848 J4.699
G1 X42.94 Y18.502
G3 X41.108 Y16.923 I8.191 J-11.351
G1 X41.055 Y16.883 Z-1.843
X40.995 Y16.856 Z-1.701
X40.929 Y16.843 Z-1.559
X40.863 Y16.844 Z-1.417
X40.798 Y16.861 Z-1.275
X40.738 Y16.892 Z-1.13 F1000
X40.686 Y16.936 Z-0.985
X40.653 Y16.978
X40.629 Y17.025
X40.613 Y17.076
X40.606 Y17.129
X40.129 Y29.374
G2 X40.229 Y29.609 I0.3 J0.012
G1 X40.284 Y29.648 Z-1.13
X40.347 Y29.674 Z-1.275
G2 X40.652 Y29.586 Z-1.985 I0.082 J-0.289 F550
G3 X44.008 Y26.853 I9.02 J7.651
G2 X45.43 Y25.245 I-1.695 J-2.931
X45.37 Y20.708 I-4.503 J-2.21
X44.561 Y19.451 I-5.001 J2.329
G1 X44.465 Y19.376
X44.359 Y19.317
G3 X43.403 Y18.785 I2.182 J-5.048
G1 X43.144 Y18.627
G2 X42.827 Y18.641 Z-1.275 I-0.147 J0.261
G1 X42.776 Y18.686 Z-1.13 F1000
X42.736 Y18.741 Z-0.985
X42.711 Y18.799
X42.698 Y18.86
X42.699 Y18.923
X43.586 Y26.615
X43.595 Y26.662
X43.611 Y26.706
X43.646 Y26.764 Z-1.13
X43.693 Y26.813 Z-1.275
G2 X44.008 Y26.854 Z-1.985 I0.19 J-0.232 F550
G1 X44.136 Y26.79
X44.582 Y26.58
X44.686 Y26.533
G2 X45.805 Y25.336 I-1.141 J-2.187
X46.278 Y22.122 I-4.376 J-2.286
X45.38 Y19.842 I-5.619 J0.895
G1 X45.257 Y19.741
X45.119 Y19.664
X45.053 Y19.637
X44.359 Y19.317
G2 X44.046 Y19.368 Z-1.275 I-0.116 J0.277
G1 X44 Y19.418 Z-1.13 F1000
X43.967 Y19.478 Z-0.985
X43.948 Y19.542
X43.944 Y19.609
X44.273 Y26.27
X44.28 Y26.32
X44.295 Y26.369
X44.328 Y26.428 Z-1.13
X44.373 Y26.479 Z-1.275
G2 X44.686 Y26.533 Z-1.985 I0.2 J-0.224 F550
G1 X45.053 Y26.368
X45.237 Y26.29
X45.267 Y26.28
G2 X46.166 Y25.399 I-0.8 J-1.715
X46.758 Y22.559 I-4.106 J-2.338
X46.082 Y20.184 I-5.826 J0.375
G1 X45.973 Y20.044
X45.834 Y19.933
X45.672 Y19.858
X45.237 Y19.714
X45.119 Y19.664
G2 X44.807 Y19.725 Z-1.275 I-0.107 J0.28
G1 X44.763 Y19.777 Z-1.13 F1000
X44.732 Y19.837 Z-0.985
X44.716 Y19.894
X44.712 Y19.953
X44.881 Y26.001
X44.884 Y26.041
X44.893 Y26.079
X44.92 Y26.142 Z-1.13
X44.961 Y26.197 Z-1.275
G2 X45.267 Y26.28 Z-1.985 I0.22 J-0.204 F550
G1 X45.704 Y26.131
G2 X46.626 Y25.259 I-0.658 J-1.618
X47.191 Y22.672 I-4.011 J-2.232
X46.646 Y20.375 I-5.667 J0.132
G1 X46.53 Y20.225
X46.383 Y20.106
X46.211 Y20.027
X45.787 Y19.895
X45.672 Y19.858
G2 X45.367 Y19.944 Z-1.275 I-0.084 J0.288
G1 X45.327 Y19.999 Z-1.13 F1000
X45.301 Y20.062 Z-0.985
X45.292 Y20.104
X45.289 Y20.147
X45.318 Y25.845
X45.321 Y25.888
X45.33 Y25.931
X45.357 Y25.993 Z-1.13
X45.398 Y26.048 Z-1.275
G2 X45.704 Y26.131 Z-1.985 I0.22 J-0.204 F550
G1 X45.787 Y26.103
X46.154 Y25.99
G2 X46.998 Y25.256 I-0.533 J-1.466
X47.618 Y22.789 I-3.756 J-2.256
X47.175 Y20.547 I-5.361 J-0.107
G1 X47.051 Y20.383
X46.892 Y20.255
X46.704 Y20.174
X46.632 Y20.154
X46.337 Y20.066
X46.211 Y20.027
G2 X45.907 Y20.118 Z-1.275 I-0.079 J0.289
G1 X45.868 Y20.174 Z-1.13 F1000
X45.843 Y20.237 Z-0.985
X45.835 Y20.275
X45.832 Y20.313
X45.775 Y25.697
X45.778 Y25.738
X45.786 Y25.779
X45.811 Y25.842 Z-1.13
X45.85 Y25.898 Z-1.275
G2 X46.154 Y25.99 Z-1.985 I0.226 J-0.197 F550
G1 X46.337 Y25.934
X46.52 Y25.884
X46.566 Y25.872
G2 X47.419 Y25.162 I-0.44 J-1.395
X48.037 Y22.968 I-3.549 J-2.185
X47.638 Y20.616 I-4.976 J-0.364
G1 X47.494 Y20.449
X47.316 Y20.324
X47.109 Y20.256
X47.07 Y20.249
X46.887 Y20.213
X46.704 Y20.174
G2 X46.409 Y20.293 Z-1.275 I-0.052 J0.295
G1 X46.375 Y20.352 Z-1.13 F1000
X46.356 Y20.417 Z-0.985
X46.352 Y20.461
X46.201 Y25.571
X46.203 Y25.607
X46.208 Y25.644
X46.23 Y25.708 Z-1.13
X46.266 Y25.766 Z-1.275
G2 X46.566 Y25.872 Z-1.985 I0.235 J-0.187 F550
G1 X46.887 Y25.79
X46.988 Y25.767
G2 X47.84 Y25.067 I-0.411 J-1.369
X48.46 Y22.875 I-3.521 J-2.18
X48.089 Y20.686 I-4.439 J-0.372
G1 X47.946 Y20.524
X47.771 Y20.403
X47.568 Y20.336
X47.109 Y20.256
G2 X46.819 Y20.385 Z-1.275 I-0.042 J0.297
G1 X46.787 Y20.445 Z-1.13 F1000
X46.77 Y20.511 Z-0.985
X46.767 Y20.544
X46.633 Y25.464
X46.638 Y25.528
X46.658 Y25.593 Z-1.13
X46.692 Y25.652 Z-1.275
G2 X46.988 Y25.767 Z-1.985 I0.24 J-0.179 F550
G1 X47.07 Y25.749
X47.355 Y25.696
G2 X48.143 Y25.149 I-0.28 J-1.245
X48.859 Y23.128 I-3.076 J-2.226
X48.551 Y20.781 I-4.359 J-0.622
G1 X48.407 Y20.613
X48.229 Y20.487
X48.022 Y20.417
X47.568 Y20.336
G2 X47.277 Y20.465 Z-1.275 I-0.042 J0.297
G1 X47.246 Y20.526 Z-1.13 F1000
X47.229 Y20.592 Z-0.985
X47.226 Y20.62
X47.012 Y25.386
X47.015 Y25.443
X47.032 Y25.508 Z-1.13
X47.064 Y25.569 Z-1.275
G2 X47.355 Y25.696 Z-1.985 I0.248 J-0.169 F550
G1 X47.621 Y25.649
X47.767 Y25.624
G2 X48.641 Y24.958 I-0.33 J-1.339
X49.298 Y22.841 I-3.345 J-2.2
X48.976 Y20.825 I-3.848 J-0.419
X48.384 Y20.461 I-0.674 J0.435
G1 X48.171 Y20.444
X48.022 Y20.417
G2 X47.731 Y20.546 Z-1.275 I-0.042 J0.297
G1 X47.7 Y20.606 Z-1.13 F1000
X47.682 Y20.672 Z-0.985
X47.68 Y20.698
X47.428 Y25.31
X47.43 Y25.367
X47.446 Y25.433 Z-1.13
X47.478 Y25.493 Z-1.275
G2 X47.767 Y25.624 Z-1.985 I0.25 J-0.166 F550
G1 X48.171 Y25.556
G2 X48.804 Y25.2 I-0.156 J-1.02
X49.64 Y23.397 I-2.466 J-2.238
X49.474 Y21.009 I-4.161 J-0.911
X49.028 Y20.551 I-0.878 J0.41
G1 X48.802 Y20.497
X48.384 Y20.462
G2 X48.107 Y20.617 Z-1.275 I-0.014 J0.3
G1 X48.081 Y20.68 Z-1.13 F1000
X48.07 Y20.747 Z-0.985
X47.856 Y25.242
Y25.257
Y25.271
X47.867 Y25.338 Z-1.13
X47.893 Y25.401 Z-1.275
G2 X48.171 Y25.556 Z-1.985 I0.263 J-0.145 F550
G1 X48.5 Y25.528
G2 X49.314 Y25.036 I-0.166 J-1.194
X50.089 Y23.153 I-2.764 J-2.237
X49.893 Y21.048 I-3.898 J-0.7
X49.447 Y20.584 I-0.87 J0.391
G1 X49.219 Y20.53
X48.802 Y20.497
G2 X48.526 Y20.653 Z-1.275 I-0.013 J0.3
G1 X48.501 Y20.712 Z-1.137 F1000
X48.49 Y20.776 Z-1
X48.489 Y20.783 Z-0.985
X48.187 Y25.208
X48.186 Y25.22
Y25.231
Y25.243
X48.197 Y25.31 Z-1.13
X48.223 Y25.373 Z-1.275
G2 X48.5 Y25.528 Z-1.985 I0.263 J-0.145 F550
G1 X48.904 Y25.495
G2 X49.664 Y25.06 I-0.146 J-1.136
X50.479 Y23.253 I-2.565 J-2.245
X50.287 Y21.028 I-3.766 J-0.796
X49.842 Y20.603 I-0.817 J0.411
G1 X49.618 Y20.556
X49.454 Y20.546
X49.219 Y20.53
G2 X48.943 Y20.686 Z-1.275 I-0.013 J0.3
G1 X48.918 Y20.745 Z-1.139 F1000
X48.907 Y20.808 Z-1.003
X48.906 Y20.816 Z-0.985
X48.592 Y25.174
X48.591 Y25.185
Y25.197
Y25.209
X48.602 Y25.276 Z-1.13
X48.628 Y25.339 Z-1.275
G2 X48.904 Y25.495 Z-1.985 I0.263 J-0.144 F550
G1 X49.271 Y25.466
G2 X50.099 Y24.992 I-0.145 J-1.211
X50.923 Y22.99 I-2.705 J-2.285
X50.681 Y21.021 I-3.511 J-0.568
X50.213 Y20.599 I-0.787 J0.403
G1 X49.98 Y20.562
X49.821 Y20.561
X49.638 Y20.557
X49.618 Y20.556
G2 X49.345 Y20.718 Z-1.275 I-0.007 J0.3
G1 X49.323 Y20.773 Z-1.149 F1000
X49.313 Y20.831 Z-1.023
X49.311 Y20.849 Z-0.985
X48.962 Y25.142
X48.961 Y25.154
Y25.165
Y25.177
X48.971 Y25.244 Z-1.13
X48.996 Y25.308 Z-1.275
G2 X49.271 Y25.466 Z-1.985 I0.265 J-0.141 F550
G1 X49.454 Y25.454
X49.638 Y25.443
X49.668 Y25.442
G2 X50.324 Y25.143 I-0.059 J-0.998
X51.234 Y23.49 I-2.108 J-2.238
X51.134 Y21.129 I-3.71 J-1.025
X50.811 Y20.7 I-0.948 J0.377
G1 X50.605 Y20.597
X50.377 Y20.562
X49.98
G2 X49.716 Y20.738 Z-1.275 I0.01 J0.3
G1 X49.698 Y20.788 Z-1.164 F1000
X49.69 Y20.839 Z-1.052
X49.688 Y20.871 Z-0.985
X49.373 Y25.12
X49.372 Y25.13
Y25.139
X49.379 Y25.206 Z-1.13
X49.401 Y25.271 Z-1.275
G2 X49.668 Y25.442 Z-1.985 I0.271 J-0.128 F550
G1 X49.821 Y25.439
X50.005 Y25.438
G2 X50.848 Y25.006 I-0.068 J-1.173
X51.716 Y23.089 I-2.495 J-2.284
X51.469 Y20.993 I-3.441 J-0.656
X51.007 Y20.597 I-0.773 J0.435
G1 X50.778 Y20.562
X50.377
G2 X50.114 Y20.739 Z-1.275 I0.01 J0.3
G1 X50.098 Y20.786 Z-1.169 F1000
X50.089 Y20.835 Z-1.062
X50.086 Y20.872 Z-0.985
X49.716 Y25.113
Y25.12
X49.715 Y25.128
X49.721 Y25.196 Z-1.13
X49.741 Y25.261 Z-1.275
G2 X50.005 Y25.438 Z-1.985 I0.274 J-0.122 F550
G1 X50.371
G2 X51.227 Y25.018 I-0.052 J-1.187
X52.112 Y23.128 I-2.424 J-2.287
X51.888 Y21.03 I-3.477 J-0.691
X51.178 Y20.559 I-0.744 J0.351
G1 X50.778 Y20.562
G2 X50.515 Y20.739 Z-1.275 I0.01 J0.3
G1 X50.499 Y20.785 Z-1.171 F1000
X50.49 Y20.833 Z-1.068
X50.487 Y20.872 Z-0.985
X50.083 Y25.11
X50.082 Y25.119
Y25.128
X50.087 Y25.196 Z-1.13
X50.108 Y25.261 Z-1.275
G2 X50.371 Y25.438 Z-1.985 I0.274 J-0.122 F550
G1 X50.769
G2 X51.622 Y25.016 I-0.065 J-1.205
X52.511 Y23.138 I-2.409 J-2.291
X52.295 Y21.041 I-3.478 J-0.701
X51.579 Y20.559 I-0.751 J0.342
G1 X51.177 Y20.562
G2 X50.914 Y20.739 Z-1.275 I0.01 J0.3
G1 X50.898 Y20.785 Z-1.171 F1000
X50.889 Y20.833 Z-1.068
X50.886 Y20.872 Z-0.985
X50.48 Y25.11
Y25.119
X50.479 Y25.128
X50.485 Y25.196 Z-1.13
X50.505 Y25.261 Z-1.275
G2 X50.769 Y25.438 Z-1.985 I0.274 J-0.122 F550
G1 X51.16
G2 X52.016 Y25.018 I-0.064 J-1.211
X52.91 Y23.148 I-2.391 J-2.294
X52.703 Y21.054 I-3.484 J-0.712
X51.979 Y20.558 I-0.761 J0.334
G1 X51.579 Y20.562
G2 X51.315 Y20.739 Z-1.275 I0.01 J0.3
G1 X51.299 Y20.785 Z-1.172 F1000
X51.29 Y20.832 Z-1.069
X51.287 Y20.872 Z-0.985
X50.872 Y25.109
X50.871 Y25.119
Y25.128
X50.876 Y25.196 Z-1.13
X50.897 Y25.261 Z-1.275
G2 X51.16 Y25.438 Z-1.985 I0.274 J-0.122 F550
G1 X51.566
G2 X52.417 Y25.014 I-0.078 J-1.224
X53.338 Y22.963 I-2.464 J-2.338
X53.033 Y20.92 I-3.281 J-0.554
X52.56 Y20.582 I-0.709 J0.492
G1 X52.38 Y20.562
X51.979
G2 X51.716 Y20.739 Z-1.275 I0.01 J0.3
G1 X51.7 Y20.785 Z-1.172 F1000
X51.691 Y20.833 Z-1.068
X51.687 Y20.872 Z-0.985
X51.278 Y25.11
X51.277 Y25.119
X51.276 Y25.128
X51.282 Y25.196 Z-1.13
X51.302 Y25.261 Z-1.275
G2 X51.566 Y25.438 Z-1.985 I0.274 J-0.122 F550
G1 X51.939
G2 X52.802 Y25.027 I-0.048 J-1.211
X53.708 Y23.17 I-2.357 J-2.299
X53.515 Y21.075 I-3.493 J-0.734
X52.781 Y20.558 I-0.776 J0.322
G1 X52.38 Y20.562
G2 X52.117 Y20.739 Z-1.275 I0.01 J0.3
G1 X52.101 Y20.784 Z-1.174 F1000
X52.092 Y20.831 Z-1.073
X52.088 Y20.871 Z-0.985
X51.651 Y25.108
X51.65 Y25.118
Y25.128
X51.655 Y25.196 Z-1.13
X51.676 Y25.261 Z-1.275
G2 X51.939 Y25.438 Z-1.985 I0.274 J-0.122 F550
G1 X52.351
G2 X53.208 Y25.02 I-0.067 J-1.223
X54.137 Y22.979 I-2.44 J-2.343
X53.842 Y20.934 I-3.291 J-0.569
X53.365 Y20.583 I-0.717 J0.477
G1 X53.184 Y20.562
X52.781
G2 X52.517 Y20.739 Z-1.275 I0.01 J0.3
G1 X52.501 Y20.784 Z-1.173 F1000
X52.493 Y20.831 Z-1.071
X52.489 Y20.872 Z-0.985
X52.063 Y25.109
Y25.118
X52.062 Y25.128
X52.067 Y25.196 Z-1.13
X52.088 Y25.261 Z-1.275
G2 X52.351 Y25.438 Z-1.985 I0.274 J-0.122 F550
G1 X52.755
G2 X53.61 Y25.018 I-0.074 J-1.228
X54.538 Y22.975 I-2.445 J-2.343
X54.243 Y20.934 I-3.287 J-0.567
X53.766 Y20.584 I-0.716 J0.477
G1 X53.585 Y20.563
X53.184 Y20.562
G2 X52.92 Y20.739 Z-1.275 I0.01 J0.3
G1 X52.904 Y20.784 Z-1.172 F1000
X52.895 Y20.832 Z-1.069
X52.891 Y20.871 Z-0.985
X52.467 Y25.109
X52.466 Y25.119
Y25.128
X52.471 Y25.196 Z-1.13
X52.492 Y25.261 Z-1.275
G2 X52.755 Y25.438 Z-1.985 I0.274 J-0.122 F550
G1 X53.153
G2 X54.009 Y25.018 I-0.071 J-1.228
X54.938 Y22.977 I-2.442 J-2.345
X54.645 Y20.936 I-3.288 J-0.569
X54.167 Y20.585 I-0.717 J0.476
G1 X53.986 Y20.564
X53.585 Y20.563
G2 X53.321 Y20.74 Z-1.275 I0.01 J0.3
G1 X53.305 Y20.785 Z-1.172 F1000
X53.296 Y20.833 Z-1.07
X53.292 Y20.872 Z-0.985
X52.864 Y25.108
X52.863 Y25.118
Y25.129
X52.868 Y25.196 Z-1.13
X52.889 Y25.261 Z-1.275
G2 X53.153 Y25.438 Z-1.985 I0.274 J-0.123 F550
G1 X53.544 Y25.437
G2 X54.404 Y25.022 I-0.06 J-1.222
X55.338 Y22.985 I-2.43 J-2.346
X55.049 Y20.942 I-3.293 J-0.576
X54.569 Y20.586 I-0.72 J0.47
G1 X54.387 Y20.565
X53.986 Y20.564
G2 X53.722 Y20.741 Z-1.275 I0.01 J0.3
G1 X53.706 Y20.786 Z-1.173 F1000
X53.697 Y20.833 Z-1.071
X53.693 Y20.873 Z-0.985
X53.256 Y25.107
X53.255 Y25.117
X53.254 Y25.128
X53.26 Y25.196 Z-1.13
X53.281 Y25.26 Z-1.275
G2 X53.544 Y25.437 Z-1.985 I0.274 J-0.123 F550
G1 X53.957 Y25.436
G2 X54.811 Y25.015 I-0.076 J-1.231
X55.74 Y22.975 I-2.444 J-2.344
X55.445 Y20.934 I-3.28 J-0.568
X54.969 Y20.587 I-0.715 J0.48
G1 X54.788 Y20.565
X54.387
G2 X54.123 Y20.741 Z-1.275 I0.01 J0.3
G1 X54.107 Y20.787 Z-1.172 F1000
X54.098 Y20.834 Z-1.07
X54.094 Y20.874 Z-0.985
X53.668 Y25.106
X53.667 Y25.117
X53.666 Y25.127
X53.672 Y25.195 Z-1.13
X53.693 Y25.259 Z-1.275
G2 X53.957 Y25.436 Z-1.985 I0.274 J-0.123 F550
G1 X54.369 Y25.435
G2 X55.218 Y25.008 I-0.092 J-1.241
X56.142 Y22.964 I-2.459 J-2.343
X55.841 Y20.927 I-3.268 J-0.558
X55.369 Y20.587 I-0.71 J0.489
G1 X55.189 Y20.566
X54.788 Y20.565
G2 X54.524 Y20.742 Z-1.275 I0.01 J0.3
G1 X54.508 Y20.788 Z-1.171 F1000
X54.499 Y20.836 Z-1.068
X54.496 Y20.875 Z-0.985
X54.08 Y25.106
X54.079 Y25.116
Y25.126
X54.084 Y25.194 Z-1.13
X54.105 Y25.259 Z-1.275
G2 X54.369 Y25.435 Z-1.985 I0.274 J-0.123 F550
G1 X54.735
G2 X55.601 Y25.024 I-0.047 J-1.217
X56.538 Y22.992 I-2.413 J-2.345
X56.254 Y20.95 I-3.298 J-0.583
X55.772 Y20.589 I-0.723 J0.464
G1 X55.59 Y20.567
X55.189 Y20.566
G2 X54.926 Y20.743 Z-1.275 I0.01 J0.3
G1 X54.91 Y20.788 Z-1.174 F1000
X54.901 Y20.834 Z-1.073
X54.896 Y20.876 Z-0.985
X54.447 Y25.103
X54.446 Y25.114
X54.445 Y25.125
X54.451 Y25.193 Z-1.13
X54.472 Y25.258 Z-1.275
G2 X54.735 Y25.435 Z-1.985 I0.274 J-0.123 F550
G1 X55.139 Y25.434
G2 X56.003 Y25.022 I-0.051 J-1.218
X56.939 Y22.99 I-2.418 J-2.345
X56.653 Y20.946 I-3.288 J-0.581
X56.173 Y20.59 I-0.721 J0.469
G1 X55.99 Y20.568
X55.59 Y20.567
G2 X55.326 Y20.744 Z-1.275 I0.01 J0.3
G1 X55.31 Y20.789 Z-1.174 F1000
X55.301 Y20.836 Z-1.073
X55.297 Y20.876 Z-0.985
X54.851 Y25.102
X54.85 Y25.113
X54.849 Y25.124
X54.855 Y25.192 Z-1.13
X54.876 Y25.257 Z-1.275
G2 X55.139 Y25.434 Z-1.985 I0.274 J-0.123 F550
G1 X55.537 Y25.433
G2 X56.402 Y25.023 I-0.047 J-1.216
X57.339 Y22.992 I-2.413 J-2.345
X57.055 Y20.95 I-3.287 J-0.583
X56.573 Y20.591 I-0.722 J0.466
G1 X56.391 Y20.569
X55.99 Y20.568
G2 X55.726 Y20.745 Z-1.275 I0.01 J0.3
G1 X55.71 Y20.79 Z-1.174 F1000
X55.702 Y20.836 Z-1.073
X55.697 Y20.877 Z-0.985
X55.248 Y25.101
X55.247 Y25.112
Y25.123
X55.252 Y25.191 Z-1.13
X55.273 Y25.256 Z-1.275
G2 X55.537 Y25.433 Z-1.985 I0.274 J-0.123 F550
G1 X55.967 Y25.432
G2 X56.818 Y25.007 I-0.087 J-1.239
X57.743 Y22.967 I-2.451 J-2.341
X57.444 Y20.931 I-3.261 J-0.561
X56.972 Y20.591 I-0.71 J0.489
G1 X56.792 Y20.57
X56.391 Y20.569
G2 X56.127 Y20.746 Z-1.275 I0.01 J0.3
G1 X56.111 Y20.791 Z-1.172 F1000
X56.102 Y20.839 Z-1.069
X56.098 Y20.878 Z-0.985
X55.678 Y25.102
Y25.112
X55.677 Y25.123
X55.683 Y25.19 Z-1.13
X55.703 Y25.255 Z-1.275
G2 X55.967 Y25.432 Z-1.985 I0.274 J-0.123 F550
G1 X56.341 Y25.431
G2 X57.204 Y25.019 I-0.051 J-1.219
X58.14 Y22.988 I-2.415 J-2.344
X57.854 Y20.949 I-3.284 J-0.579
X57.374 Y20.592 I-0.72 J0.468
G1 X57.192 Y20.571
X56.792 Y20.57
G2 X56.528 Y20.747 Z-1.275 I0.01 J0.3
G1 X56.512 Y20.791 Z-1.174 F1000
X56.503 Y20.838 Z-1.073
X56.499 Y20.879 Z-0.985
X56.052 Y25.1
X56.051 Y25.111
X56.05 Y25.122
X56.056 Y25.19 Z-1.13
X56.077 Y25.254 Z-1.275
G2 X56.341 Y25.431 Z-1.985 I0.274 J-0.123 F550
G1 X56.753 Y25.43
G2 X57.611 Y25.013 I-0.066 J-1.226
X58.542 Y22.978 I-2.43 J-2.342
X58.249 Y20.94 I-3.269 J-0.571
X57.774 Y20.593 I-0.715 J0.48
G1 X57.593 Y20.572
X57.192 Y20.571
G2 X56.928 Y20.748 Z-1.275 I0.01 J0.3
G1 X56.912 Y20.793 Z-1.173 F1000
X56.903 Y20.84 Z-1.071
X56.899 Y20.88 Z-0.985
X56.464 Y25.1
X56.463 Y25.11
Y25.121
X56.468 Y25.189 Z-1.13
X56.489 Y25.253 Z-1.275
G2 X56.753 Y25.43 Z-1.985 I0.274 J-0.123 F550
G1 X57.157 Y25.429
G2 X58.013 Y25.01 I-0.07 J-1.228
X58.942 Y22.974 I-2.434 J-2.341
X58.648 Y20.939 I-3.264 J-0.567
X58.174 Y20.594 I-0.713 J0.482
G1 X57.993 Y20.572
X57.593
G2 X57.329 Y20.748 Z-1.275 I0.01 J0.3
G1 X57.313 Y20.794 Z-1.173 F1000
X57.304 Y20.841 Z-1.071
X57.3 Y20.881 Z-0.985
X56.868 Y25.099
X56.867 Y25.109
Y25.12
X56.872 Y25.188 Z-1.13
X56.893 Y25.253 Z-1.275
G2 X57.157 Y25.429 Z-1.985 I0.274 J-0.123 F550
G1 X57.554
G2 X58.412 Y25.011 I-0.066 J-1.226
X59.342 Y22.976 I-2.43 J-2.341
X59.049 Y20.94 I-3.265 J-0.569
X58.575 Y20.595 I-0.714 J0.481
G1 X58.394 Y20.573
X57.993 Y20.572
G2 X57.729 Y20.749 Z-1.275 I0.01 J0.3
G1 X57.713 Y20.794 Z-1.173 F1000
X57.705 Y20.841 Z-1.071
X57.7 Y20.882 Z-0.985
X57.265 Y25.098
X57.264 Y25.108
Y25.119
X57.269 Y25.187 Z-1.13
X57.29 Y25.252 Z-1.275
G2 X57.554 Y25.429 Z-1.985 I0.274 J-0.123 F550
G1 X57.946 Y25.428
G2 X58.808 Y25.015 I-0.054 J-1.22
X59.742 Y22.983 I-2.418 J-2.342
X59.453 Y20.946 I-3.27 J-0.575
X58.975 Y20.596 I-0.717 J0.476
G1 X58.794 Y20.574
X58.394 Y20.573
G2 X58.13 Y20.75 Z-1.275 I0.01 J0.3
G1 X58.114 Y20.795 Z-1.174 F1000
X58.105 Y20.842 Z-1.073
X58.101 Y20.883 Z-0.985
X57.657 Y25.096
X57.656 Y25.107
Y25.118
X57.661 Y25.186 Z-1.13
X57.682 Y25.251 Z-1.275
G2 X57.946 Y25.428 Z-1.985 I0.274 J-0.123 F550
G1 X58.358 Y25.427
G2 X59.214 Y25.008 I-0.07 J-1.228
X60.143 Y22.973 I-2.432 J-2.339
X59.848 Y20.938 I-3.258 J-0.566
X59.375 Y20.596 I-0.712 J0.486
G1 X59.194 Y20.575
X58.794 Y20.574
G2 X58.53 Y20.751 Z-1.275 I0.01 J0.3
G1 X58.514 Y20.796 Z-1.173 F1000
X58.505 Y20.843 Z-1.071
X58.501 Y20.883 Z-0.985
X58.069 Y25.096
X58.068 Y25.107
Y25.117
X58.073 Y25.185 Z-1.13
X58.094 Y25.25 Z-1.275
G2 X58.358 Y25.427 Z-1.985 I0.274 J-0.123 F550
G1 X58.77 Y25.426
G2 X59.621 Y25.001 I-0.086 J-1.237
X60.544 Y22.962 I-2.447 J-2.337
X60.244 Y20.931 I-3.246 J-0.557
X59.775 Y20.597 I-0.707 J0.495
G1 X59.595 Y20.576
X59.194 Y20.575
G2 X58.931 Y20.752 Z-1.275 I0.01 J0.3
G1 X58.914 Y20.797 Z-1.172 F1000
X58.906 Y20.845 Z-1.069
X58.902 Y20.884 Z-0.985
X58.481 Y25.096
X58.48 Y25.106
Y25.116
X58.485 Y25.184 Z-1.13
X58.506 Y25.249 Z-1.275
G2 X58.77 Y25.426 Z-1.985 I0.274 J-0.123 F550
G1 X59.174 Y25.425
G2 X60.023 Y24.998 I-0.091 J-1.239
X60.945 Y22.958 I-2.452 J-2.337
X60.619 Y20.895 I-3.181 J-0.555
X59.996 Y20.577 I-0.637 J0.477
G1 X59.595 Y20.576
G2 X59.331 Y20.753 Z-1.275 I0.01 J0.3
G1 X59.315 Y20.798 Z-1.172 F1000
X59.306 Y20.846 Z-1.069
X59.303 Y20.885 Z-0.985
X58.885 Y25.096
X58.884 Y25.106
Y25.116
X58.889 Y25.183 Z-1.13
X58.91 Y25.248 Z-1.275
G2 X59.174 Y25.425 Z-1.985 I0.274 J-0.123 F550
G1 X59.571 Y25.424
G2 X60.422 Y24.999 I-0.086 J-1.236
X61.345 Y22.96 I-2.448 J-2.336
X61.02 Y20.896 I-3.182 J-0.556
X60.396 Y20.578 I-0.637 J0.477
G1 X59.996 Y20.577
G2 X59.732 Y20.754 Z-1.275 I0.01 J0.3
G1 X59.716 Y20.799 Z-1.172 F1000
X59.707 Y20.847 Z-1.069
X59.703 Y20.886 Z-0.985
X59.282 Y25.094
Y25.105
X59.281 Y25.115
X59.287 Y25.183 Z-1.13
X59.307 Y25.247 Z-1.275
G2 X59.571 Y25.424 Z-1.985 I0.274 J-0.123 F550
G1 X59.963 Y25.423
G2 X60.818 Y25.003 I-0.074 J-1.23
X61.744 Y22.966 I-2.436 J-2.337
X61.446 Y20.936 I-3.249 J-0.56
X60.976 Y20.6 I-0.708 J0.493
G1 X60.796 Y20.579
X60.396 Y20.578
G2 X60.132 Y20.754 Z-1.275 I0.01 J0.3
G1 X60.116 Y20.8 Z-1.173 F1000
X60.107 Y20.847 Z-1.07
X60.103 Y20.887 Z-0.985
X59.674 Y25.093
X59.673 Y25.103
Y25.114
X59.678 Y25.182 Z-1.13
X59.699 Y25.246 Z-1.275
G2 X59.963 Y25.423 Z-1.985 I0.274 J-0.123 F550
G1 X60.368 Y25.422
G2 X61.221 Y24.999 I-0.081 J-1.234
X62.144 Y22.962 I-2.442 J-2.335
X61.821 Y20.898 I-3.18 J-0.558
X61.196 Y20.579 I-0.637 J0.477
G1 X60.796
G2 X60.532 Y20.755 Z-1.275 I0.01 J0.3
G1 X60.516 Y20.801 Z-1.172 F1000
X60.508 Y20.848 Z-1.07
X60.504 Y20.888 Z-0.985
X60.08 Y25.092
X60.079 Y25.103
X60.078 Y25.113
X60.084 Y25.181 Z-1.13
X60.104 Y25.246 Z-1.275
G2 X60.368 Y25.422 Z-1.985 I0.274 J-0.123 F550
G1 X60.787 Y25.421
G2 X61.574 Y25.045 I-0.066 J-1.148
X62.503 Y23.221 I-2.259 J-2.3
X62.34 Y21.123 I-3.493 J-0.785
X61.956 Y20.673 I-0.952 J0.426
G1 X61.781 Y20.604
X61.595 Y20.58
X61.196 Y20.579
G2 X60.933 Y20.756 Z-1.275 I0.01 J0.3
G1 X60.916 Y20.802 Z-1.171 F1000
X60.908 Y20.85 Z-1.067
X60.904 Y20.889 Z-0.985
X60.498 Y25.093
Y25.102
X60.497 Y25.112
X60.503 Y25.18 Z-1.13
X60.523 Y25.245 Z-1.275
G2 X60.787 Y25.421 Z-1.985 I0.274 J-0.123 F550
G1 X61.154
G2 X62.014 Y25.005 I-0.058 J-1.217
X62.941 Y22.978 I-2.417 J-2.331
X62.647 Y20.941 I-3.25 J-0.569
X62.176 Y20.602 I-0.71 J0.492
G1 X61.995 Y20.581
X61.595 Y20.58
G2 X61.331 Y20.757 Z-1.275 I0.01 J0.3
G1 X61.315 Y20.802 Z-1.173 F1000
X61.307 Y20.849 Z-1.072
X61.302 Y20.89 Z-0.985
X60.865 Y25.09
X60.864 Y25.101
Y25.111
X60.869 Y25.179 Z-1.13
X60.89 Y25.244 Z-1.275
G2 X61.154 Y25.421 Z-1.985 I0.274 J-0.123 F550
G1 X61.558 Y25.42
G2 X62.416 Y25.002 I-0.064 J-1.223
X63.342 Y22.97 I-2.423 J-2.332
X63.046 Y20.941 I-3.241 J-0.563
X62.575 Y20.603 I-0.708 J0.49
G1 X62.395 Y20.582
X61.995 Y20.581
G2 X61.731 Y20.758 Z-1.275 I0.01 J0.3
G1 X61.715 Y20.803 Z-1.173 F1000
X61.707 Y20.85 Z-1.071
X61.702 Y20.89 Z-0.985
X61.269 Y25.089
X61.268 Y25.1
Y25.11
X61.273 Y25.178 Z-1.13
X61.294 Y25.243 Z-1.275
G2 X61.558 Y25.42 Z-1.985 I0.274 J-0.123 F550
G1 X61.955 Y25.419
G2 X62.814 Y25.003 I-0.061 J-1.221
X63.742 Y22.97 I-2.422 J-2.333
X63.446 Y20.941 I-3.24 J-0.563
X62.975 Y20.604 I-0.708 J0.491
G1 X62.795 Y20.583
X62.395 Y20.582
G2 X62.132 Y20.759 Z-1.275 I0.01 J0.3
G1 X62.115 Y20.804 Z-1.173 F1000
X62.107 Y20.851 Z-1.072
X62.103 Y20.891 Z-0.985
X61.667 Y25.088
X61.666 Y25.099
X61.665 Y25.11
X61.671 Y25.177 Z-1.13
X61.691 Y25.242 Z-1.275
G2 X61.955 Y25.419 Z-1.985 I0.274 J-0.123 F550
G1 X62.347 Y25.418
G2 X63.21 Y25.006 I-0.05 J-1.216
X64.141 Y22.978 I-2.411 J-2.334
X63.849 Y20.947 I-3.248 J-0.569
X63.376 Y20.605 I-0.711 J0.485
G1 X63.195 Y20.584
X62.795 Y20.583
G2 X62.532 Y20.76 Z-1.275 I0.01 J0.3
G1 X62.516 Y20.804 Z-1.174 F1000
X62.507 Y20.851 Z-1.073
X62.503 Y20.892 Z-0.985
X62.058 Y25.087
X62.057 Y25.098
Y25.109
X62.062 Y25.176 Z-1.13
X62.083 Y25.241 Z-1.275
G2 X62.347 Y25.418 Z-1.985 I0.274 J-0.123 F550
G1 X62.759 Y25.417
G2 X63.616 Y24.999 I-0.067 J-1.224
X64.542 Y22.968 I-2.425 J-2.332
X64.22 Y20.904 I-3.174 J-0.562
X63.595 Y20.585 I-0.638 J0.476
G1 X63.195 Y20.584
G2 X62.931 Y20.761 Z-1.275 I0.01 J0.3
G1 X62.915 Y20.806 Z-1.173 F1000
X62.907 Y20.853 Z-1.071
X62.902 Y20.893 Z-0.985
X62.47 Y25.087
X62.469 Y25.097
Y25.108
X62.474 Y25.176 Z-1.13
X62.495 Y25.24 Z-1.275
G2 X62.759 Y25.417 Z-1.985 I0.274 J-0.123 F550
G1 X63.171 Y25.416
G2 X64.022 Y24.992 I-0.084 J-1.234
X64.943 Y22.957 I-2.44 J-2.329
X64.617 Y20.9 I-3.163 J-0.553
X63.963 Y20.584 I-0.64 J0.487
G1 X63.942 Y20.585
X63.595
G2 X63.332 Y20.761 Z-1.275 I0.01 J0.3
G1 X63.315 Y20.807 Z-1.172 F1000
X63.307 Y20.855 Z-1.069
X63.303 Y20.894 Z-0.985
X62.882 Y25.087
Y25.097
X62.881 Y25.107
X62.887 Y25.175 Z-1.13
X62.907 Y25.24 Z-1.275
G2 X63.171 Y25.416 Z-1.985 I0.274 J-0.123 F550
G1 X63.575 Y25.415
G2 X64.425 Y24.989 I-0.089 J-1.237
X65.343 Y22.952 I-2.445 J-2.328
X65.037 Y20.929 I-3.219 J-0.547
G1 X64.995 Y20.887
G2 X64.309 Y20.564 I-0.626 J0.44
G1 X64.125 Y20.578
X63.963 Y20.585
G2 X63.707 Y20.772 Z-1.275 I0.022 J0.299
G1 X63.694 Y20.813 Z-1.184 F1000
X63.687 Y20.855 Z-1.092
X63.682 Y20.906 Z-0.985
X63.286 Y25.087
X63.285 Y25.097
Y25.106
X63.291 Y25.174 Z-1.13
X63.311 Y25.239 Z-1.275
G2 X63.575 Y25.415 Z-1.985 I0.274 J-0.123 F550
G1 X63.942
X63.972 Y25.416
G2 X64.64 Y25.155 I-0.005 J-0.995
X65.597 Y23.61 I-1.803 J-2.186
G1 X65.599 Y23.533
G2 X65.421 Y23.269 Z-1.275 I-0.3 J0.01
G1 X65.357 Y23.249 Z-1.13 F1000
X65.289 Y23.243 Z-0.985
X65.226 Y23.252
X65.167 Y23.274
X65.113 Y23.308
X65.068 Y23.352
X63.764 Y24.925
X63.729 Y24.977
X63.706 Y25.034
X63.695 Y25.095
X63.698 Y25.163 Z-1.13
X63.716 Y25.228 Z-1.275
G2 X63.972 Y25.416 Z-1.985 I0.278 J-0.112 F550
G1 X64.125 Y25.422
X64.309 Y25.436
G2 X64.972 Y25.214 I0.059 J-0.924
X65.531 Y24.616 I-1.029 J-1.52
G1 X65.581 Y24.461
X65.599 Y24.299
G2 X65.421 Y24.035 Z-1.275 I-0.3 J0.01
G1 X65.357 Y24.015 Z-1.13 F1000
X65.289 Y24.01 Z-0.985
X65.237 Y24.016
X65.187 Y24.031
X65.141 Y24.054
X65.099 Y24.086
X64.168 Y24.919
X64.125 Y24.966
X64.093 Y25.022
X64.073 Y25.083
X64.068 Y25.151 Z-1.13
X64.077 Y25.219 Z-1.275
G2 X64.309 Y25.436 Z-1.985 I0.29 J-0.076 F550
G1 X64.492 Y25.466
X64.553 Y25.478
G2 X65.581 Y24.873 I0.172 J-0.883
G1 X65.599 Y24.69
G2 X65.421 Y24.427 Z-1.275 I-0.3 J0.01
G1 X65.357 Y24.406 Z-1.13 F1000
X65.289 Y24.401 Z-0.985
X65.228 Y24.409
X65.171 Y24.429
X65.119 Y24.461
X64.465 Y24.953
X64.42 Y24.995
X64.384 Y25.045
X64.359 Y25.101
X64.346 Y25.168 Z-1.13
X64.348 Y25.236 Z-1.275
G2 X64.553 Y25.478 Z-1.985 I0.297 J-0.043 F550
G1 X64.675 Y25.513
X64.822 Y25.559
X64.938 Y25.59
G2 X65.599 Y24.929 I0 J-0.661
X65.492 Y24.617 Z-1.275 I-0.569 J0.02
G1 X65.449 Y24.564 Z-1.13 F1000
X65.4 Y24.516 Z-0.985
G2 X65.09 Y24.383 I-0.37 J0.432
X64.418 Y24.987 I-0.064 J0.604
X64.479 Y25.253 I0.608 J0
G1 X64.513 Y25.313 Z-1.13
X64.552 Y25.368 Z-1.275
G2 X64.822 Y25.559 Z-1.985 I0.474 J-0.381 F550
G1 X64.859 Y25.571
X65.005 Y25.632
X65.089 Y25.661
X65.238 Y25.668
X65.383 Y25.599
X65.499 Y25.488
X65.573 Y25.347
X65.599 Y25.188
G2 X65.458 Y24.895 Z-1.275 I-0.406 J0.014
G1 X65.403 Y24.855 Z-1.13 F1000
X65.342 Y24.825 Z-0.985
X65.28 Y24.806
G2 X64.749 Y25.263 I-0.094 J0.427
G1 X64.759 Y25.33 Z-1.13
X64.78 Y25.395 Z-1.275
G2 X65.005 Y25.632 Z-1.985 I0.407 J-0.162 F550
G1 X65.079 Y25.662
X65.196 Y25.712
X65.225 Y25.725
X65.271 Y25.731
X65.317
X65.363 Y25.725
X65.409 Y25.711
X65.45 Y25.691
X65.491 Y25.662
X65.514 Y25.641
X65.532 Y25.62
X65.561 Y25.578
X65.58 Y25.536
X65.592 Y25.494
X65.595 Y25.478
X65.599 Y25.295
Y21.66
G2 X65.177 Y20.665 I-1.463 J0.033
G1 X64.982 Y20.561
X64.77 Y20.511
X64.553 Y20.522
G2 X64.328 Y20.746 Z-1.275 I0.067 J0.292
G1 X64.32 Y20.814 Z-1.13 F1000
X64.328 Y20.881 Z-0.985
X64.351 Y20.946
X64.387 Y21.003
X65.066 Y21.839
X65.111 Y21.884
X65.165 Y21.918
X65.225 Y21.941
X65.289 Y21.95
X65.357 Y21.944 Z-1.13
X65.421 Y21.924 Z-1.275
G2 X65.599 Y21.66 Z-1.985 I-0.122 J-0.274 F550
G1 Y21.072
X65.593 Y20.951
G2 X64.687 Y20.483 I-0.687 J0.221
X64.489 Y20.732 Z-1.275 I0.101 J0.283
G1 Y20.8 Z-1.13 F1000
X64.505 Y20.867 Z-0.985
X64.527 Y20.915
X64.557 Y20.958
X64.594 Y20.995
X64.637 Y21.026
X65.149 Y21.322
X65.193 Y21.343
X65.24 Y21.356
X65.289 Y21.362
X65.357 Y21.356 Z-1.13
X65.421 Y21.336 Z-1.275
G2 X65.599 Y21.072 Z-1.985 I-0.122 J-0.274 F550
G1 Y20.795
X65.595 Y20.717
G2 X64.888 Y20.417 I-0.501 J0.197
X64.668 Y20.657 Z-1.275 I0.172 J0.379
G1 X64.651 Y20.723 Z-1.13 F1000
X64.645 Y20.79 Z-0.985
X64.648 Y20.85
X64.661 Y20.909
G2 X65.371 Y21.185 I0.46 J-0.131
G1 X65.427 Y21.146 Z-1.13
X65.476 Y21.098 Z-1.275
G2 X65.599 Y20.795 Z-1.985 I-0.355 J-0.321 F550
G1 Y20.705
X65.597 Y20.611
X65.596 Y20.562
X65.595 Y20.522
X65.583 Y20.473
X65.558 Y20.46 Z-1.928
G2 X65.264 Y20.473 Z-1.275 I-0.135 J0.268
G1 X65.219 Y20.508 Z-1.153 F1000
X65.181 Y20.551 Z-1.031
X65.168 Y20.568 Z-0.985
X64.886 Y20.954
G2 X64.965 Y21.383 I0.242 J0.177
X65.389 Y21.279 I0.163 J-0.252
X65.519 Y20.985 I-1.376 J-0.782
G1 X65.555 Y20.853 Z-1.275
G2 X65.595 Y20.522 Z-1.985 I-1.542 J-0.356 F550
G1 X65.592 Y20.506
X65.58 Y20.464
X65.561 Y20.422
X65.545 Y20.399
X65.532 Y20.38
X65.514 Y20.359
X65.491 Y20.338
X65.469 Y20.322
X65.45 Y20.309
X65.409 Y20.289
X65.363 Y20.275
X65.317 Y20.269
X65.271
X65.225 Y20.275
G3 X64.309 Y20.567 I-1.445 J-2.951
G1 X64.028 Y20.746 Z-1.275
X63.913 Y20.82 Z-0.985 F1000
X62.658 Y21.634
X46.704 Y23.449
X44.136 Y24.262
X42.486 Y25.074
X40.643 Y26.396
X38.792 Y28.232
X38.085 Y29.101
G2 X37.902 Y29.334 I1.873 J1.655
G1 X37 Y30.863
X35.96 Y33.189 Z-2.971
X34.249 Y41.634
G2 X35.869 Y44.457 Z-3.793 I2.456 J0.467
X36.618 Y44.599 Z-3.971 I0.836 J-2.356 F550
G1 X36.732
X36.813 Y44.595
X36.882 Y44.565
X36.992 Y44.463
X37.046 Y44.323
X37.071 Y44.175
X37.105 Y43.63
X37.12 Y42.822
X37.127 Y42.014
X37.141 Y39.589
X37.166 Y34.74
G3 X38.031 Y29.163 I23.306 J0.761
X39.094 Y25.685 I63.127 J17.385
G2 X39.461 Y24.251 I-10.595 J-3.482
X39.439 Y21.845 I-6.09 J-1.146
X38.6 Y18.761 I-23.428 J4.713
G3 X37.558 Y14.859 I30.292 J-10.184
X37.172 Y10.843 I19.444 J-3.896
G1 X37.167 Y10.035
X37.152 Y6.802
X37.139 Y3.569
X37.213 Y2.764
G2 X37.295 Y2.117 I-3.398 J-0.754
X36.545 Y1.401 I-0.751 J0.035
X36.281 Y1.578 Z-3.26 I0.01 J0.3
G1 X36.262 Y1.639 Z-3.125 F1000
X36.255 Y1.702 Z-2.99
Y1.711 Z-2.971
X36.443 Y44.289
Y44.301 Z-2.995
X36.449 Y44.363 Z-3.128
X36.469 Y44.422 Z-3.26
G2 X36.732 Y44.599 Z-3.971 I0.274 J-0.122 F550
G1 X36.91
X36.966 Y44.596
X37.095 Y44.519
G2 X37.337 Y43.653 I-0.762 J-0.68
G1 X37.307 Y43.574 Z-3.793
X37.265 Y43.502 Z-3.615
X37.212 Y43.437 Z-3.438
X37.15 Y43.381 Z-3.26
X37.093 Y43.344 Z-3.115 F1000
X37.031 Y43.314 Z-2.971
G2 X36.538 Y43.373 I-0.193 J0.477
X36.482 Y44.427 I0.395 J0.549
G1 X36.535 Y44.47 Z-3.115
X36.592 Y44.507 Z-3.26
G2 X36.91 Y44.599 Z-3.971 I0.342 J-0.584 F550
G1 X37.061
X37.128 Y44.596
G2 X37.45 Y44.052 I-0.204 J-0.488
G1 X37.413 Y43.881
G2 X37.175 Y43.659 Z-3.26 I-0.367 J0.155
G1 X37.109 Y43.643 Z-3.115 F1000
X37.041 Y43.638 Z-2.971
X36.968 Y43.646
X36.898 Y43.666
G2 X36.669 Y44.374 I0.18 J0.449
G1 X36.709 Y44.428 Z-3.115
X36.757 Y44.477 Z-3.26
G2 X37.061 Y44.599 Z-3.971 I0.321 J-0.362 F550
G1 X37.231
X37.259
X37.305 Y44.593
X37.351 Y44.579
X37.37 Y44.571
X37.411 Y44.549
X37.452 Y44.521
X37.463 Y44.51
X37.504 Y44.46
X37.535 Y44.403
X37.557 Y44.342
G2 X37.098 Y44.312 I-0.23 J-0.015
X37.107 Y44.393 I0.23 J0.015
X37.452 Y44.521 I0.221 J-0.066
G1 X37.481 Y44.494
X37.503 Y44.468
X37.521 Y44.441
X37.534 Y44.414
X37.545 Y44.388
X37.557 Y44.342
X37.562 Y44.296
X37.559 Y44.25
G3 X37.333 Y43.654 I15.357 J-6.184
X37.241 Y42.919 I2.475 J-0.681
G2 X37.272 Y37.044 I-685.339 J-6.521
G3 X37.431 Y35.025 I50.722 J2.968
G1 X37.457 Y34.841
X37.534 Y34.482
G3 X38.211 Y30.498 I97.178 J14.459
X39.566 Y25.843 I58.527 J14.514
G2 X40.021 Y23.152 I-9.233 J-2.942
X39.526 Y20.117 I-12.338 J0.454
X38.598 Y17.02 I-413.403 J122.124
G3 X37.746 Y12.518 I23.412 J-6.765
X37.4 Y10.792 I16.575 J-4.213
G1 X37.366 Y10.241
X37.283 Y9.139
G3 X37.25 Y2.714 I380.276 J-5.145
G1 X37.29 Y2.53
X37.334 Y2.347
X37.387 Y2.19
X37.427 Y2.048
X37.428 Y1.898
G2 X36.801 Y1.401 I-0.627 J0.147
X36.488 Y1.506 Z-3.26 I0.02 J0.578
G1 X36.434 Y1.548 Z-3.115 F1000
X36.387 Y1.597 Z-2.971
G2 X36.254 Y1.862 I0.434 J0.382
X37.071 Y2.523 I0.579 J0.119
G1 X37.132 Y2.492 Z-3.115
X37.189 Y2.454 Z-3.26
G2 X37.387 Y2.19 Z-3.971 I-0.355 J-0.473 F550
G1 X37.396 Y2.163
X37.466 Y1.98
X37.487 Y1.936
X37.52 Y1.856
X37.472 Y1.679
X37.363 Y1.532
X37.208 Y1.435
X37.028 Y1.401
G2 X36.751 Y1.564 Z-3.26 I0.012 J0.336
G1 X36.722 Y1.626 Z-3.115 F1000
X36.707 Y1.692 Z-2.971
X36.705 Y1.706
G2 X37.1 Y2.159 I0.414 J0.038
G1 X37.168 Y2.156 Z-3.115
X37.235 Y2.143 Z-3.26
G2 X37.487 Y1.936 Z-3.971 I-0.116 J-0.399 F550
G1 X37.534 Y1.837
X37.55 Y1.796
X37.559 Y1.75
X37.562 Y1.704
X37.557 Y1.658
X37.545 Y1.612
X37.534 Y1.586
X37.521 Y1.559
X37.503 Y1.533
X37.481 Y1.506
X37.453 Y1.48
X37.412 Y1.451
X37.371 Y1.429
X37.351 Y1.421
X37.305 Y1.407
X37.259 Y1.401
X36.545
G2 X36.255 Y1.7 I0.01 J0.3
G1 Y1.701
Y1.713
X36.256 Y1.725
X36.274 Y1.775 Z-3.966
X36.291 Y1.824 Z-3.951
X36.306 Y1.869 Z-3.928
X36.343 Y1.902 Z-3.891
X36.373 Y1.929 Z-3.845
X36.396 Y1.949 Z-3.791
X36.41 Y1.961 Z-3.732
X36.414 Y1.966 Z-3.671
G0 Z2.01
X34.298 Y44.571
Z-4.949
G1 Z-5.249 F550
G2 X34.631 Y44.599 Z-5.96 I0.449 J-3.294
G1 X34.709
X34.76 Y44.597
X34.829 Y44.569
X34.941 Y44.469
X34.999 Y44.33
G2 X35.179 Y41.841 I-12.604 J-2.162
G1 X35.187 Y41.033
X35.197 Y37.8
X35.224 Y28.909
X35.238 Y28.101
X35.256 Y27.293
X35.357 Y23.253
X35.185 Y14.364
X35.181 Y13.556
X35.161 Y7.899
X35.148 Y3.857
G3 X35.27 Y2.283 I18.874 J0.67
G2 X35.107 Y1.687 I-0.909 J-0.071
G1 X34.942 Y1.533
X34.74 Y1.435
X34.518 Y1.401
G2 X34.254 Y1.578 Z-5.249 I0.01 J0.3
G1 X34.234 Y1.639 Z-5.114 F1000
X34.228 Y1.702 Z-4.979
Y1.711 Z-4.96
X34.42 Y44.289
Y44.301 Z-4.985
X34.427 Y44.363 Z-5.117
X34.446 Y44.422 Z-5.249
G2 X34.709 Y44.599 Z-5.96 I0.274 J-0.122 F550
G1 X34.86
X34.911 Y44.597
X35.044 Y44.527
G2 X35.434 Y43.684 I-1.367 J-1.144
X35.632 Y42.334 I-6.677 J-1.672
G1 X35.673 Y41.527
X35.685 Y40.718
X35.69 Y39.91
X35.701 Y36.677
X35.723 Y29.403
G3 X35.845 Y23.747 I296.471 J3.594
G2 X35.793 Y19.706 I-120.319 J-0.458
G3 X35.663 Y8.392 I377.427 J-9.975
G1 X35.649 Y4.351
G3 X35.722 Y2.737 I27.182 J0.417
G2 X35.538 Y1.8 I-2.138 J-0.066
X34.872 Y1.401 I-0.672 J0.365
X34.608 Y1.578 Z-5.249 I0.01 J0.3
G1 X34.589 Y1.638 Z-5.116 F1000
X34.582 Y1.701 Z-4.982
Y1.711 Z-4.96
X34.571 Y44.289
Y44.299 Z-4.982
X34.578 Y44.362 Z-5.116
X34.597 Y44.422 Z-5.249
G2 X34.86 Y44.599 Z-5.96 I0.274 J-0.122 F550
G1 X34.998
G2 X35.439 Y44.327 I-0.043 J-0.564
X35.955 Y43.048 I-2.357 J-1.693
X36.171 Y40.935 I-10.742 J-2.166
G1 X36.186 Y40.127
X36.191 Y39.319
X36.198 Y37.702
X36.222 Y29.62
G3 X36.355 Y23.156 I449.197 J5.966
G1 X36.262 Y18.307
X36.174 Y13.458
X36.172 Y11.034
X36.15 Y4.568
X36.16 Y3.76
G2 X36.053 Y2.09 I-4.499 J-0.55
X35.628 Y1.495 I-1.052 J0.302
G1 X35.448 Y1.426
X35.256 Y1.401
G2 X34.993 Y1.578 Z-5.249 I0.01 J0.3
G1 X34.974 Y1.637 Z-5.118 F1000
X34.967 Y1.699 Z-4.986
Y1.711 Z-4.96
X34.708 Y44.289
Y44.297 Z-4.978
X34.714 Y44.361 Z-5.114
X34.734 Y44.422 Z-5.249
G2 X34.998 Y44.599 Z-5.96 I0.274 J-0.122 F550
G1 X35.206
G2 X35.708 Y44.354 I-0.021 J-0.68
X36.371 Y42.987 I-2.187 J-1.905
X36.629 Y41.308 I-8.046 J-2.094
X36.699 Y37.268 I-69.358 J-3.224
G1 X36.721 Y29.994
G3 X36.848 Y23.53 I303.135 J2.709
G2 X36.687 Y14.641 I-484.118 J4.312
G1 X36.683 Y13.832
X36.676 Y12.216
X36.651 Y4.942
X36.653 Y4.133
G2 X36.542 Y2.329 I-6.066 J-0.533
X36.17 Y1.593 I-1.73 J0.411
G1 X36.016 Y1.49
X35.844 Y1.424
X35.661 Y1.401
X35.256
G2 X34.993 Y1.578 Z-5.249 I0.01 J0.3
G1 X34.974 Y1.638 Z-5.116 F1000
X34.967 Y1.7 Z-4.982
Y1.711 Z-4.96
X34.916 Y44.289
Y44.299 Z-4.982
X34.923 Y44.362 Z-5.116
X34.943 Y44.422 Z-5.249
G2 X35.206 Y44.599 Z-5.96 I0.274 J-0.122 F550
G1 X35.48
G2 X35.988 Y44.386 I-0.011 J-0.738
X36.715 Y43.145 I-1.649 J-1.799
G1 X36.716 Y43.051
G2 X36.533 Y42.791 Z-5.249 I-0.3 J0.017
G1 X36.468 Y42.772 Z-5.105 F1000
X36.4 Y42.768 Z-4.96
G2 X36.176 Y42.887 I0.016 J0.3
G1 X35.251 Y44.119
X35.219 Y44.171
X35.199 Y44.229
X35.191 Y44.289
X35.196 Y44.357 Z-5.105
X35.217 Y44.422 Z-5.249
G2 X35.48 Y44.599 Z-5.96 I0.274 J-0.122 F550
G1 X35.801
G2 X36.322 Y44.395 I-0.013 J-0.796
X36.784 Y43.7 I-0.604 J-0.903
G1 X36.764 Y43.47
G2 X36.534 Y43.252 Z-5.249 I-0.29 J0.076
G1 X36.466 Y43.246 Z-5.105 F1000
X36.399 Y43.255 Z-4.96
X36.343 Y43.276
X36.292 Y43.307
X36.249 Y43.348
X35.587 Y44.101
X35.548 Y44.158
X35.522 Y44.221
X35.512 Y44.289
X35.518 Y44.357 Z-5.105
X35.538 Y44.422 Z-5.249
G2 X35.801 Y44.599 Z-5.96 I0.274 J-0.122 F550
G1 X36.162
X36.282 Y44.593
G2 X36.807 Y43.652 I-0.195 J-0.726
X36.561 Y43.451 Z-5.249 I-0.284 J0.096
G1 X36.493 Y43.45 Z-5.105 F1000
X36.426 Y43.464 Z-4.96
X36.365 Y43.493
X36.312 Y43.535
X36.269 Y43.587
X35.919 Y44.138
X35.894 Y44.185
X35.879 Y44.236
X35.872 Y44.289
X35.878 Y44.357 Z-5.105
X35.898 Y44.422 Z-5.249
G2 X36.162 Y44.599 Z-5.96 I0.274 J-0.122 F550
G1 X36.434
X36.533 Y44.594
X36.676 Y44.549
G2 X36.879 Y43.843 I-0.322 J-0.475
X36.644 Y43.614 Z-5.249 I-0.432 J0.209
G1 X36.58 Y43.59 Z-5.105 F1000
X36.514 Y43.576 Z-4.96
X36.443 Y43.571
X36.372 Y43.577
G2 X36.034 Y44.384 I0.081 J0.508
G1 X36.077 Y44.437 Z-5.105
X36.126 Y44.483 Z-5.249
G2 X36.434 Y44.599 Z-5.96 I0.326 J-0.398 F550
G1 X36.645
X36.68
X36.709
X36.775 Y44.594
X36.801 Y44.591
X36.813 Y44.567 Z-5.902
G2 X36.8 Y44.273 Z-5.249 I-0.268 J-0.135
G1 X36.764 Y44.226 Z-5.125 F1000
X36.72 Y44.187 Z-5
X36.704 Y44.177 Z-4.96
X36.283 Y43.876
G2 X35.858 Y43.956 I-0.174 J0.244
X35.956 Y44.378 I0.251 J0.164
X36.248 Y44.513 I0.809 J-1.36
G1 X36.378 Y44.552 Z-5.249
G2 X36.709 Y44.599 Z-5.96 I0.386 J-1.535 F550
G1 X36.755 Y44.598
X36.801 Y44.591
X36.829 Y44.583
X36.857 Y44.571
X36.889 Y44.554
X36.934 Y44.522
X36.96 Y44.499
X36.984 Y44.475
G2 X36.964 Y44.203 I-0.2 J-0.122
X36.613 Y44.496 I-0.175 J0.146
X36.889 Y44.554 I0.175 J-0.146
G1 X36.921 Y44.535
X36.952 Y44.509
X36.984 Y44.475
X37 Y44.451
X37.013 Y44.431
X37.032 Y44.388
X37.044 Y44.342
X37.049 Y44.296
X37.046 Y44.25
G3 X36.8 Y43.633 I21.29 J-8.841
X36.713 Y42.919 I2.419 J-0.659
G1 X36.733 Y38.972
X36.741 Y35.025
G3 X36.953 Y32.087 I37.422 J1.221
G1 X37.052 Y31.537
X37.081 Y31.353
G2 X37.236 Y28.018 I-27.302 J-2.938
X37.281 Y19.129 I-131.644 J-5.117
G1 X37.206 Y15.543
X37.205 Y15.51
X37.202 Y15.476
X37.198 Y15.443
G3 X36.87 Y13.179 I45.414 J-7.719
X36.737 Y10.792 I103.744 J-6.976
G2 X36.713 Y3.081 I-833.657 J-1.169
G1 X36.717 Y2.897
X36.732 Y2.714
X36.75 Y2.613
G2 X36.57 Y1.677 I-1.217 J-0.251
G1 X36.403 Y1.529
X36.203 Y1.434
X35.983 Y1.401
G2 X35.72 Y1.578 Z-5.249 I0.01 J0.3
G1 X35.699 Y1.643 Z-5.105 F1000
X35.694 Y1.711 Z-4.96
X35.699 Y1.757
X35.711 Y1.802
X35.73 Y1.844
X36.193 Y2.694
G2 X36.394 Y2.844 I0.263 J-0.143
G1 X36.462 Y2.85 Z-5.105
X36.529 Y2.841 Z-5.249
G2 X36.75 Y2.613 Z-5.96 I-0.073 J-0.291 F550
G3 X36.842 Y2.252 I1.356 J0.157
G1 X36.882 Y2.131
G2 X36.211 Y1.401 I-0.671 J-0.057
X35.897 Y1.503 Z-5.249 I0.021 J0.602
G1 X35.843 Y1.544 Z-5.105 F1000
X35.793 Y1.591 Z-4.96
G2 X35.644 Y1.874 I0.439 J0.412
X36.522 Y2.583 I0.616 J0.135
G1 X36.583 Y2.551 Z-5.105
X36.639 Y2.513 Z-5.249
G2 X36.843 Y2.252 Z-5.96 I-0.379 J-0.505 F550
G1 X36.876 Y2.163
X36.941 Y2.017
X36.97 Y1.941
X36.979 Y1.791
G2 X36.477 Y1.401 I-0.502 J0.128
X36.183 Y1.54 Z-5.249 I0.014 J0.41
G1 X36.143 Y1.595 Z-5.105 F1000
X36.112 Y1.656 Z-4.96
X36.091 Y1.724
G2 X36.57 Y2.271 I0.442 J0.096
G1 X36.637 Y2.261 Z-5.105
X36.702 Y2.24 Z-5.249
G2 X36.941 Y2.017 Z-5.96 I-0.169 J-0.42 F550
G1 X37.011 Y1.855
X37.025 Y1.823
X37.036 Y1.796
X37.046 Y1.735
X37.049 Y1.704
G2 X36.718 Y1.749 I-0.165 J0.023
X36.912 Y1.891 I0.165 J-0.023
G1 X36.951 Y1.879
X36.986 Y1.859
X37.015 Y1.83
X37.036 Y1.796
X37.046 Y1.75
X37.049 Y1.704
X37.044 Y1.658
X37.032 Y1.612
X37.013 Y1.569
X36.984 Y1.525
X36.953 Y1.491
X36.921 Y1.465
X36.889 Y1.446
X36.857 Y1.429
X36.829 Y1.417
X36.801 Y1.409
X36.755 Y1.402
X36.709 Y1.401
X35.661
X35.517 Y1.444 Z-5.641
X35.426 Y1.604 Z-5.249
X35.372 Y1.7 Z-5.015 F1000
X35.369 Y1.726 Z-4.96
X31.388 Y41.818
G2 X33.784 Y44.599 I2.484 J0.283
G1 Z-7.175
Z-7.96 F550
X33.867
X33.917 Y44.597
X33.988 Y44.571
X34.103 Y44.475
X34.16 Y44.336
X34.185 Y44.188
X34.221 Y43.381
X34.229 Y42.573
X34.231 Y41.764
Y36.107
X34.227 Y3.777
X34.262 Y2.97
G2 X34.4 Y2.194 I-4.383 J-1.182
X33.65 Y1.401 I-0.752 J-0.04
X33.387 Y1.578 Z-7.249 I0.01 J0.3
G1 X33.367 Y1.639 Z-7.114 F1000
X33.361 Y1.702 Z-6.978
Y1.711 Z-6.96
X33.577 Y44.289
Y44.301 Z-6.985
X33.584 Y44.363 Z-7.117
X33.603 Y44.422 Z-7.249
G2 X33.867 Y44.599 Z-7.96 I0.274 J-0.122 F550
G1 X34.002
X34.053 Y44.597
X34.193 Y44.543
G2 X34.505 Y43.873 I-1.019 J-0.882
X34.685 Y42.57 I-6.587 J-1.575
G1 X34.72 Y41.763
X34.729 Y40.955
X34.731 Y40.147
Y35.297
X34.727 Y4.584
X34.733 Y3.776
X34.816 Y2.766
G2 X34.673 Y1.824 I-1.962 J-0.184
X33.995 Y1.401 I-0.683 J0.34
X33.732 Y1.578 Z-7.249 I0.01 J0.3
G1 X33.712 Y1.637 Z-7.119 F1000
X33.705 Y1.698 Z-6.988
Y1.711 Z-6.96
X33.297 Y44.465
X33.29 Y44.501
X33.27 Y44.532
X33.24 Y44.554
X33.204 Y44.564
X33.167 Y44.559
X33.134 Y44.541
X33.11 Y44.513
X33.098 Y44.478
X33.1 Y44.44
X33.116 Y44.406
X33.142 Y44.38
X33.176 Y44.366
X33.214 Y44.365
X33.249 Y44.378
G2 X33.541 Y44.513 I0.809 J-1.36
G1 X33.671 Y44.552 Z-7.249
G2 X34.002 Y44.599 Z-7.96 I0.386 J-1.535 F550
G1 X34.151
G2 X34.584 Y44.317 I-0.035 J-0.527
X35.008 Y43.207 I-2.261 J-1.499
X35.213 Y41.194 I-10.6 J-2.095
G1 X35.226 Y40.385
X35.23 Y39.577
X35.231 Y37.961
X35.227 Y4.823
X35.23 Y4.015
G2 X35.268 Y2.704 I-9.062 J-0.914
X35.025 Y1.777 I-2.285 J0.102
X34.372 Y1.401 I-0.659 J0.389
X34.108 Y1.578 Z-7.249 I0.01 J0.3
G1 X34.089 Y1.637 Z-7.117 F1000
X34.082 Y1.699 Z-6.985
Y1.711 Z-6.96
X33.862 Y44.289
X33.861 Y44.298 Z-6.978
X33.868 Y44.361 Z-7.114
X33.888 Y44.422 Z-7.249
G2 X34.151 Y44.599 Z-7.96 I0.274 J-0.122 F550
G1 X34.38
X34.504 Y44.593
G2 X35.108 Y43.953 I-0.551 J-1.126
X35.6 Y42.129 I-4.508 J-2.193
X35.726 Y39.19 I-21.39 J-2.389
G1 X35.731 Y38.381
Y34.34
X35.727 Y5.244
G2 X35.742 Y3.059 I-158.653 J-2.181
X35.407 Y1.754 I-3.019 J0.079
X34.763 Y1.4 I-0.656 J0.43
G1 X34.372 Y1.401
G2 X34.108 Y1.578 Z-7.249 I0.01 J0.3
G1 X34.089 Y1.638 Z-7.116 F1000
X34.082 Y1.701 Z-6.982
Y1.711 Z-6.96
X34.09 Y44.289
Y44.299 Z-6.982
X34.097 Y44.362 Z-7.116
X34.116 Y44.422 Z-7.249
G2 X34.38 Y44.599 Z-7.96 I0.274 J-0.122 F550
G1 X34.631
G2 X35.132 Y44.359 I-0.034 J-0.714
X35.82 Y43.061 I-1.952 J-1.866
G1 X35.819 Y42.976
G2 X35.636 Y42.717 Z-7.249 I-0.299 J0.018
G1 X35.57 Y42.698 Z-7.105 F1000
X35.502 Y42.694 Z-6.96
G2 X35.271 Y42.826 I0.017 J0.299
G1 X34.392 Y44.132
X34.366 Y44.181
X34.349 Y44.234
X34.341 Y44.289
X34.347 Y44.357 Z-7.105
X34.367 Y44.422 Z-7.249
G2 X34.631 Y44.599 Z-7.96 I0.274 J-0.122 F550
G1 X34.93
G2 X35.43 Y44.383 I-0.044 J-0.789
X35.842 Y43.862 I-0.77 J-1.031
G1 X35.884 Y43.665
X35.873 Y43.465
G2 X35.649 Y43.24 Z-7.249 I-0.292 J0.067
G1 X35.581 Y43.232 Z-7.105 F1000
X35.514 Y43.24 Z-6.96
X35.452 Y43.261
X35.397 Y43.295
X35.35 Y43.34
X34.71 Y44.107
X34.674 Y44.162
X34.65 Y44.224
X34.641 Y44.289
X34.646 Y44.357 Z-7.105
X34.667 Y44.422 Z-7.249
G2 X34.93 Y44.599 Z-7.96 I0.274 J-0.122 F550
G1 X35.245
G2 X35.909 Y44.106 I-0.025 J-0.727
G1 X35.951 Y43.881
X35.923 Y43.653
G2 X35.68 Y43.448 Z-7.249 I-0.286 J0.092
G1 X35.612 Y43.446 Z-7.105 F1000
X35.546 Y43.459 Z-6.96
X35.486 Y43.486
X35.433 Y43.525
X35.39 Y43.575
X35.008 Y44.129
X34.98 Y44.179
X34.963 Y44.233
X34.955 Y44.289
X34.961 Y44.357 Z-7.105
X34.981 Y44.422 Z-7.249
G2 X35.245 Y44.599 Z-7.96 I0.274 J-0.122 F550
G1 X35.548
X35.643 Y44.594
G2 X35.99 Y43.85 I-0.1 J-0.5
G1 X35.946 Y43.779 Z-7.782
X35.89 Y43.718 Z-7.605
X35.824 Y43.667 Z-7.427
X35.75 Y43.627 Z-7.249
X35.686 Y43.606 Z-7.105 F1000
X35.619 Y43.593 Z-6.96
X35.568 Y43.59
X35.517 Y43.593
G2 X35.15 Y44.381 I0.048 J0.502
G1 X35.192 Y44.434 Z-7.105
X35.241 Y44.481 Z-7.249
G2 X35.548 Y44.599 Z-7.96 I0.324 J-0.387 F550
G1 X35.795
X35.844
X35.884
X35.895 Y44.597
X35.942 Y44.587
X35.987 Y44.572
X36.03 Y44.551
G2 X36.101 Y44.31 I-0.141 J-0.172
X35.682 Y44.447 I-0.209 J0.068
X35.884 Y44.599 I0.209 J-0.068
G1 X35.911 Y44.596
X35.939 Y44.59
X35.966 Y44.582
X35.993 Y44.571
X36.03 Y44.551
X36.067 Y44.523
X36.102 Y44.489
X36.128 Y44.455
X36.148 Y44.421
X36.162 Y44.388
X36.174 Y44.342
X36.179 Y44.296
X36.176 Y44.25
X36.166 Y44.204
G3 X35.815 Y42.919 I2.156 J-1.279
G1 X35.822 Y41.634
X35.847 Y35.759
X35.853 Y31.537
G3 X36.102 Y24.744 I188.243 J3.479
G2 X35.972 Y18.686 I-69.446 J-1.544
G3 X35.853 Y14.463 I276.345 J-9.873
G1 X35.846 Y10.057
X35.818 Y3.265
G3 X35.847 Y2.658 I3.476 J-0.137
G2 X35.636 Y1.631 I-1.23 J-0.282
G1 X35.471 Y1.508
X35.285 Y1.428
X35.084 Y1.401
G2 X34.821 Y1.578 Z-7.249 I0.01 J0.3
G1 X34.801 Y1.643 Z-7.105 F1000
X34.795 Y1.711 Z-6.96
X34.805 Y1.777
X34.829 Y1.839
X35.29 Y2.729
G2 X35.49 Y2.884 I0.266 J-0.138
G1 X35.558 Y2.891 Z-7.105
X35.625 Y2.883 Z-7.249
G2 X35.849 Y2.658 Z-7.96 I-0.068 J-0.292 F550
G3 X35.956 Y2.252 I2.02 J0.314
G1 X35.994 Y2.126
G2 X35.309 Y1.401 I-0.685 J-0.039
X35.045 Y1.578 Z-7.249 I0.01 J0.3
G1 X35.025 Y1.643 Z-7.105 F1000
X35.02 Y1.711 Z-6.96
X35.029 Y1.775
X35.051 Y1.835
X35.086 Y1.89
X35.444 Y2.331
X35.48 Y2.368
X35.521 Y2.399
X35.567 Y2.422
X35.633 Y2.439 Z-7.105
X35.701 Y2.441 Z-7.249
G2 X35.956 Y2.252 Z-7.96 I-0.024 J-0.299 F550
G1 X35.988 Y2.163
X36.032 Y2.074
X36.071 Y1.982
X36.089 Y1.834
G2 X35.555 Y1.401 I-0.534 J0.113
X35.256 Y1.534 Z-7.249 I0.015 J0.436
G1 X35.213 Y1.586 Z-7.105 F1000
X35.178 Y1.645 Z-6.96
X35.151 Y1.715
G2 X35.655 Y2.324 I0.459 J0.134
G1 X35.722 Y2.313 Z-7.105
X35.787 Y2.292 Z-7.249
G2 X36.032 Y2.074 Z-7.96 I-0.178 J-0.444 F550
G1 X36.078 Y1.98
X36.125 Y1.888
X36.138 Y1.862
X36.149 Y1.842
X36.168 Y1.782
X36.176 Y1.75
X36.157 Y1.73 Z-7.902
G2 X35.875 Y1.646 Z-7.249 I-0.216 J0.208
G1 X35.824 Y1.663 Z-7.133 F1000
X35.748 Y1.695 Z-6.96
X35.328 Y1.874
G2 X35.179 Y2.288 I0.118 J0.276
X35.602 Y2.406 I0.267 J-0.138
X35.858 Y2.21 I-0.828 J-1.349
G1 X35.953 Y2.113 Z-7.249
G2 X36.149 Y1.842 Z-7.96 I-1.179 J-1.056 F550
G1 X36.166 Y1.796
X36.176 Y1.75
X36.179 Y1.704
X36.174 Y1.658
X36.162 Y1.612
X36.148 Y1.579
X36.128 Y1.545
X36.102 Y1.511
X36.067 Y1.478
X36.03 Y1.449
X35.993 Y1.429
X35.966 Y1.418
X35.939 Y1.41
X35.911 Y1.404
X35.884 Y1.401
X34.763
X34.6 Y1.456 Z-7.596
X34.54 Y1.607 Z-7.249
X34.49 Y1.734 Z-6.96 F1000
X34.466 Y1.796
X33.551 Y13.178
X31.25 Y41.818 Z-8.95
G2 X33.247 Y44.553 I2.484 J0.283
G1 X33.355 Y44.572 Z-9.221
G2 X33.646 Y44.599 Z-9.95 I0.379 J-2.471 F550
G1 X33.784
X33.885 Y44.594
X34.012 Y44.514
X34.086 Y44.384
X34.115 Y44.236
X34.155 Y43.435
X34.161 Y42.627
X34.162 Y41.819
X34.161 Y27.271
X34.158 Y3.832
X34.187 Y3.024
G2 X34.333 Y2.142 I-4.412 J-1.184
X33.581 Y1.401 I-0.754 J0.012
X33.318 Y1.578 Z-9.239 I0.01 J0.3
G1 X33.298 Y1.639 Z-9.104 F1000
X33.292 Y1.702 Z-8.969
Y1.711 Z-8.95
X33.495 Y44.289
Y44.301 Z-8.975
X33.501 Y44.363 Z-9.107
X33.521 Y44.422 Z-9.239
G2 X33.784 Y44.599 Z-9.95 I0.274 J-0.122 F550
G1 X33.976
X34.021 Y44.597
X34.152 Y44.524
G2 X34.503 Y43.286 I-1.651 J-1.137
G1 X34.482 Y43.221 Z-9.808
X34.447 Y43.162 Z-9.666
X34.4 Y43.113 Z-9.524
X34.344 Y43.076 Z-9.382
X34.281 Y43.052 Z-9.239
X34.214 Y43.042 Z-9.095 F1000
X34.146 Y43.046 Z-8.95
G2 X33.908 Y43.276 I0.055 J0.295
G1 X33.694 Y44.234
X33.686 Y44.289
X33.692 Y44.357 Z-9.095
X33.712 Y44.422 Z-9.239
G2 X33.976 Y44.599 Z-9.95 I0.274 J-0.122 F550
G1 X34.127
X34.197 Y44.596
G2 X34.593 Y43.653 I-0.312 J-0.686
G1 X34.559 Y43.576 Z-9.772
X34.514 Y43.505 Z-9.595
X34.458 Y43.443 Z-9.417
X34.394 Y43.39 Z-9.239
X34.336 Y43.355 Z-9.095 F1000
X34.273 Y43.327 Z-8.95
G2 X33.845 Y43.354 I-0.184 J0.497
X33.701 Y44.423 I0.304 J0.586
G1 X33.753 Y44.467 Z-9.095
X33.809 Y44.505 Z-9.239
G2 X34.127 Y44.599 Z-9.95 I0.34 J-0.566 F550
G1 X34.289
X34.383 Y44.594
X34.523 Y44.538
G2 X34.663 Y43.837 I-0.344 J-0.433
X34.428 Y43.611 Z-9.239 I-0.388 J0.168
G1 X34.363 Y43.591 Z-9.095 F1000
X34.295 Y43.583 Z-8.95
X34.237 Y43.584
X34.179 Y43.593
X34.123 Y43.61
G2 X33.889 Y44.383 I0.184 J0.477
G1 X33.932 Y44.436 Z-9.095
X33.982 Y44.483 Z-9.239
G2 X34.289 Y44.599 Z-9.95 I0.325 J-0.395 F550
G1 X34.417
X34.511 Y44.598
X34.56 Y44.597
X34.6
X34.656 Y44.582
X34.688 Y44.571
G2 X34.512 Y44.259 I-0.088 J-0.156
X34.461 Y44.529 I0.088 J0.156
G1 X34.5 Y44.565
X34.548 Y44.588
X34.6 Y44.597
X34.644 Y44.588
X34.688 Y44.571
X34.712 Y44.559
X34.736 Y44.544
X34.762 Y44.521
X34.8 Y44.483
X34.809 Y44.473
G2 X34.778 Y44.196 I-0.187 J-0.12
X34.471 Y44.506 I-0.154 J0.155
X34.762 Y44.521 I0.154 J-0.155
G1 X34.784 Y44.502
X34.809 Y44.473
X34.829 Y44.445
X34.844 Y44.416
X34.855 Y44.388
X34.868 Y44.342
X34.872 Y44.296
X34.87 Y44.25
G2 X34.765 Y44.021 I-0.532 J0.105
G3 X34.473 Y42.919 I1.734 J-1.048
G1 X34.472 Y40.9
Y3.265
G3 X34.543 Y2.499 I2.599 J-0.145
G2 X34.456 Y1.715 I-0.854 J-0.302
G1 X34.287 Y1.547
X34.076 Y1.438
X33.842 Y1.401
G2 X33.578 Y1.578 Z-9.239 I0.01 J0.3
G1 X33.558 Y1.643 Z-9.095 F1000
X33.553 Y1.711 Z-8.95
X33.558 Y1.76
X33.572 Y1.807
X33.593 Y1.851
X34.002 Y2.554
X34.033 Y2.598
X34.071 Y2.636
X34.116 Y2.666
X34.165 Y2.688
X34.231 Y2.702 Z-9.095
X34.299 Y2.701 Z-9.239
G2 X34.545 Y2.5 Z-9.95 I-0.038 J-0.298 F550
G1 X34.591 Y2.347
X34.663 Y2.163
X34.713 Y2.034
X34.716 Y1.884
G2 X34.099 Y1.401 I-0.617 J0.152
X33.797 Y1.528 Z-9.239 I0.016 J0.461
G1 X33.751 Y1.578 Z-9.095 F1000
X33.713 Y1.635 Z-8.95
X33.687 Y1.689
X33.668 Y1.747
G2 X34.286 Y2.42 I0.528 J0.136
G1 X34.352 Y2.405 Z-9.095
X34.416 Y2.381 Z-9.239
G2 X34.663 Y2.163 Z-9.95 I-0.22 J-0.498 F550
G1 X34.765 Y1.98
X34.814 Y1.881
X34.776 Y1.697
X34.67 Y1.541
X34.514 Y1.437
X34.329 Y1.401
G2 X34.05 Y1.56 Z-9.239 I0.012 J0.346
G1 X34.023 Y1.611 Z-9.118 F1000
X34.005 Y1.665 Z-8.996
X34 Y1.686 Z-8.95
G2 X34.364 Y2.177 I0.409 J0.077
G1 X34.432 Y2.179 Z-9.095
X34.5 Y2.169 Z-9.239
G2 X34.765 Y1.98 Z-9.95 I-0.091 J-0.406 F550
G1 X34.826 Y1.871
X34.846 Y1.833
X34.86 Y1.796
X34.869 Y1.735
X34.872 Y1.704
X34.86 Y1.659
X34.836 Y1.618
X34.803 Y1.585
X34.762 Y1.562
X34.717 Y1.55
X34.702 Y1.548
G2 X34.686 Y1.908 I-0.008 J0.18
X34.86 Y1.796 I0.008 J-0.18
G1 X34.87 Y1.75
X34.872 Y1.704
X34.867 Y1.658
X34.855 Y1.612
X34.844 Y1.584
X34.829 Y1.555
X34.809 Y1.527
X34.784 Y1.498
X34.736 Y1.457
X34.712 Y1.441
X34.688 Y1.429
X34.644 Y1.412
X34.417 Y1.466 Z-9.454
X34.357 Y1.547 Z-9.239
X34.309 Y1.612 Z-9.066 F1000
X34.31 Y1.668 Z-8.937
X34.465 Y34.474 Z-2.971
G2 X37.178 Y35.149 Z-3.788 I1.536 J-0.382
X37.534 Y34.482 Z-3.971 I-1.178 J-1.057 F550
G3 X37.9 Y32.799 I92.651 J19.276
X38.513 Y30.955 I63.741 J20.132
G2 X39.33 Y28.248 I-36.105 J-12.385
X40.2 Y25.374 I-60.928 J-20.007
X40.212 Y20.94 I-9.265 J-2.242
X39.371 Y17.879 I-27.399 J5.883
G3 X38.737 Y15.559 I34.797 J-10.759
G1 X38.718 Y15.51
X38.697 Y15.462
G3 X38.269 Y14.279 I8.563 J-3.768
X37.742 Y12.518 I8.171 J-3.405
G1 X37.512 Y12.301 Z-3.296
X37.495 Y12.302 Z-3.26
X37.359 Y12.312 Z-2.971 F1000
X37.351
X37.168 Y12.501
X36.182 Y18.135
X33.965 Y30.802 Z-4.96
G2 X36.99 Y31.657 I1.563 J0.251
G1 X37.019 Y31.583 Z-5.212
X37.054 Y31.469 Z-5.586 F550
X37.081 Y31.353 Z-5.96
G3 X37.564 Y28.784 I20.898 J2.601
G2 X37.795 Y25.594 I-20.682 J-3.097
X37.753 Y18.117 I-121.749 J-3.054
G3 X37.195 Y15.444 I51.457 J-12.133
G1 X36.94 Y15.23 Z-5.249
X36.903 Y15.199 Z-5.148 F1000
X36.831 Y15.251 Z-4.96
X36.618 Y15.407
X34.448 Y28.232
G2 X37.382 Y29.218 I1.573 J0.177
G1 X37.446 Y29.097 Z-5.249
X37.495 Y28.986 Z-5.507 F550
X37.534 Y28.872 Z-5.765
X37.559 Y28.783 Z-5.96
G3 X38.085 Y26.414 I49.515 J9.764
G2 X38.328 Y23.601 I-14.329 J-2.655
X38.309 Y20.771 I-79.769 J-0.878
G1 X38.291 Y20.707 Z-5.818
X38.258 Y20.648 Z-5.676
X38.214 Y20.598 Z-5.534
X38.159 Y20.559 Z-5.392
X38.097 Y20.533 Z-5.249
X38.03 Y20.521 Z-5.105 F1000
X37.963 Y20.524 Z-4.96
G2 X37.731 Y20.715 I0.049 J0.296
G1 X35.701 Y25.567
G2 X37.165 Y27.314 I1.159 J0.516
G1 X37.168
G2 X37.881 Y26.835 I-0.308 J-1.231
G1 X37.956 Y26.721 Z-5.249
G2 X38.085 Y26.413 Z-5.96 I-1.096 J-0.638 F550
X38.442 Y21.806 I-13.935 J-3.399
X37.861 Y18.686 I-19.45 J2.006
G1 X37.747 Y18.117
X37.534 Y17.899 Z-5.308
X37.508 Y17.905 Z-5.248
X37.371 Y17.932 Z-4.947 F1000
X37.273 Y17.951 Z-4.942
X37.161 Y18.135 Z-4.927
X37.749 Y27.681 Z-2.971
X37.983 Y30.986
X38.268 Y31.13
X38.292 Y31.113
X38.345 Y31.075 Z-3.213
X38.513 Y30.955 Z-3.971 F550
G3 X39.099 Y29.702 I17.027 J7.194
G1 X39.261 Y29.334
X39.351 Y29.15
X39.368 Y29.12
G2 X40.704 Y25.299 I-14.235 J-7.122
X40.707 Y20.98 I-10.15 J-2.167
X39.829 Y17.677 I-25.335 J4.97
G1 X39.798 Y17.625
G3 X39.017 Y16.115 I8.732 J-5.475
G1 X38.697 Y15.462
G2 X38.423 Y15.302 Z-3.26 I-0.265 J0.14
G1 X38.356 Y15.312 Z-3.115 F1000
X38.292 Y15.337 Z-2.971
G2 X38.132 Y15.617 I0.14 J0.266
G1 X38.812 Y28.979
G2 X38.956 Y29.22 I0.3 J-0.015
G1 X39.018 Y29.249 Z-3.115
X39.085 Y29.263 Z-3.26
G2 X39.368 Y29.12 Z-3.971 I0.027 J-0.299 F550
G3 X40.335 Y27.498 I32.673 J18.378
G2 X41.209 Y25.097 I-5.841 J-3.485
X41.228 Y21.181 I-10.482 J-2.01
X40.785 Y19.173 I-14.294 J2.102
G1 X40.749 Y19.096
X40.704 Y19.023
G3 X39.796 Y17.626 I13.983 J-10.078
G1 X39.755 Y17.574 Z-3.829
X39.703 Y17.532 Z-3.686
X39.644 Y17.503 Z-3.544
X39.579 Y17.488 Z-3.402
X39.512 Y17.487 Z-3.26
X39.446 Y17.503 Z-3.115 F1000
X39.384 Y17.532 Z-2.971
G2 X39.246 Y17.803 I0.161 J0.253
G1 X39.794 Y27.337
G2 X39.916 Y27.562 I0.3 J-0.017
G1 X39.975 Y27.596 Z-3.115
X40.04 Y27.615 Z-3.26
G2 X40.335 Y27.498 Z-3.971 I0.053 J-0.295 F550
G3 X41.003 Y26.579 I11.018 J7.313
G2 X41.655 Y24.991 I-3.221 J-2.25
X41.809 Y22.004 I-9.134 J-1.967
X41.511 Y20.09 I-12.049 J0.893
G1 X41.452 Y19.975
X41.376 Y19.87
G3 X40.703 Y19.024 I9.168 J-7.99
G1 X40.658 Y18.975 Z-3.829
X40.603 Y18.938 Z-3.686
X40.542 Y18.913 Z-3.544
X40.476 Y18.902 Z-3.402
X40.409 Y18.907 Z-3.26
X40.344 Y18.926 Z-3.115 F1000
X40.285 Y18.96 Z-2.971
G2 X40.163 Y19.215 I0.178 J0.241
G1 X40.476 Y26.398
X40.485 Y26.459
X40.506 Y26.517
X40.539 Y26.569
X40.581 Y26.613
X40.637 Y26.651 Z-3.115
X40.701 Y26.676 Z-3.26
G2 X41.004 Y26.58 Z-3.971 I0.075 J-0.291 F550
G1 X41.291 Y26.213
X41.569 Y25.876
G2 X42.2 Y24.209 I-2.764 J-1.999
X42.248 Y21.642 I-8.954 J-1.453
G1 X42.185 Y21.083
G2 X41.973 Y20.534 I-0.885 J0.026
G3 X41.376 Y19.87 I15.968 J-14.955
G2 X41.07 Y19.786 Z-3.26 I-0.22 J0.204
G1 X41.008 Y19.813 Z-3.115 F1000
X40.953 Y19.853 Z-2.971
G2 X40.856 Y20.084 I0.203 J0.221
G1 X41.045 Y25.687
X41.053 Y25.747
X41.073 Y25.805
X41.104 Y25.857
X41.146 Y25.902
X41.201 Y25.941 Z-3.115
X41.264 Y25.966 Z-3.26
G2 X41.569 Y25.876 Z-3.971 I0.08 J-0.289 F550
G1 X41.594 Y25.846
X41.752 Y25.677
X42.002 Y25.428
G2 X42.592 Y24.158 I-1.893 J-1.652
X42.696 Y21.471 I-7.66 J-1.64
G1 X42.652 Y21.3
X42.567 Y21.145
X42.449 Y21.014
X42.302 Y20.886
X42.119 Y20.695
X41.973 Y20.534
G2 X41.665 Y20.458 Z-3.26 I-0.215 J0.209
G1 X41.603 Y20.486 Z-3.115 F1000
X41.549 Y20.528 Z-2.971
X41.51 Y20.574
X41.481 Y20.627
X41.464 Y20.685
X41.458 Y20.746
X41.497 Y25.211
X41.503 Y25.266
X41.519 Y25.32
X41.544 Y25.369
X41.578 Y25.413
X41.63 Y25.457 Z-3.115
X41.69 Y25.489 Z-3.26
G2 X42.002 Y25.428 Z-3.971 I0.107 J-0.28 F550
G1 X42.135 Y25.295
X42.302 Y25.13
X42.435 Y25.01
G2 X43.031 Y23.808 I-1.604 J-1.545
X43.173 Y21.886 I-5.59 J-1.379
G1 X43.13 Y21.725
X43.053 Y21.576
X42.945 Y21.449
X42.853 Y21.362
X42.449 Y21.014
G2 X42.133 Y20.974 Z-3.26 I-0.189 J0.233
G1 X42.075 Y21.009 Z-3.115 F1000
X42.027 Y21.057 Z-2.971
X41.99 Y21.114
X41.967 Y21.177
X41.959 Y21.245
X41.941 Y24.779
X41.945 Y24.832
X41.959 Y24.883
X41.981 Y24.931
X42.012 Y24.974
X42.061 Y25.021 Z-3.115
X42.12 Y25.055 Z-3.26
G2 X42.435 Y25.01 Z-3.971 I0.121 J-0.275 F550
G1 X42.526 Y24.928
X42.853 Y24.641
X42.882 Y24.617
G2 X43.429 Y23.617 I-1.368 J-1.397
X43.598 Y22.269 I-3.745 J-1.155
G1 X43.548 Y22.047
X43.435 Y21.85
X43.268 Y21.695
X43.161 Y21.623
X43.036 Y21.535
X42.945 Y21.449
G2 X42.632 Y21.397 Z-3.26 I-0.198 J0.225
G1 X42.572 Y21.43 Z-3.115 F1000
X42.522 Y21.476 Z-2.971
X42.49 Y21.518
X42.467 Y21.566
X42.452 Y21.617
X42.447 Y21.669
X42.401 Y24.373
X42.407 Y24.439
X42.428 Y24.502
X42.462 Y24.56
X42.509 Y24.609 Z-3.115
X42.566 Y24.646 Z-3.26
G2 X42.882 Y24.617 Z-3.971 I0.135 J-0.268 F550
G1 X43.036 Y24.491
X43.219 Y24.35
X43.25 Y24.327
G2 X43.875 Y23.218 I-1.235 J-1.427
X43.924 Y22.321 I-1.616 J-0.538
G1 X43.81 Y22.115
X43.642 Y21.953
X43.403 Y21.787
X43.268 Y21.695
G2 X42.95 Y21.695 Z-3.26 I-0.159 J0.254
G1 X42.897 Y21.737 Z-3.115 F1000
X42.854 Y21.79 Z-2.971
X42.83 Y21.839
X42.814 Y21.891
X42.809 Y21.945
X42.778 Y24.077
X42.783 Y24.139
X42.802 Y24.199
X42.832 Y24.253
X42.877 Y24.304 Z-3.115
X42.933 Y24.344 Z-3.26
G2 X43.25 Y24.327 Z-3.971 I0.145 J-0.263 F550
G1 X43.427 Y24.193
X43.625 Y24.067
G2 X44.262 Y22.615 I-0.974 J-1.292
G1 X44.192 Y22.438
X44.086 Y22.283
X43.944 Y22.159
X43.77 Y22.042
X43.642 Y21.953
G2 X43.325 Y21.948 Z-3.26 I-0.163 J0.252
G1 X43.271 Y21.989 Z-3.115 F1000
X43.227 Y22.042 Z-2.971
X43.201 Y22.092
X43.185 Y22.147
X43.179 Y22.204
X43.173 Y23.807
X43.178 Y23.86
X43.192 Y23.912
X43.214 Y23.961
X43.255 Y24.015 Z-3.115
X43.308 Y24.059 Z-3.26
G2 X43.625 Y24.067 Z-3.971 I0.165 J-0.25 F550
G1 X43.953 Y23.86
X43.987 Y23.841
G2 X44.528 Y22.811 I-0.559 J-0.951
G1 X44.456 Y22.604
X44.332 Y22.424
X44.162 Y22.287
X43.953 Y22.165
X43.944 Y22.159
G2 X43.626 Y22.16 Z-3.26 I-0.158 J0.255
G1 X43.573 Y22.202 Z-3.115 F1000
X43.531 Y22.255 Z-2.971
X43.504 Y22.311
X43.488 Y22.37
X43.486 Y22.431
X43.553 Y23.59
X43.563 Y23.65
X43.584 Y23.707
X43.621 Y23.764 Z-3.115
X43.671 Y23.811 Z-3.26
G2 X43.987 Y23.841 Z-3.971 I0.182 J-0.238 F550
G1 X44.32 Y23.659
G2 X44.611 Y23.405 I-0.335 J-0.68
X44.336 Y22.389 I-0.653 J-0.368
G1 X44.162 Y22.287
G2 X43.845 Y22.307 Z-3.26 I-0.142 J0.264
G1 X43.794 Y22.353 Z-3.115 F1000
X43.755 Y22.409 Z-2.971
X43.73 Y22.473
X43.719 Y22.541
X43.725 Y22.609
X43.89 Y23.449
X43.901 Y23.488
X43.917 Y23.526
X43.954 Y23.583 Z-3.115
X44.003 Y23.63 Z-3.26
G2 X44.32 Y23.659 Z-3.971 I0.181 J-0.239 F550
G1 X44.583 Y23.514
X44.595 Y23.511
X44.667 Y23.491
X44.777 Y23.389
X44.852 Y23.259
G2 X44.557 Y22.518 I-0.623 J-0.181
X44.235 Y22.513 Z-3.26 I-0.166 J0.309
G1 X44.195 Y22.536 Z-3.162 F1000
X44.125 Y22.592 Z-2.971
G2 X44.153 Y23.398 I0.37 J0.39
G1 X44.208 Y23.438 Z-3.115
X44.268 Y23.47 Z-3.26
G2 X44.595 Y23.511 Z-3.971 I0.227 J-0.488 F550
G1 X44.728 Y23.481
X44.801 Y23.461
X44.929 Y23.382
X45.01 Y23.257
X45.053 Y23.113
G2 X44.592 Y22.533 I-0.54 J-0.044
G1 X44.574 Y22.529
X44.336 Y22.389
G2 X44.017 Y22.397 Z-3.26 I-0.153 J0.284
G1 X43.962 Y22.439 Z-3.115 F1000
X43.918 Y22.49 Z-2.971
X43.887 Y22.547
X43.868 Y22.61
G2 X44.269 Y23.42 I0.724 J0.146
G1 X44.332 Y23.447 Z-3.115
X44.397 Y23.468 Z-3.26
G2 X44.728 Y23.481 Z-3.971 I0.194 J-0.712 F550
G1 X44.9 Y23.442
X44.978 Y23.421
X45.103 Y23.338
X45.182 Y23.211
G2 X44.753 Y22.557 I-0.506 J-0.136
G1 X44.707 Y22.556
X44.662 Y22.564
X44.62 Y22.579
G2 X44.9 Y23.442 I0.196 J0.413
G1 X45.053 Y23.408
X45.084 Y23.403
X45.157 Y23.388
X45.277 Y23.298
X45.343 Y23.163
G2 X44.919 Y22.581 I-0.498 J-0.082
G1 X44.592 Y22.533
G2 X44.334 Y22.782 I-0.026 J0.232
X45.084 Y23.403 I0.673 J-0.049
G1 X45.237 Y23.38
X45.311 Y23.369
X45.431 Y23.279
X45.495 Y23.143
X45.48 Y22.953
X45.394 Y22.784
X45.248 Y22.66
X45.067 Y22.603
X44.919 Y22.581
G2 X44.696 Y22.74 I-0.023 J0.204
X45.237 Y23.38 I0.512 J0.116
G1 X45.389 Y23.366
X45.463 Y23.356
X45.582 Y23.264
X45.643 Y23.127
X45.621 Y22.947
X45.534 Y22.788
X45.393 Y22.673
X45.22 Y22.62
X45.067 Y22.603
G2 X44.86 Y22.761 I-0.015 J0.195
X45.389 Y23.366 I0.501 J0.096
G1 X45.514 Y23.355
X45.588 Y23.344
X45.652 Y23.305
X45.752 Y23.193
X45.765 Y23.038
X45.725 Y22.888
X45.635 Y22.761
X45.508 Y22.672
X45.358 Y22.632
X45.22 Y22.62
X45.167 Y22.623
X45.118 Y22.641
X45.075 Y22.672
X45.043 Y22.713
X45.023 Y22.762
G2 X45.514 Y23.355 I0.465 J0.115
G1 X45.603 Y23.347
X45.634 Y23.345
X45.708 Y23.337
X45.775 Y23.302
X45.873 Y23.189
X45.887 Y23.039
X45.849 Y22.893
X45.763 Y22.77
X45.64 Y22.683
X45.495 Y22.644
X45.448 Y22.648
X45.403 Y22.665
X45.364 Y22.692
G2 X45.634 Y23.345 I0.261 J0.274
G1 X45.787 Y23.336
X45.824 Y23.334
X45.892 Y23.301
X45.992 Y23.19
X46.008 Y23.041
X45.969 Y22.896
X45.883 Y22.773
X45.758 Y22.689
X45.612 Y22.654
X45.569 Y22.659
X45.529 Y22.674
X45.494 Y22.699
X45.466 Y22.732
G2 X45.787 Y23.336 I0.331 J0.211
G1 X45.864
X45.938 Y23.331
X46.007 Y23.301
X46.11 Y23.192
X46.126 Y23.044
X46.089 Y22.9
X46.003 Y22.779
X45.881 Y22.696
X45.736 Y22.661
X45.692 Y22.666
X45.65 Y22.683
X45.614 Y22.71
G2 X45.864 Y23.336 I0.259 J0.259
G1 X46.001 Y23.334
X46.076 Y23.33
X46.14 Y23.292
X46.237 Y23.177
X46.247 Y23.029
X46.203 Y22.887
X46.112 Y22.77
X45.986 Y22.692
X45.84 Y22.664
X45.787
X45.603 Y22.654
X45.358 Y22.632
G2 X45.207 Y22.899 I-0.009 J0.171
X46.001 Y23.334 I0.819 J-0.553
G1 X46.12 Y23.333
X46.195 Y23.329
X46.26 Y23.292
X46.357 Y23.178
X46.366 Y23.03
X46.323 Y22.888
X46.232 Y22.771
X46.106 Y22.693
X45.96 Y22.665
X45.84 Y22.664
X45.796 Y22.671
X45.756 Y22.69
X45.722 Y22.719
X45.697 Y22.755
X45.682 Y22.797
X45.681 Y22.803
G2 X46.12 Y23.333 I0.451 J0.074
G1 X46.248 Y23.332
X46.323 Y23.328
X46.386 Y23.288
X46.48 Y23.171
X46.487 Y23.025
X46.442 Y22.885
X46.351 Y22.77
X46.226 Y22.694
X46.082 Y22.666
X45.96 Y22.665
X45.916 Y22.672
X45.876 Y22.691
X45.842 Y22.72
X45.817 Y22.757
X45.802 Y22.799
X45.801 Y22.808
G2 X46.248 Y23.332 I0.459 J0.061
G1 X46.367 Y23.331
X46.442 Y23.327
X46.507 Y23.288
X46.601 Y23.171
X46.608 Y23.025
X46.563 Y22.886
X46.472 Y22.771
X46.347 Y22.695
X46.203 Y22.667
X46.082 Y22.666
X46.038 Y22.673
X45.999 Y22.692
X45.965 Y22.72
X45.94 Y22.756
X45.925 Y22.797
X45.923 Y22.808
G2 X46.367 Y23.331 I0.456 J0.062
G1 X46.487 Y23.33
X46.562 Y23.326
X46.626 Y23.287
X46.721 Y23.171
X46.728 Y23.025
X46.683 Y22.886
X46.593 Y22.772
X46.468 Y22.696
X46.325 Y22.669
X46.203 Y22.667
X46.161 Y22.674
X46.121 Y22.692
X46.088 Y22.719
X46.063 Y22.754
X46.048 Y22.795
X46.045 Y22.808
G2 X46.487 Y23.33 I0.453 J0.064
G1 X46.614 Y23.329
X46.689 Y23.324
X46.752 Y23.283
X46.844 Y23.165
X46.849 Y23.021
X46.803 Y22.883
X46.713 Y22.771
X46.589 Y22.696
X46.447 Y22.67
X46.325 Y22.669
X46.279 Y22.676
X46.237 Y22.697
X46.203 Y22.728
X46.179 Y22.768
X46.167 Y22.813
G2 X46.614 Y23.329 I0.46 J0.054
G1 X46.734 Y23.328
X46.809 Y23.323
X46.872 Y23.283
X46.965 Y23.165
X46.97 Y23.021
X46.925 Y22.884
X46.834 Y22.772
X46.711 Y22.697
X46.569 Y22.671
X46.447 Y22.67
X46.402 Y22.677
X46.36 Y22.698
X46.326 Y22.729
X46.302 Y22.768
X46.29 Y22.813
G2 X46.734 Y23.328 I0.456 J0.056
G1 X46.854 Y23.327
X46.928 Y23.322
X46.992 Y23.283
X47.085 Y23.165
X47.09 Y23.021
X47.045 Y22.885
X46.955 Y22.773
X46.832 Y22.698
X46.691 Y22.672
X46.569 Y22.671
X46.524 Y22.678
X46.483 Y22.698
X46.449 Y22.729
X46.425 Y22.768
X46.412 Y22.812
G2 X46.854 Y23.327 I0.453 J0.058
G1 X46.981 Y23.326
X47.019 Y23.323
X47.088 Y23.295
X47.193 Y23.188
X47.234 Y23.044
X47.194 Y22.9
X47.105 Y22.781
X46.979 Y22.702
X46.833 Y22.673
X46.691 Y22.672
X46.645 Y22.68
X46.604 Y22.7
X46.569 Y22.732
X46.546 Y22.772
X46.534 Y22.817
G2 X46.981 Y23.326 I0.459 J0.048
G1 X47.07 Y23.325
X47.145 Y23.32
X47.213 Y23.289
X47.269 Y23.239
X47.353 Y23.115
X47.338 Y22.951
X47.256 Y22.808
X47.124 Y22.71
X46.963 Y22.674
X46.833 Y22.673
X46.784 Y22.682
X46.739 Y22.706
X46.705 Y22.742
X46.683 Y22.788
G2 X47.07 Y23.325 I0.399 J0.121
G1 X47.223 Y23.323
X47.298 Y23.319
X47.362 Y23.281
X47.463 Y23.169
X47.471 Y23.026
X47.428 Y22.89
X47.34 Y22.777
X47.218 Y22.702
X47.077 Y22.675
X46.963 Y22.674
X46.921 Y22.681
X46.882 Y22.699
X46.849 Y22.726
X46.824 Y22.762
X46.81 Y22.802
G2 X47.223 Y23.323 I0.424 J0.088
G1 X47.348 Y23.322
X47.423 Y23.318
X47.488 Y23.281
X47.583 Y23.165
X47.589 Y23.023
X47.546 Y22.888
X47.457 Y22.776
X47.336 Y22.703
X47.196 Y22.676
X47.077 Y22.675
X47.034 Y22.682
X46.994 Y22.701
X46.96 Y22.73
X46.936 Y22.767
X46.923 Y22.81
G2 X47.348 Y23.322 I0.436 J0.071
G1 X47.468 Y23.321
X47.543 Y23.317
X47.608 Y23.28
X47.702 Y23.163
X47.708 Y23.022
X47.664 Y22.887
X47.576 Y22.777
X47.455 Y22.704
X47.316 Y22.677
X47.196 Y22.676
X47.153 Y22.684
X47.113 Y22.702
X47.08 Y22.732
X47.056 Y22.769
X47.043 Y22.811
G2 X47.468 Y23.321 I0.436 J0.069
G1 X47.573 Y23.32
X47.647 Y23.316
X47.715 Y23.284
X47.815 Y23.172
X47.824 Y23.03
X47.783 Y22.893
X47.695 Y22.78
X47.574 Y22.705
X47.434 Y22.678
X47.316 Y22.677
X47.274 Y22.684
X47.235 Y22.702
X47.203 Y22.729
X47.178 Y22.764
X47.164 Y22.804
G2 X47.573 Y23.32 I0.419 J0.088
G1 X47.715 Y23.319
X47.752 Y23.317
X47.822 Y23.29
X47.926 Y23.182
X47.939 Y23.038
X47.899 Y22.899
X47.812 Y22.784
X47.69 Y22.707
X47.548 Y22.679
X47.434 Y22.678
X47.389 Y22.686
X47.348 Y22.706
X47.315 Y22.736
X47.292 Y22.775
X47.28 Y22.819
G2 X47.715 Y23.319 I0.446 J0.052
G1 X47.804 Y23.318
X47.879 Y23.314
X47.947 Y23.282
X48.047 Y23.17
X48.055 Y23.029
X48.013 Y22.893
X47.926 Y22.781
X47.805 Y22.707
X47.666 Y22.68
X47.548 Y22.679
X47.507 Y22.686
X47.468 Y22.704
X47.436 Y22.731
X47.412 Y22.765
X47.398 Y22.805
G2 X47.804 Y23.318 I0.417 J0.087
G1 X47.954 Y23.317
X47.991 Y23.315
X48.06 Y23.284
X48.161 Y23.173
X48.171 Y23.032
X48.13 Y22.896
X48.043 Y22.783
X47.922 Y22.708
X47.782 Y22.681
X47.666 Y22.68
X47.621 Y22.688
X47.58 Y22.709
X47.547 Y22.74
X47.524 Y22.78
X47.513 Y22.824
G2 X47.954 Y23.317 I0.452 J0.039
G1 X48.064 Y23.316
X48.102 Y23.314
X48.171 Y23.286
X48.274 Y23.177
X48.285 Y23.035
X48.245 Y22.898
X48.159 Y22.785
X48.038 Y22.71
X47.898 Y22.683
X47.782 Y22.681
X47.738 Y22.689
X47.698 Y22.709
X47.665 Y22.74
X47.642 Y22.778
X47.63 Y22.822
G2 X48.064 Y23.316 I0.445 J0.046
G1 X48.171 Y23.315
X48.246 Y23.311
X48.309 Y23.27
X48.401 Y23.152
X48.396 Y22.981
X48.319 Y22.828
X48.185 Y22.722
X48.018 Y22.684
X47.898 Y22.683
X47.855 Y22.69
X47.815 Y22.709
X47.782 Y22.738
X47.759 Y22.776
X47.747 Y22.818
G2 X48.171 Y23.315 I0.435 J0.058
G1 X48.28 Y23.314
X48.355 Y23.31
X48.42 Y23.274
X48.513 Y23.156
X48.508 Y22.984
X48.43 Y22.83
X48.295 Y22.723
X48.127 Y22.685
X48.018 Y22.684
X47.976 Y22.691
X47.937 Y22.709
X47.905 Y22.737
X47.881 Y22.773
X47.868 Y22.813
G2 X48.28 Y23.314 I0.423 J0.072
G1 X48.431 Y23.313
X48.468 Y23.311
X48.534 Y23.274
X48.626 Y23.156
X48.62 Y22.984
X48.541 Y22.83
X48.405 Y22.724
X48.237 Y22.686
X48.127 Y22.685
X48.08 Y22.693
X48.039 Y22.715
X48.005 Y22.748
X47.984 Y22.79
X47.976 Y22.837
G2 X48.431 Y23.313 I0.467 J0.009
G1 X48.504 Y23.312
X48.579 Y23.308
X48.645 Y23.273
X48.738 Y23.155
X48.731 Y22.983
X48.652 Y22.83
X48.517 Y22.725
X48.35 Y22.687
X48.237 Y22.686
X48.195 Y22.693
X48.156 Y22.711
X48.123 Y22.74
X48.1 Y22.777
X48.088 Y22.818
G2 X48.504 Y23.312 I0.427 J0.063
G1 X48.632 Y23.311
X48.707 Y23.307
X48.769 Y23.265
X48.855 Y23.142
X48.843 Y22.974
X48.763 Y22.826
X48.628 Y22.725
X48.464 Y22.688
X48.35 Y22.687
X48.305 Y22.694
X48.265 Y22.714
X48.233 Y22.745
X48.21 Y22.784
X48.2 Y22.827
G2 X48.632 Y23.311 I0.443 J0.039
G1 X48.751 Y23.31
X48.789 Y23.307
X48.858 Y23.278
X48.91 Y23.224
X48.981 Y23.092
X48.956 Y22.94
X48.874 Y22.809
X48.747 Y22.721
X48.596 Y22.689
X48.464 Y22.688
X48.419 Y22.695
X48.379 Y22.716
X48.346 Y22.747
X48.324 Y22.787
X48.314 Y22.831
G2 X48.751 Y23.31 I0.447 J0.031
G1 X48.871 Y23.308
X48.908 Y23.306
X48.975 Y23.271
X49.03 Y23.22
X49.1 Y23.088
X49.076 Y22.938
X48.995 Y22.809
X48.871 Y22.722
X48.723 Y22.69
X48.596 Y22.689
X48.553 Y22.696
X48.514 Y22.715
X48.482 Y22.745
X48.459 Y22.783
X48.448 Y22.825
G2 X48.871 Y23.308 I0.432 J0.048
G1 X48.981 Y23.307
X49.018 Y23.304
X49.086 Y23.272
X49.143 Y23.223
X49.217 Y23.092
X49.195 Y22.942
X49.116 Y22.812
X48.992 Y22.724
X48.843 Y22.691
X48.723 Y22.69
X48.681 Y22.697
X48.643 Y22.715
X48.611 Y22.742
X48.588 Y22.777
X48.575 Y22.818
G2 X48.981 Y23.307 I0.415 J0.069
G1 X49.088 Y23.305
X49.163 Y23.3
X49.227 Y23.261
X49.276 Y23.205
X49.341 Y23.07
X49.314 Y22.927
X49.235 Y22.806
X49.115 Y22.723
X48.972 Y22.693
X48.843 Y22.691
X48.803 Y22.698
X48.766 Y22.714
X48.735 Y22.74
X48.712 Y22.773
X48.698 Y22.811
G2 X49.088 Y23.305 I0.398 J0.086
G1 X49.197 Y23.304
X49.272 Y23.299
X49.337 Y23.262
X49.391 Y23.21
X49.46 Y23.077
X49.436 Y22.933
X49.357 Y22.809
X49.237 Y22.726
X49.094 Y22.695
X48.972 Y22.693
X48.926 Y22.702
X48.884 Y22.724
X48.851 Y22.758
X48.83 Y22.801
G2 X49.197 Y23.304 I0.374 J0.112
G1 X49.348 Y23.302
X49.385 Y23.299
X49.452 Y23.264
X49.507 Y23.213
X49.578 Y23.081
X49.555 Y22.937
X49.477 Y22.812
X49.358 Y22.728
X49.214 Y22.696
X49.094 Y22.695
